;FLAVOR:Marlin
;TIME:29100
;Filament used: 33.0053m
;Layer height: 0.3
;Generated with Cura_SteamEngine 4.0.0
M82 ;absolute extrusion mode
G21 ; set units to millimeters
G90 ; use absolute positioning
M82 ; absolute extrusion mode
M104 S200 ; set extruder temp
M140 S60 ; set bed temp
M190 S60 ; wait for bed temp
M109 S200 ; wait for extruder temp
G28 W ; home all without mesh bed level
G80 ; mesh bed leveling
G92 E0.0 ; reset extruder distance position
G1 Y-3.0 F1000.0 ; go outside print area
G1 X60.0 E9.0 F1000.0 ; intro line
G1 X100.0 E21.5 F1000.0 ; intro line
G92 E0.0 ; reset extruder distance position
G92 E0
G1 F2100 E-0.8
;LAYER_COUNT:168
;LAYER:0
M107
G0 F3600 X20.594 Y10.932 Z0.15
;TYPE:SKIRT
G1 F2100 E0
G1 F1350 X20.86 Y10.502 E0.01261
G1 X21.19 Y10.119 E0.02522
G1 X21.577 Y9.793 E0.03785
G1 X22.01 Y9.532 E0.05046
G1 X22.478 Y9.342 E0.06306
G1 X22.971 Y9.229 E0.07567
G1 X23.441 Y9.194 E0.08743
G1 X128.988 Y9.195 E2.72031
G1 X129.492 Y9.235 E2.73292
G1 X129.983 Y9.354 E2.74553
G1 X130.45 Y9.548 E2.75814
G1 X130.88 Y9.814 E2.77075
G1 X131.263 Y10.144 E2.78337
G1 X131.556 Y10.486 E2.7946
G1 X133.015 Y12.449 E2.85561
G1 X136.469 Y16.721 E2.99265
G1 X140.15 Y20.782 E3.12937
G1 X144.047 Y24.619 E3.2658
G1 X148.179 Y28.254 E3.40308
G1 X150.272 Y29.94 E3.47012
G1 X154.705 Y33.215 E3.60761
G1 X159.274 Y36.206 E3.74383
G1 X164.017 Y38.942 E3.88042
G1 X168.908 Y41.406 E4.01703
G1 X173.96 Y43.602 E4.15445
G1 X176.873 Y44.719 E4.23227
G1 X177.33 Y44.937 E4.2449
G1 X177.746 Y45.223 E4.25749
G1 X178.112 Y45.572 E4.27011
G1 X178.418 Y45.974 E4.28271
G1 X178.658 Y46.42 E4.29535
G1 X178.824 Y46.897 E4.30795
G1 X178.91 Y47.37 E4.31994
G1 X179.131 Y49.46 E4.37236
G1 X179.915 Y54.905 E4.50959
G1 X180.999 Y60.261 E4.64591
G1 X181.654 Y62.918 E4.71417
G1 X183.193 Y68.18 E4.85093
G1 X185.24 Y73.905 E5.00259
G1 X185.372 Y74.393 E5.0152
G1 X185.427 Y74.982 E5.02996
G1 X185.427 Y124.978 E6.27712
G1 X185.387 Y125.482 E6.28973
G1 X185.251 Y126.025 E6.30369
G1 X182.832 Y133.012 E6.48813
G1 X181.382 Y138.283 E6.6245
G1 X180.769 Y140.954 E6.69286
G1 X179.778 Y146.297 E6.82842
G1 X178.907 Y153.621 E7.0124
G1 X178.807 Y154.117 E7.02503
G1 X178.631 Y154.591 E7.03764
G1 X178.383 Y155.031 E7.05024
G1 X178.068 Y155.427 E7.06286
G1 X177.695 Y155.768 E7.07547
G1 X177.273 Y156.046 E7.08807
G1 X176.663 Y156.304 E7.10459
G1 X173.068 Y157.401 E7.19835
G1 X167.874 Y159.239 E7.33579
G1 X162.84 Y161.349 E7.47195
G1 X157.916 Y163.747 E7.60857
G1 X153.137 Y166.42 E7.74516
G1 X148.513 Y169.361 E7.88186
G1 X144.066 Y172.556 E8.01846
G1 X139.812 Y175.994 E8.1549
G1 X135.732 Y179.691 E8.29224
G1 X133.826 Y181.57 E8.35901
G1 X130.082 Y185.592 E8.49608
G1 X126.585 Y189.798 E8.63252
G1 X126.232 Y190.16 E8.64514
G1 X125.826 Y190.462 E8.65776
G1 X125.378 Y190.696 E8.67037
G1 X124.899 Y190.857 E8.68297
G1 X124.46 Y190.934 E8.69409
G1 X122.37 Y191.155 E8.74652
G1 X116.923 Y191.939 E8.88379
G1 X111.567 Y193.023 E9.02011
G1 X108.91 Y193.678 E9.08837
G1 X103.648 Y195.217 E9.22513
G1 X97.923 Y197.264 E9.3768
G1 X97.435 Y197.396 E9.38941
G1 X96.846 Y197.451 E9.40416
G1 X46.858 Y197.451 E10.65112
G1 X46.354 Y197.411 E10.66373
G1 X45.772 Y197.261 E10.67872
G1 X41.453 Y195.702 E10.79326
G1 X36.204 Y194.097 E10.93019
G1 X30.848 Y192.786 E11.06774
G1 X28.235 Y192.264 E11.13421
G1 X22.788 Y191.412 E11.27173
G1 X18.243 Y190.935 E11.38573
G1 X17.746 Y190.842 E11.39834
G1 X17.27 Y190.673 E11.41094
G1 X16.826 Y190.43 E11.42357
G1 X16.426 Y190.121 E11.43618
G1 X16.08 Y189.753 E11.44878
G1 X15.796 Y189.335 E11.46139
G1 X15.581 Y188.877 E11.47401
G1 X15.441 Y188.391 E11.48662
G1 X15.377 Y187.752 E11.50264
G1 X15.378 Y144.927 E12.57092
G1 X15.455 Y144.231 E12.58838
G1 X17.045 Y137.09 E12.77088
G1 X17.493 Y134.453 E12.8376
G1 X18.186 Y129.012 E12.97442
G1 X18.571 Y123.532 E13.11146
G1 X18.655 Y119.483 E13.21249
G1 X18.665 Y83.66 E14.10609
G1 X18.713 Y83.107 E14.11994
G1 X19.467 Y78.819 E14.22855
G1 X20.156 Y73.395 E14.36494
G1 X20.536 Y67.939 E14.50137
G1 X20.608 Y62.466 E14.6379
G1 X20.245 Y55.38 E14.81489
G1 X20.241 Y55.216 E14.81899
G1 X20.241 Y12.394 E15.88719
G1 X20.281 Y11.89 E15.8998
G1 X20.4 Y11.399 E15.9124
G1 X20.594 Y10.932 E15.92501
G1 F2100 E15.12501
;MESH:atvmount-4g-sml.stl(1)
G0 F3600 X22.767 Y12.999
G0 X24.046 Y12.999
G0 X40.761 Y15.059
G0 X40.831 Y15.129
;TYPE:WALL-INNER
G1 F2100 E15.92501
G1 F1350 X40.831 Y52.829 E16.86545
G1 X111.593 Y52.829 E18.63061
G1 X111.593 Y15.129 E19.57104
G1 X40.831 Y15.129 E21.33621
G0 F3600 X40.761 Y15.059
G0 X40.803 Y52.857
G0 X101.043 Y54.559
G0 X101.113 Y54.629
G1 F1350 X101.113 Y61.129 E21.49835
G1 X52.313 Y61.129 E22.71567
G1 X52.313 Y54.629 E22.87781
G1 X24.032 Y54.629 E23.58329
G1 X24.032 Y12.985 E24.6221
G1 X128.393 Y12.985 E27.2254
G1 X128.393 Y54.629 E28.26421
G1 X101.113 Y54.629 E28.94471
G0 F3600 X101.513 Y55.029
;TYPE:WALL-OUTER
G1 F1350 X101.513 Y61.529 E29.10685
G1 X51.913 Y61.529 E30.34413
G1 X51.913 Y55.029 E30.50627
G1 X23.632 Y55.029 E31.21175
G1 X23.632 Y12.585 E32.27052
G1 X128.793 Y12.585 E34.89377
G1 X128.793 Y55.029 E35.95254
G1 X101.513 Y55.029 E36.63304
G0 F3600 X101.513 Y55.229
G0 X101.013 Y55.229
G0 X40.803 Y52.857
G0 X40.731 Y15.529
G0 X41.231 Y15.529
G1 F1350 X41.231 Y52.429 E37.55352
G1 X111.193 Y52.429 E39.29872
G1 X111.193 Y15.529 E40.2192
G1 X41.231 Y15.529 E41.96441
G0 F3600 X41.231 Y15.729
G0 X40.731 Y15.729
G0 X40.441 Y14.739
;TYPE:SKIN
G1 F1350 X40.441 Y53.219 E42.9243
G1 X111.983 Y53.219 E44.70892
G1 X111.983 Y14.739 E45.66881
G1 X40.441 Y14.739 E47.45343
G0 F3600 X24.422 Y13.375
G1 F1350 X128.003 Y13.375 E50.03727
G1 X128.003 Y54.239 E51.05662
G1 X100.723 Y54.239 E51.73713
G1 X100.723 Y60.739 E51.89927
G1 X52.703 Y60.739 E53.09713
G1 X52.703 Y54.239 E53.25928
G1 X24.422 Y54.239 E53.96475
G1 X24.422 Y13.375 E54.9841
G0 F3600 X25.208 Y54.058
G1 F1350 X24.601 Y53.451 E55.00552
G0 F3600 X24.601 Y52.885
G1 F1350 X25.774 Y54.058 E55.0469
G0 F3600 X26.339 Y54.058
G1 F1350 X24.601 Y52.32 E55.10821
G0 F3600 X24.601 Y51.754
G1 F1350 X26.905 Y54.058 E55.18949
G0 F3600 X27.471 Y54.058
G1 F1350 X24.601 Y51.188 E55.29074
G0 F3600 X24.601 Y50.623
G1 F1350 X28.036 Y54.058 E55.41192
G0 F3600 X28.602 Y54.058
G1 F1350 X24.601 Y50.057 E55.55306
G0 F3600 X24.601 Y49.491
G1 F1350 X29.168 Y54.058 E55.71418
G0 F3600 X29.733 Y54.058
G1 F1350 X24.601 Y48.926 E55.89522
G0 F3600 X24.601 Y48.36
G1 F1350 X30.299 Y54.058 E56.09623
G0 F3600 X30.865 Y54.058
G1 F1350 X24.601 Y47.794 E56.31721
G0 F3600 X24.601 Y47.229
G1 F1350 X31.43 Y54.058 E56.55812
G0 F3600 X31.996 Y54.058
G1 F1350 X24.601 Y46.663 E56.819
G0 F3600 X24.601 Y46.097
G1 F1350 X32.562 Y54.058 E57.09985
G0 F3600 X33.127 Y54.058
G1 F1350 X24.601 Y45.532 E57.40063
G0 F3600 X24.601 Y44.966
G1 F1350 X33.693 Y54.058 E57.72137
G0 F3600 X34.259 Y54.058
G1 F1350 X24.601 Y44.4 E58.06208
G0 F3600 X24.601 Y43.834
G1 F1350 X34.825 Y54.058 E58.42276
G0 F3600 X35.39 Y54.058
G1 F1350 X24.601 Y43.269 E58.80337
G0 F3600 X24.601 Y42.703
G1 F1350 X35.956 Y54.058 E59.20395
G0 F3600 X36.522 Y54.058
G1 F1350 X24.601 Y42.137 E59.6245
G0 F3600 X24.601 Y41.572
G1 F1350 X37.087 Y54.058 E60.06498
G0 F3600 X37.653 Y54.058
G1 F1350 X24.601 Y41.006 E60.52542
G0 F3600 X24.601 Y40.44
G1 F1350 X38.219 Y54.058 E61.00583
G0 F3600 X38.784 Y54.058
G1 F1350 X24.601 Y39.875 E61.50618
G0 F3600 X24.601 Y39.309
G1 F1350 X39.35 Y54.058 E62.02649
G0 F3600 X39.916 Y54.058
G1 F1350 X24.601 Y38.743 E62.56676
G0 F3600 X24.601 Y38.178
G1 F1350 X40.481 Y54.058 E63.12697
G0 F3600 X41.047 Y54.058
G1 F1350 X40.387 Y53.398 E63.15026
G0 F3600 X40.261 Y53.272
G1 F1350 X24.601 Y37.612 E63.70271
G0 F3600 X24.601 Y37.046
G1 F1350 X40.261 Y52.706 E64.25515
G0 F3600 X40.261 Y52.14
G1 F1350 X24.601 Y36.481 E64.80759
G0 F3600 X24.601 Y35.915
G1 F1350 X40.261 Y51.574 E65.36002
G0 F3600 X40.261 Y51.009
G1 F1350 X24.601 Y35.349 E65.91247
G0 F3600 X24.601 Y34.783
G1 F1350 X40.261 Y50.443 E66.46491
G0 F3600 X40.261 Y49.877
G1 F1350 X24.601 Y34.218 E67.01735
G0 F3600 X24.601 Y33.652
G1 F1350 X40.261 Y49.312 E67.56979
G0 F3600 X40.261 Y48.746
G1 F1350 X24.601 Y33.086 E68.12224
G0 F3600 X24.601 Y32.521
G1 F1350 X40.261 Y48.18 E68.67467
G0 F3600 X40.261 Y47.615
G1 F1350 X24.601 Y31.955 E69.22712
G0 F3600 X24.601 Y31.389
G1 F1350 X40.261 Y47.049 E69.77957
G0 F3600 X40.261 Y46.483
G1 F1350 X24.601 Y30.824 E70.332
G0 F3600 X24.601 Y30.258
G1 F1350 X40.261 Y45.918 E70.88445
G0 F3600 X40.261 Y45.352
G1 F1350 X24.601 Y29.692 E71.4369
G0 F3600 X24.601 Y29.127
G1 F1350 X40.261 Y44.786 E71.98933
G0 F3600 X40.261 Y44.221
G1 F1350 X24.601 Y28.561 E72.54178
G0 F3600 X24.601 Y27.995
G1 F1350 X40.261 Y43.655 E73.09423
G0 F3600 X40.261 Y43.089
G1 F1350 X24.601 Y27.43 E73.64666
G0 F3600 X24.601 Y26.864
G1 F1350 X40.261 Y42.523 E74.19909
G0 F3600 X40.261 Y41.958
G1 F1350 X24.601 Y26.298 E74.75154
G0 F3600 X24.601 Y25.733
G1 F1350 X40.261 Y41.392 E75.30397
G0 F3600 X40.261 Y40.826
G1 F1350 X24.601 Y25.167 E75.8564
G0 F3600 X24.601 Y24.601
G1 F1350 X40.261 Y40.261 E76.40885
G0 F3600 X40.261 Y39.695
G1 F1350 X24.601 Y24.035 E76.9613
G0 F3600 X24.601 Y23.47
G1 F1350 X40.261 Y39.129 E77.51373
G0 F3600 X40.261 Y38.564
G1 F1350 X24.601 Y22.904 E78.06618
G0 F3600 X24.601 Y22.338
G1 F1350 X40.261 Y37.998 E78.61863
G0 F3600 X40.261 Y37.432
G1 F1350 X24.601 Y21.773 E79.17106
G0 F3600 X24.601 Y21.207
G1 F1350 X40.261 Y36.867 E79.72351
G0 F3600 X40.261 Y36.301
G1 F1350 X24.601 Y20.641 E80.27596
G0 F3600 X24.601 Y20.076
G1 F1350 X40.261 Y35.735 E80.82839
G0 F3600 X40.261 Y35.17
G1 F1350 X24.601 Y19.51 E81.38084
G0 F3600 X24.601 Y18.944
G1 F1350 X40.261 Y34.604 E81.93329
G0 F3600 X40.261 Y34.038
G1 F1350 X24.601 Y18.379 E82.48572
G0 F3600 X24.601 Y17.813
G1 F1350 X40.261 Y33.473 E83.03817
G0 F3600 X40.261 Y32.907
G1 F1350 X24.601 Y17.247 E83.59062
G0 F3600 X24.601 Y16.682
G1 F1350 X40.261 Y32.341 E84.14305
G0 F3600 X40.261 Y31.775
G1 F1350 X24.601 Y16.116 E84.69548
G0 F3600 X24.601 Y15.55
G1 F1350 X40.261 Y31.21 E85.24793
G0 F3600 X40.261 Y30.644
G1 F1350 X24.601 Y14.985 E85.80036
G0 F3600 X24.601 Y14.419
G1 F1350 X40.261 Y30.078 E86.35279
G0 F3600 X40.261 Y29.513
G1 F1350 X24.601 Y13.853 E86.90524
G0 F3600 X24.868 Y13.555
G1 F1350 X40.261 Y28.947 E87.44825
G0 F3600 X40.261 Y28.381
G1 F1350 X25.434 Y13.555 E87.97129
G0 F3600 X26 Y13.555
G1 F1350 X40.261 Y27.816 E88.47439
G0 F3600 X40.261 Y27.25
G1 F1350 X26.566 Y13.555 E88.95752
G0 F3600 X27.131 Y13.555
G1 F1350 X40.261 Y26.684 E89.4207
G0 F3600 X40.261 Y26.119
G1 F1350 X27.697 Y13.555 E89.86393
G0 F3600 X28.263 Y13.555
G1 F1350 X40.261 Y25.553 E90.28719
G0 F3600 X40.261 Y24.987
G1 F1350 X28.828 Y13.555 E90.6905
G0 F3600 X29.394 Y13.555
G1 F1350 X40.261 Y24.422 E91.07386
G0 F3600 X40.261 Y23.856
G1 F1350 X29.96 Y13.555 E91.43726
G0 F3600 X30.525 Y13.555
G1 F1350 X40.261 Y23.29 E91.7807
G0 F3600 X40.261 Y22.724
G1 F1350 X31.091 Y13.555 E92.10418
G0 F3600 X31.657 Y13.555
G1 F1350 X40.261 Y22.159 E92.40771
G0 F3600 X40.261 Y21.593
G1 F1350 X32.222 Y13.555 E92.69129
G0 F3600 X32.788 Y13.555
G1 F1350 X40.261 Y21.027 E92.9549
G0 F3600 X40.261 Y20.462
G1 F1350 X33.354 Y13.555 E93.19857
G0 F3600 X33.919 Y13.555
G1 F1350 X40.261 Y19.896 E93.42228
G0 F3600 X40.261 Y19.33
G1 F1350 X34.485 Y13.555 E93.62603
G0 F3600 X35.051 Y13.555
G1 F1350 X40.261 Y18.765 E93.80982
G0 F3600 X40.261 Y18.199
G1 F1350 X35.616 Y13.555 E93.97367
G0 F3600 X36.182 Y13.555
G1 F1350 X40.261 Y17.633 E94.11755
G0 F3600 X40.261 Y17.068
G1 F1350 X36.748 Y13.555 E94.24148
G0 F3600 X37.314 Y13.555
G1 F1350 X40.261 Y16.502 E94.34545
G0 F3600 X40.261 Y15.936
G1 F1350 X37.879 Y13.555 E94.42946
G0 F3600 X38.445 Y13.555
G1 F1350 X40.261 Y15.371 E94.49352
G0 F3600 X40.261 Y14.805
G1 F1350 X39.011 Y13.555 E94.53762
G0 F3600 X39.576 Y13.555
G1 F1350 X40.58 Y14.558 E94.57302
G0 F3600 X41.145 Y14.558
G1 F1350 X40.142 Y13.555 E94.60841
G0 F3600 X40.708 Y13.555
G1 F1350 X41.711 Y14.558 E94.64379
G0 F3600 X42.277 Y14.558
G1 F1350 X41.273 Y13.555 E94.67919
G0 F3600 X41.839 Y13.555
G1 F1350 X42.842 Y14.558 E94.71457
G0 F3600 X43.408 Y14.558
G1 F1350 X42.405 Y13.555 E94.74996
G0 F3600 X42.97 Y13.555
G1 F1350 X43.974 Y14.558 E94.78536
G0 F3600 X44.539 Y14.558
G1 F1350 X43.536 Y13.555 E94.82074
G0 F3600 X44.102 Y13.555
G1 F1350 X45.105 Y14.558 E94.85613
G0 F3600 X45.671 Y14.558
G1 F1350 X44.667 Y13.555 E94.89153
G0 F3600 X45.233 Y13.555
G1 F1350 X46.237 Y14.558 E94.92693
G0 F3600 X46.802 Y14.558
G1 F1350 X45.799 Y13.555 E94.96231
G0 F3600 X46.364 Y13.555
G1 F1350 X47.368 Y14.558 E94.99771
G0 F3600 X47.934 Y14.558
G1 F1350 X46.93 Y13.555 E95.03311
G0 F3600 X47.496 Y13.555
G1 F1350 X48.499 Y14.558 E95.0685
G0 F3600 X49.065 Y14.558
G1 F1350 X48.062 Y13.555 E95.10388
G0 F3600 X48.627 Y13.555
G1 F1350 X49.631 Y14.558 E95.13928
G0 F3600 X50.196 Y14.558
G1 F1350 X49.193 Y13.555 E95.17467
G0 F3600 X49.759 Y13.555
G1 F1350 X50.762 Y14.558 E95.21005
G0 F3600 X51.328 Y14.558
G1 F1350 X50.324 Y13.555 E95.24545
G0 F3600 X50.89 Y13.555
G1 F1350 X51.893 Y14.558 E95.28083
G0 F3600 X52.459 Y14.558
G1 F1350 X51.456 Y13.555 E95.31622
G0 F3600 X52.021 Y13.555
G1 F1350 X53.025 Y14.558 E95.35162
G0 F3600 X53.59 Y14.558
G1 F1350 X52.587 Y13.555 E95.387
G0 F3600 X53.153 Y13.555
G1 F1350 X54.156 Y14.558 E95.42239
G0 F3600 X54.722 Y14.558
G1 F1350 X53.718 Y13.555 E95.45779
G0 F3600 X54.284 Y13.555
G1 F1350 X55.287 Y14.558 E95.49317
G0 F3600 X55.853 Y14.558
G1 F1350 X54.85 Y13.555 E95.52855
G0 F3600 X55.415 Y13.555
G1 F1350 X56.419 Y14.558 E95.56396
G0 F3600 X56.985 Y14.558
G1 F1350 X55.981 Y13.555 E95.59936
G0 F3600 X56.547 Y13.555
G1 F1350 X57.55 Y14.558 E95.63474
G0 F3600 X58.116 Y14.558
G1 F1350 X57.113 Y13.555 E95.67012
G0 F3600 X57.678 Y13.555
G1 F1350 X58.682 Y14.558 E95.70552
G0 F3600 X59.247 Y14.558
G1 F1350 X58.244 Y13.555 E95.74091
G0 F3600 X58.81 Y13.555
G1 F1350 X59.813 Y14.558 E95.77629
G0 F3600 X60.379 Y14.558
G1 F1350 X59.375 Y13.555 E95.81169
G0 F3600 X59.941 Y13.555
G1 F1350 X60.944 Y14.558 E95.84708
G0 F3600 X61.51 Y14.558
G1 F1350 X60.507 Y13.555 E95.88246
G0 F3600 X61.072 Y13.555
G1 F1350 X62.076 Y14.558 E95.91786
G0 F3600 X62.641 Y14.558
G1 F1350 X61.638 Y13.555 E95.95324
G0 F3600 X62.204 Y13.555
G1 F1350 X63.207 Y14.558 E95.98863
G0 F3600 X63.773 Y14.558
G1 F1350 X62.769 Y13.555 E96.02403
G0 F3600 X63.335 Y13.555
G1 F1350 X64.338 Y14.558 E96.05941
G0 F3600 X64.904 Y14.558
G1 F1350 X63.901 Y13.555 E96.0948
G0 F3600 X64.466 Y13.555
G1 F1350 X65.47 Y14.558 E96.1302
G0 F3600 X66.035 Y14.558
G1 F1350 X65.032 Y13.555 E96.16558
G0 F3600 X65.598 Y13.555
G1 F1350 X66.601 Y14.558 E96.20096
G0 F3600 X67.167 Y14.558
G1 F1350 X66.163 Y13.555 E96.23637
G0 F3600 X66.729 Y13.555
G1 F1350 X67.733 Y14.558 E96.27177
G0 F3600 X68.298 Y14.558
G1 F1350 X67.295 Y13.555 E96.30715
G0 F3600 X67.861 Y13.555
G1 F1350 X68.864 Y14.558 E96.34253
G0 F3600 X69.43 Y14.558
G1 F1350 X68.426 Y13.555 E96.37794
G0 F3600 X68.992 Y13.555
G1 F1350 X69.995 Y14.558 E96.41332
G0 F3600 X70.561 Y14.558
G1 F1350 X69.558 Y13.555 E96.4487
G0 F3600 X70.123 Y13.555
G1 F1350 X71.127 Y14.558 E96.4841
G0 F3600 X71.692 Y14.558
G1 F1350 X70.689 Y13.555 E96.51949
G0 F3600 X71.255 Y13.555
G1 F1350 X72.258 Y14.558 E96.55487
G0 F3600 X72.824 Y14.558
G1 F1350 X71.82 Y13.555 E96.59027
G0 F3600 X72.386 Y13.555
G1 F1350 X73.389 Y14.558 E96.62566
G0 F3600 X73.955 Y14.558
G1 F1350 X72.952 Y13.555 E96.66104
G0 F3600 X73.517 Y13.555
G1 F1350 X74.521 Y14.558 E96.69644
G0 F3600 X75.086 Y14.558
G1 F1350 X74.083 Y13.555 E96.73182
G0 F3600 X74.649 Y13.555
G1 F1350 X75.652 Y14.558 E96.76721
G0 F3600 X76.218 Y14.558
G1 F1350 X75.214 Y13.555 E96.80261
G0 F3600 X75.78 Y13.555
G1 F1350 X76.784 Y14.558 E96.83801
G0 F3600 X77.349 Y14.558
G1 F1350 X76.346 Y13.555 E96.87339
G0 F3600 X76.912 Y13.555
G1 F1350 X77.915 Y14.558 E96.90878
G0 F3600 X78.481 Y14.558
G1 F1350 X77.477 Y13.555 E96.94418
G0 F3600 X78.043 Y13.555
G1 F1350 X79.046 Y14.558 E96.97956
G0 F3600 X79.612 Y14.558
G1 F1350 X78.609 Y13.555 E97.01494
G0 F3600 X79.174 Y13.555
G1 F1350 X80.178 Y14.558 E97.05035
G0 F3600 X80.743 Y14.558
G1 F1350 X79.74 Y13.555 E97.08573
G0 F3600 X80.306 Y13.555
G1 F1350 X81.309 Y14.558 E97.12111
G0 F3600 X81.875 Y14.558
