; generated by Slic3r 1.2.9 on 2018-12-10 at 21:40:10

; external perimeters extrusion width = 0.40mm
; perimeters extrusion width = 0.40mm
; infill extrusion width = 0.40mm
; solid infill extrusion width = 0.40mm
; top infill extrusion width = 0.40mm

M107
M190 S60 ; set bed temperature
M104 S210 ; set temperature
G90
M82 ; set extruder to absolute mode - this line was added in case Cura doesn't include it by default (may not be needed)
G28 ; home all axes
; The lines below are to prep the nozzle before a print begins
G1 Z0.2 F1200 ; raise nozzle 0.2mm
G92 E0 ; reset extrusion distance
G1 Y10 ; move Y-Axis (bed) 10mm to prep for purge
G1 X100 E12 F600 ; move X-carriage 100mm while purging 12mm of filament
G92 E0 ; reset extrusion distance
M109 S210 ; wait for temperature to be reached
G21 ; set units to millimeters
G90 ; use absolute coordinates
M82 ; use absolute distances for extrusion
G92 E0
G1 Z0.306 F4200.000
G1 E-4.00000 F2040.00000
G92 E0
G1 X42.699 Y47.700 F4200.000
G1 E4.00000 F2040.00000
G1 X77.300 Y47.700 E5.47267 F1200.000
G1 X77.300 Y72.300 E6.51969
G1 X42.699 Y72.300 E7.99237 F1200.000
G1 X42.699 Y47.760 E9.03683
G1 F3360
G1 X49.288 Y47.749 E5.23683
G1 E5.03683 F2040.00000
G92 E0
G1 X42.893 Y71.925 F4200.000
G1 E4.00000 F2040.00000
G1 X43.074 Y72.107 E4.01102 F1200.000
G1 X43.550 Y72.107 E4.03141
G1 X42.893 Y71.449 E4.07127
G1 X42.893 Y70.973 E4.09166
G1 X44.026 Y72.107 E4.16036
G1 X44.502 Y72.107 E4.18075
G1 X42.893 Y70.497 E4.27829
G1 X42.893 Y70.021 E4.29869
G1 X44.978 Y72.107 E4.42507
G1 X45.454 Y72.107 E4.44546
G1 X42.893 Y69.545 E4.60068
G1 X42.893 Y69.069 E4.62108
G1 X45.930 Y72.107 E4.80514
G1 X46.406 Y72.107 E4.82553
G1 X42.893 Y68.593 E5.03844
G1 X42.893 Y68.117 E5.05883
G1 X46.882 Y72.107 E5.30058
G1 X47.358 Y72.107 E5.32097
G1 X42.893 Y67.642 E5.59156
G1 X42.893 Y67.166 E5.61195
G1 X47.834 Y72.107 E5.91138
G1 X48.310 Y72.107 E5.93177
G1 X42.893 Y66.690 E6.26004
G1 X42.893 Y66.214 E6.28044
G1 X48.786 Y72.107 E6.63755
G1 X49.262 Y72.107 E6.65794
G1 X42.893 Y65.738 E7.04389
G1 X42.893 Y65.262 E7.06428
G1 X49.738 Y72.107 E7.47908
G1 X50.214 Y72.107 E7.49947
G1 X42.893 Y64.786 E7.94310
G1 X42.893 Y64.310 E7.96350
G1 X50.690 Y72.107 E8.43597
G1 X51.165 Y72.107 E8.45637
G1 X42.893 Y63.834 E8.95768
G1 X42.893 Y63.358 E8.97808
G1 X51.641 Y72.107 E9.50823
G1 X52.117 Y72.107 E9.52863
G1 X42.893 Y62.882 E10.08762
G1 X42.893 Y62.406 E10.10802
G1 X52.593 Y72.107 E10.69586
G1 X53.069 Y72.107 E10.71625
G1 X42.893 Y61.930 E11.33293
G1 X42.893 Y61.454 E11.35333
G1 X53.545 Y72.107 E11.99885
G1 X54.021 Y72.107 E12.01924
G1 X42.893 Y60.978 E12.69360
G1 X42.893 Y60.502 E12.71400
G1 X54.497 Y72.107 E13.41720
G1 X54.973 Y72.107 E13.43760
G1 X42.893 Y60.027 E14.16964
G1 X42.893 Y59.551 E14.19003
G1 X55.449 Y72.107 E14.95092
G1 X55.925 Y72.107 E14.97131
G1 X42.893 Y59.075 E15.76104
G1 X42.893 Y58.599 E15.78144
G1 X56.401 Y72.107 E16.60000
G1 X56.877 Y72.107 E16.62040
G1 X42.893 Y58.123 E17.46781
G1 X42.893 Y57.647 E17.48820
G1 X57.353 Y72.107 E18.36445
G1 X57.829 Y72.107 E18.38485
G1 X42.893 Y57.171 E19.28994
G1 X42.893 Y56.695 E19.31033
G1 X58.305 Y72.107 E20.24427
G1 X58.780 Y72.107 E20.26466
G1 X42.893 Y56.219 E21.22743
G1 X42.893 Y55.743 E21.24783
G1 X59.256 Y72.107 E22.23944
G1 X59.732 Y72.107 E22.25984
G1 X42.893 Y55.267 E23.28029
G1 X42.893 Y54.791 E23.30069
G1 X60.208 Y72.107 E24.34999
G1 X60.684 Y72.107 E24.37038
G1 X42.893 Y54.315 E25.44852
G1 X42.893 Y53.839 E25.46891
G1 X61.160 Y72.107 E26.57589
G1 X61.636 Y72.107 E26.59629
G1 X42.893 Y53.363 E27.73211
G1 X42.893 Y52.887 E27.75250
G1 X62.112 Y72.107 E28.91716
G1 X62.588 Y72.107 E28.93756
G1 X42.893 Y52.412 E30.13106
G1 X42.893 Y51.936 E30.15146
G1 X63.064 Y72.107 E31.37380
G1 X63.540 Y72.107 E31.39419
G1 X42.893 Y51.460 E32.64538
G1 X42.893 Y50.984 E32.66577
G1 X64.016 Y72.107 E33.94580
G1 X64.492 Y72.107 E33.96620
G1 X42.893 Y50.508 E35.27506
G1 X42.893 Y50.032 E35.29546
G1 X64.968 Y72.107 E36.63317
G1 X65.444 Y72.107 E36.65356
G1 X42.893 Y49.556 E38.02011
G1 X42.893 Y49.080 E38.04051
G1 X65.920 Y72.107 E39.43590
G1 X66.396 Y72.107 E39.45629
G1 X42.893 Y48.604 E40.88052
G1 X42.893 Y48.128 E40.90092
G1 X66.871 Y72.107 E42.35399
G1 X67.347 Y72.107 E42.37439
G1 X43.134 Y47.893 E43.84169
G1 X43.610 Y47.893 E43.86209
G1 X67.823 Y72.107 E45.32939
G1 X68.299 Y72.107 E45.34979
G1 X44.086 Y47.893 E46.81709
G1 X44.562 Y47.893 E46.83749
G1 X68.775 Y72.107 E48.30479
G1 X69.251 Y72.107 E48.32518
G1 X45.038 Y47.893 E49.79249
G1 X45.513 Y47.893 E49.81288
G1 X69.727 Y72.107 E51.28019
G1 X70.203 Y72.107 E51.30058
G1 X45.989 Y47.893 E52.76789
G1 X46.465 Y47.893 E52.78828
G1 X70.679 Y72.107 E54.25559
G1 X71.155 Y72.107 E54.27598
G1 X46.941 Y47.893 E55.74329
G1 X47.417 Y47.893 E55.76368
G1 X71.631 Y72.107 E57.23099
G1 X72.107 Y72.107 E57.25138
G1 X47.893 Y47.893 E58.71869
G1 X48.369 Y47.893 E58.73908
G1 X72.583 Y72.107 E60.20639
G1 X73.059 Y72.107 E60.22678
G1 X48.845 Y47.893 E61.69409
G1 X49.321 Y47.893 E61.71448
G1 X73.535 Y72.107 E63.18179
G1 X74.011 Y72.107 E63.20218
G1 X49.797 Y47.893 E64.66948
G1 X50.273 Y47.893 E64.68988
G1 X74.486 Y72.107 E66.15718
G1 X74.962 Y72.107 E66.17758
G1 X50.749 Y47.893 E67.64488
G1 X51.225 Y47.893 E67.66528
G1 X75.438 Y72.107 E69.13258
G1 X75.914 Y72.107 E69.15298
G1 X51.701 Y47.893 E70.62028
G1 X52.177 Y47.893 E70.64068
G1 X76.390 Y72.107 E72.10798
G1 X76.866 Y72.107 E72.12838
G1 X52.653 Y47.893 E73.59568
G1 X53.129 Y47.893 E73.61607
G1 X77.107 Y71.872 E75.06915
G1 X77.107 Y71.396 E75.08954
G1 X53.604 Y47.893 E76.51378
G1 X54.080 Y47.893 E76.53417
G1 X77.107 Y70.920 E77.92957
G1 X77.107 Y70.444 E77.94996
G1 X54.556 Y47.893 E79.31651
G1 X55.032 Y47.893 E79.33691
G1 X77.107 Y69.968 E80.67462
G1 X77.107 Y69.492 E80.69501
G1 X55.508 Y47.893 E82.00388
G1 X55.984 Y47.893 E82.02428
G1 X77.107 Y69.016 E83.30431
G1 X77.107 Y68.540 E83.32470
G1 X56.460 Y47.893 E84.57589
G1 X56.936 Y47.893 E84.59628
G1 X77.107 Y68.064 E85.81863
G1 X77.107 Y67.589 E85.83902
G1 X57.412 Y47.893 E87.03253
G1 X57.888 Y47.893 E87.05292
G1 X77.107 Y67.113 E88.21759
G1 X77.107 Y66.637 E88.23798
G1 X58.364 Y47.893 E89.37381
G1 X58.840 Y47.893 E89.39420
G1 X77.107 Y66.161 E90.50118
G1 X77.107 Y65.685 E90.52158
G1 X59.316 Y47.893 E91.59972
G1 X59.792 Y47.893 E91.62011
G1 X77.107 Y65.209 E92.66941
G1 X77.107 Y64.733 E92.68980
G1 X60.268 Y47.893 E93.71026
G1 X60.744 Y47.893 E93.73066
G1 X77.107 Y64.257 E94.72228
G1 X77.107 Y63.781 E94.74267
G1 X61.219 Y47.893 E95.70545
G1 X61.695 Y47.893 E95.72584
G1 X77.107 Y63.305 E96.65978
G1 X77.107 Y62.829 E96.68017
G1 X62.171 Y47.893 E97.58526
G1 X62.647 Y47.893 E97.60566
G1 X77.107 Y62.353 E98.48191
G1 X77.107 Y61.877 E98.50230
G1 X63.123 Y47.893 E99.34972
G1 X63.599 Y47.893 E99.37011
G1 X77.107 Y61.401 E100.18868
G1 X77.107 Y60.925 E100.20907
G1 X64.075 Y47.893 E100.99880
G1 X64.551 Y47.893 E101.01920
G1 X77.107 Y60.449 E101.78009
G1 X77.107 Y59.974 E101.80048
G1 X65.027 Y47.893 E102.53253
G1 X65.503 Y47.893 E102.55292
G1 X77.107 Y59.498 E103.25613
G1 X77.107 Y59.022 E103.27652
G1 X65.979 Y47.893 E103.95089
G1 X66.455 Y47.893 E103.97128
G1 X77.107 Y58.546 E104.61680
G1 X77.107 Y58.070 E104.63720
G1 X66.931 Y47.893 E105.25388
G1 X67.407 Y47.893 E105.27427
G1 X77.107 Y57.594 E105.86211
G1 X77.107 Y57.118 E105.88251
G1 X67.883 Y47.893 E106.44151
G1 X68.359 Y47.893 E106.46190
G1 X77.107 Y56.642 E106.99206
G1 X77.107 Y56.166 E107.01246
G1 X68.835 Y47.893 E107.51377
G1 X69.310 Y47.893 E107.53417
G1 X77.107 Y55.690 E108.00664
G1 X77.107 Y55.214 E108.02704
G1 X69.786 Y47.893 E108.47067
G1 X70.262 Y47.893 E108.49107
G1 X77.107 Y54.738 E108.90586
G1 X77.107 Y54.262 E108.92626
G1 X70.738 Y47.893 E109.31221
G1 X71.214 Y47.893 E109.33260
G1 X77.107 Y53.786 E109.68972
G1 X77.107 Y53.310 E109.71011
G1 X71.690 Y47.893 E110.03838
G1 X72.166 Y47.893 E110.05877
G1 X77.107 Y52.834 E110.35820
G1 X77.107 Y52.358 E110.37860
G1 X72.642 Y47.893 E110.64919
G1 X73.118 Y47.893 E110.66958
G1 X77.107 Y51.883 E110.91133
G1 X77.107 Y51.407 E110.93172
G1 X73.594 Y47.893 E111.14463
G1 X74.070 Y47.893 E111.16502
G1 X77.107 Y50.931 E111.34909
G1 X77.107 Y50.455 E111.36948
G1 X74.546 Y47.893 E111.52470
G1 X75.022 Y47.893 E111.54510
G1 X77.107 Y49.979 E111.67148
G1 X77.107 Y49.503 E111.69187
G1 X75.498 Y47.893 E111.78942
G1 X75.974 Y47.893 E111.80981
G1 X77.107 Y49.027 E111.87851
G1 X77.107 Y48.551 E111.89890
G1 X76.450 Y47.893 E111.93876
G1 X76.925 Y47.893 E111.95916
G1 X77.107 Y48.075 E111.97018
M104 S225 ; set temperature
G1 Z0.613 F4200.000
G1 E107.97018 F2040.00000
G92 E0
G1 X50.239 Y55.232 F4200.000
G1 E4.00000 F2040.00000
G1 X50.398 Y55.201 E4.00690 F600.000
G1 X69.602 Y55.201 E4.82429
G1 X69.762 Y55.234 E4.83121
G1 X69.795 Y55.406 E4.83870
G1 X69.763 Y55.993 E4.86369
G1 X69.697 Y56.568 E4.88833
G1 X69.527 Y57.444 E4.92632
G1 X69.275 Y58.295 E4.96411
G1 X68.911 Y59.191 E5.00527
G1 X68.539 Y59.909 E5.03967
G1 X68.232 Y60.406 E5.06453
G1 X67.968 Y60.788 E5.08431
G1 X67.510 Y61.367 E5.11574
G1 X67.114 Y61.802 E5.14077
G1 X66.736 Y62.172 E5.16328
G1 X66.217 Y62.620 E5.19245
G1 X65.744 Y62.978 E5.21770
G1 X65.266 Y63.296 E5.24215
G1 X64.704 Y63.623 E5.26981
G1 X64.181 Y63.883 E5.29465
G1 X63.613 Y64.124 E5.32093
G1 X63.018 Y64.334 E5.34778
G1 X62.439 Y64.499 E5.37342
G1 X61.838 Y64.630 E5.39958
G1 X61.221 Y64.725 E5.42616
G1 X60.616 Y64.781 E5.45201
G1 X59.999 Y64.800 E5.47827
G1 X59.384 Y64.781 E5.50448
G1 X58.779 Y64.725 E5.53034
G1 X58.162 Y64.630 E5.55692
G1 X57.561 Y64.499 E5.58308
G1 X56.982 Y64.334 E5.60872
G1 X56.388 Y64.125 E5.63553
G1 X55.820 Y63.883 E5.66181
G1 X55.296 Y63.623 E5.68668
G1 X54.735 Y63.297 E5.71431
G1 X54.220 Y62.952 E5.74067
G1 X53.775 Y62.614 E5.76448
G1 X53.318 Y62.222 E5.79008
G1 X52.893 Y61.809 E5.81531
G1 X52.484 Y61.360 E5.84116
G1 X52.116 Y60.901 E5.86619
G1 X51.683 Y60.276 E5.89858
G1 X51.456 Y59.901 E5.91722
G1 X51.182 Y59.386 E5.94205
G1 X50.845 Y58.622 E5.97758
G1 X50.549 Y57.732 E6.01750
G1 X50.346 Y56.841 E6.05641
G1 X50.236 Y55.981 E6.09331
G1 X50.205 Y55.406 E6.11780
G1 X50.239 Y55.232 E6.12534
G1 Z0.919 F4200.000
G1 X50.239 Y55.232 F4200.000
G1 X50.398 Y55.201 E6.13224 F600.000
G1 X69.602 Y55.203 E6.94963
G1 X69.763 Y55.235 E6.95659
G1 X69.795 Y55.406 E6.96400
G1 X69.763 Y55.993 E6.98899
G1 X69.697 Y56.568 E7.01363
G1 X69.527 Y57.444 E7.05162
G1 X69.275 Y58.295 E7.08941
G1 X68.911 Y59.191 E7.13057
G1 X68.539 Y59.909 E7.16497
G1 X68.232 Y60.406 E7.18984
G1 X67.968 Y60.788 E7.20961
G1 X67.510 Y61.367 E7.24104
G1 X67.114 Y61.802 E7.26607
G1 X66.736 Y62.172 E7.28858
G1 X66.217 Y62.620 E7.31775
G1 X65.744 Y62.978 E7.34300
G1 X65.266 Y63.296 E7.36745
G1 X64.704 Y63.623 E7.39511
G1 X64.181 Y63.883 E7.41996
G1 X63.613 Y64.124 E7.44623
G1 X63.018 Y64.334 E7.47308
G1 X62.439 Y64.499 E7.49872
G1 X61.838 Y64.630 E7.52488
G1 X61.221 Y64.725 E7.55146
G1 X60.616 Y64.781 E7.57732
G1 X59.999 Y64.800 E7.60357
G1 X59.384 Y64.781 E7.62978
G1 X58.779 Y64.725 E7.65564
G1 X58.162 Y64.630 E7.68222
G1 X57.561 Y64.499 E7.70838
G1 X56.982 Y64.334 E7.73402
G1 X56.388 Y64.125 E7.76083
G1 X55.832 Y63.889 E7.78652
G1 X55.296 Y63.623 E7.81199
G1 X54.735 Y63.297 E7.83961
G1 X54.220 Y62.952 E7.86597
G1 X53.775 Y62.614 E7.88978
G1 X53.322 Y62.225 E7.91520
G1 X52.893 Y61.809 E7.94061
G1 X52.484 Y61.360 E7.96646
G1 X52.116 Y60.901 E7.99149
G1 X51.683 Y60.276 E8.02388
G1 X51.456 Y59.901 E8.04253
G1 X51.182 Y59.386 E8.06735
G1 X50.845 Y58.622 E8.10288
G1 X50.549 Y57.732 E8.14280
G1 X50.346 Y56.841 E8.18171
G1 X50.236 Y55.981 E8.21861
G1 X50.205 Y55.406 E8.24310
G1 X50.239 Y55.232 E8.25064
M106 S255
G1 Z0.919 F4200.000
G1 X50.239 Y55.232 F4200.000
G1 Z0.920 X50.398 Y55.201 E8.25754 F600.000
G1 Z1.038 X69.602 Y55.204 E9.07493
G1 Z1.039 X69.763 Y55.237 E9.08192
G1 Z1.040 X69.795 Y55.406 E9.08926
G1 Z1.043 X69.763 Y55.993 E9.11425
G1 Z1.047 X69.697 Y56.568 E9.13889
G1 Z1.052 X69.527 Y57.444 E9.17688
G1 Z1.058 X69.275 Y58.295 E9.21467
G1 Z1.064 X68.911 Y59.191 E9.25583
G1 Z1.069 X68.539 Y59.909 E9.29023
G1 Z1.072 X68.232 Y60.406 E9.31509
G1 Z1.075 X67.968 Y60.788 E9.33487
G1 Z1.080 X67.510 Y61.367 E9.36630
G1 Z1.083 X67.114 Y61.802 E9.39133
G1 Z1.086 X66.736 Y62.172 E9.41384
G1 Z1.091 X66.217 Y62.620 E9.44301
G1 Z1.094 X65.744 Y62.978 E9.46826
G1 Z1.098 X65.266 Y63.296 E9.49271
G1 Z1.102 X64.704 Y63.623 E9.52037
G1 Z1.105 X64.181 Y63.883 E9.54521
G1 Z1.109 X63.613 Y64.124 E9.57149
G1 Z1.113 X63.018 Y64.334 E9.59834
G1 Z1.117 X62.439 Y64.499 E9.62398
G1 Z1.121 X61.838 Y64.630 E9.65014
G1 Z1.124 X61.221 Y64.725 E9.67672
G1 Z1.128 X60.616 Y64.781 E9.70257
G1 Z1.132 X59.999 Y64.800 E9.72883
G1 Z1.136 X59.384 Y64.781 E9.75504
G1 Z1.139 X58.779 Y64.725 E9.78090
G1 Z1.143 X58.162 Y64.630 E9.80748
G1 Z1.147 X57.561 Y64.499 E9.83364
G1 Z1.151 X56.982 Y64.334 E9.85928
G1 Z1.154 X56.388 Y64.125 E9.88609
G1 Z1.158 X55.820 Y63.883 E9.91237
G1 Z1.162 X55.296 Y63.623 E9.93724
G1 Z1.166 X54.735 Y63.297 E9.96487
G1 Z1.170 X54.220 Y62.952 E9.99123
G1 Z1.173 X53.775 Y62.614 E10.01504
G1 Z1.177 X53.323 Y62.226 E10.04036
G1 Z1.180 X52.893 Y61.809 E10.06587
G1 Z1.184 X52.484 Y61.360 E10.09172
G1 Z1.188 X52.116 Y60.901 E10.11675
G1 Z1.192 X51.683 Y60.276 E10.14914
G1 Z1.195 X51.456 Y59.901 E10.16778
G1 Z1.199 X51.182 Y59.386 E10.19261
G1 Z1.204 X50.845 Y58.622 E10.22814
G1 Z1.209 X50.549 Y57.732 E10.26806
G1 Z1.215 X50.346 Y56.841 E10.30697
G1 Z1.220 X50.236 Y55.981 E10.34387
G1 Z1.224 X50.205 Y55.406 E10.36836
G1 Z1.225 X50.239 Y55.232 E10.37590
G1 Z1.225 F4200.000
G1 X50.239 Y55.232 F4200.000
G1 Z1.226 X50.398 Y55.201 E10.38280 F600.000
G1 Z1.344 X69.602 Y55.205 E11.20019
G1 Z1.345 X69.764 Y55.239 E11.20721
G1 Z1.346 X69.795 Y55.406 E11.21447
G1 Z1.349 X69.763 Y55.993 E11.23947
G1 Z1.353 X69.697 Y56.568 E11.26411
G1 Z1.358 X69.527 Y57.444 E11.30209
G1 Z1.364 X69.275 Y58.295 E11.33988
G1 Z1.370 X68.911 Y59.191 E11.38104
G1 Z1.375 X68.543 Y59.901 E11.41507
G1 Z1.378 X68.232 Y60.406 E11.44030
G1 Z1.381 X67.968 Y60.788 E11.46008
G1 Z1.386 X67.510 Y61.367 E11.49151
G1 Z1.389 X67.114 Y61.802 E11.51654
G1 Z1.392 X66.736 Y62.172 E11.53905
G1 Z1.397 X66.224 Y62.614 E11.56784
G1 Z1.400 X65.744 Y62.978 E11.59346
G1 Z1.404 X65.266 Y63.296 E11.61792
G1 Z1.408 X64.704 Y63.623 E11.64559
G1 Z1.411 X64.181 Y63.883 E11.67043
G1 Z1.415 X63.613 Y64.124 E11.69670
G1 Z1.419 X63.018 Y64.334 E11.72355
G1 Z1.423 X62.439 Y64.499 E11.74919
G1 Z1.426 X61.838 Y64.630 E11.77535
G1 Z1.430 X61.221 Y64.725 E11.80193
G1 Z1.434 X60.616 Y64.781 E11.82779
G1 Z1.438 X59.999 Y64.800 E11.85404
G1 Z1.442 X59.384 Y64.781 E11.88026
G1 Z1.445 X58.779 Y64.725 E11.90612
G1 Z1.449 X58.162 Y64.630 E11.93269
G1 Z1.453 X57.561 Y64.499 E11.95885
G1 Z1.457 X56.982 Y64.334 E11.98449
G1 Z1.460 X56.388 Y64.125 E12.01130
G1 Z1.464 X55.820 Y63.883 E12.03758
G1 Z1.468 X55.296 Y63.623 E12.06246
G1 Z1.472 X54.735 Y63.297 E12.09009
G1 Z1.476 X54.220 Y62.952 E12.11645
G1 Z1.479 X53.775 Y62.614 E12.14025
G1 Z1.483 X53.325 Y62.228 E12.16548
G1 Z1.486 X52.893 Y61.809 E12.19108
G1 Z1.490 X52.484 Y61.360 E12.21693
G1 Z1.494 X52.116 Y60.901 E12.24196
G1 Z1.498 X51.683 Y60.276 E12.27435
G1 Z1.501 X51.456 Y59.901 E12.29300
G1 Z1.505 X51.182 Y59.386 E12.31783
G1 Z1.510 X50.845 Y58.622 E12.35335
G1 Z1.515 X50.549 Y57.732 E12.39327
G1 Z1.521 X50.346 Y56.841 E12.43219
G1 Z1.526 X50.236 Y55.981 E12.46908
G1 Z1.530 X50.205 Y55.406 E12.49357
G1 Z1.531 X50.239 Y55.232 E12.50112
G1 Z1.531 F4200.000
G1 X50.239 Y55.232 F4200.000
G1 Z1.532 X50.398 Y55.201 E12.50802 F600.000
G1 Z1.650 X69.602 Y55.206 E13.32540
G1 Z1.651 X69.765 Y55.240 E13.33246
G1 Z1.652 X69.795 Y55.406 E13.33964
G1 Z1.655 X69.763 Y55.993 E13.36464
G1 Z1.659 X69.697 Y56.568 E13.38928
G1 Z1.664 X69.527 Y57.444 E13.42726
G1 Z1.670 X69.275 Y58.295 E13.46505
G1 Z1.676 X68.911 Y59.191 E13.50621
G1 Z1.681 X68.539 Y59.909 E13.54062
G1 Z1.684 X68.232 Y60.406 E13.56548
G1 Z1.687 X67.968 Y60.788 E13.58525
G1 Z1.692 X67.510 Y61.367 E13.61668
G1 Z1.695 X67.114 Y61.802 E13.64171
G1 Z1.698 X66.736 Y62.172 E13.66422
G1 Z1.703 X66.217 Y62.620 E13.69339
G1 Z1.706 X65.744 Y62.978 E13.71864
G1 Z1.710 X65.266 Y63.296 E13.74309
G1 Z1.714 X64.704 Y63.623 E13.77076
G1 Z1.717 X64.181 Y63.883 E13.79560
