; generated by Slic3r Prusa Edition 1.41.0+win64 on 2018-12-17 at 00:08:30

; 

; external perimeters extrusion width = 0.45mm
; perimeters extrusion width = 0.45mm
; infill extrusion width = 0.45mm
; solid infill extrusion width = 0.45mm
; top infill extrusion width = 0.40mm
; first layer extrusion width = 0.42mm

M201 X1000 Y1000 Z1000 E5000 ; sets maximum accelerations, mm/sec^2
M203 X200 Y200 Z12 E120 ; sets maximum feedrates, mm/sec
M204 P1250 R1250 T1250 ; sets acceleration (P, T) and retract acceleration (R), mm/sec^2
M205 X8.00 Y8.00 Z0.40 E1.50 ; sets the jerk limits, mm/sec
M205 S0 T0 ; sets the minimum extruding and travel feed rate, mm/sec
M107
M115 U3.4.1 ; tell printer latest fw version
M83  ; extruder relative mode
M104 S215 ; set extruder temp
M140 S60 ; set bed temp
M190 S60 ; wait for bed temp
M109 S215 ; wait for extruder temp
G28 W ; home all without mesh bed level
G80 ; mesh bed leveling
G1 Y-3.0 F1000.0 ; go outside print area
G92 E0.0
G1 X60.0 E9.0  F1000.0 ; intro line
M73 Q0 S100
M73 P0 R99
G1 X100.0 E12.5  F1000.0 ; intro line
G92 E0.0
M221 S95
M900 K30; Filament gcode
G21 ; set units to millimeters
G90 ; use absolute coordinates
M83 ; use relative distances for extrusion
;BEFORE_LAYER_CHANGE
G92 E0.0
;0.2


G1 E-0.80000 F2100.00000
G1 Z0.600 F10800.000
;AFTER_LAYER_CHANGE
;0.2
G1 X102.147 Y80.184
G1 Z0.200
G1 E0.80000 F2100.00000
M204 S1000
G1 F1200
G1 X102.763 Y79.896 E0.02134
G1 X103.267 Y79.812 E0.01601
G1 X112.956 Y79.818 E0.30379
G1 X143.715 Y82.159 E0.96722
G1 X144.191 Y82.252 E0.01521
G1 X144.638 Y82.449 E0.01532
G1 X145.031 Y82.740 E0.01532
G1 X145.346 Y83.109 E0.01521
G1 X150.175 Y91.460 E0.30247
G1 X150.434 Y92.243 E0.02586
G1 X151.559 Y130.596 E1.20304
G1 X151.489 Y131.164 E0.01794
G1 X151.273 Y131.697 E0.01805
G1 X146.517 Y139.932 E0.29816
G1 X146.232 Y140.307 E0.01475
G1 X145.873 Y140.611 E0.01475
G1 X145.324 Y140.881 E0.01919
G1 X144.721 Y140.988 E0.01919
G1 X135.175 Y140.989 E0.29932
G1 X103.787 Y140.253 E0.98441
G1 X103.279 Y140.177 E0.01612
G1 X102.802 Y139.985 E0.01612
G1 X102.383 Y139.687 E0.01612
G1 X102.043 Y139.296 E0.01623
G1 X97.214 Y130.943 E0.30252
G1 X96.953 Y130.127 E0.02687
G1 X96.455 Y90.090 E1.25542
G1 X96.534 Y89.593 E0.01578
G1 X96.724 Y89.127 E0.01578
G1 X101.651 Y80.645 E0.30755
G1 X102.103 Y80.225 E0.01935
; PURGING FINISHED
G1 F8640
G1 X102.763 Y79.896 E-0.17041
G1 X103.267 Y79.812 E-0.11788
G1 X105.310 Y79.813 E-0.47171
G1 E-0.04000 F2100.00000
G1 Z0.800 F10800.000
G1 X135.532 Y123.018
G1 Z0.200
G1 E0.80000 F2100.00000
G1 F1200
G1 X144.305 Y123.018 E0.27508
G1 X148.692 Y130.615 E0.27508
G1 X144.305 Y138.213 E0.27508
G1 X135.532 Y138.213 E0.27508
G1 X131.145 Y130.615 E0.27508
G1 X135.502 Y123.069 E0.27320
G1 X135.314 Y122.640 F10800.000
G1 F1200
G1 X144.523 Y122.640 E0.28874
G1 X149.128 Y130.615 E0.28873
G1 X144.523 Y138.590 E0.28873
G1 X135.314 Y138.590 E0.28874
G1 X130.710 Y130.615 E0.28873
G1 X135.284 Y122.692 E0.28685
G1 X135.661 Y122.840 F10800.000
G1 F8640
G1 X138.576 Y122.674 E-0.76000
G1 E-0.04000 F2100.00000
G1 Z0.800 F10800.000
G1 X131.387 Y130.423
G1 Z0.200
G1 E0.80000 F2100.00000
G1 F1200
G1 X138.895 Y137.931 E0.33586
G1 X139.433 Y137.931 E0.01702
G1 X131.708 Y130.206 E0.34556
G1 X131.905 Y129.865 E0.01246
G1 X139.971 Y137.931 E0.36082
G1 X140.509 Y137.931 E0.01702
G1 X132.102 Y129.524 E0.37607
G1 X132.299 Y129.183 E0.01246
G1 X141.047 Y137.931 E0.39133
G1 X141.585 Y137.931 E0.01702
G1 X132.496 Y128.842 E0.40659
G1 X132.693 Y128.501 E0.01246
G1 X142.123 Y137.931 E0.42185
G1 X142.661 Y137.931 E0.01702
G1 X132.890 Y128.159 E0.43710
G1 X133.087 Y127.818 E0.01246
G1 X143.199 Y137.931 E0.45236
G1 X143.737 Y137.931 E0.01702
G1 X133.284 Y127.477 E0.46762
G1 X133.481 Y127.136 E0.01246
G1 X144.191 Y137.846 E0.47912
G1 X144.388 Y137.505 E0.01246
G1 X133.677 Y126.795 E0.47912
G1 X133.874 Y126.454 E0.01246
G1 X144.585 Y137.164 E0.47912
G1 X144.781 Y136.823 E0.01246
G1 X134.071 Y126.113 E0.47912
G1 X134.268 Y125.772 E0.01246
G1 X144.978 Y136.482 E0.47912
G1 X145.175 Y136.141 E0.01246
G1 X134.465 Y125.431 E0.47912
G1 X134.662 Y125.090 E0.01246
G1 X145.372 Y135.800 E0.47912
G1 X145.569 Y135.459 E0.01246
G1 X134.859 Y124.749 E0.47912
G1 X135.056 Y124.408 E0.01246
G1 X145.766 Y135.118 E0.47912
G1 X145.963 Y134.777 E0.01246
G1 X135.253 Y124.067 E0.47912
G1 X135.450 Y123.726 E0.01246
G1 X146.160 Y134.436 E0.47912
G1 X146.357 Y134.095 E0.01246
G1 X135.647 Y123.384 E0.47912
G1 X135.695 Y123.300 E0.00307
G1 X136.101 Y123.300 E0.01282
G1 X146.554 Y133.754 E0.46762
G1 X146.751 Y133.413 E0.01246
G1 X136.639 Y123.300 E0.45237
G1 X137.177 Y123.300 E0.01702
G1 X146.948 Y133.071 E0.43711
G1 X147.145 Y132.730 E0.01246
G1 X137.715 Y123.300 E0.42185
G1 X138.253 Y123.300 E0.01702
G1 X147.342 Y132.389 E0.40659
G1 X147.538 Y132.048 E0.01246
G1 X138.791 Y123.300 E0.39133
G1 X139.329 Y123.300 E0.01702
G1 X147.735 Y131.707 E0.37608
G1 X147.932 Y131.366 E0.01246
G1 X139.867 Y123.300 E0.36082
G1 X140.404 Y123.300 E0.01702
G1 X148.129 Y131.025 E0.34556
G1 X148.326 Y130.684 E0.01246
G1 X140.942 Y123.300 E0.33030
G1 X141.480 Y123.300 E0.01702
G1 X148.242 Y130.062 E0.30246
G1 F8640
G1 X145.914 Y127.734 E-0.76000
G1 E-0.04000 F2100.00000
G1 Z0.800 F10800.000
G1 X147.507 Y128.789
G1 Z0.200
G1 E0.80000 F2100.00000
G1 F1200
G1 X142.018 Y123.300 E0.24552
G1 X142.556 Y123.300 E0.01702
G1 X146.772 Y127.516 E0.18858
G1 F8640
G1 X144.445 Y125.188 E-0.76000
G1 E-0.04000 F2100.00000
G1 Z0.800 F10800.000
G1 X146.037 Y126.243
G1 Z0.200
G1 E0.80000 F2100.00000
G1 F1200
G1 X143.094 Y123.300 E0.13163
G1 X143.632 Y123.300 E0.01702
G1 X145.302 Y124.970 E0.07469
G1 F8640
G1 X143.632 Y123.300 E-0.54518
G1 X143.094 Y123.300 E-0.12423
G1 X143.372 Y123.578 E-0.09059
G1 E-0.04000 F2100.00000
G1 Z0.800 F10800.000
G1 X138.527 Y138.100
G1 Z0.200
G1 E0.80000 F2100.00000
G1 F1200
G1 X131.596 Y131.169 E0.31005
G1 F8640
G1 X133.923 Y133.497 E-0.76000
G1 E-0.04000 F2100.00000
G1 Z0.800 F10800.000
G1 X132.331 Y132.442
G1 Z0.200
G1 E0.80000 F2100.00000
G1 F1200
G1 X137.989 Y138.100 E0.25310
G1 X137.451 Y138.100 F10800.000
G1 F1200
G1 X133.066 Y133.715 E0.19616
G1 F8640
G1 X135.393 Y136.043 E-0.76000
G1 E-0.04000 F2100.00000
G1 Z0.800 F10800.000
G1 X133.801 Y134.988
G1 Z0.200
G1 E0.80000 F2100.00000
G1 F1200
G1 X136.913 Y138.100 E0.13921
G1 X136.375 Y138.100 F10800.000
G1 F1200
G1 X134.536 Y136.261 E0.08227
G1 F8640
G1 X136.375 Y138.100 E-0.60052
G1 E-0.19948 F2100.00000
G1 Z0.800 F10800.000
G1 X112.476 Y97.785
G1 Z0.200
G1 E0.80000 F2100.00000
G1 F1200
G1 X103.703 Y97.781 E0.27508
G1 X99.320 Y90.181 E0.27508
G1 X103.710 Y82.585 E0.27508
G1 X112.484 Y82.590 E0.27508
G1 X116.867 Y90.190 E0.27508
G1 X112.506 Y97.733 E0.27320
G1 X112.694 Y98.163 F10800.000
G1 F1200
G1 X103.485 Y98.158 E0.28874
G1 X98.884 Y90.180 E0.28873
G1 X103.493 Y82.208 E0.28873
G1 X112.702 Y82.213 E0.28874
G1 X117.302 Y90.190 E0.28874
G1 X112.724 Y98.111 E0.28685
G1 X112.347 Y97.962 F10800.000
G1 F8640
G1 X109.432 Y98.127 E-0.76000
G1 E-0.04000 F2100.00000
G1 Z0.800 F10800.000
G1 X106.699 Y97.669
G1 Z0.200
G1 E0.80000 F2100.00000
G1 F1200
G1 X99.777 Y90.747 E0.30970
G1 X99.560 Y89.992 F10800.000
G1 F1200
G1 X107.068 Y97.500 E0.33591
G1 X107.606 Y97.500 E0.01703
G1 X99.881 Y89.775 E0.34562
G1 X100.078 Y89.434 E0.01246
G1 X108.144 Y97.500 E0.36089
G1 X108.683 Y97.501 E0.01703
G1 X100.275 Y89.093 E0.37616
G1 X100.472 Y88.752 E0.01246
G1 X109.221 Y97.501 E0.39143
G1 X109.759 Y97.501 E0.01703
G1 X100.669 Y88.411 E0.40670
G1 X100.867 Y88.070 E0.01246
G1 X110.298 Y97.501 E0.42196
M73 Q1 S99
M73 P1 R98
G1 X110.836 Y97.502 E0.01703
G1 X101.064 Y87.729 E0.43723
G1 X101.261 Y87.388 E0.01246
G1 X111.375 Y97.502 E0.45250
G1 X111.913 Y97.502 E0.01703
G1 X101.458 Y87.047 E0.46777
G1 X101.655 Y86.706 E0.01246
G1 X112.364 Y97.415 E0.47911
G1 X112.561 Y97.074 E0.01246
G1 X101.852 Y86.365 E0.47911
G1 X102.049 Y86.024 E0.01246
G1 X112.758 Y96.733 E0.47911
G1 X112.955 Y96.392 E0.01246
G1 X102.246 Y85.683 E0.47911
G1 X102.443 Y85.342 E0.01246
G1 X113.152 Y96.051 E0.47911
G1 X113.349 Y95.710 E0.01246
G1 X102.640 Y85.001 E0.47911
G1 X102.837 Y84.660 E0.01246
G1 X113.546 Y95.369 E0.47911
G1 X113.743 Y95.028 E0.01246
G1 X103.035 Y84.319 E0.47912
G1 X103.232 Y83.978 E0.01246
G1 X113.940 Y94.687 E0.47912
G1 X114.137 Y94.346 E0.01246
G1 X103.429 Y83.637 E0.47912
G1 X103.626 Y83.296 E0.01246
G1 X114.335 Y94.005 E0.47912
G1 X114.532 Y93.664 E0.01246
G1 X103.823 Y82.955 E0.47912
G1 X103.874 Y82.868 E0.00320
G1 X104.274 Y82.868 E0.01265
G1 X114.729 Y93.323 E0.46777
G1 X114.926 Y92.982 E0.01246
G1 X104.812 Y82.868 E0.45250
G1 X105.350 Y82.869 E0.01703
G1 X115.123 Y92.641 E0.43724
G1 X115.320 Y92.300 E0.01246
G1 X105.889 Y82.869 E0.42197
G1 X106.427 Y82.869 E0.01703
G1 X115.517 Y91.959 E0.40670
G1 X115.714 Y91.618 E0.01246
G1 X106.965 Y82.869 E0.39143
G1 X107.504 Y82.870 E0.01703
G1 X115.911 Y91.277 E0.37617
G1 X116.108 Y90.936 E0.01246
G1 X108.042 Y82.870 E0.36090
G1 X108.580 Y82.870 E0.01703
G1 X116.306 Y90.596 E0.34563
G1 X116.503 Y90.255 E0.01246
G1 X109.119 Y82.871 E0.33036
G1 X109.657 Y82.871 E0.01703
G1 X116.410 Y89.623 E0.30212
G1 F8640
G1 X114.082 Y87.296 E-0.76000
G1 E-0.04000 F2100.00000
G1 Z0.800 F10800.000
G1 X115.677 Y88.352
G1 Z0.200
G1 E0.80000 F2100.00000
G1 F1200
G1 X110.195 Y82.871 E0.24523
G1 X110.734 Y82.871 E0.01703
G1 X114.944 Y87.081 E0.18835
G1 F8640
G1 X112.616 Y84.754 E-0.76000
G1 E-0.04000 F2100.00000
G1 Z0.800 F10800.000
G1 X114.211 Y85.810
G1 Z0.200
G1 E0.80000 F2100.00000
G1 F1200
G1 X111.272 Y82.872 E0.13147
G1 X111.810 Y82.872 E0.01703
G1 X113.478 Y84.539 E0.07459
G1 F8640
G1 X111.810 Y82.872 E-0.54441
G1 X111.272 Y82.872 E-0.12431
G1 X111.552 Y83.151 E-0.09129
G1 E-0.04000 F2100.00000
G1 Z0.800 F10800.000
G1 X100.510 Y92.018
G1 Z0.200
G1 E0.80000 F2100.00000
G1 F1200
G1 X106.161 Y97.669 E0.25282
G1 X105.622 Y97.669 F10800.000
G1 F1200
G1 X101.243 Y93.289 E0.19594
G1 F8640
G1 X103.570 Y95.617 E-0.76000
G1 E-0.04000 F2100.00000
G1 Z0.800 F10800.000
G1 X101.976 Y94.560
G1 Z0.200
G1 E0.80000 F2100.00000
G1 F1200
G1 X105.084 Y97.668 E0.13906
G1 X104.546 Y97.668 F10800.000
G1 F1200
G1 X102.709 Y95.831 E0.08217
G1 F8640
G1 X104.546 Y97.668 E-0.59977
G1 E-0.20023 F2100.00000
G1 Z0.800 F10800.000
G1 X130.039 Y92.526
G1 Z0.200
G1 E0.80000 F2100.00000
G1 F1200
G1 X134.425 Y84.928 E0.27508
G1 X143.199 Y84.928 E0.27508
G1 X147.586 Y92.526 E0.27508
G1 X143.199 Y100.124 E0.27508
G1 X134.425 Y100.124 E0.27508
G1 X130.069 Y92.578 E0.27320
G1 X129.603 Y92.526 F10800.000
G1 F1200
G1 X134.208 Y84.551 E0.28873
G1 X143.416 Y84.551 E0.28874
G1 X148.021 Y92.526 E0.28874
G1 X143.416 Y100.501 E0.28873
G1 X134.208 Y100.501 E0.28874
G1 X129.633 Y92.578 E0.28685
G1 X129.950 Y92.326 F10800.000
G1 X130.280 Y92.333
G1 F1200
G1 X137.788 Y99.841 E0.33586
G1 X138.326 Y99.841 E0.01702
G1 X130.602 Y92.116 E0.34556
G1 X130.798 Y91.775 E0.01246
G1 X138.864 Y99.841 E0.36082
G1 X139.402 Y99.841 E0.01702
G1 X130.995 Y91.434 E0.37607
G1 X131.192 Y91.093 E0.01246
G1 X139.940 Y99.841 E0.39133
G1 X140.478 Y99.841 E0.01702
G1 X131.389 Y90.752 E0.40659
G1 X131.586 Y90.411 E0.01246
G1 X141.016 Y99.841 E0.42185
G1 X141.554 Y99.841 E0.01702
G1 X131.783 Y90.070 E0.43711
G1 X131.980 Y89.729 E0.01246
G1 X142.092 Y99.841 E0.45236
G1 X142.630 Y99.841 E0.01702
G1 X132.177 Y89.388 E0.46762
G1 X132.374 Y89.047 E0.01246
G1 X143.084 Y99.757 E0.47912
G1 X143.281 Y99.416 E0.01246
G1 X132.571 Y88.706 E0.47912
G1 X132.768 Y88.364 E0.01246
G1 X143.478 Y99.075 E0.47912
G1 X143.675 Y98.734 E0.01246
G1 X132.965 Y88.023 E0.47912
G1 X133.162 Y87.682 E0.01246
G1 X143.872 Y98.392 E0.47912
G1 X144.069 Y98.051 E0.01246
G1 X133.359 Y87.341 E0.47912
G1 X133.555 Y87.000 E0.01246
G1 X144.266 Y97.710 E0.47912
G1 X144.463 Y97.369 E0.01246
G1 X133.752 Y86.659 E0.47912
G1 X133.949 Y86.318 E0.01246
G1 X144.659 Y97.028 E0.47912
G1 X144.856 Y96.687 E0.01246
G1 X134.146 Y85.977 E0.47912
G1 X134.343 Y85.636 E0.01246
G1 X145.053 Y96.346 E0.47912
G1 X145.250 Y96.005 E0.01246
G1 X134.540 Y85.295 E0.47912
G1 X134.589 Y85.211 E0.00308
G1 X134.994 Y85.211 E0.01282
G1 X145.447 Y95.664 E0.46763
G1 X145.644 Y95.323 E0.01246
G1 X135.532 Y85.211 E0.45237
G1 X136.070 Y85.211 E0.01702
G1 X145.841 Y94.982 E0.43711
G1 X146.038 Y94.641 E0.01246
G1 X136.608 Y85.211 E0.42185
G1 X137.146 Y85.211 E0.01702
G1 X146.235 Y94.300 E0.40659
G1 X146.432 Y93.959 E0.01246
G1 X137.684 Y85.211 E0.39134
G1 X138.222 Y85.211 E0.01702
G1 X146.629 Y93.617 E0.37608
G1 X146.826 Y93.276 E0.01246
G1 X138.760 Y85.211 E0.36082
G1 X139.298 Y85.211 E0.01702
G1 X147.023 Y92.935 E0.34556
G1 X147.219 Y92.594 E0.01246
G1 X139.836 Y85.211 E0.33030
G1 X140.374 Y85.211 E0.01702
G1 X147.135 Y91.972 E0.30247
G1 F8640
G1 X144.808 Y89.645 E-0.76000
G1 E-0.04000 F2100.00000
G1 Z0.800 F10800.000
G1 X146.400 Y90.699
G1 Z0.200
G1 E0.80000 F2100.00000
G1 F1200
G1 X140.912 Y85.211 E0.24552
G1 X141.450 Y85.211 E0.01702
G1 X145.665 Y89.426 E0.18858
G1 F8640
G1 X143.338 Y87.099 E-0.76000
G1 E-0.04000 F2100.00000
G1 Z0.800 F10800.000
G1 X144.930 Y88.153
G1 Z0.200
G1 E0.80000 F2100.00000
G1 F1200
G1 X141.988 Y85.211 E0.13163
G1 X142.526 Y85.211 E0.01702
G1 X144.195 Y86.880 E0.07469
G1 F8640
G1 X142.526 Y85.211 E-0.54518
G1 X141.988 Y85.211 E-0.12423
G1 X142.265 Y85.488 E-0.09059
G1 E-0.04000 F2100.00000
G1 Z0.800 F10800.000
G1 X137.420 Y100.011
G1 Z0.200
G1 E0.80000 F2100.00000
G1 F1200
G1 X130.489 Y93.080 E0.31004
G1 F8640
G1 X132.817 Y95.407 E-0.76000
G1 E-0.04000 F2100.00000
G1 Z0.800 F10800.000
G1 X131.224 Y94.353
G1 Z0.200
G1 E0.80000 F2100.00000
G1 F1200
G1 X136.882 Y100.011 E0.25310
G1 X136.344 Y100.011 F10800.000
G1 F1200
G1 X131.959 Y95.626 E0.19615
G1 F8640
G1 X134.286 Y97.953 E-0.76000
G1 E-0.04000 F2100.00000
G1 Z0.800 F10800.000
G1 X132.694 Y96.899
G1 Z0.200
G1 E0.80000 F2100.00000
G1 F1200
G1 X135.806 Y100.011 E0.13921
G1 X135.268 Y100.011 F10800.000
G1 F1200
G1 X133.429 Y98.172 E0.08226
G1 F8640
G1 X135.268 Y100.011 E-0.60049
G1 E-0.19951 F2100.00000
G1 Z0.800 F10800.000
G1 X112.965 Y122.283
G1 Z0.200
G1 E0.80000 F2100.00000
G1 F1200
G1 X117.352 Y129.881 E0.27508
G1 X112.965 Y137.479 E0.27508
G1 X104.192 Y137.479 E0.27508
G1 X99.805 Y129.881 E0.27508
G1 X104.192 Y122.283 E0.27508
G1 X112.905 Y122.283 E0.27320
M73 Q2 S98
M73 P2 R97
G1 X113.183 Y121.906 F10800.000
G1 F1200
G1 X117.788 Y129.881 E0.28873
G1 X113.183 Y137.856 E0.28873
G1 X103.974 Y137.856 E0.28874
G1 X99.370 Y129.881 E0.28873
G1 X103.974 Y121.906 E0.28873
G1 X113.123 Y121.906 E0.28686
G1 X113.183 Y122.306 F10800.000
G1 F8640
G1 X114.785 Y124.747 E-0.76000
G1 E-0.04000 F2100.00000
G1 Z0.800 F10800.000
G1 X113.962 Y124.235
G1 Z0.200
G1 E0.80000 F2100.00000
G1 F1200
G1 X112.292 Y122.566 E0.07469
G1 X111.754 Y122.566 E0.01702
G1 X114.697 Y125.508 E0.13163
G1 F8640
G1 X112.370 Y123.181 E-0.76000
G1 E-0.04000 F2100.00000
G1 Z0.800 F10800.000
G1 X115.432 Y126.781
G1 Z0.200
G1 E0.80000 F2100.00000
G1 F1200
G1 X111.216 Y122.566 E0.18858
G1 X110.678 Y122.566 E0.01702
G1 X116.167 Y128.054 E0.24552
G1 F8640
G1 X113.839 Y125.727 E-0.76000
G1 E-0.04000 F2100.00000
G1 Z0.800 F10800.000
G1 X116.902 Y129.327
G1 Z0.200
G1 E0.80000 F2100.00000
G1 F1200
G1 X110.140 Y122.566 E0.30247
G1 X109.602 Y122.566 E0.01702
G1 X116.986 Y129.949 E0.33030
G1 X116.789 Y130.290 E0.01246
G1 X109.064 Y122.566 E0.34556
G1 X108.526 Y122.566 E0.01702
G1 X116.592 Y130.631 E0.36082
G1 X116.395 Y130.972 E0.01246
G1 X107.988 Y122.566 E0.37607
G1 X107.450 Y122.566 E0.01702
G1 X116.198 Y131.313 E0.39133
G1 X116.001 Y131.654 E0.01246
G1 X106.912 Y122.566 E0.40659
G1 X106.374 Y122.566 E0.01702
G1 X115.805 Y131.996 E0.42185
G1 X115.608 Y132.337 E0.01246
G1 X105.836 Y122.566 E0.43711
G1 X105.298 Y122.566 E0.01702
G1 X115.411 Y132.678 E0.45236
G1 X115.214 Y133.019 E0.01246
G1 X104.760 Y122.566 E0.46762
G1 X104.355 Y122.566 E0.01282
G1 X104.307 Y122.650 E0.00307
G1 X115.017 Y133.360 E0.47912
G1 X114.820 Y133.701 E0.01246
G1 X104.110 Y122.991 E0.47912
G1 X103.913 Y123.332 E0.01246
G1 X114.623 Y134.042 E0.47912
G1 X114.426 Y134.383 E0.01246
G1 X103.716 Y123.673 E0.47912
G1 X103.519 Y124.014 E0.01246
G1 X114.229 Y134.724 E0.47912
