;FLAVOR:Marlin
;TIME:1699
;Filament used: 1.52388m
;Layer height: 0.28
;MINX:85.311
;MINY:85.313
;MINZ:0.28
;MAXX:149.689
;MAXY:149.689
;MAXZ:11.76
;Generated with Cura_SteamEngine 4.9.1
M140 S55
M105
M190 S55
M104 S215
M105
M109 S215
M82 ;absolute extrusion mode
; Ender 3 Custom Start G-code
G92 E0 ; Reset Extruder
G28 ; Home all axes
G1 Z2.0 F3000 ; Move Z Axis up little to prevent scratching of Heat Bed
G1 X0.1 Y20 Z0.3 F5000.0 ; Move to start position
G1 X0.1 Y200.0 Z0.3 F1500.0 E15 ; Draw the first line
G1 X0.4 Y200.0 Z0.3 F5000.0 ; Move to side a little
G1 X0.4 Y20 Z0.3 F1500.0 E30 ; Draw the second line
G92 E0 ; Reset Extruder
G1 Z2.0 F3000 ; Move Z Axis up little to prevent scratching of Heat Bed
G1 X5 Y20 Z0.3 F5000.0 ; Move over to prevent blob squish
G92 E0
G92 E0
G1 F2700 E-5
;LAYER_COUNT:42
;LAYER:0
M107
G0 F6000 X94.896 Y94.582 Z0.28
;TYPE:SKIRT
G1 F2700 E0
G1 F1200 X95.1 Y94.382 E0.0133
G1 X95.386 Y94.108 E0.03175
G1 X95.596 Y93.912 E0.04512
G1 X96.081 Y93.471 E0.07564
G1 X96.294 Y93.282 E0.0889
G1 X96.637 Y92.986 E0.11
G1 X96.855 Y92.803 E0.12325
G1 X97.374 Y92.378 E0.15449
G1 X97.612 Y92.189 E0.16864
G1 X97.961 Y91.919 E0.18919
G1 X98.195 Y91.742 E0.20285
G1 X98.788 Y91.308 E0.23707
G1 X99.035 Y91.133 E0.25116
G1 X99.329 Y90.93 E0.2678
G1 X99.531 Y90.794 E0.27914
G1 X100.119 Y90.407 E0.31192
G1 X100.382 Y90.239 E0.32645
G1 X100.754 Y90.009 E0.34681
G1 X101.027 Y89.846 E0.36162
G1 X101.666 Y89.476 E0.396
G1 X101.892 Y89.348 E0.4081
G1 X102.215 Y89.171 E0.42525
G1 X102.475 Y89.033 E0.43895
G1 X103.135 Y88.694 E0.4735
G1 X103.379 Y88.573 E0.48618
G1 X103.698 Y88.419 E0.50268
G1 X103.991 Y88.283 E0.51772
G1 X104.671 Y87.979 E0.5524
G1 X104.914 Y87.873 E0.56475
G1 X105.294 Y87.714 E0.58393
G1 X105.576 Y87.601 E0.59808
G1 X106.218 Y87.353 E0.63012
G1 X106.479 Y87.256 E0.64309
G1 X106.893 Y87.108 E0.66356
G1 X107.188 Y87.007 E0.67808
G1 X107.857 Y86.789 E0.71084
G1 X108.124 Y86.706 E0.72386
G1 X108.51 Y86.591 E0.74262
G1 X108.783 Y86.513 E0.75584
G1 X109.457 Y86.331 E0.78835
G1 X109.74 Y86.259 E0.80194
G1 X110.137 Y86.163 E0.82096
G1 X110.431 Y86.096 E0.835
G1 X111.159 Y85.941 E0.86966
G1 X111.423 Y85.888 E0.8822
G1 X111.807 Y85.816 E0.90039
G1 X112.114 Y85.763 E0.9149
G1 X112.79 Y85.656 E0.94677
G1 X113.087 Y85.613 E0.96074
G1 X113.524 Y85.556 E0.98126
G1 X113.797 Y85.524 E0.99406
G1 X114.482 Y85.452 E1.02613
G1 X114.793 Y85.424 E1.04067
G1 X115.185 Y85.394 E1.05898
G1 X115.445 Y85.377 E1.07111
G1 X116.185 Y85.338 E1.10562
G1 X116.496 Y85.326 E1.12011
G1 X116.906 Y85.316 E1.13921
G1 X117.174 Y85.313 E1.15169
G1 X117.868 Y85.313 E1.184
G1 X118.167 Y85.317 E1.19793
G1 X118.609 Y85.329 E1.21852
G1 X118.907 Y85.341 E1.2324
G1 X119.533 Y85.375 E1.2616
G1 X119.819 Y85.395 E1.27495
G1 X120.328 Y85.436 E1.29872
G1 X120.614 Y85.462 E1.3121
G1 X121.297 Y85.535 E1.34408
G1 X121.586 Y85.57 E1.35764
G1 X121.96 Y85.62 E1.37521
G1 X122.249 Y85.663 E1.38881
G1 X122.877 Y85.764 E1.41843
G1 X123.157 Y85.812 E1.43166
G1 X123.669 Y85.908 E1.45591
G1 X123.946 Y85.964 E1.46907
G1 X124.679 Y86.121 E1.50398
G1 X125.01 Y86.197 E1.51979
G1 X125.318 Y86.273 E1.53456
G1 X125.556 Y86.335 E1.54602
G1 X126.225 Y86.516 E1.57829
G1 X126.511 Y86.597 E1.59213
G1 X126.978 Y86.737 E1.61483
G1 X127.254 Y86.824 E1.62831
G1 X127.905 Y87.038 E1.66021
G1 X128.195 Y87.138 E1.6745
G1 X128.559 Y87.269 E1.69251
G1 X128.811 Y87.363 E1.70504
G1 X129.448 Y87.61 E1.73685
G1 X129.739 Y87.728 E1.75147
G1 X130.15 Y87.901 E1.77224
G1 X130.394 Y88.007 E1.78462
G1 X131.061 Y88.307 E1.81868
G1 X131.329 Y88.432 E1.83245
G1 X131.671 Y88.597 E1.85013
G1 X131.929 Y88.725 E1.86354
G1 X132.556 Y89.048 E1.89638
G1 X132.819 Y89.189 E1.91028
G1 X133.199 Y89.398 E1.93047
G1 X133.452 Y89.541 E1.944
G1 X134.052 Y89.892 E1.97637
G1 X134.293 Y90.037 E1.98947
G1 X134.627 Y90.244 E2.00777
G1 X134.872 Y90.401 E2.02132
G1 X135.461 Y90.788 E2.05413
G1 X135.719 Y90.962 E2.06862
G1 X136.077 Y91.212 E2.08895
G1 X136.295 Y91.369 E2.10146
G1 X136.854 Y91.78 E2.13377
G1 X137.081 Y91.951 E2.14701
G1 X137.42 Y92.214 E2.16698
G1 X137.669 Y92.413 E2.18183
G1 X138.224 Y92.87 E2.2153
G1 X138.433 Y93.046 E2.22803
G1 X138.709 Y93.285 E2.24503
G1 X138.918 Y93.472 E2.25809
G1 X139.472 Y93.977 E2.29299
G1 X139.695 Y94.185 E2.30719
G1 X139.97 Y94.45 E2.32497
G1 X140.175 Y94.653 E2.33841
G1 X140.69 Y95.176 E2.37259
G1 X140.869 Y95.363 E2.38464
G1 X141.148 Y95.66 E2.40361
G1 X141.368 Y95.901 E2.41881
G1 X141.807 Y96.397 E2.44965
G1 X141.999 Y96.619 E2.46332
G1 X142.295 Y96.972 E2.48477
G1 X142.48 Y97.199 E2.49841
G1 X142.92 Y97.753 E2.53135
G1 X143.085 Y97.966 E2.54389
G1 X143.31 Y98.264 E2.56128
G1 X143.485 Y98.502 E2.57504
G1 X143.926 Y99.12 E2.61039
G1 X144.086 Y99.352 E2.62351
G1 X144.286 Y99.648 E2.64015
G1 X144.452 Y99.9 E2.6542
G1 X144.83 Y100.494 E2.68698
G1 X144.995 Y100.761 E2.7016
G1 X145.241 Y101.173 E2.72394
G1 X145.371 Y101.397 E2.736
G1 X145.712 Y102 E2.76826
G1 X145.858 Y102.267 E2.78243
G1 X146.037 Y102.605 E2.80024
G1 X146.165 Y102.854 E2.81327
G1 X146.455 Y103.437 E2.84359
G1 X146.58 Y103.697 E2.85703
G1 X146.793 Y104.155 E2.88055
G1 X146.917 Y104.431 E2.89464
G1 X147.203 Y105.093 E2.92822
G1 X147.323 Y105.382 E2.94279
G1 X147.443 Y105.683 E2.95788
G1 X147.534 Y105.919 E2.96965
G1 X147.795 Y106.62 E3.00448
G1 X147.897 Y106.906 E3.01862
G1 X148.028 Y107.29 E3.03751
G1 X148.117 Y107.562 E3.05084
G1 X148.341 Y108.279 E3.08582
G1 X148.428 Y108.572 E3.10005
G1 X148.518 Y108.891 E3.11548
G1 X148.591 Y109.164 E3.12864
G1 X148.784 Y109.922 E3.16507
G1 X148.85 Y110.197 E3.17823
G1 X148.933 Y110.562 E3.19566
G1 X148.99 Y110.828 E3.20833
G1 X149.125 Y111.498 E3.24016
G1 X149.187 Y111.832 E3.25597
G1 X149.264 Y112.286 E3.27742
G1 X149.303 Y112.533 E3.28906
G1 X149.406 Y113.237 E3.32219
G1 X149.447 Y113.547 E3.33675
G1 X149.489 Y113.905 E3.35354
G1 X149.518 Y114.18 E3.36641
G1 X149.583 Y114.887 E3.39947
G1 X149.607 Y115.194 E3.41381
G1 X149.635 Y115.633 E3.43429
G1 X149.649 Y115.909 E3.44716
G1 X149.677 Y116.635 E3.48099
G1 X149.684 Y116.91 E3.4938
G1 X149.689 Y117.278 E3.51094
G1 X149.689 Y117.576 E3.52481
G1 X149.679 Y118.313 E3.55914
G1 X149.671 Y118.617 E3.5733
G1 X149.654 Y119.029 E3.5925
G1 X149.639 Y119.307 E3.60546
G1 X149.595 Y119.968 E3.63631
G1 X149.57 Y120.269 E3.65037
G1 X149.526 Y120.736 E3.67221
G1 X149.496 Y121.017 E3.68537
G1 X149.415 Y121.691 E3.71698
G1 X149.378 Y121.975 E3.73032
G1 X149.318 Y122.384 E3.74957
G1 X149.271 Y122.676 E3.76334
G1 X149.15 Y123.37 E3.79614
G1 X149.097 Y123.649 E3.80937
G1 X149.016 Y124.052 E3.82851
G1 X148.956 Y124.333 E3.84189
G1 X148.8 Y125.016 E3.87451
G1 X148.724 Y125.326 E3.88937
G1 X148.617 Y125.739 E3.90924
G1 X148.546 Y126 E3.92183
G1 X148.351 Y126.683 E3.95491
G1 X148.268 Y126.96 E3.96837
G1 X148.148 Y127.342 E3.98701
G1 X148.057 Y127.619 E4.00059
G1 X147.832 Y128.274 E4.03284
G1 X147.744 Y128.52 E4.04501
G1 X147.594 Y128.925 E4.06512
G1 X147.473 Y129.238 E4.08074
G1 X147.188 Y129.941 E4.11606
G1 X147.087 Y130.182 E4.12823
G1 X146.957 Y130.482 E4.14346
G1 X146.834 Y130.756 E4.15744
G1 X146.537 Y131.393 E4.19017
G1 X146.416 Y131.645 E4.20319
G1 X146.218 Y132.043 E4.22388
G1 X146.074 Y132.321 E4.23846
G1 X145.708 Y133.007 E4.27467
G1 X145.562 Y133.272 E4.28876
G1 X145.402 Y133.553 E4.30381
G1 X145.269 Y133.781 E4.3161
G1 X144.902 Y134.391 E4.34925
G1 X144.75 Y134.635 E4.36264
G1 X144.514 Y135.005 E4.38307
G1 X144.352 Y135.251 E4.39679
G1 X143.972 Y135.813 E4.42838
G1 X143.793 Y136.07 E4.44296
G1 X143.548 Y136.411 E4.46251
G1 X143.388 Y136.629 E4.47511
G1 X142.941 Y137.22 E4.50961
G1 X142.781 Y137.426 E4.52176
G1 X142.553 Y137.713 E4.53882
G1 X142.345 Y137.967 E4.55411
G1 X141.868 Y138.532 E4.58854
G1 X141.668 Y138.763 E4.60277
G1 X141.401 Y139.062 E4.62144
G1 X141.228 Y139.251 E4.63337
G1 X140.762 Y139.749 E4.66512
G1 X140.544 Y139.976 E4.67978
G1 X140.216 Y140.307 E4.70148
G1 X140.021 Y140.498 E4.71419
G1 X139.543 Y140.957 E4.74505
G1 X139.326 Y141.16 E4.75888
G1 X139.027 Y141.432 E4.7777
G1 X138.807 Y141.627 E4.79139
G1 X138.22 Y142.133 E4.82748
G1 X138.012 Y142.307 E4.84011
G1 X137.751 Y142.521 E4.85582
G1 X137.522 Y142.704 E4.86947
G1 X136.923 Y143.169 E4.90478
G1 X136.673 Y143.358 E4.91938
G1 X136.36 Y143.587 E4.93743
G1 X136.137 Y143.746 E4.95019
G1 X135.578 Y144.134 E4.98187
G1 X135.353 Y144.286 E4.99452
G1 X134.967 Y144.54 E5.01603
G1 X134.683 Y144.72 E5.03169
G1 X134.101 Y145.078 E5.06351
G1 X133.869 Y145.217 E5.0761
G1 X133.508 Y145.427 E5.09555
G1 X133.262 Y145.566 E5.1087
G1 X132.645 Y145.904 E5.14146
G1 X132.382 Y146.044 E5.15533
G1 X132.039 Y146.22 E5.17329
G1 X131.777 Y146.35 E5.18691
G1 X131.104 Y146.673 E5.22167
G1 X130.859 Y146.787 E5.23425
G1 X130.488 Y146.954 E5.25319
G1 X130.197 Y147.08 E5.26796
G1 X129.579 Y147.337 E5.29912
G1 X128.921 Y147.595 E5.33203
G1 X128.619 Y147.708 E5.34705
G1 X127.946 Y147.947 E5.3803
G1 X127.685 Y148.036 E5.39314
G1 X127.312 Y148.158 E5.41142
G1 X127.034 Y148.245 E5.42498
G1 X126.353 Y148.448 E5.45807
G1 X126.071 Y148.528 E5.47172
G1 X125.681 Y148.633 E5.49053
G1 X125.387 Y148.708 E5.50466
G1 X124.67 Y148.88 E5.53899
G1 X124.409 Y148.939 E5.55145
G1 X124.017 Y149.023 E5.57012
G1 X123.733 Y149.08 E5.58361
G1 X123.091 Y149.2 E5.61402
G1 X122.805 Y149.249 E5.62753
G1 X122.323 Y149.326 E5.65026
G1 X122.016 Y149.371 E5.66471
G1 X121.298 Y149.465 E5.69842
G1 X121.029 Y149.497 E5.71104
G1 X120.708 Y149.531 E5.72607
G1 X120.417 Y149.558 E5.73968
G1 X119.697 Y149.615 E5.77331
G1 X119.381 Y149.635 E5.78805
G1 X118.903 Y149.659 E5.81034
G1 X118.627 Y149.67 E5.8232
G1 X117.989 Y149.686 E5.85292
G1 X117.713 Y149.689 E5.86577
G1 X117.276 Y149.689 E5.88612
G1 X116.968 Y149.685 E5.90046
G1 X116.255 Y149.665 E5.93367
G1 X115.982 Y149.654 E5.9464
G1 X115.604 Y149.634 E5.96402
G1 X115.298 Y149.613 E5.9783
G1 X114.532 Y149.551 E6.01409
G1 X114.25 Y149.525 E6.02728
G1 X113.857 Y149.483 E6.04568
G1 X113.583 Y149.45 E6.05853
G1 X112.933 Y149.364 E6.08906
G1 X112.636 Y149.321 E6.10303
G1 X112.149 Y149.243 E6.126
G1 X111.856 Y149.191 E6.13986
G1 X111.234 Y149.074 E6.16933
G1 X110.949 Y149.017 E6.18286
G1 X110.513 Y148.923 E6.20363
G1 X110.238 Y148.86 E6.21677
G1 X109.57 Y148.698 E6.24877
G1 X109.264 Y148.619 E6.26349
G1 X108.865 Y148.51 E6.28275
G1 X108.603 Y148.435 E6.29544
G1 X107.873 Y148.216 E6.33093
G1 X107.604 Y148.132 E6.34405
G1 X107.281 Y148.026 E6.35988
G1 X107.001 Y147.929 E6.37368
G1 X106.32 Y147.685 E6.40736
G1 X106.043 Y147.582 E6.42112
G1 X105.629 Y147.421 E6.44181
G1 X105.349 Y147.308 E6.45587
G1 X104.736 Y147.05 E6.48684
G1 X104.508 Y146.951 E6.49841
G1 X104.106 Y146.771 E6.51892
G1 X103.809 Y146.633 E6.53417
G1 X103.156 Y146.317 E6.56795
G1 X102.898 Y146.187 E6.5814
G1 X102.569 Y146.017 E6.59864
G1 X102.324 Y145.887 E6.61156
G1 X101.674 Y145.53 E6.64609
G1 X101.423 Y145.387 E6.65954
G1 X101.101 Y145.199 E6.6769
G1 X100.856 Y145.052 E6.69021
G1 X100.244 Y144.673 E6.72373
G1 X99.983 Y144.507 E6.73813
G1 X99.643 Y144.283 E6.75709
G1 X99.393 Y144.113 E6.77117
G1 X98.785 Y143.688 E6.80571
G1 X98.595 Y143.552 E6.81659
G1 X98.29 Y143.329 E6.83418
G1 X98.027 Y143.13 E6.84954
G1 X97.459 Y142.688 E6.88305
G1 X97.235 Y142.51 E6.89637
G1 X96.917 Y142.249 E6.91553
G1 X96.7 Y142.066 E6.92875
G1 X96.145 Y141.586 E6.96292
G1 X95.926 Y141.391 E6.97657
G1 X95.663 Y141.151 E6.99315
G1 X95.444 Y140.945 E7.00715
G1 X94.888 Y140.409 E7.04311
G1 X94.669 Y140.193 E7.05743
G1 X94.413 Y139.932 E7.07446
G1 X94.245 Y139.756 E7.08579
G1 X93.757 Y139.236 E7.11899
G1 X93.531 Y138.988 E7.13462
G1 X93.253 Y138.673 E7.15418
G1 X93.074 Y138.465 E7.16696
G1 X92.625 Y137.93 E7.19948
G1 X92.452 Y137.718 E7.21222
G1 X92.18 Y137.377 E7.23253
G1 X91.993 Y137.137 E7.2467
G1 X91.596 Y136.61 E7.27742
G1 X91.426 Y136.378 E7.29082
G1 X91.17 Y136.019 E7.31135
G1 X91.006 Y135.782 E7.32477
G1 X90.627 Y135.22 E7.35633
G1 X90.463 Y134.97 E7.37025
G1 X90.212 Y134.575 E7.39205
G1 X90.064 Y134.334 E7.40521
G1 X89.71 Y133.744 E7.43725
G1 X89.558 Y133.484 E7.45128
G1 X89.38 Y133.168 E7.46816
G1 X89.248 Y132.927 E7.48096
G1 X88.887 Y132.247 E7.51681
G1 X88.744 Y131.967 E7.53145
G1 X88.557 Y131.589 E7.55109
G1 X88.437 Y131.339 E7.564
G1 X88.175 Y130.774 E7.593
G1 X88.055 Y130.505 E7.60671
G1 X87.853 Y130.037 E7.63045
G1 X87.742 Y129.772 E7.64383
G1 X87.493 Y129.151 E7.67498
G1 X87.387 Y128.876 E7.68871
G1 X87.26 Y128.533 E7.70574
G1 X87.169 Y128.277 E7.71839
G1 X86.93 Y127.579 E7.75274
G1 X86.841 Y127.309 E7.76598
G1 X86.713 Y126.901 E7.78589
G1 X86.623 Y126.596 E7.8007
G1 X86.426 Y125.898 E7.83447
G1 X86.356 Y125.638 E7.84701
G1 X86.271 Y125.306 E7.86297
G1 X86.202 Y125.021 E7.87662
G1 X86.043 Y124.323 E7.90995
G1 X85.98 Y124.028 E7.924
G1 X85.889 Y123.571 E7.9457
G1 X85.835 Y123.28 E7.95948
G1 X85.712 Y122.562 E7.9934
G1 X85.67 Y122.299 E8.0058
G1 X85.617 Y121.937 E8.02284
G1 X85.577 Y121.634 E8.03707
G1 X85.497 Y120.957 E8.06881
G1 X85.466 Y120.664 E8.08253
G1 X85.426 Y120.225 E8.10306
G1 X85.404 Y119.938 E8.11646
G1 X85.356 Y119.197 E8.15104
G1 X85.342 Y118.923 E8.16381
G1 X85.328 Y118.571 E8.18022
G1 X85.32 Y118.274 E8.19405
G1 X85.311 Y117.567 E8.22697
G1 X85.311 Y117.276 E8.24052
G1 X85.317 Y116.838 E8.26092
G1 X85.325 Y116.533 E8.27513
G1 X85.356 Y115.786 E8.30994
G1 X85.372 Y115.506 E8.323
G1 X85.396 Y115.148 E8.33971
G1 X85.419 Y114.854 E8.35344
G1 X85.485 Y114.152 E8.38627
G1 X85.515 Y113.874 E8.39929
G1 X85.564 Y113.465 E8.41847
G1 X85.603 Y113.17 E8.43233
G1 X85.707 Y112.464 E8.46556
G1 X85.756 Y112.164 E8.47971
G1 X85.828 Y111.754 E8.4991
G1 X85.873 Y111.515 E8.51042
G1 X86.007 Y110.84 E8.54246
G1 X86.075 Y110.521 E8.55765
G1 X86.173 Y110.094 E8.57805
G1 X86.249 Y109.783 E8.59296
G1 X86.431 Y109.084 E8.62659
G1 X86.5 Y108.83 E8.63885
G1 X86.607 Y108.456 E8.65696
G1 X86.685 Y108.195 E8.66965
G1 X86.886 Y107.553 E8.70097
G1 X86.983 Y107.261 E8.7153
G1 X87.132 Y106.828 E8.73662
G1 X87.228 Y106.558 E8.74997
G1 X87.485 Y105.87 E8.78416
G1 X87.593 Y105.593 E8.79801
G1 X87.716 Y105.289 E8.81328
G1 X87.821 Y105.039 E8.8259
G1 X88.118 Y104.354 E8.86067
G1 X88.243 Y104.075 E8.87491
G1 X88.427 Y103.681 E8.89515
G1 X88.552 Y103.423 E8.9085
G1 X88.861 Y102.804 E8.94072
G1 X88.999 Y102.536 E8.95475
G1 X89.18 Y102.197 E8.97265
G1 X89.316 Y101.951 E8.98574
G1 X89.704 Y101.267 E9.02236
G1 X89.842 Y101.03 E9.03513
G1 X90.018 Y100.737 E9.05104
G1 X90.173 Y100.487 E9.06474
G1 X90.532 Y99.924 E9.09583
G1 X90.703 Y99.664 E9.11032
G1 X90.996 Y99.232 E9.13463
G1 X91.164 Y98.992 E9.14827
G1 X91.548 Y98.457 E9.17893
G1 X91.723 Y98.22 E9.19265
G1 X91.972 Y97.892 E9.21183
G1 X92.137 Y97.679 E9.22437
G1 X92.581 Y97.123 E9.2575
G1 X92.777 Y96.885 E9.27186
G1 X93.034 Y96.581 E9.2904
G1 X93.207 Y96.381 E9.30271
G1 X93.673 Y95.856 E9.3354
G1 X93.871 Y95.639 E9.34908
G1 X94.136 Y95.356 E9.36713
G1 X94.351 Y95.132 E9.38159
G1 X94.896 Y94.582 E9.41764
G0 F6000 X95.181 Y94.864
G1 F1200 X95.377 Y94.671 E9.43045
G1 X95.663 Y94.397 E9.44889
G1 X95.865 Y94.208 E9.46177
G1 X96.35 Y93.767 E9.4923
G1 X96.556 Y93.585 E9.5051
G1 X96.899 Y93.289 E9.52619
G1 X97.108 Y93.113 E9.53892
G1 X97.627 Y92.688 E9.57015
G1 X97.857 Y92.505 E9.58384
G1 X98.206 Y92.235 E9.60438
G1 X98.432 Y92.065 E9.61755
G1 X99.025 Y91.631 E9.65177
G1 X99.262 Y91.462 E9.66532
G1 X99.556 Y91.259 E9.68196
G1 X99.751 Y91.128 E9.6929
G1 X100.339 Y90.741 E9.72568
G1 X100.593 Y90.579 E9.7397
G1 X100.965 Y90.349 E9.76007
G1 X101.227 Y90.192 E9.77429
G1 X101.866 Y89.822 E9.80867
G1 X102.084 Y89.699 E9.82033
G1 X102.407 Y89.522 E9.83748
G1 X102.658 Y89.389 E9.85071
G1 X103.318 Y89.05 E9.88526
G1 X103.553 Y88.933 E9.89748
G1 X103.872 Y88.779 E9.91398
G1 X104.154 Y88.648 E9.92845
G1 X104.834 Y88.344 E9.96314
G1 X105.068 Y88.242 E9.97502
G1 X105.448 Y88.083 E9.9942
G1 X105.72 Y87.974 E10.00785
G1 X106.362 Y87.726 E10.0399
G1 X106.614 Y87.633 E10.0524
G1 X107.028 Y87.485 E10.07288
G1 X107.312 Y87.388 E10.08685
G1 X107.981 Y87.17 E10.11961
G1 X108.238 Y87.089 E10.13216
G1 X108.624 Y86.974 E10.15092
G1 X108.888 Y86.9 E10.16368
G1 X109.562 Y86.718 E10.19619
G1 X109.834 Y86.648 E10.20927
G1 X110.231 Y86.552 E10.22829
G1 X110.515 Y86.487 E10.24185
G1 X111.243 Y86.332 E10.27651
G1 X111.881 Y86.21 E10.30676
