;FLAVOR:Marlin
;TIME:13059
;Filament used: 14.3523m
;Layer height: 0.28
;MINX:25.636
;MINY:63.735
;MINZ:0.336
;MAXX:209.365
;MAXY:171.246
;MAXZ:3.146
;Generated with Cura_SteamEngine 4.7.0
M140 S55
M105
M190 S55
M104 S210
M105
M109 S210
M82 ;absolute extrusion mode
; Ender 3 Custom Start G-code
G92 E0 ; Reset Extruder
G28 ; Home all axes
G1 Z2.0 F3000 ; Move Z Axis up little to prevent scratching of Heat Bed
G1 X0.1 Y20 Z0.3 F5000.0 ; Move to start position
G1 X0.1 Y200.0 Z0.3 F1500.0 E15 ; Draw the first line
G1 X0.4 Y200.0 Z0.3 F5000.0 ; Move to side a little
G1 X0.4 Y20 Z0.3 F1500.0 E30 ; Draw the second line
G92 E0 ; Reset Extruder
G1 Z2.0 F3000 ; Move Z Axis up little to prevent scratching of Heat Bed
G1 X5 Y20 Z0.3 F5000.0 ; Move over to prevent blob squish
G92 E0
G92 E0
G1 F2700 E-5
;LAYER_COUNT:6
;LAYER:-6
M107
G0 F9000 X34.543 Y66.462 Z0.336
;TYPE:SUPPORT-INTERFACE
G1 F2700 E0
G1 F1125 X34.693 Y66.384 E0.01889
G1 X35.508 Y66.001 E0.11953
G1 X35.651 Y65.941 E0.13686
G1 X36.51 Y65.612 E0.23966
G1 X36.66 Y65.56 E0.2574
G1 X37.51 Y65.305 E0.35657
G1 X37.683 Y65.258 E0.37661
G1 X38.578 Y65.058 E0.47909
G1 X38.708 Y65.035 E0.49385
G1 X39.613 Y64.901 E0.59609
G1 X39.782 Y64.883 E0.61508
G1 X40.671 Y64.817 E0.7147
G1 X40.855 Y64.808 E0.73529
G1 X41.36 Y64.8 E0.79173
G1 X193.668 Y64.8 E17.81277
G1 X194.704 Y64.837 E17.92862
G1 X194.827 Y64.846 E17.9424
G1 X195.744 Y64.948 E18.04551
G1 X195.919 Y64.973 E18.06527
G1 X196.808 Y65.137 E18.16629
G1 X196.931 Y65.165 E18.18039
G1 X197.825 Y65.399 E18.28367
G1 X197.988 Y65.448 E18.30269
G1 X198.83 Y65.734 E18.40206
G1 X198.996 Y65.798 E18.42195
G1 X199.799 Y66.139 E18.51944
G1 X199.988 Y66.227 E18.54274
G1 X200.782 Y66.635 E18.6425
G1 X200.899 Y66.702 E18.65757
G1 X201.678 Y67.176 E18.75947
G1 X201.829 Y67.276 E18.77971
G1 X202.543 Y67.787 E18.87784
G1 X202.691 Y67.9 E18.89865
G1 X203.382 Y68.476 E18.99918
G1 X203.495 Y68.577 E19.01612
G1 X204.144 Y69.202 E19.11681
G1 X204.264 Y69.327 E19.13617
G1 X204.867 Y69.998 E19.23699
G1 X204.963 Y70.114 E19.25382
G1 X205.522 Y70.838 E19.35604
G1 X205.616 Y70.969 E19.37406
G1 X206.116 Y71.723 E19.47516
G1 X206.192 Y71.849 E19.49161
G1 X206.638 Y72.643 E19.59338
G1 X206.716 Y72.793 E19.61227
G1 X207.099 Y73.608 E19.71291
G1 X207.159 Y73.751 E19.73024
G1 X207.488 Y74.61 E19.83304
G1 X207.54 Y74.76 E19.85078
G1 X207.795 Y75.61 E19.94995
G1 X207.842 Y75.783 E19.96999
G1 X208.04 Y76.669 E20.07144
G1 X208.065 Y76.808 E20.08722
G1 X208.198 Y77.707 E20.18879
G1 X208.216 Y77.869 E20.207
G1 X208.283 Y78.771 E20.30808
G1 X208.292 Y78.955 E20.32867
G1 X208.3 Y79.456 E20.38466
G1 X208.3 Y155.586 E28.8925
G1 X208.264 Y156.592 E29.005
G1 X208.254 Y156.727 E29.02012
G1 X208.152 Y157.644 E29.12324
G1 X208.127 Y157.819 E29.14299
G1 X207.965 Y158.697 E29.24277
G1 X207.935 Y158.831 E29.25811
G1 X207.704 Y159.716 E29.36033
G1 X207.652 Y159.888 E29.38041
G1 X207.376 Y160.7 E29.47625
G1 X207.296 Y160.909 E29.50126
G1 X206.961 Y161.699 E29.59716
G1 X206.88 Y161.874 E29.61871
G1 X206.465 Y162.682 E29.72022
G1 X206.398 Y162.799 E29.73529
G1 X205.924 Y163.578 E29.83719
G1 X205.824 Y163.729 E29.85743
G1 X205.313 Y164.443 E29.95555
G1 X205.2 Y164.591 E29.97636
G1 X204.624 Y165.282 E30.0769
G1 X204.523 Y165.395 E30.09383
G1 X203.898 Y166.044 E30.19452
G1 X203.773 Y166.164 E30.21389
G1 X203.103 Y166.766 E30.31455
G1 X202.986 Y166.863 E30.33153
G1 X202.274 Y167.413 E30.43208
G1 X202.115 Y167.526 E30.45388
G1 X201.377 Y168.016 E30.55287
G1 X201.251 Y168.092 E30.56932
G1 X200.457 Y168.538 E30.67109
G1 X200.306 Y168.616 E30.69009
G1 X199.492 Y168.999 E30.79062
G1 X199.349 Y169.059 E30.80795
G1 X198.49 Y169.388 E30.91075
G1 X198.34 Y169.44 E30.92849
G1 X197.49 Y169.695 E31.02766
G1 X197.317 Y169.742 E31.0477
G1 X196.422 Y169.942 E31.15018
G1 X196.292 Y169.965 E31.16494
G1 X195.387 Y170.099 E31.26718
G1 X195.219 Y170.117 E31.28606
G1 X194.329 Y170.183 E31.38579
G1 X194.145 Y170.192 E31.40638
G1 X193.64 Y170.2 E31.46282
G1 X41.332 Y170.2 E48.48386
G1 X40.296 Y170.163 E48.59971
G1 X40.173 Y170.154 E48.61349
G1 X39.256 Y170.052 E48.7166
G1 X39.081 Y170.027 E48.73636
G1 X38.192 Y169.863 E48.83739
G1 X38.069 Y169.835 E48.85148
G1 X37.175 Y169.601 E48.95476
G1 X37.012 Y169.552 E48.97378
G1 X36.17 Y169.266 E49.07315
G1 X36.004 Y169.202 E49.09304
G1 X35.201 Y168.861 E49.19053
G1 X35.012 Y168.773 E49.21383
G1 X34.218 Y168.365 E49.31359
G1 X34.101 Y168.298 E49.32866
G1 X33.322 Y167.824 E49.43057
G1 X33.171 Y167.724 E49.45081
G1 X32.457 Y167.213 E49.54893
G1 X32.309 Y167.1 E49.56974
G1 X31.618 Y166.524 E49.67027
G1 X31.505 Y166.423 E49.68721
G1 X30.856 Y165.798 E49.7879
G1 X30.736 Y165.673 E49.80726
G1 X30.133 Y165.002 E49.90808
G1 X30.036 Y164.884 E49.92515
G1 X29.478 Y164.162 E50.02713
G1 X29.374 Y164.015 E50.04725
G1 X28.881 Y163.272 E50.1469
G1 X28.808 Y163.151 E50.16269
G1 X28.356 Y162.346 E50.26586
G1 X28.284 Y162.207 E50.28336
G1 X27.887 Y161.361 E50.38779
G1 X27.841 Y161.249 E50.40133
G1 X27.512 Y160.39 E50.50412
G1 X27.455 Y160.225 E50.52363
G1 X27.205 Y159.39 E50.62104
G1 X27.158 Y159.217 E50.64107
G1 X26.957 Y158.316 E50.74424
G1 X26.935 Y158.192 E50.75831
G1 X26.8 Y157.278 E50.86156
G1 X26.783 Y157.118 E50.87954
G1 X26.717 Y156.226 E50.9795
G1 X26.708 Y156.045 E50.99975
G1 X26.7 Y155.544 E51.05575
G1 X26.7 Y79.414 E59.56359
G1 X26.736 Y78.408 E59.67608
G1 X26.746 Y78.273 E59.69121
G1 X26.848 Y77.356 E59.79432
G1 X26.873 Y77.181 E59.81408
G1 X27.035 Y76.303 E59.91385
G1 X27.065 Y76.169 E59.9292
G1 X27.296 Y75.284 E60.03142
G1 X27.348 Y75.112 E60.0515
G1 X27.634 Y74.27 E60.15087
G1 X27.698 Y74.104 E60.17076
G1 X28.039 Y73.301 E60.26825
G1 X28.12 Y73.126 E60.2898
G1 X28.535 Y72.318 E60.39131
G1 X28.602 Y72.201 E60.40638
G1 X29.076 Y71.422 E60.50828
G1 X29.176 Y71.271 E60.52852
G1 X29.687 Y70.557 E60.62665
G1 X29.8 Y70.409 E60.64746
G1 X30.376 Y69.718 E60.74799
G1 X30.477 Y69.605 E60.76493
G1 X31.102 Y68.956 E60.86562
G1 X31.227 Y68.836 E60.88498
G1 X31.898 Y68.233 E60.9858
G1 X32.014 Y68.137 E61.00263
G1 X32.726 Y67.587 E61.10317
G1 X32.885 Y67.474 E61.12497
G1 X33.623 Y66.984 E61.22397
G1 X33.749 Y66.908 E61.24041
G1 X34.543 Y66.462 E61.34219
G0 F9000 X35.2 Y66.145
G1 F1125 X35.2 Y168.86 E72.821
G0 F9000 X36.8 Y169.479
G1 F1125 X36.8 Y65.518 E84.43907
G0 F9000 X38.4 Y65.097
G1 F1125 X38.4 Y169.901 E96.15134
G0 F9000 X40 Y170.134
G1 F1125 X40 Y64.866 E107.91546
G0 F9000 X41.6 Y64.8
G1 F1125 X41.6 Y170.2 E119.69434
G0 F9000 X43.2 Y170.2
G1 F1125 X43.2 Y64.8 E131.47322
G0 F9000 X44.8 Y64.8
G1 F1125 X44.8 Y170.2 E143.2521
G0 F9000 X46.4 Y170.2
G1 F1125 X46.4 Y64.8 E155.03097
G0 F9000 X48 Y64.8
G1 F1125 X48 Y170.2 E166.80985
G0 F9000 X49.6 Y170.2
G1 F1125 X49.6 Y64.8 E178.58873
G0 F9000 X51.2 Y64.8
G1 F1125 X51.2 Y170.2 E190.3676
G0 F9000 X52.8 Y170.2
G1 F1125 X52.8 Y64.8 E202.14648
G0 F9000 X54.4 Y64.8
G1 F1125 X54.4 Y170.2 E213.92536
G0 F9000 X56 Y170.2
G1 F1125 X56 Y64.8 E225.70424
G0 F9000 X57.6 Y64.8
G1 F1125 X57.6 Y170.2 E237.48311
G0 F9000 X59.2 Y170.2
G1 F1125 X59.2 Y64.8 E249.26199
G0 F9000 X60.8 Y64.8
G1 F1125 X60.8 Y170.2 E261.04087
G0 F9000 X62.4 Y170.2
G1 F1125 X62.4 Y64.8 E272.81975
G0 F9000 X64 Y64.8
G1 F1125 X64 Y170.2 E284.59862
G0 F9000 X65.6 Y170.2
G1 F1125 X65.6 Y64.8 E296.3775
G0 F9000 X67.2 Y64.8
G1 F1125 X67.2 Y170.2 E308.15638
G0 F9000 X68.8 Y170.2
G1 F1125 X68.8 Y64.8 E319.93525
G0 F9000 X70.4 Y64.8
G1 F1125 X70.4 Y170.2 E331.71413
G0 F9000 X72 Y170.2
G1 F1125 X72 Y64.8 E343.49301
G0 F9000 X73.6 Y64.8
G1 F1125 X73.6 Y170.2 E355.27189
G0 F9000 X75.2 Y170.2
G1 F1125 X75.2 Y64.8 E367.05076
G0 F9000 X76.8 Y64.8
G1 F1125 X76.8 Y170.2 E378.82964
G0 F9000 X78.4 Y170.2
G1 F1125 X78.4 Y64.8 E390.60852
G0 F9000 X80 Y64.8
G1 F1125 X80 Y170.2 E402.3874
G0 F9000 X81.6 Y170.2
G1 F1125 X81.6 Y64.8 E414.16627
G0 F9000 X83.2 Y64.8
G1 F1125 X83.2 Y170.2 E425.94515
G0 F9000 X84.8 Y170.2
G1 F1125 X84.8 Y64.8 E437.72403
G0 F9000 X86.4 Y64.8
G1 F1125 X86.4 Y170.2 E449.5029
G0 F9000 X88 Y170.2
G1 F1125 X88 Y64.8 E461.28178
G0 F9000 X89.6 Y64.8
G1 F1125 X89.6 Y170.2 E473.06066
G0 F9000 X91.2 Y170.2
G1 F1125 X91.2 Y64.8 E484.83954
G0 F9000 X92.8 Y64.8
G1 F1125 X92.8 Y170.2 E496.61841
G0 F9000 X94.4 Y170.2
G1 F1125 X94.4 Y64.8 E508.39729
G0 F9000 X96 Y64.8
G1 F1125 X96 Y170.2 E520.17617
G0 F9000 X97.6 Y170.2
G1 F1125 X97.6 Y64.8 E531.95505
G0 F9000 X99.2 Y64.8
G1 F1125 X99.2 Y170.2 E543.73392
G0 F9000 X100.8 Y170.2
G1 F1125 X100.8 Y64.8 E555.5128
G0 F9000 X102.4 Y64.8
G1 F1125 X102.4 Y170.2 E567.29168
G0 F9000 X104 Y170.2
G1 F1125 X104 Y64.8 E579.07055
G0 F9000 X105.6 Y64.8
G1 F1125 X105.6 Y170.2 E590.84943
G0 F9000 X107.2 Y170.2
G1 F1125 X107.2 Y64.8 E602.62831
G0 F9000 X108.8 Y64.8
G1 F1125 X108.8 Y170.2 E614.40719
G0 F9000 X110.4 Y170.2
G1 F1125 X110.4 Y64.8 E626.18606
G0 F9000 X112 Y64.8
G1 F1125 X112 Y170.2 E637.96494
G0 F9000 X113.6 Y170.2
G1 F1125 X113.6 Y64.8 E649.74382
G0 F9000 X115.2 Y64.8
G1 F1125 X115.2 Y170.2 E661.5227
G0 F9000 X116.8 Y170.2
G1 F1125 X116.8 Y64.8 E673.30157
G0 F9000 X118.4 Y64.8
G1 F1125 X118.4 Y170.2 E685.08045
G0 F9000 X120 Y170.2
G1 F1125 X120 Y64.8 E696.85933
G0 F9000 X121.6 Y64.8
G1 F1125 X121.6 Y170.2 E708.6382
G0 F9000 X123.2 Y170.2
G1 F1125 X123.2 Y64.8 E720.41708
G0 F9000 X124.8 Y64.8
G1 F1125 X124.8 Y170.2 E732.19596
G0 F9000 X126.4 Y170.2
G1 F1125 X126.4 Y64.8 E743.97484
G0 F9000 X128 Y64.8
G1 F1125 X128 Y170.2 E755.75371
G0 F9000 X129.6 Y170.2
G1 F1125 X129.6 Y64.8 E767.53259
G0 F9000 X131.2 Y64.8
G1 F1125 X131.2 Y170.2 E779.31147
G0 F9000 X132.8 Y170.2
G1 F1125 X132.8 Y64.8 E791.09034
G0 F9000 X134.4 Y64.8
G1 F1125 X134.4 Y170.2 E802.86922
G0 F9000 X136 Y170.2
G1 F1125 X136 Y64.8 E814.6481
G0 F9000 X137.6 Y64.8
G1 F1125 X137.6 Y170.2 E826.42698
G0 F9000 X139.2 Y170.2
G1 F1125 X139.2 Y64.8 E838.20585
G0 F9000 X140.8 Y64.8
G1 F1125 X140.8 Y170.2 E849.98473
G0 F9000 X142.4 Y170.2
G1 F1125 X142.4 Y64.8 E861.76361
G0 F9000 X144 Y64.8
G1 F1125 X144 Y170.2 E873.54249
G0 F9000 X145.6 Y170.2
G1 F1125 X145.6 Y64.8 E885.32136
G0 F9000 X147.2 Y64.8
G1 F1125 X147.2 Y170.2 E897.10024
G0 F9000 X148.8 Y170.2
G1 F1125 X148.8 Y64.8 E908.87912
G0 F9000 X150.4 Y64.8
G1 F1125 X150.4 Y170.2 E920.65799
G0 F9000 X152 Y170.2
G1 F1125 X152 Y64.8 E932.43687
G0 F9000 X153.6 Y64.8
G1 F1125 X153.6 Y170.2 E944.21575
G0 F9000 X155.2 Y170.2
G1 F1125 X155.2 Y64.8 E955.99463
G0 F9000 X156.8 Y64.8
G1 F1125 X156.8 Y170.2 E967.7735
G0 F9000 X158.4 Y170.2
G1 F1125 X158.4 Y64.8 E979.55238
G0 F9000 X160 Y64.8
G1 F1125 X160 Y170.2 E991.33126
G0 F9000 X161.6 Y170.2
G1 F1125 X161.6 Y64.8 E1003.11014
G0 F9000 X163.2 Y64.8
G1 F1125 X163.2 Y170.2 E1014.88901
G0 F9000 X164.8 Y170.2
G1 F1125 X164.8 Y64.8 E1026.66789
G0 F9000 X166.4 Y64.8
G1 F1125 X166.4 Y170.2 E1038.44677
G0 F9000 X168 Y170.2
G1 F1125 X168 Y64.8 E1050.22564
G0 F9000 X169.6 Y64.8
G1 F1125 X169.6 Y170.2 E1062.00452
G0 F9000 X171.2 Y170.2
G1 F1125 X171.2 Y64.8 E1073.7834
G0 F9000 X172.8 Y64.8
G1 F1125 X172.8 Y170.2 E1085.56228
G0 F9000 X174.4 Y170.2
G1 F1125 X174.4 Y64.8 E1097.34115
G0 F9000 X176 Y64.8
G1 F1125 X176 Y170.2 E1109.12003
G0 F9000 X177.6 Y170.2
G1 F1125 X177.6 Y64.8 E1120.89891
G0 F9000 X179.2 Y64.8
G1 F1125 X179.2 Y170.2 E1132.67779
G0 F9000 X180.8 Y170.2
G1 F1125 X180.8 Y64.8 E1144.45666
G0 F9000 X182.4 Y64.8
G1 F1125 X182.4 Y170.2 E1156.23554
G0 F9000 X184 Y170.2
G1 F1125 X184 Y64.8 E1168.01442
G0 F9000 X185.6 Y64.8
G1 F1125 X185.6 Y170.2 E1179.79329
G0 F9000 X187.2 Y170.2
G1 F1125 X187.2 Y64.8 E1191.57217
G0 F9000 X188.8 Y64.8
G1 F1125 X188.8 Y170.2 E1203.35105
G0 F9000 X190.4 Y170.2
G1 F1125 X190.4 Y64.8 E1215.12993
G0 F9000 X192 Y64.8
G1 F1125 X192 Y170.2 E1226.9088
G0 F9000 X193.6 Y170.2
G1 F1125 X193.6 Y64.8 E1238.68768
G0 F9000 X195.2 Y64.888
G1 F1125 X195.2 Y170.119 E1250.44767
G0 F9000 X196.8 Y169.858
G1 F1125 X196.8 Y65.136 E1262.15078
G0 F9000 X198.4 Y65.588
G1 F1125 X198.4 Y169.42 E1273.75443
G0 F9000 X200 Y168.76
G1 F1125 X200 Y66.234 E1285.21212
G0 F9000 X201.6 Y67.129
G1 F1125 X201.6 Y167.868 E1296.47011
G0 F9000 X203.2 Y166.679
G1 F1125 X203.2 Y68.325 E1307.46157
G0 F9000 X204.8 Y69.924
G1 F1125 X204.8 Y165.071 E1318.09464
G0 F9000 X206.4 Y162.796
G1 F1125 X206.4 Y72.22 E1328.21687
G1 F2700 E1323.21687
G0 F9000 X207.578 Y72.143
G0 X208.15 Y73.361
G0 X208.264 Y73.666
G0 X208.873 Y75.522
G0 X208 Y76.491
G1 F2700 E1328.21687
G1 F1125 X208 Y158.508 E1337.3826
G1 F2700 E1332.3826
G0 F9000 X209.046 Y158.701
G0 X208.664 Y160.22
G0 X207.931 Y162.138
G0 X207.313 Y163.343
G0 X206.166 Y165.081
G0 X205.308 Y166.114
G0 X203.803 Y167.568
G0 X202.723 Y168.399
G0 X200.957 Y169.478
G0 X199.739 Y170.05
G0 X197.773 Y170.721
G0 X196.458 Y171.017
G0 X194.39 Y171.246
G0 X40.243 Y171.226
G0 X38.917 Y171.079
G0 X36.89 Y170.627
G0 X35.6 Y170.187
G0 X35.068 Y169.938
G0 X33.557 Y169.213
G0 X33.6 Y167.993
G1 F2700 E1337.3826
G1 F1125 X33.6 Y66.999 E1348.66909
G0 F9000 X32 Y68.148
G1 F1125 X32 Y166.842 E1359.69855
G0 F9000 X30.4 Y165.299
G1 F1125 X30.4 Y69.691 E1370.38313
G0 F9000 X28.8 Y71.875
G1 F1125 X28.8 Y163.136 E1380.58191
G0 F9000 X27.2 Y159.371
G1 F1125 X27.2 Y75.651 E1389.93796
G1 F2700 E1384.93796
G0 F300 X27.2 Y75.651 Z0.756
G0 F9000 X26.032 Y75.912
G0 X25.791 Y77.228
G0 X25.636 Y79.389
G0 X25.654 Y156.287
G0 X25.883 Y158.358
G0 X26.179 Y159.673
G0 X26.85 Y161.638
G0 X27.011 Y161.983
G0 X27.885 Y163.682
G0 X28.82 Y163.171
;TIME_ELAPSED:685.071973
;LAYER:-5
;TYPE:SUPPORT
G1 F2700 E1389.93796
G1 F1125 X33.707 Y168.057 E1390.90332
G1 X34.1 Y168.297 E1390.96764
G1 X34.217 Y168.364 E1390.98648
G1 X35.011 Y168.772 E1391.11118
G1 X35.201 Y168.859 E1391.14037
G1 X36.003 Y169.201 E1391.26217
G1 X36.169 Y169.265 E1391.28702
G1 X36.411 Y169.347 E1391.32271
G1 X27.548 Y160.484 E1393.07364
G1 X27.512 Y160.388 E1393.08797
G1 X27.454 Y160.224 E1393.11227
G1 X27.205 Y159.388 E1393.23412
G1 X27.158 Y159.216 E1393.25903
G1 X27.003 Y158.525 E1393.35795
G1 X38.373 Y169.895 E1395.60416
G1 X39.081 Y170.025 E1395.70471
G1 X39.256 Y170.051 E1395.72943
G1 X40.029 Y170.136 E1395.83806
G1 X26.764 Y156.872 E1398.45853
G1 X26.717 Y156.225 E1398.54915
G1 X26.707 Y156.044 E1398.57447
G1 X26.699 Y155.542 E1398.64461
G1 X26.699 Y155.393 E1398.66542
G1 X41.505 Y170.199 E1401.59042
G1 X42.919 Y170.199 E1401.78795
G1 X26.699 Y153.978 E1404.99239
G1 X26.699 Y152.564 E1405.18991
G1 X44.334 Y170.199 E1408.6738
G1 X45.748 Y170.199 E1408.87132
G1 X26.699 Y151.15 E1412.63455
G1 X26.699 Y149.736 E1412.83208
G1 X47.162 Y170.199 E1416.87465
G1 X48.576 Y170.199 E1417.07217
G1 X26.699 Y148.322 E1421.39409
G1 X26.699 Y146.907 E1421.59175
G1 X49.991 Y170.199 E1426.19321
G1 X51.405 Y170.199 E1426.39073
G1 X26.699 Y145.493 E1431.27153
G1 X26.699 Y144.079 E1431.46905
G1 X52.819 Y170.199 E1436.62919
G1 X54.233 Y170.199 E1436.82672
G1 X26.699 Y142.665 E1442.2662
G1 X26.699 Y141.25 E1442.46387
G1 X55.647 Y170.199 E1448.18279
G1 X57.062 Y170.199 E1448.38046
G1 X26.699 Y139.836 E1454.37882
G1 X26.699 Y138.422 E1454.57635
G1 X58.476 Y170.199 E1460.85406
G1 X59.89 Y170.199 E1461.05158
G1 X26.699 Y137.008 E1467.60863
G1 X26.699 Y135.594 E1467.80616
G1 X61.304 Y170.199 E1474.64255
G1 X62.718 Y170.199 E1474.84008
G1 X26.699 Y134.179 E1481.95592
G1 X26.699 Y132.765 E1482.15344
G1 X64.133 Y170.199 E1489.54872
G1 X65.547 Y170.199 E1489.74624
G1 X26.699 Y131.351 E1497.42087
G1 X26.699 Y129.937 E1497.61839
G1 X66.961 Y170.199 E1505.57236
G1 X68.375 Y170.199 E1505.76988
G1 X26.699 Y128.523 E1514.00319
G1 X26.699 Y127.108 E1514.20085
G1 X69.79 Y170.199 E1522.7137
G1 X71.204 Y170.199 E1522.91123
G1 X26.699 Y125.694 E1531.70342
G1 X26.699 Y124.28 E1531.90094
G1 X72.618 Y170.199 E1540.97248
G1 X74.032 Y170.199 E1541.17
G1 X26.699 Y122.866 E1550.52088
G1 X26.699 Y121.451 E1550.71854
G1 X75.446 Y170.199 E1560.34886
G1 X76.861 Y170.199 E1560.54653
G1 X26.699 Y120.037 E1570.45629
G1 X26.699 Y118.623 E1570.65381
G1 X78.275 Y170.199 E1580.84292
G1 X79.689 Y170.199 E1581.04044
G1 X26.699 Y117.209 E1591.50889
G1 X26.699 Y115.795 E1591.70641
G1 X81.103 Y170.199 E1602.4542
G1 X82.517 Y170.199 E1602.65173
G1 X26.699 Y114.38 E1613.67896
G1 X26.699 Y112.966 E1613.87648
G1 X83.932 Y170.199 E1625.18315
G1 X85.346 Y170.199 E1625.38068
G1 X26.699 Y111.552 E1636.96669
