;FLAVOR:Marlin
;TIME:3899
;Filament used: 2.02013m
;Layer height: 0.2
;MINX:74.726
;MINY:92.472
;MINZ:0.2
;MAXX:165.783
;MAXY:153.244
;MAXZ:10.6
;Generated with Cura_SteamEngine 4.7.0
M140 S65
M105
M190 S65
M104 S225
M105
M109 S225
M82 ;absolute extrusion mode
; Ender 3 Custom Start G-code
G92 E0 ; Reset Extruder
G28 ; Home all axes
G1 Z2.0 F3000 ; Move Z Axis up little to prevent scratching of Heat Bed
G1 X0.1 Y20 Z0.3 F5000.0 ; Move to start position
G1 X0.1 Y200.0 Z0.3 F1500.0 E15 ; Draw the first line
G1 X0.4 Y200.0 Z0.3 F5000.0 ; Move to side a little
G1 X0.4 Y20 Z0.3 F1500.0 E30 ; Draw the second line
G92 E0 ; Reset Extruder
G1 Z2.0 F3000 ; Move Z Axis up little to prevent scratching of Heat Bed
G1 X5 Y20 Z0.3 F5000.0 ; Move over to prevent blob squish
G92 E0
G92 E0
G1 F2700 E-5
;LAYER_COUNT:53
;LAYER:0
M107
G0 F6000 X87.659 Y111.321 Z0.2
;TYPE:SKIRT
G1 F2700 E0
G1 F1200 X87.853 Y111.182 E0.00794
G1 X88.624 Y110.679 E0.03856
G1 X89.777 Y110.089 E0.08163
G1 X90.058 Y109.966 E0.09184
G1 X90.916 Y109.633 E0.12245
G1 X92.222 Y109.283 E0.16742
G1 X92.521 Y109.223 E0.17756
G1 X92.872 Y109.159 E0.18943
G1 X93.984 Y108.974 E0.22692
G1 X96.545 Y108.512 E0.31348
G1 X99.036 Y107.989 E0.39813
G1 X101.445 Y107.413 E0.48052
G1 X103.908 Y106.747 E0.56538
G1 X106.341 Y106.016 E0.64987
G1 X108.762 Y105.214 E0.7347
G1 X111.108 Y104.361 E0.81772
G1 X113.458 Y103.431 E0.90178
G1 X115.793 Y102.43 E0.98628
G1 X118.117 Y101.355 E1.07145
G1 X120.337 Y100.251 E1.15391
G1 X122.565 Y99.063 E1.23789
G1 X124.795 Y97.791 E1.32328
G1 X126.916 Y96.501 E1.40585
G1 X128.527 Y95.449 E1.46984
G1 X129.585 Y94.778 E1.51151
G1 X130.161 Y94.438 E1.53376
G1 X130.347 Y94.336 E1.54081
G1 X131.173 Y93.929 E1.57144
G1 X131.899 Y93.641 E1.59742
G1 X132.436 Y93.451 E1.61636
G1 X133.649 Y93.041 E1.65895
G1 X134.533 Y92.784 E1.68957
G1 X135.436 Y92.606 E1.72018
G1 X136.351 Y92.506 E1.75079
G1 X136.887 Y92.484 E1.76864
G1 X137.634 Y92.473 E1.79349
G1 X137.797 Y92.472 E1.79891
G1 X139.558 Y92.474 E1.85748
G1 X140.404 Y92.486 E1.88562
G1 X143.439 Y92.48 E1.98656
G1 X143.921 Y92.473 E2.0026
G1 X145.377 Y92.475 E2.05102
G1 X145.974 Y92.483 E2.07088
G1 X147.233 Y92.575 E2.11287
G1 X147.533 Y92.615 E2.12293
G1 X148.439 Y92.776 E2.15354
G1 X149.372 Y93.029 E2.18569
G1 X149.615 Y93.107 E2.19418
G1 X150.478 Y93.426 E2.22478
G1 X151.523 Y93.934 E2.26343
G1 X151.721 Y94.044 E2.27096
G1 X152.505 Y94.526 E2.30157
G1 X153.099 Y94.957 E2.32598
G1 X153.131 Y94.982 E2.32733
G1 X153.825 Y95.574 E2.35767
G1 X154.026 Y95.761 E2.3668
G1 X154.672 Y96.417 E2.39742
G1 X155.259 Y97.126 E2.42804
G1 X155.554 Y97.536 E2.44484
G1 X155.697 Y97.745 E2.45326
G1 X156.184 Y98.527 E2.4839
G1 X156.46 Y99.05 E2.50357
G1 X156.993 Y100.133 E2.54372
G1 X157.09 Y100.337 E2.55123
G1 X157.733 Y101.719 E2.60193
G1 X157.838 Y101.953 E2.61046
G1 X158.933 Y104.305 E2.69675
G1 X159.862 Y106.179 E2.76632
G1 X160.628 Y107.769 E2.82502
G1 X160.733 Y107.995 E2.83331
G1 X160.95 Y108.497 E2.8515
G1 X161.369 Y109.537 E2.88879
G1 X162.402 Y112.063 E2.97956
G1 X162.749 Y112.931 E3.01065
G1 X164.245 Y116.331 E3.13419
G1 X164.579 Y117.051 E3.16059
G1 X164.724 Y117.378 E3.17249
G1 X164.924 Y117.85 E3.18954
G1 X165.246 Y118.713 E3.22018
G1 X165.492 Y119.6 E3.25079
G1 X165.7 Y120.821 E3.29199
G1 X165.722 Y121.02 E3.29865
G1 X165.783 Y121.939 E3.32928
G1 X165.765 Y122.859 E3.35989
G1 X165.666 Y123.775 E3.39053
G1 X165.439 Y124.874 E3.42785
G1 X165.359 Y125.179 E3.43834
G1 X165.087 Y126.059 E3.46898
G1 X164.74 Y126.912 E3.49961
G1 X164.32 Y127.731 E3.53022
G1 X163.83 Y128.511 E3.56086
G1 X163.347 Y129.157 E3.58768
G1 X163.186 Y129.356 E3.5962
G1 X162.576 Y130.046 E3.62683
G1 X161.909 Y130.68 E3.65744
G1 X161.189 Y131.255 E3.68808
G1 X160.629 Y131.636 E3.71061
G1 X160.448 Y131.751 E3.71774
G1 X159.651 Y132.21 E3.74833
G1 X158.919 Y132.556 E3.77526
G1 X158.243 Y132.819 E3.79939
G1 X158.02 Y132.897 E3.80725
G1 X157.811 Y132.967 E3.81458
G1 X157.121 Y133.192 E3.83872
G1 X156.064 Y133.526 E3.87558
G1 X153.672 Y134.357 E3.95981
G1 X151.352 Y135.236 E4.04232
G1 X148.962 Y136.221 E4.1283
G1 X146.664 Y137.245 E4.21198
G1 X144.399 Y138.332 E4.29554
G1 X142.136 Y139.497 E4.38019
G1 X139.919 Y140.72 E4.46441
G1 X137.779 Y141.981 E4.54702
G1 X135.61 Y143.342 E4.63219
G1 X133.485 Y144.761 E4.71718
G1 X131.447 Y146.208 E4.80031
G1 X129.432 Y147.724 E4.88418
G1 X127.437 Y149.318 E4.96911
G1 X126.581 Y150.04 E5.00636
G1 X125.802 Y150.682 E5.03993
G1 X124.911 Y151.342 E5.07681
G1 X124.775 Y151.432 E5.08223
G1 X123.986 Y151.906 E5.11285
G1 X123.158 Y152.31 E5.14349
G1 X122.299 Y152.641 E5.17411
G1 X121.448 Y152.887 E5.20357
G1 X121.244 Y152.937 E5.21056
G1 X120.341 Y153.117 E5.24118
G1 X119.426 Y153.219 E5.2718
G1 X118.884 Y153.241 E5.28985
G1 X118.689 Y153.244 E5.29633
G1 X117.781 Y153.219 E5.32654
G1 X117.031 Y153.165 E5.35155
G1 X115.947 Y153.074 E5.38774
G1 X113.294 Y152.895 E5.47618
G1 X112.884 Y152.863 E5.48985
G1 X111.835 Y152.728 E5.52503
G1 X109.361 Y152.284 E5.60863
G1 X106.898 Y151.912 E5.69148
G1 X104.342 Y151.6 E5.77712
G1 X102.098 Y151.385 E5.8521
G1 X85.78 Y150.034 E6.3967
G1 X85.025 Y149.962 E6.42192
G1 X84.42 Y149.886 E6.4422
G1 X84.291 Y149.866 E6.44654
G1 X83.388 Y149.685 E6.47718
G1 X82.666 Y149.481 E6.50213
G1 X82.43 Y149.405 E6.51038
G1 X81.567 Y149.085 E6.54099
G1 X80.734 Y148.691 E6.57164
G1 X79.939 Y148.227 E6.60225
G1 X78.969 Y147.521 E6.64216
G1 X78.766 Y147.355 E6.65088
G1 X78.079 Y146.742 E6.6815
G1 X77.448 Y146.071 E6.71214
G1 X76.878 Y145.348 E6.74276
G1 X76.58 Y144.913 E6.7603
G1 X76.499 Y144.788 E6.76525
G1 X76.033 Y143.995 E6.79584
G1 X75.637 Y143.164 E6.82646
G1 X75.324 Y142.332 E6.85603
G1 X75.257 Y142.128 E6.86317
G1 X75.008 Y141.241 E6.89381
G1 X74.837 Y140.337 E6.92441
G1 X74.732 Y139.123 E6.96494
G1 X74.726 Y138.913 E6.97193
G1 X74.74 Y137.992 E7.00256
G1 X74.834 Y137.076 E7.03319
G1 X75.053 Y135.983 E7.07026
G1 X75.097 Y135.811 E7.07617
G1 X75.363 Y134.93 E7.10678
G1 X75.697 Y134.094 E7.13672
G1 X76.083 Y133.237 E7.16798
G1 X76.29 Y132.793 E7.18428
G1 X77.343 Y130.45 E7.26971
G1 X78.791 Y126.919 E7.39665
G1 X79.058 Y126.279 E7.41971
G1 X79.086 Y126.198 E7.42256
G1 X79.638 Y124.857 E7.47079
G1 X79.801 Y124.482 E7.48439
G1 X80.185 Y123.645 E7.51502
G1 X80.35 Y123.298 E7.5278
G1 X80.454 Y123.085 E7.53569
G1 X80.893 Y122.212 E7.56819
G1 X82.021 Y119.885 E7.6542
G1 X82.178 Y119.538 E7.66686
G1 X82.25 Y119.396 E7.67216
G1 X82.777 Y118.253 E7.71402
G1 X83.627 Y116.449 E7.78035
G1 X84.022 Y115.636 E7.81041
G1 X84.46 Y114.826 E7.84104
G1 X84.865 Y114.201 E7.86581
G1 X84.967 Y114.055 E7.87173
G1 X85.526 Y113.324 E7.90234
G1 X85.938 Y112.86 E7.92298
G1 X86.115 Y112.672 E7.93157
G1 X86.775 Y112.03 E7.96219
G1 X87.659 Y111.321 E7.99988
G0 F6000 X87.892 Y111.647
G1 F1200 X88.086 Y111.508 E8.00782
G1 X88.843 Y111.015 E8.03787
G1 X89.937 Y110.455 E8.07874
G1 X90.218 Y110.332 E8.08895
G1 X91.06 Y110.007 E8.11896
G1 X92.301 Y109.675 E8.16169
G1 X92.6 Y109.615 E8.17183
G1 X92.937 Y109.554 E8.18323
G1 X94.055 Y109.369 E8.22092
G1 X96.626 Y108.904 E8.30782
G1 X99.105 Y108.383 E8.39207
G1 X101.545 Y107.8 E8.47551
G1 X104.013 Y107.133 E8.56054
G1 X106.477 Y106.393 E8.64611
G1 X108.856 Y105.604 E8.72947
G1 X111.274 Y104.725 E8.81504
G1 X113.614 Y103.799 E8.89874
G1 X115.982 Y102.784 E8.98444
G1 X118.255 Y101.733 E9.06773
G1 X120.539 Y100.597 E9.15257
G1 X122.757 Y99.414 E9.23618
G1 X124.995 Y98.138 E9.32186
G1 X127.128 Y96.84 E9.40491
G1 X128.746 Y95.784 E9.46917
G1 X129.799 Y95.116 E9.51065
G1 X130.354 Y94.789 E9.53207
G1 X130.54 Y94.687 E9.53913
G1 X131.35 Y94.288 E9.56916
G1 X132.032 Y94.017 E9.59357
G1 X132.418 Y93.88 E9.60719
G1 X133.777 Y93.42 E9.65491
G1 X134.644 Y93.169 E9.68493
G1 X135.531 Y92.996 E9.71499
G1 X136.429 Y92.902 E9.74502
G1 X136.893 Y92.884 E9.76047
G1 X137.64 Y92.873 E9.78531
G1 X139.416 Y92.873 E9.84438
G1 X140.4 Y92.886 E9.87711
G1 X143.447 Y92.88 E9.97846
G1 X143.921 Y92.873 E9.99422
G1 X145.372 Y92.875 E10.04249
G1 X145.969 Y92.883 E10.06234
G1 X147.18 Y92.971 E10.10273
G1 X147.48 Y93.011 E10.11279
G1 X148.369 Y93.17 E10.14283
G1 X149.249 Y93.41 E10.17317
G1 X149.492 Y93.488 E10.18166
G1 X150.339 Y93.802 E10.2117
G1 X151.329 Y94.284 E10.24833
G1 X151.527 Y94.394 E10.25586
G1 X152.296 Y94.867 E10.28589
G1 X152.853 Y95.272 E10.30879
G1 X152.885 Y95.297 E10.31014
G1 X153.553 Y95.867 E10.33935
G1 X153.754 Y96.054 E10.34848
G1 X154.387 Y96.698 E10.37852
G1 X155.224 Y97.762 E10.42354
G1 X155.367 Y97.971 E10.43196
G1 X155.844 Y98.738 E10.46201
G1 X156.101 Y99.227 E10.48038
G1 X156.634 Y100.31 E10.52053
G1 X156.728 Y100.506 E10.52776
G1 X157.302 Y101.738 E10.57296
G1 X157.43 Y102.024 E10.58338
G1 X158.578 Y104.489 E10.67382
G1 X159.501 Y106.353 E10.74301
G1 X160.333 Y108.081 E10.80679
G1 X160.371 Y108.163 E10.8098
G1 X160.579 Y108.646 E10.82729
G1 X160.998 Y109.688 E10.86465
G1 X161.998 Y112.132 E10.95247
G1 X162.37 Y113.062 E10.98579
G1 X163.885 Y116.506 E11.11093
G1 X164.216 Y117.22 E11.13711
G1 X164.356 Y117.534 E11.14854
G1 X164.556 Y118.006 E11.16559
G1 X164.871 Y118.853 E11.19565
G1 X165.11 Y119.724 E11.22569
G1 X165.302 Y120.865 E11.26417
G1 X165.324 Y121.064 E11.27083
G1 X165.384 Y121.965 E11.30086
G1 X165.363 Y122.868 E11.33091
G1 X165.263 Y123.766 E11.36096
G1 X165.052 Y124.773 E11.39518
G1 X164.972 Y125.078 E11.40567
G1 X164.705 Y125.94 E11.43568
G1 X164.362 Y126.776 E11.46573
G1 X163.946 Y127.578 E11.49578
G1 X163.462 Y128.34 E11.52581
G1 X163.036 Y128.906 E11.54937
G1 X162.875 Y129.105 E11.55788
G1 X162.276 Y129.781 E11.58792
G1 X161.62 Y130.401 E11.61795
G1 X160.912 Y130.962 E11.64799
G1 X160.415 Y131.298 E11.66794
G1 X160.234 Y131.413 E11.67508
G1 X159.451 Y131.863 E11.70511
G1 X158.761 Y132.188 E11.73048
G1 X158.111 Y132.441 E11.75368
G1 X157.888 Y132.519 E11.76154
G1 X157.686 Y132.587 E11.76863
G1 X157 Y132.811 E11.79263
G1 X155.917 Y133.153 E11.8304
G1 X153.558 Y133.972 E11.91346
G1 X151.183 Y134.873 E11.99794
G1 X148.826 Y135.844 E12.08273
G1 X146.506 Y136.877 E12.1672
G1 X144.179 Y137.995 E12.25306
G1 X141.981 Y139.126 E12.33528
G1 X139.728 Y140.368 E12.42085
G1 X137.542 Y141.657 E12.50525
G1 X135.38 Y143.013 E12.59013
G1 X133.277 Y144.418 E12.67425
G1 X131.22 Y145.878 E12.75815
G1 X129.165 Y147.425 E12.8437
G1 X127.214 Y148.984 E12.92677
G1 X126.424 Y149.651 E12.96115
G1 X125.548 Y150.373 E12.99891
G1 X124.69 Y151.008 E13.03441
G1 X124.554 Y151.098 E13.03984
G1 X123.78 Y151.563 E13.06987
G1 X122.967 Y151.957 E13.09992
G1 X122.123 Y152.278 E13.12995
G1 X121.353 Y152.499 E13.1566
G1 X121.149 Y152.549 E13.16358
G1 X120.263 Y152.725 E13.19363
G1 X119.365 Y152.822 E13.22367
G1 X118.878 Y152.841 E13.23988
G1 X118.683 Y152.844 E13.24636
G1 X117.809 Y152.82 E13.27544
G1 X117.199 Y152.777 E13.29578
G1 X116.01 Y152.678 E13.33547
G1 X113.325 Y152.496 E13.42497
G1 X112.915 Y152.464 E13.43865
G1 X111.906 Y152.334 E13.47249
G1 X109.46 Y151.895 E13.55514
G1 X106.93 Y151.513 E13.64025
G1 X104.393 Y151.203 E13.72525
G1 X102.089 Y150.983 E13.80223
G1 X85.675 Y149.623 E14.35004
G1 X85.064 Y149.564 E14.37045
G1 X84.481 Y149.491 E14.38999
G1 X84.352 Y149.471 E14.39434
G1 X83.467 Y149.293 E14.42436
G1 X82.788 Y149.1 E14.44784
G1 X82.552 Y149.024 E14.45609
G1 X81.706 Y148.709 E14.48611
G1 X80.89 Y148.321 E14.51616
G1 X80.113 Y147.862 E14.54618
G1 X79.222 Y147.211 E14.58288
G1 X79.019 Y147.045 E14.5916
G1 X78.346 Y146.443 E14.62164
G1 X77.729 Y145.784 E14.65166
G1 X77.172 Y145.072 E14.68173
G1 X76.916 Y144.696 E14.69686
G1 X76.835 Y144.571 E14.70181
G1 X76.378 Y143.792 E14.73185
G1 X75.992 Y142.976 E14.76187
G1 X75.704 Y142.207 E14.78919
G1 X75.637 Y142.003 E14.79633
G1 X75.394 Y141.133 E14.82637
G1 X75.228 Y140.245 E14.85642
G1 X75.132 Y139.111 E14.89427
G1 X75.126 Y138.901 E14.90126
G1 X75.14 Y137.998 E14.93129
G1 X75.234 Y137.1 E14.96133
G1 X75.44 Y136.082 E14.99587
G1 X75.484 Y135.91 E15.00178
G1 X75.747 Y135.046 E15.03181
G1 X76.062 Y134.258 E15.06004
G1 X76.445 Y133.407 E15.09108
G1 X76.662 Y132.941 E15.10818
G1 X77.709 Y130.612 E15.19311
G1 X79.16 Y127.073 E15.32032
G1 X79.417 Y126.457 E15.34252
G1 X79.456 Y126.35 E15.34631
G1 X80.008 Y125.009 E15.39454
G1 X80.165 Y124.648 E15.40764
G1 X80.546 Y123.817 E15.43804
G1 X80.711 Y123.47 E15.45082
G1 X80.812 Y123.265 E15.45842
G1 X81.24 Y122.415 E15.49008
G1 X82.388 Y120.046 E15.57763
G1 X82.543 Y119.703 E15.59015
G1 X82.602 Y119.586 E15.59451
G1 X83.139 Y118.423 E15.63712
G1 X84.043 Y116.506 E15.70761
G1 X84.381 Y115.811 E15.73331
G1 X84.812 Y115.017 E15.76336
G1 X85.192 Y114.43 E15.78662
G1 X85.294 Y114.284 E15.79254
G1 X85.844 Y113.568 E15.82257
G1 X86.23 Y113.134 E15.84189
G1 X86.407 Y112.946 E15.85048
G1 X87.054 Y112.317 E15.88049
G1 X87.892 Y111.647 E15.91618
G1 F2700 E10.91618
G0 F6000 X134.852 Y112.569
G0 X135.284 Y112.74
G1 F2700 E15.91618
G1 F1200 X136.61 Y112.739 E15.96028
G1 X137.159 Y112.699 E15.97859
G1 X137.697 Y112.579 E15.99692
G1 X138.212 Y112.383 E16.01525
G1 X138.61 Y112.168 E16.0303
G1 X138.869 Y112.308 E16.04009
G1 X139.136 Y112.418 E16.04969
G1 X139.899 Y112.642 E16.07614
G1 X140.09 Y112.677 E16.0826
G1 X140.768 Y112.739 E16.10524
G1 X141.792 Y112.741 E16.1393
G1 X146.998 Y112.739 E16.31245
G1 X147.098 Y112.87 E16.31794
G1 X147.371 Y113.482 E16.34022
G1 X147.5 Y113.743 E16.34991
G1 X147.577 Y113.884 E16.35525
G1 X147.762 Y114.421 E16.37414
G1 X148.181 Y115.338 E16.40767
G1 X148.497 Y116.08 E16.4345
G1 X148.687 Y116.586 E16.45248
G1 X148.969 Y117.406 E16.48132
G1 X149.03 Y117.572 E16.4872
G1 X149.319 Y118.3 E16.51325
G1 X149.368 Y118.417 E16.51747
G1 X149.818 Y119.446 E16.55482
G1 X137.004 Y120.508 E16.98248
G1 X137.009 Y120.445 E16.98458
G1 X137.009 Y119.894 E17.00291
G1 X136.93 Y119.348 E17.02126
G1 X136.772 Y118.82 E17.03959
G1 X136.634 Y118.501 E17.05115
G1 X136.188 Y117.587 E17.08497
G1 X135.911 Y117.11 E17.10332
G1 X135.568 Y116.679 E17.12164
G1 X135.191 Y116.322 E17.13891
G1 X134.602 Y115.836 E17.16431
G1 X134.441 Y115.722 E17.17087
G1 X134.929 Y113.905 E17.23344
G1 X135.012 Y113.422 E17.24974
G1 X135.284 Y112.74 E17.27417
G0 F6000 X135.012 Y112.34
G1 F1200 X136.61 Y112.339 E17.32732
G1 X137.129 Y112.299 E17.34463
G1 X137.637 Y112.179 E17.36199
G1 X138.12 Y111.984 E17.37931
G1 X138.412 Y111.821 E17.39044
G1 X138.593 Y111.708 E17.39753
G1 X139.022 Y111.938 E17.41372
G1 X139.289 Y112.048 E17.42333
G1 X139.971 Y112.248 E17.44697
G1 X140.162 Y112.283 E17.45343
G1 X140.768 Y112.339 E17.47367
G1 X141.792 Y112.341 E17.50773
G1 X147.196 Y112.339 E17.68746
G1 X147.447 Y112.669 E17.70125
G1 X147.737 Y113.319 E17.72493
G1 X147.852 Y113.552 E17.73357
G1 X147.937 Y113.708 E17.73948
G1 X148.126 Y114.255 E17.75873
G1 X148.549 Y115.181 E17.79259
G1 X148.865 Y115.923 E17.81941
G1 X149.064 Y116.452 E17.83821
G1 X149.347 Y117.276 E17.86719
G1 X149.402 Y117.424 E17.87244
G1 X149.691 Y118.152 E17.89849
G1 X149.734 Y118.257 E17.90226
G1 X150.166 Y119.245 E17.93813
G1 X150.423 Y119.798 E17.95841
G1 X136.571 Y120.946 E18.42071
G1 X136.61 Y120.415 E18.43842
G1 X136.608 Y119.894 E18.45575
G1 X136.527 Y119.379 E18.47309
G1 X136.275 Y118.676 E18.49792
G1 X135.829 Y117.762 E18.53175
G1 X135.565 Y117.312 E18.5491
G1 X135.235 Y116.909 E18.56643
G1 X134.937 Y116.63 E18.58
G1 X134.348 Y116.144 E18.6054
G1 X133.983 Y115.888 E18.62023
G1 X134.543 Y113.802 E18.69207
G1 X134.628 Y113.304 E18.70887
G1 X135.012 Y112.34 E18.74338
G0 F6000 X134.742 Y111.94
G1 F1200 X136.609 Y111.939 E18.80548
G1 X137.097 Y111.899 E18.82177
G1 X137.572 Y111.78 E18.83805
G1 X138.199 Y111.482 E18.86114
G1 X138.588 Y111.238 E18.87642
G1 X138.662 Y111.296 E18.87954
G1 X139.174 Y111.568 E18.89883
G1 X139.441 Y111.678 E18.90843
G1 X140.043 Y111.855 E18.9293
G1 X140.234 Y111.89 E18.93576
G1 X140.769 Y111.939 E18.95363
G1 X141.792 Y111.941 E18.98765
G1 X147.394 Y111.939 E19.17398
G1 X147.792 Y112.461 E19.19581
G1 X148.102 Y113.156 E19.22112
G1 X148.204 Y113.362 E19.22877
G1 X148.301 Y113.539 E19.23548
G1 X148.49 Y114.088 E19.25479
G1 X148.914 Y115.015 E19.28869
G1 X148.917 Y115.025 E19.28904
G1 X149.241 Y115.786 E19.31655
G1 X149.433 Y116.298 E19.33474
G1 X149.725 Y117.146 E19.36457
G1 X149.774 Y117.277 E19.36922
G1 X150.063 Y118.005 E19.39527
