;FLAVOR:Marlin
;TIME:26318
;Filament used: 24.6106m
;Layer height: 0.2
;MINX:51.448
;MINY:29.667
;MINZ:0.2
;MAXX:183.873
;MAXY:208.332
;MAXZ:13.6
;Generated with Cura_SteamEngine 4.10.0
M140 S55
M105
M190 S55
M104 S215
M105
M109 S215
M82 ;absolute extrusion mode
; Ender 3 Custom Start G-code
G92 E0 ; Reset Extruder
G28 ; Home all axes
G1 Z2.0 F3000 ; Move Z Axis up little to prevent scratching of Heat Bed
G1 X0.1 Y20 Z0.3 F5000.0 ; Move to start position
G1 X0.1 Y200.0 Z0.3 F1500.0 E15 ; Draw the first line
G1 X0.4 Y200.0 Z0.3 F5000.0 ; Move to side a little
G1 X0.4 Y20 Z0.3 F1500.0 E30 ; Draw the second line
G92 E0 ; Reset Extruder
G1 Z2.0 F3000 ; Move Z Axis up little to prevent scratching of Heat Bed
G1 X5 Y20 Z0.3 F5000.0 ; Move over to prevent blob squish
G92 E0
G92 E0
G1 F2700 E-5
;LAYER_COUNT:68
;LAYER:0
M107
G0 F6000 X56.429 Y42.781 Z0.2
;TYPE:SKIRT
G1 F2700 E0
G1 F1200 X58.396 Y40.119 E0.11009
G1 X58.789 Y39.602 E0.13169
G1 X59.388 Y38.88 E0.16289
G1 X60.046 Y38.212 E0.19408
G1 X60.567 Y37.757 E0.21708
G1 X61.589 Y36.92 E0.26102
G1 X63.986 Y35.03 E0.36254
G1 X64.725 Y34.465 E0.39348
G1 X65.494 Y33.929 E0.42466
G1 X66.307 Y33.46 E0.45588
G1 X66.872 Y33.185 E0.47678
G1 X67.209 Y33.033 E0.48907
G1 X67.442 Y32.931 E0.49753
G1 X71.062 Y31.399 E0.62827
G1 X71.661 Y31.155 E0.64979
G1 X72.544 Y30.838 E0.68099
G1 X73.451 Y30.598 E0.7122
G1 X74.11 Y30.474 E0.7345
G1 X75.145 Y30.312 E0.76934
G1 X75.382 Y30.278 E0.77731
G1 X78.662 Y29.839 E0.88737
G1 X79.365 Y29.755 E0.91092
G1 X80.313 Y29.683 E0.94254
G1 X80.735 Y29.672 E0.95658
G1 X81.222 Y29.667 E0.97278
G1 X111.979 Y29.669 E1.99576
G1 X112.679 Y29.679 E2.01905
G1 X113.298 Y29.705 E2.03965
G1 X113.595 Y29.726 E2.04956
G1 X113.939 Y29.756 E2.06104
G1 X115.669 Y29.933 E2.11888
G1 X116.474 Y30.027 E2.14584
G1 X117.4 Y30.177 E2.17704
G1 X118.359 Y30.419 E2.20993
G1 X119.648 Y30.809 E2.25473
G1 X120.652 Y31.131 E2.28979
G1 X121.336 Y31.36 E2.31379
G1 X121.921 Y31.574 E2.3345
G1 X122.134 Y31.659 E2.34213
G1 X122.385 Y31.763 E2.35117
G1 X122.709 Y31.902 E2.36289
G1 X162.305 Y49.257 E3.80081
G1 X163.171 Y49.652 E3.83247
G1 X164.264 Y50.229 E3.87358
G1 X164.934 Y50.632 E3.89958
G1 X168.135 Y52.61 E4.02473
G1 X168.841 Y53.06 E4.05258
G1 X169.609 Y53.598 E4.08377
G1 X170.328 Y54.199 E4.11493
G1 X170.728 Y54.583 E4.13338
G1 X171.003 Y54.867 E4.14652
G1 X171.537 Y55.443 E4.17265
G1 X174.15 Y58.334 E4.30226
G1 X174.616 Y58.864 E4.32573
G1 X175.205 Y59.594 E4.35693
G1 X175.729 Y60.371 E4.3881
G1 X176.17 Y61.162 E4.41822
G1 X176.543 Y61.901 E4.44575
G1 X178.251 Y65.405 E4.57541
G1 X178.553 Y66.048 E4.59903
G1 X178.915 Y66.913 E4.63022
G1 X179.311 Y68.237 E4.67619
G1 X179.421 Y68.754 E4.69377
G1 X179.547 Y69.433 E4.71674
G1 X180.235 Y73.391 E4.85035
G1 X180.338 Y74.039 E4.87218
G1 X180.462 Y75.258 E4.91293
G1 X180.499 Y76.07 E4.93996
G1 X183.858 Y183.026 E8.49909
G1 X183.873 Y183.899 E8.52813
G1 X183.817 Y185.216 E8.57197
G1 X183.754 Y185.728 E8.58913
G1 X183.53 Y187.265 E8.64079
G1 X183.495 Y187.489 E8.64833
G1 X183.226 Y189.095 E8.70249
G1 X183.091 Y189.841 E8.72771
G1 X182.885 Y190.756 E8.7589
G1 X182.602 Y191.65 E8.79009
G1 X182.345 Y192.291 E8.81306
G1 X182.268 Y192.467 E8.81945
G1 X182.072 Y192.89 E8.83496
G1 X181.894 Y193.254 E8.84843
G1 X181.426 Y194.113 E8.88097
G1 X181.05 Y194.735 E8.90514
G1 X179.958 Y196.487 E8.97381
G1 X179.554 Y197.116 E8.99867
G1 X179.014 Y197.882 E9.02984
G1 X178.475 Y198.53 E9.05788
G1 X178.295 Y198.73 E9.06683
G1 X178.016 Y199.028 E9.0804
G1 X177.793 Y199.258 E9.09106
G1 X177.118 Y199.898 E9.122
G1 X177.064 Y199.945 E9.12438
G1 X176.348 Y200.518 E9.15488
G1 X175.767 Y200.943 E9.17882
G1 X174.124 Y202.115 E9.24595
G1 X173.548 Y202.515 E9.26927
G1 X172.712 Y203.042 E9.30214
G1 X172.348 Y203.249 E9.31607
G1 X171.935 Y203.474 E9.33171
G1 X171.091 Y203.882 E9.36289
G1 X170.214 Y204.217 E9.39411
G1 X169.74 Y204.363 E9.41061
G1 X169.557 Y204.415 E9.41694
G1 X169.148 Y204.523 E9.43101
G1 X168.673 Y204.638 E9.44726
G1 X167.099 Y205.003 E9.501
G1 X165.313 Y205.381 E9.56172
G1 X164.388 Y205.536 E9.59291
G1 X163.611 Y205.603 E9.61885
G1 X162.285 Y205.67 E9.66301
G1 X77.872 Y208.321 E12.47199
G1 X77.194 Y208.332 E12.49454
G1 X75.956 Y208.282 E12.53575
G1 X75.366 Y208.212 E12.55551
G1 X73.831 Y207.988 E12.6071
G1 X73.612 Y207.954 E12.61448
G1 X72.153 Y207.711 E12.66367
G1 X71.223 Y207.541 E12.69511
G1 X70.308 Y207.333 E12.72632
G1 X69.415 Y207.047 E12.75751
G1 X68.774 Y206.789 E12.78049
G1 X68.606 Y206.715 E12.7866
G1 X68.197 Y206.524 E12.80161
G1 X67.832 Y206.345 E12.81513
G1 X66.989 Y205.885 E12.84708
G1 X66.238 Y205.431 E12.87626
G1 X64.729 Y204.491 E12.93539
G1 X63.977 Y204.008 E12.96512
G1 X63.21 Y203.468 E12.99632
G1 X62.567 Y202.932 E13.02416
G1 X62.367 Y202.752 E13.03311
G1 X62.1 Y202.503 E13.04525
G1 X61.863 Y202.275 E13.05619
G1 X61.215 Y201.597 E13.08739
G1 X60.815 Y201.113 E13.10827
G1 X60.582 Y200.806 E13.12109
G1 X60.149 Y200.215 E13.14546
G1 X58.983 Y198.582 E13.21219
G1 X58.583 Y198.006 E13.23552
G1 X58.056 Y197.17 E13.26839
G1 X57.849 Y196.806 E13.28231
G1 X57.683 Y196.503 E13.29381
G1 X57.579 Y196.306 E13.30121
G1 X57.177 Y195.459 E13.3324
G1 X56.849 Y194.581 E13.36357
G1 X56.673 Y193.986 E13.38421
G1 X56.571 Y193.592 E13.39775
G1 X56.451 Y193.09 E13.41491
G1 X56.09 Y191.531 E13.46814
G1 X56.042 Y191.315 E13.4755
G1 X55.716 Y189.766 E13.52815
G1 X55.562 Y188.841 E13.55933
G1 X55.495 Y188.071 E13.58504
G1 X55.428 Y186.747 E13.62913
G1 X51.459 Y60.341 E17.83549
G1 X51.448 Y59.659 E17.85817
G1 X51.475 Y58.702 E17.89002
G1 X51.509 Y58.252 E17.90503
G1 X51.55 Y57.81 E17.91979
G1 X51.933 Y54.081 E18.04447
G1 X52.007 Y53.44 E18.06593
G1 X52.154 Y52.514 E18.09712
G1 X52.379 Y51.604 E18.12829
G1 X52.594 Y50.949 E18.15122
G1 X52.949 Y49.971 E18.18583
G1 X53.031 Y49.752 E18.19361
G1 X54.237 Y46.64 E18.30461
G1 X54.469 Y46.063 E18.3253
G1 X54.856 Y45.209 E18.35648
G1 X55.314 Y44.391 E18.38766
G1 X55.695 Y43.814 E18.41066
G1 X56.297 Y42.963 E18.44533
G1 X56.429 Y42.781 E18.45281
G0 F6000 X56.751 Y43.018
G1 F1200 X58.714 Y40.361 E18.56268
G1 X59.107 Y39.844 E18.58428
G1 X59.696 Y39.136 E18.61491
G1 X60.343 Y38.482 E18.64551
G1 X60.821 Y38.066 E18.66659
G1 X61.837 Y37.234 E18.71026
G1 X64.234 Y35.344 E18.81179
G1 X64.968 Y34.783 E18.84252
G1 X65.723 Y34.257 E18.87312
G1 X66.522 Y33.799 E18.90375
G1 X67.037 Y33.549 E18.92279
G1 X67.374 Y33.397 E18.93509
G1 X67.598 Y33.299 E18.94322
G1 X71.213 Y31.769 E19.07378
G1 X71.812 Y31.525 E19.09529
G1 X72.679 Y31.215 E19.12592
G1 X73.57 Y30.982 E19.15655
G1 X74.172 Y30.87 E19.17692
G1 X75.207 Y30.708 E19.21176
G1 X75.436 Y30.674 E19.21946
G1 X78.709 Y30.236 E19.32929
G1 X79.412 Y30.152 E19.35284
G1 X80.326 Y30.083 E19.38333
G1 X80.739 Y30.072 E19.39707
G1 X81.222 Y30.067 E19.41313
G1 X111.973 Y30.069 E20.43591
G1 X112.673 Y30.079 E20.4592
G1 X113.27 Y30.104 E20.47907
G1 X113.567 Y30.125 E20.48898
G1 X113.898 Y30.154 E20.50003
G1 X115.792 Y30.349 E20.56335
G1 X116.427 Y30.424 E20.58462
G1 X117.336 Y30.572 E20.61525
G1 X118.243 Y30.802 E20.64637
G1 X119.527 Y31.19 E20.69099
G1 X120.525 Y31.51 E20.72585
G1 X121.209 Y31.739 E20.74984
G1 X121.773 Y31.946 E20.76982
G1 X121.986 Y32.031 E20.77745
G1 X122.228 Y32.131 E20.78616
G1 X122.548 Y32.269 E20.79775
G1 X162.299 Y49.693 E22.2413
G1 X163.005 Y50.016 E22.26713
G1 X164.058 Y50.571 E22.30672
G1 X164.724 Y50.973 E22.33259
G1 X168.06 Y53.036 E22.46305
G1 X168.625 Y53.397 E22.48535
G1 X169.379 Y53.926 E22.51598
G1 X170.413 Y54.834 E22.56175
G1 X170.71 Y55.14 E22.57594
G1 X171.24 Y55.711 E22.60185
G1 X173.85 Y58.598 E22.73129
G1 X174.316 Y59.128 E22.75477
G1 X174.893 Y59.845 E22.78538
G1 X175.406 Y60.609 E22.81598
G1 X175.814 Y61.342 E22.84389
G1 X176.184 Y62.076 E22.87123
G1 X177.822 Y65.435 E22.99552
G1 X178.19 Y66.218 E23.0243
G1 X178.545 Y67.067 E23.0549
G1 X178.921 Y68.327 E23.09864
G1 X179.028 Y68.828 E23.11568
G1 X179.153 Y69.502 E23.13848
G1 X179.84 Y73.454 E23.27189
G1 X179.943 Y74.102 E23.29372
G1 X180.063 Y75.277 E23.333
G1 X180.099 Y76.082 E23.3598
G1 X183.458 Y183.038 E26.91893
G1 X183.473 Y183.906 E26.9478
G1 X183.419 Y185.175 E26.99004
G1 X183.358 Y185.671 E27.00667
G1 X183.134 Y187.208 E27.05833
G1 X183.101 Y187.423 E27.06556
G1 X182.833 Y189.024 E27.11955
G1 X182.698 Y189.77 E27.14477
G1 X182.494 Y190.668 E27.1754
G1 X182.214 Y191.544 E27.20598
G1 X181.978 Y192.131 E27.22703
G1 X181.901 Y192.307 E27.23342
G1 X181.712 Y192.715 E27.24837
G1 X181.534 Y193.079 E27.26185
G1 X181.083 Y193.906 E27.29318
G1 X180.634 Y194.648 E27.32202
G1 X179.622 Y196.27 E27.38561
G1 X179.218 Y196.899 E27.41048
G1 X178.687 Y197.652 E27.44112
G1 X178.178 Y198.262 E27.46755
G1 X177.998 Y198.462 E27.47649
G1 X177.729 Y198.75 E27.4896
G1 X177.506 Y198.98 E27.50026
G1 X176.855 Y199.597 E27.53009
G1 X176.801 Y199.644 E27.53247
G1 X176.111 Y200.195 E27.56184
G1 X175.535 Y200.617 E27.58559
G1 X173.896 Y201.787 E27.65257
G1 X173.32 Y202.187 E27.67589
G1 X172.514 Y202.694 E27.70756
G1 X172.15 Y202.901 E27.72149
G1 X171.923 Y203.027 E27.73012
G1 X171.746 Y203.122 E27.7368
G1 X170.917 Y203.522 E27.76742
G1 X169.63 Y203.978 E27.81283
G1 X169.447 Y204.03 E27.81916
G1 X169.054 Y204.134 E27.83268
G1 X168.583 Y204.248 E27.8488
G1 X167.009 Y204.613 E27.90254
G1 X166.801 Y204.659 E27.90962
G1 X165.231 Y204.99 E27.96299
G1 X164.322 Y205.141 E27.99364
G1 X163.591 Y205.204 E28.01804
G1 X162.487 Y205.261 E28.05481
G1 X162.273 Y205.27 E28.06193
G1 X77.866 Y207.921 E30.87071
G1 X77.188 Y207.932 E30.89326
G1 X75.995 Y207.884 E30.93297
G1 X75.423 Y207.816 E30.95213
G1 X73.888 Y207.592 E31.00373
G1 X73.678 Y207.559 E31.0108
G1 X72.047 Y207.286 E31.0658
G1 X71.295 Y207.148 E31.09123
G1 X70.397 Y206.943 E31.12186
G1 X69.521 Y206.66 E31.15248
G1 X68.935 Y206.423 E31.17351
G1 X68.767 Y206.349 E31.17961
G1 X68.373 Y206.165 E31.19407
G1 X68.008 Y205.986 E31.2076
G1 X67.196 Y205.543 E31.23836
G1 X66.449 Y205.091 E31.2674
G1 X64.812 Y204.07 E31.33157
G1 X64.193 Y203.672 E31.35605
G1 X63.441 Y203.141 E31.38666
G1 X62.835 Y202.635 E31.41292
G1 X62.635 Y202.455 E31.42187
G1 X62.377 Y202.215 E31.43359
G1 X62.14 Y201.987 E31.44453
G1 X61.505 Y201.32 E31.47516
G1 X61.131 Y200.867 E31.4947
G1 X60.904 Y200.57 E31.50713
G1 X60.551 Y200.089 E31.52698
G1 X59.311 Y198.354 E31.5979
G1 X58.911 Y197.778 E31.62123
G1 X58.404 Y196.972 E31.6529
G1 X58.197 Y196.608 E31.66683
G1 X58.037 Y196.317 E31.67787
G1 X57.933 Y196.12 E31.68528
G1 X57.539 Y195.288 E31.7159
G1 X57.219 Y194.424 E31.74654
G1 X57.06 Y193.883 E31.7653
G1 X56.96 Y193.498 E31.77853
G1 X56.84 Y193 E31.79557
G1 X56.479 Y191.441 E31.84879
G1 X56.433 Y191.233 E31.85588
G1 X56.107 Y189.684 E31.90853
G1 X55.957 Y188.776 E31.93913
G1 X55.894 Y188.05 E31.96337
G1 X55.837 Y186.951 E31.99997
G1 X55.828 Y186.735 E32.00716
G1 X51.859 Y60.335 E36.21332
G1 X51.848 Y59.653 E36.236
G1 X51.874 Y58.73 E36.26672
G1 X51.907 Y58.289 E36.28142
G1 X51.948 Y57.851 E36.29606
G1 X52.33 Y54.127 E36.42057
G1 X52.404 Y53.486 E36.44203
G1 X52.549 Y52.577 E36.47264
G1 X52.773 Y51.684 E36.50327
G1 X52.97 Y51.085 E36.52424
G1 X53.325 Y50.107 E36.55884
G1 X53.404 Y49.896 E36.56634
G1 X54.608 Y46.79 E36.67713
G1 X54.84 Y46.213 E36.69782
G1 X55.22 Y45.374 E36.72845
G1 X55.672 Y44.572 E36.75907
G1 X56.021 Y44.045 E36.78009
G1 X56.623 Y43.194 E36.81476
G1 X56.751 Y43.018 E36.822
G0 F6000 X57.072 Y43.256
G1 F1200 X59.033 Y40.603 E36.93173
G1 X59.426 Y40.086 E36.95333
G1 X60.004 Y39.392 E36.98337
G1 X60.641 Y38.752 E37.0134
G1 X61.074 Y38.375 E37.0325
G1 X61.928 Y37.674 E37.06925
G1 X62.085 Y37.548 E37.07594
G1 X64.612 Y35.557 E37.18294
G1 X65.21 Y35.101 E37.20795
G1 X65.952 Y34.586 E37.238
G1 X66.736 Y34.138 E37.26803
G1 X67.201 Y33.914 E37.2852
G1 X67.538 Y33.762 E37.29749
G1 X67.754 Y33.668 E37.30533
G1 X71.364 Y32.14 E37.43571
G1 X71.963 Y31.896 E37.45722
G1 X72.814 Y31.592 E37.48728
G1 X73.688 Y31.365 E37.51731
G1 X74.234 Y31.265 E37.53577
G1 X75.269 Y31.103 E37.57062
G1 X75.489 Y31.071 E37.57801
G1 X78.757 Y30.633 E37.68768
G1 X79.46 Y30.549 E37.71122
G1 X80.339 Y30.482 E37.74055
G1 X80.744 Y30.472 E37.75402
G1 X81.222 Y30.467 E37.76992
G1 X111.968 Y30.469 E38.79253
G1 X112.668 Y30.479 E38.81582
G1 X113.241 Y30.503 E38.83489
G1 X113.538 Y30.524 E38.8448
G1 X113.857 Y30.552 E38.85545
G1 X115.745 Y30.746 E38.91857
G1 X116.38 Y30.821 E38.93984
G1 X117.272 Y30.967 E38.9699
G1 X118.128 Y31.185 E38.99928
G1 X119.405 Y31.571 E39.04365
G1 X120.263 Y31.845 E39.07361
G1 X121.082 Y32.119 E39.10234
G1 X121.625 Y32.317 E39.12156
G1 X121.838 Y32.402 E39.12919
G1 X122.388 Y32.635 E39.14905
G1 X161.984 Y49.99 E40.58697
G1 X162.839 Y50.38 E40.61822
G1 X163.852 Y50.914 E40.65631
G1 X164.514 Y51.313 E40.68202
G1 X167.845 Y53.373 E40.81228
G1 X168.41 Y53.734 E40.83458
G1 X169.149 Y54.253 E40.86462
G1 X170.13 Y55.117 E40.9081
G1 X170.417 Y55.412 E40.92179
G1 X170.944 Y55.98 E40.94756
G1 X173.549 Y58.862 E41.07677
G1 X174.015 Y59.392 E41.10024
G1 X174.581 Y60.096 E41.13029
G1 X175.082 Y60.847 E41.16031
G1 X175.457 Y61.523 E41.18602
G1 X175.824 Y62.251 E41.21314
G1 X177.462 Y65.61 E41.33744
G1 X177.828 Y66.388 E41.36603
G1 X178.176 Y67.221 E41.39606
G1 X178.532 Y68.417 E41.43756
G1 X178.635 Y68.901 E41.45402
G1 X178.759 Y69.571 E41.47668
G1 X179.445 Y73.517 E41.6099
G1 X179.548 Y74.165 E41.63172
G1 X179.663 Y75.295 E41.6695
G1 X179.699 Y76.095 E41.69613
G1 X183.062 Y183.199 E45.26018
G1 X183.074 Y183.912 E45.2839
G1 X183.021 Y185.134 E45.32458
G1 X182.962 Y185.613 E45.34063
G1 X182.738 Y187.15 E45.3923
G1 X182.706 Y187.357 E45.39926
G1 X182.439 Y188.952 E45.45305
G1 X182.304 Y189.698 E45.47826
G1 X182.104 Y190.579 E45.50831
G1 X181.827 Y191.439 E45.53836
G1 X181.612 Y191.97 E45.55742
G1 X181.535 Y192.146 E45.56381
G1 X181.353 Y192.539 E45.57821
G1 X181.175 Y192.903 E45.59169
G1 X180.741 Y193.699 E45.62184
G1 X180.294 Y194.436 E45.65051
G1 X179.285 Y196.054 E45.71393
G1 X178.881 Y196.683 E45.7388
G1 X178.36 Y197.421 E45.76884
G1 X177.881 Y197.994 E45.79368
G1 X177.701 Y198.194 E45.80263
G1 X177.442 Y198.471 E45.81525
G1 X177.219 Y198.701 E45.8259
G1 X176.593 Y199.295 E45.8546
G1 X176.539 Y199.342 E45.85698
G1 X175.875 Y199.873 E45.88526
G1 X175.302 Y200.292 E45.90887
G1 X173.668 Y201.458 E45.97564
G1 X173.092 Y201.858 E45.99896
G1 X172.316 Y202.347 E46.02947
G1 X171.952 Y202.554 E46.0434
G1 X171.557 Y202.769 E46.05835
G1 X170.743 Y203.161 E46.0884
G1 X169.521 Y203.594 E46.13152
G1 X169.338 Y203.646 E46.13785
G1 X168.959 Y203.745 E46.15088
G1 X168.492 Y203.858 E46.16686
G1 X166.718 Y204.268 E46.22742
G1 X165.148 Y204.599 E46.28079
G1 X164.257 Y204.746 E46.31082
G1 X163.57 Y204.804 E46.33375
G1 X162.26 Y204.87 E46.37738
G1 X77.859 Y207.521 E49.18595
G1 X77.181 Y207.532 E49.2085
G1 X76.033 Y207.486 E49.24672
G1 X75.481 Y207.42 E49.26521
G1 X73.946 Y207.196 E49.3168
G1 X73.743 Y207.164 E49.32364
G1 X72.119 Y206.892 E49.37841
G1 X71.367 Y206.754 E49.40383
G1 X70.487 Y206.552 E49.43386
G1 X69.628 Y206.273 E49.4639
G1 X69.096 Y206.057 E49.483
G1 X68.928 Y205.983 E49.48911
G1 X68.549 Y205.806 E49.50302
G1 X68.184 Y205.627 E49.51654
G1 X67.402 Y205.201 E49.54616
G1 X66.661 Y204.752 E49.57498
G1 X65.029 Y203.734 E49.63895
G1 X64.41 Y203.336 E49.66343
G1 X63.672 Y202.814 E49.69349
G1 X63.103 Y202.338 E49.71817
G1 X62.903 Y202.158 E49.72712
G1 X62.654 Y201.927 E49.73841
G1 X62.417 Y201.699 E49.74935
G1 X61.795 Y201.044 E49.7794
G1 X61.446 Y200.621 E49.79763
G1 X61.227 Y200.333 E49.80967
G1 X60.8 Y199.75 E49.8337
G1 X59.64 Y198.126 E49.90008
G1 X59.24 Y197.55 E49.92341
G1 X58.751 Y196.774 E49.95391
G1 X58.544 Y196.41 E49.96784
G1 X58.391 Y196.13 E49.97845
G1 X58.287 Y195.933 E49.98586
G1 X57.901 Y195.116 E50.01592
G1 X57.589 Y194.269 E50.04594
G1 X57.447 Y193.781 E50.06284
G1 X57.349 Y193.403 E50.07583
G1 X57.23 Y192.91 E50.0927
G1 X56.869 Y191.351 E50.14592
G1 X56.825 Y191.151 E50.15273
G1 X56.499 Y189.602 E50.20538
G1 X56.352 Y188.711 E50.23542
G1 X56.294 Y188.029 E50.25818
G1 X56.237 Y186.93 E50.29479
G1 X56.228 Y186.722 E50.30171
G1 X52.259 Y60.328 E54.50766
G1 X52.248 Y59.646 E54.53035
G1 X52.273 Y58.758 E54.5599
G1 X52.306 Y58.325 E54.57434
G1 X52.346 Y57.892 E54.5888
G1 X52.727 Y54.173 E54.71314
