;FLAVOR:Marlin
;TIME:16360
;Filament used: 15.2281m
;Layer height: 0.28
;MINX:69.203
;MINY:46.5
;MINZ:0.28
;MAXX:165.773
;MAXY:188.005
;MAXZ:59.92
;Generated with Cura_SteamEngine 4.7.0
M140 S55
M105
M190 S55
M104 S210
M105
M109 S210
M82 ;absolute extrusion mode
; Ender 3 Custom Start G-code
G92 E0 ; Reset Extruder
G28 ; Home all axes
G1 Z2.0 F3000 ; Move Z Axis up little to prevent scratching of Heat Bed
G1 X0.1 Y20 Z0.3 F5000.0 ; Move to start position
G1 X0.1 Y200.0 Z0.3 F1500.0 E15 ; Draw the first line
G1 X0.4 Y200.0 Z0.3 F5000.0 ; Move to side a little
G1 X0.4 Y20 Z0.3 F1500.0 E30 ; Draw the second line
G92 E0 ; Reset Extruder
G1 Z2.0 F3000 ; Move Z Axis up little to prevent scratching of Heat Bed
G1 X5 Y20 Z0.3 F5000.0 ; Move over to prevent blob squish
G92 E0
G92 E0
G1 F2700 E-5
;LAYER_COUNT:214
;LAYER:0
M107
G0 F6000 X71.205 Y51.337 Z0.28
;TYPE:SKIRT
G1 F2700 E0
G1 F1200 X71.775 Y50.592 E0.04368
G1 X72.407 Y49.899 E0.08735
G1 X73.096 Y49.263 E0.13101
G1 X73.836 Y48.687 E0.17468
G1 X74.623 Y48.177 E0.21835
G1 X75.191 Y47.864 E0.24855
G1 X75.345 Y47.785 E0.25661
G1 X76.197 Y47.393 E0.30028
G1 X77.079 Y47.074 E0.34395
G1 X77.873 Y46.858 E0.38226
G1 X78.075 Y46.811 E0.39192
G1 X78.968 Y46.642 E0.43424
G1 X79.002 Y46.637 E0.43584
G1 X80.392 Y46.522 E0.50079
G1 X81.44 Y46.502 E0.5496
G1 X81.65 Y46.5 E0.55937
G1 X124.668 Y46.501 E2.56247
G1 X125.366 Y46.511 E2.59498
G1 X126.302 Y46.565 E2.63863
G1 X127.23 Y46.697 E2.68228
G1 X128.144 Y46.909 E2.72597
G1 X129.036 Y47.198 E2.76963
G1 X129.901 Y47.561 E2.81331
G1 X130.731 Y47.997 E2.85697
G1 X131.522 Y48.502 E2.90067
G1 X132.266 Y49.073 E2.94434
G1 X132.959 Y49.705 E2.98801
G1 X133.596 Y50.393 E3.03167
G1 X134.171 Y51.134 E3.07534
G1 X134.682 Y51.92 E3.119
G1 X135.124 Y52.748 E3.1627
G1 X135.493 Y53.61 E3.20636
G1 X135.788 Y54.5 E3.25002
G1 X135.988 Y55.32 E3.28932
G1 X136.115 Y55.945 E3.31902
G1 X136.149 Y56.119 E3.32728
G1 X136.397 Y57.45 E3.39032
G1 X136.921 Y59.874 E3.5058
G1 X137.513 Y62.283 E3.62131
G1 X138.197 Y64.755 E3.74074
G1 X138.933 Y67.155 E3.85763
G1 X139.744 Y69.554 E3.97555
G1 X140.61 Y71.894 E4.09173
G1 X141.564 Y74.265 E4.21074
G1 X142.548 Y76.523 E4.32543
G1 X143.638 Y78.845 E4.44487
G1 X144.76 Y81.065 E4.5607
G1 X145.96 Y83.285 E4.67821
G1 X147.21 Y85.447 E4.79449
G1 X148.549 Y87.621 E4.91338
G1 X149.917 Y89.708 E5.02958
G1 X151.344 Y91.752 E5.14566
G1 X153.526 Y94.665 E5.31513
G1 X154.056 Y95.344 E5.35524
G1 X154.263 Y95.618 E5.37123
G1 X154.752 Y96.286 E5.40978
G1 X163.359 Y108.378 E6.1009
G1 X163.759 Y108.955 E6.1336
G1 X164.26 Y109.748 E6.17727
G1 X164.692 Y110.58 E6.22093
G1 X165.051 Y111.447 E6.26462
G1 X165.258 Y112.071 E6.29523
G1 X165.319 Y112.275 E6.30515
G1 X165.549 Y113.184 E6.34881
G1 X165.701 Y114.109 E6.39246
G1 X165.773 Y115.044 E6.43613
G1 X165.766 Y115.982 E6.4798
G1 X165.666 Y117.008 E6.52781
G1 X165.633 Y117.235 E6.53849
G1 X165.458 Y118.157 E6.58219
G1 X165.206 Y119.06 E6.62584
G1 X164.878 Y119.939 E6.66953
G1 X164.476 Y120.786 E6.71318
G1 X164.003 Y121.596 E6.75686
G1 X163.486 Y122.333 E6.79878
G1 X163.353 Y122.507 E6.80898
G1 X162.753 Y123.227 E6.85262
G1 X162.093 Y123.894 E6.89631
G1 X161.698 Y124.242 E6.92082
G1 X161.118 Y124.703 E6.95532
G1 X160.533 Y125.136 E6.98921
G1 X160.32 Y125.289 E7.00143
G1 X160.087 Y125.453 E7.01469
G1 X159.298 Y125.96 E7.05836
G1 X158.747 Y126.26 E7.08758
G1 X158.584 Y126.343 E7.09609
G1 X157.731 Y126.733 E7.13977
G1 X156.848 Y127.048 E7.18342
G1 X156.19 Y127.23 E7.21521
G1 X155.941 Y127.29 E7.22714
G1 X153.418 Y127.948 E7.34855
G1 X150.992 Y128.653 E7.46619
G1 X148.613 Y129.417 E7.58253
G1 X146.242 Y130.255 E7.69963
G1 X143.905 Y131.156 E7.81626
G1 X141.542 Y132.144 E7.93552
G1 X139.285 Y133.163 E8.05083
G1 X136.98 Y134.284 E8.17018
G1 X134.804 Y135.419 E8.28446
G1 X132.552 Y136.677 E8.40458
G1 X130.441 Y137.934 E8.51898
G1 X128.271 Y139.312 E8.63867
G1 X126.22 Y140.698 E8.75394
G1 X124.147 Y142.185 E8.87273
G1 X122.153 Y143.703 E8.98943
G1 X120.177 Y145.296 E9.10761
G1 X118.318 Y146.885 E9.22149
G1 X116.407 Y148.615 E9.34152
G1 X114.591 Y150.354 E9.4586
G1 X112.822 Y152.145 E9.57582
G1 X111.112 Y153.979 E9.69258
G1 X109.46 Y155.856 E9.80901
G1 X107.828 Y157.817 E9.92781
G1 X106.286 Y159.781 E10.04408
G1 X104.774 Y161.824 E10.16243
G1 X103.353 Y163.86 E10.27804
G1 X101.975 Y165.96 E10.395
G1 X100.65 Y168.108 E10.51252
G1 X99.37 Y170.323 E10.63164
G1 X98.194 Y172.495 E10.74665
G1 X97.047 Y174.766 E10.86512
G1 X95.985 Y177.027 E10.98144
G1 X94.739 Y179.909 E11.12764
G1 X94.322 Y180.92 E11.17856
G1 X93.927 Y181.771 E11.22225
G1 X93.462 Y182.585 E11.2659
G1 X92.929 Y183.357 E11.30958
G1 X92.48 Y183.911 E11.34279
G1 X92.341 Y184.072 E11.35269
G1 X91.699 Y184.756 E11.39637
G1 X91 Y185.382 E11.44007
G1 X90.251 Y185.946 E11.48373
G1 X89.604 Y186.358 E11.51944
G1 X89.465 Y186.44 E11.52696
G1 X88.638 Y186.882 E11.57062
G1 X87.776 Y187.252 E11.6143
G1 X86.885 Y187.546 E11.65799
G1 X85.516 Y187.843 E11.72322
G1 X85.317 Y187.873 E11.73259
G1 X84.023 Y187.991 E11.79309
G1 X83.737 Y188 E11.80642
G1 X83.396 Y188.005 E11.8223
G1 X81.218 Y188.005 E11.92371
G1 X80.552 Y187.995 E11.95473
G1 X79.616 Y187.941 E11.99839
G1 X78.687 Y187.807 E12.04209
G1 X78.017 Y187.659 E12.07404
G1 X77.784 Y187.6 E12.08523
G1 X76.885 Y187.332 E12.12892
G1 X76.013 Y186.987 E12.17258
G1 X75.173 Y186.57 E12.21625
G1 X74.372 Y186.083 E12.2599
G1 X73.615 Y185.529 E12.30358
G1 X73.188 Y185.169 E12.32959
G1 X73.012 Y185.013 E12.34054
G1 X72.337 Y184.361 E12.38424
G1 X71.72 Y183.655 E12.4279
G1 X71.166 Y182.898 E12.47158
G1 X70.469 Y181.7 E12.53612
G1 X70.408 Y181.578 E12.54247
G1 X70.025 Y180.722 E12.58613
G1 X69.716 Y179.837 E12.62978
G1 X69.484 Y178.928 E12.67347
G1 X69.377 Y178.347 E12.70098
G1 X69.345 Y178.141 E12.71068
G1 X69.221 Y176.815 E12.7727
G1 X69.215 Y176.633 E12.78118
G1 X69.209 Y176.342 E12.79473
G1 X69.207 Y175.963 E12.81238
G1 X69.203 Y79.541 E17.30219
G1 X69.203 Y58.187 E18.29652
G1 X69.213 Y57.493 E18.32884
G1 X69.267 Y56.556 E18.37254
G1 X69.4 Y55.628 E18.4162
G1 X69.611 Y54.714 E18.45987
G1 X69.9 Y53.822 E18.50354
G1 X70.264 Y52.957 E18.54723
G1 X70.7 Y52.127 E18.59089
G1 X71.205 Y51.337 E18.63455
G0 F6000 X71.601 Y51.47
G1 F1200 X72.17 Y50.746 E18.67743
G1 X72.799 Y50.074 E18.72029
G1 X73.485 Y49.459 E18.76319
G1 X74.221 Y48.907 E18.80603
G1 X75.374 Y48.22 E18.86852
G1 X75.528 Y48.141 E18.87658
G1 X76.364 Y47.756 E18.91944
G1 X77.231 Y47.446 E18.96231
G1 X77.964 Y47.248 E18.99767
G1 X78.166 Y47.201 E19.00733
G1 X79.026 Y47.038 E19.04808
G1 X79.06 Y47.033 E19.04968
G1 X80.4 Y46.922 E19.11229
G1 X81.448 Y46.902 E19.1611
G1 X81.65 Y46.9 E19.17051
G1 X124.51 Y46.9 E21.16625
G1 X125.36 Y46.911 E21.20583
G1 X126.279 Y46.964 E21.2487
G1 X127.19 Y47.097 E21.29157
G1 X128.086 Y47.308 E21.33443
G1 X128.96 Y47.596 E21.37728
G1 X129.807 Y47.959 E21.42019
G1 X130.618 Y48.394 E21.46304
G1 X131.388 Y48.898 E21.50589
G1 X132.112 Y49.467 E21.54877
G1 X132.784 Y50.097 E21.59166
G1 X133.399 Y50.782 E21.63453
G1 X133.952 Y51.518 E21.6774
G1 X134.439 Y52.299 E21.72025
G1 X134.856 Y53.12 E21.76313
G1 X135.201 Y53.974 E21.80602
G1 X135.47 Y54.854 E21.84887
G1 X135.596 Y55.399 E21.87491
G1 X135.723 Y56.024 E21.90461
G1 X135.998 Y57.498 E21.97443
G1 X136.528 Y59.948 E22.09115
G1 X137.134 Y62.412 E22.20931
G1 X137.817 Y64.883 E22.32868
G1 X138.544 Y67.253 E22.44411
G1 X139.362 Y69.673 E22.56306
G1 X140.244 Y72.057 E22.68142
G1 X141.185 Y74.396 E22.79882
G1 X142.192 Y76.704 E22.91608
G1 X143.284 Y79.031 E23.03577
G1 X144.401 Y81.242 E23.15111
G1 X145.605 Y83.469 E23.269
G1 X146.881 Y85.677 E23.38774
G1 X148.201 Y87.819 E23.5049
G1 X149.588 Y89.935 E23.62271
G1 X151.019 Y91.986 E23.73916
G1 X153.24 Y94.951 E23.91167
G1 X153.74 Y95.591 E23.94948
G1 X153.94 Y95.855 E23.96491
G1 X154.512 Y96.637 E24.01002
G1 X162.955 Y108.498 E24.68795
G1 X163.43 Y109.183 E24.72677
G1 X163.922 Y109.962 E24.76967
G1 X164.343 Y110.78 E24.81251
G1 X164.692 Y111.632 E24.85538
G1 X164.875 Y112.185 E24.8825
G1 X164.936 Y112.389 E24.89242
G1 X165.161 Y113.282 E24.9353
G1 X165.308 Y114.191 E24.97818
G1 X165.375 Y115.109 E25.02104
G1 X165.363 Y116.03 E25.06393
G1 X165.27 Y116.951 E25.10703
G1 X165.237 Y117.178 E25.11771
G1 X165.065 Y118.082 E25.16056
G1 X164.815 Y118.969 E25.20347
G1 X164.489 Y119.83 E25.24634
G1 X164.09 Y120.659 E25.28918
G1 X163.621 Y121.451 E25.33204
G1 X163.169 Y122.09 E25.36849
G1 X163.036 Y122.264 E25.37868
G1 X162.445 Y122.971 E25.42159
G1 X161.479 Y123.904 E25.48413
G1 X161.439 Y123.938 E25.48657
G1 X160.88 Y124.381 E25.51978
G1 X160.295 Y124.814 E25.55367
G1 X160.09 Y124.962 E25.56545
G1 X159.857 Y125.126 E25.57872
G1 X159.082 Y125.623 E25.62159
G1 X158.566 Y125.904 E25.64894
G1 X158.403 Y125.987 E25.65746
G1 X157.565 Y126.369 E25.70035
G1 X156.697 Y126.676 E25.74322
G1 X156.095 Y126.841 E25.77228
G1 X155.871 Y126.895 E25.78301
G1 X153.311 Y127.562 E25.9062
G1 X150.873 Y128.271 E26.02442
G1 X148.495 Y129.035 E26.14073
G1 X146.101 Y129.881 E26.25896
G1 X143.742 Y130.79 E26.37667
G1 X141.402 Y131.769 E26.49479
G1 X139.095 Y132.81 E26.61264
G1 X136.827 Y133.913 E26.73007
G1 X134.588 Y135.081 E26.84766
G1 X132.389 Y136.309 E26.96494
G1 X130.186 Y137.622 E27.08436
G1 X128.054 Y138.975 E27.20194
G1 X126.008 Y140.357 E27.31691
G1 X123.918 Y141.857 E27.4367
G1 X121.905 Y143.389 E27.55449
G1 X119.929 Y144.983 E27.67271
G1 X118.018 Y146.616 E27.78975
G1 X116.162 Y148.296 E27.90632
G1 X114.313 Y150.067 E28.02554
G1 X112.528 Y151.874 E28.14381
G1 X110.819 Y153.708 E28.26054
G1 X109.135 Y155.62 E28.37918
G1 X107.539 Y157.538 E28.49537
G1 X105.949 Y159.564 E28.61529
G1 X104.468 Y161.563 E28.73114
G1 X103.013 Y163.651 E28.84964
G1 X101.627 Y165.761 E28.96719
G1 X100.305 Y167.904 E29.08444
G1 X99.045 Y170.085 E29.20172
G1 X97.821 Y172.345 E29.3214
G1 X96.693 Y174.58 E29.43798
G1 X95.62 Y176.864 E29.55548
G1 X94.361 Y179.776 E29.7032
G1 X93.952 Y180.767 E29.75313
G1 X93.564 Y181.602 E29.796
G1 X93.105 Y182.4 E29.83887
G1 X92.579 Y183.156 E29.88175
G1 X92.177 Y183.65 E29.91141
G1 X92.038 Y183.811 E29.92131
G1 X91.407 Y184.481 E29.96417
G1 X90.72 Y185.094 E30.00704
G1 X89.982 Y185.645 E30.04993
G1 X89.401 Y186.014 E30.08197
G1 X89.262 Y186.096 E30.08949
G1 X88.449 Y186.529 E30.13238
G1 X87.602 Y186.889 E30.17524
G1 X86.727 Y187.175 E30.2181
G1 X85.456 Y187.448 E30.27863
G1 X85.257 Y187.478 E30.288
G1 X84.01 Y187.591 E30.34631
G1 X83.724 Y187.6 E30.35963
G1 X83.396 Y187.605 E30.37491
G1 X81.224 Y187.605 E30.47604
G1 X80.558 Y187.595 E30.50706
G1 X79.639 Y187.541 E30.54993
G1 X78.728 Y187.408 E30.59279
G1 X78.115 Y187.272 E30.62203
G1 X77.882 Y187.213 E30.63322
G1 X77 Y186.948 E30.67611
G1 X76.145 Y186.608 E30.71895
G1 X75.322 Y186.195 E30.76183
G1 X74.538 Y185.712 E30.80471
G1 X73.453 Y184.869 E30.86869
G1 X73.277 Y184.713 E30.87964
G1 X72.615 Y184.073 E30.92251
G1 X72.011 Y183.378 E30.96539
G1 X71.47 Y182.634 E31.00822
G1 X70.827 Y181.521 E31.06808
G1 X70.766 Y181.399 E31.07443
G1 X70.39 Y180.559 E31.11728
G1 X70.089 Y179.689 E31.16015
G1 X69.865 Y178.796 E31.20302
G1 X69.773 Y178.286 E31.22715
G1 X69.741 Y178.08 E31.23686
G1 X69.621 Y176.802 E31.29663
G1 X69.615 Y176.62 E31.30511
G1 X69.609 Y176.34 E31.31815
G1 X69.607 Y175.963 E31.3357
G1 X69.603 Y79.541 E35.82551
G1 X69.603 Y58.192 E36.81961
G1 X69.613 Y57.498 E36.85193
G1 X69.666 Y56.579 E36.8948
G1 X69.799 Y55.668 E36.93767
G1 X70.01 Y54.772 E36.98053
G1 X70.299 Y53.898 E37.02339
G1 X70.662 Y53.052 E37.06626
G1 X71.097 Y52.24 E37.10915
G1 X71.601 Y51.47 E37.15201
G0 F6000 X71.997 Y51.606
G1 F1200 X72.564 Y50.903 E37.19406
G1 X73.19 Y50.253 E37.23608
G1 X73.872 Y49.66 E37.27816
G1 X74.604 Y49.131 E37.32022
G1 X75.556 Y48.575 E37.37155
G1 X75.71 Y48.496 E37.37961
G1 X76.531 Y48.12 E37.42166
G1 X77.382 Y47.818 E37.46371
G1 X78.054 Y47.637 E37.49611
G1 X78.256 Y47.59 E37.50577
G1 X79.084 Y47.434 E37.545
G1 X79.118 Y47.429 E37.54661
G1 X80.407 Y47.322 E37.60683
G1 X81.455 Y47.302 E37.65564
G1 X81.65 Y47.3 E37.66472
G1 X124.51 Y47.3 E39.66046
G1 X125.354 Y47.311 E39.69977
G1 X126.256 Y47.364 E39.74184
G1 X127.149 Y47.496 E39.78387
G1 X128.027 Y47.707 E39.82592
G1 X128.883 Y47.995 E39.86797
G1 X129.71 Y48.357 E39.91001
G1 X130.502 Y48.792 E39.95209
G1 X131.253 Y49.294 E39.99415
G1 X131.956 Y49.861 E40.0362
G1 X132.606 Y50.488 E40.07826
G1 X133.198 Y51.17 E40.12031
G1 X133.728 Y51.901 E40.16235
G1 X134.19 Y52.677 E40.20441
G1 X134.583 Y53.49 E40.24645
G1 X134.901 Y54.335 E40.28849
G1 X135.204 Y55.479 E40.3436
G1 X135.331 Y56.104 E40.3733
G1 X135.602 Y57.555 E40.44203
G1 X136.151 Y60.09 E40.56281
G1 X136.745 Y62.509 E40.67879
G1 X137.422 Y64.96 E40.7972
G1 X138.169 Y67.393 E40.91571
G1 X138.995 Y69.834 E41.0357
G1 X139.869 Y72.197 E41.15302
G1 X140.811 Y74.539 E41.27056
G1 X141.821 Y76.855 E41.38821
G1 X142.922 Y79.202 E41.50893
G1 X144.05 Y81.434 E41.62537
G1 X145.264 Y83.68 E41.74426
G1 X146.521 Y85.855 E41.86123
G1 X147.875 Y88.052 E41.9814
G1 X149.252 Y90.153 E42.09837
G1 X150.694 Y92.22 E42.21573
G1 X152.913 Y95.181 E42.38802
G1 X153.425 Y95.837 E42.42677
G1 X153.617 Y96.091 E42.4416
G1 X154.186 Y96.869 E42.48648
G1 X162.702 Y108.834 E43.17033
G1 X163.102 Y109.411 E43.20302
G1 X163.583 Y110.175 E43.24506
G1 X163.995 Y110.979 E43.28713
G1 X164.334 Y111.816 E43.32918
G1 X164.491 Y112.3 E43.35287
G1 X164.552 Y112.504 E43.36278
G1 X164.773 Y113.38 E43.40485
G1 X164.914 Y114.272 E43.4469
G1 X164.977 Y115.173 E43.48896
G1 X164.959 Y116.075 E43.53097
G1 X164.874 Y116.893 E43.56926
G1 X164.841 Y117.12 E43.57995
G1 X164.672 Y118.007 E43.62199
G1 X164.424 Y118.876 E43.66407
G1 X164.101 Y119.719 E43.70611
G1 X163.705 Y120.531 E43.74817
G1 X163.238 Y121.304 E43.79023
G1 X162.851 Y121.847 E43.82128
G1 X162.718 Y122.021 E43.83147
G1 X162.138 Y122.714 E43.87355
G1 X161.22 Y123.599 E43.93293
G1 X161.18 Y123.633 E43.93537
G1 X160.642 Y124.06 E43.96736
G1 X160.057 Y124.493 E44.00125
G1 X159.86 Y124.635 E44.01255
G1 X159.627 Y124.799 E44.02582
G1 X158.866 Y125.286 E44.06789
G1 X158.384 Y125.547 E44.09341
G1 X158.221 Y125.63 E44.10193
G1 X157.399 Y126.004 E44.14398
G1 X156.547 Y126.304 E44.18604
G1 X156.001 Y126.453 E44.2124
G1 X155.73 Y126.519 E44.22539
G1 X153.203 Y127.177 E44.34698
G1 X150.786 Y127.88 E44.46419
G1 X148.345 Y128.664 E44.58357
G1 X145.961 Y129.506 E44.7013
G1 X143.593 Y130.419 E44.81947
G1 X141.232 Y131.407 E44.93865
G1 X138.921 Y132.45 E45.05671
G1 X136.646 Y133.556 E45.1745
G1 X134.387 Y134.734 E45.29313
G1 X132.195 Y135.959 E45.41006
G1 X129.989 Y137.273 E45.52962
G1 X127.863 Y138.623 E45.64689
G1 X125.741 Y140.056 E45.76612
G1 X123.664 Y141.546 E45.88514
G1 X121.656 Y143.074 E46.00264
G1 X119.701 Y144.651 E46.11959
G1 X117.754 Y146.316 E46.23888
G1 X115.883 Y148.009 E46.35638
G1 X114.034 Y149.779 E46.47557
G1 X112.234 Y151.603 E46.59489
G1 X110.526 Y153.434 E46.71149
G1 X108.844 Y155.345 E46.83003
G1 X107.216 Y157.302 E46.94856
G1 X105.645 Y159.302 E47.06699
G1 X104.135 Y161.342 E47.18517
G1 X102.694 Y163.408 E47.30246
G1 X101.286 Y165.553 E47.42194
G1 X99.953 Y167.715 E47.54021
G1 X98.69 Y169.9 E47.65772
G1 X97.477 Y172.139 E47.7763
G1 X96.332 Y174.409 E47.89468
G1 X95.255 Y176.7 E48.01256
G1 X93.991 Y179.623 E48.16085
G1 X93.582 Y180.615 E48.21081
G1 X93.201 Y181.433 E48.25283
G1 X92.749 Y182.215 E48.29489
G1 X92.23 Y182.954 E48.33694
G1 X91.875 Y183.389 E48.36308
G1 X91.736 Y183.55 E48.37299
G1 X91.116 Y184.206 E48.41502
G1 X90.44 Y184.806 E48.45711
G1 X89.714 Y185.343 E48.49915
G1 X89.198 Y185.669 E48.52757
G1 X89.059 Y185.751 E48.53509
G1 X88.261 Y186.175 E48.57717
G1 X87.429 Y186.527 E48.61923
G1 X86.57 Y186.804 E48.66126
G1 X85.397 Y187.052 E48.71709
G1 X85.198 Y187.082 E48.72646
G1 X83.998 Y187.191 E48.78256
G1 X83.712 Y187.2 E48.79589
G1 X83.396 Y187.205 E48.8106
G1 X81.23 Y187.205 E48.91146
G1 X80.564 Y187.195 E48.94248
G1 X79.662 Y187.141 E48.98455
G1 X78.769 Y187.008 E49.02659
G1 X78.213 Y186.884 E49.05312
G1 X77.98 Y186.825 E49.06431
G1 X77.115 Y186.565 E49.10637
G1 X76.277 Y186.229 E49.14841
G1 X75.472 Y185.82 E49.19046
G1 X74.705 Y185.342 E49.23254
G1 X73.718 Y184.57 E49.29089
G1 X73.542 Y184.414 E49.30184
G1 X72.894 Y183.786 E49.34386
G1 X72.303 Y183.102 E49.38595
