;FLAVOR:Marlin
;TIME:9753
;Filament used: 9.47497m
;Layer height: 0.28
;MINX:75.4
;MINY:94.502
;MINZ:0.28
;MAXX:156.661
;MAXY:140.497
;MAXZ:64.96
;Generated with Cura_SteamEngine 4.5.0
M140 S65
M105
M190 S65
M104 S215
M105
M109 S215
M82 ;absolute extrusion mode
; Ender 3 Custom Start G-code
G92 E0 ; Reset Extruder
G28 ; Home all axes
G1 Z2.0 F3000 ; Move Z Axis up little to prevent scratching of Heat Bed
G1 X0.1 Y20 Z0.3 F5000.0 ; Move to start position
G1 X0.1 Y200.0 Z0.3 F1500.0 E15 ; Draw the first line
G1 X0.4 Y200.0 Z0.3 F5000.0 ; Move to side a little
G1 X0.4 Y20 Z0.3 F1500.0 E30 ; Draw the second line
G92 E0 ; Reset Extruder
G1 Z2.0 F3000 ; Move Z Axis up little to prevent scratching of Heat Bed
G1 X5 Y20 Z0.3 F5000.0 ; Move over to prevent blob squish
G92 E0
G92 E0
G1 F2700 E-5
;LAYER_COUNT:232
;LAYER:0
M107
G0 F6000 X80.034 Y106.57 Z0.28
;TYPE:SKIRT
G1 F2700 E0
G1 F1200 X80.743 Y106.105 E0.03948
G1 X81.837 Y105.449 E0.09888
G1 X82.373 Y105.139 E0.12771
G1 X84.519 Y103.813 E0.24517
G1 X86.609 Y102.439 E0.36164
G1 X87.645 Y101.716 E0.42047
G1 X88.251 Y101.307 E0.45451
G1 X89.05 Y100.816 E0.49818
G1 X89.888 Y100.395 E0.54185
G1 X90.759 Y100.047 E0.58552
G1 X91.326 Y99.865 E0.61325
G1 X92.185 Y99.616 E0.6549
G1 X108.694 Y95.066 E1.45229
G1 X109.399 Y94.882 E1.48621
G1 X110.316 Y94.684 E1.5299
G1 X111.569 Y94.542 E1.58861
G1 X111.858 Y94.526 E1.60209
G1 X112.328 Y94.51 E1.62399
G1 X113.023 Y94.502 E1.65635
G1 X145.112 Y94.503 E3.15055
G1 X145.81 Y94.513 E3.18306
G1 X146.746 Y94.567 E3.22671
G1 X147.674 Y94.699 E3.27036
G1 X148.588 Y94.911 E3.31405
G1 X149.48 Y95.2 E3.35771
G1 X150.345 Y95.563 E3.40139
G1 X151.175 Y95.999 E3.44505
G1 X151.966 Y96.504 E3.48875
G1 X152.71 Y97.075 E3.53242
G1 X153.403 Y97.707 E3.57609
G1 X154.04 Y98.395 E3.61975
G1 X154.615 Y99.136 E3.66342
G1 X155.126 Y99.922 E3.70708
G1 X155.568 Y100.75 E3.75078
G1 X155.937 Y101.612 E3.79444
G1 X156.232 Y102.502 E3.8381
G1 X156.45 Y103.414 E3.88177
G1 X156.59 Y104.342 E3.92547
G1 X156.648 Y105.204 E3.9657
G1 X156.661 Y105.833 E3.99499
G1 X156.661 Y128.91 E5.06955
G1 X156.652 Y129.626 E5.10289
G1 X156.6 Y130.563 E5.14659
G1 X156.469 Y131.491 E5.19023
G1 X156.259 Y132.405 E5.2339
G1 X155.972 Y133.298 E5.27758
G1 X155.61 Y134.163 E5.32124
G1 X155.175 Y134.995 E5.36496
G1 X154.672 Y135.786 E5.40861
G1 X154.103 Y136.531 E5.45226
G1 X153.472 Y137.225 E5.49593
G1 X152.784 Y137.863 E5.53962
G1 X152.045 Y138.44 E5.58328
G1 X151.259 Y138.952 E5.62696
G1 X150.433 Y139.395 E5.67061
G1 X149.571 Y139.766 E5.7143
G1 X148.682 Y140.063 E5.75795
G1 X147.77 Y140.282 E5.80162
G1 X146.843 Y140.423 E5.84528
G1 X145.969 Y140.483 E5.88608
G1 X145.34 Y140.497 E5.91537
G1 X122.634 Y140.497 E6.97266
G1 X120.669 Y140.466 E7.06417
G1 X118.087 Y140.46 E7.1844
G1 X116.207 Y140.497 E7.27196
G1 X86.949 Y140.497 E8.63433
G1 X86.251 Y140.487 E8.66684
G1 X85.315 Y140.433 E8.71049
G1 X84.387 Y140.301 E8.75414
G1 X83.473 Y140.089 E8.79783
G1 X82.581 Y139.8 E8.84149
G1 X81.716 Y139.437 E8.88517
G1 X80.886 Y139.001 E8.92883
G1 X80.095 Y138.496 E8.97252
G1 X79.351 Y137.925 E9.0162
G1 X78.658 Y137.293 E9.05987
G1 X78.021 Y136.605 E9.10353
G1 X77.446 Y135.864 E9.1472
G1 X76.935 Y135.078 E9.19086
G1 X76.493 Y134.25 E9.23456
G1 X76.124 Y133.388 E9.27822
G1 X75.829 Y132.498 E9.32188
G1 X75.611 Y131.586 E9.36554
G1 X75.471 Y130.658 E9.40924
G1 X75.413 Y129.786 E9.44994
G1 X75.4 Y129.156 E9.47928
G1 X75.401 Y116.073 E10.08848
G1 X75.411 Y115.375 E10.12098
G1 X75.465 Y114.439 E10.16464
G1 X75.597 Y113.511 E10.20829
G1 X75.809 Y112.597 E10.25198
G1 X76.098 Y111.705 E10.29564
G1 X76.461 Y110.84 E10.33932
G1 X76.897 Y110.01 E10.38297
G1 X77.402 Y109.219 E10.42667
G1 X77.973 Y108.475 E10.47034
G1 X78.605 Y107.782 E10.51402
G1 X79.293 Y107.145 E10.55768
G1 X80.034 Y106.57 E10.60135
G0 F6000 X80.418 Y106.789
G1 F1200 X80.949 Y106.448 E10.63073
G1 X82.038 Y105.795 E10.68986
G1 X82.562 Y105.491 E10.71807
G1 X84.726 Y104.154 E10.83651
G1 X86.852 Y102.757 E10.95497
G1 X87.869 Y102.048 E11.0127
G1 X88.475 Y101.639 E11.04674
G1 X89.26 Y101.157 E11.08963
G1 X90.083 Y100.746 E11.13247
G1 X90.94 Y100.407 E11.17538
G1 X91.438 Y100.249 E11.19971
G1 X92.291 Y100.001 E11.24108
G1 X108.795 Y95.453 E12.03822
G1 X109.5 Y95.269 E12.07214
G1 X110.4 Y95.075 E12.11501
G1 X111.591 Y94.941 E12.17082
G1 X111.88 Y94.925 E12.1843
G1 X112.333 Y94.91 E12.2054
G1 X113.023 Y94.902 E12.23754
G1 X145.106 Y94.903 E13.73146
G1 X145.804 Y94.913 E13.76396
G1 X146.723 Y94.966 E13.80682
G1 X147.634 Y95.099 E13.84969
G1 X148.53 Y95.31 E13.89256
G1 X149.404 Y95.598 E13.93541
G1 X150.251 Y95.961 E13.97832
G1 X151.062 Y96.396 E14.02117
G1 X151.832 Y96.9 E14.06402
G1 X152.556 Y97.469 E14.1069
G1 X153.228 Y98.099 E14.14979
G1 X153.843 Y98.784 E14.19266
G1 X154.396 Y99.52 E14.23552
G1 X154.883 Y100.301 E14.27838
G1 X155.3 Y101.122 E14.32126
G1 X155.645 Y101.976 E14.36415
G1 X155.914 Y102.856 E14.40699
G1 X156.106 Y103.757 E14.44989
G1 X156.219 Y104.67 E14.49273
G1 X156.248 Y105.215 E14.51814
G1 X156.261 Y105.833 E14.54692
G1 X156.261 Y128.905 E15.62125
G1 X156.252 Y129.621 E15.6546
G1 X156.201 Y130.54 E15.69745
G1 X156.07 Y131.452 E15.74036
G1 X155.86 Y132.348 E15.78321
G1 X155.573 Y133.223 E15.82609
G1 X155.212 Y134.07 E15.86896
G1 X154.778 Y134.882 E15.91183
G1 X154.276 Y135.653 E15.95467
G1 X153.708 Y136.378 E15.99756
G1 X153.08 Y137.051 E16.04042
G1 X152.396 Y137.667 E16.08328
G1 X151.66 Y138.221 E16.12618
G1 X150.88 Y138.71 E16.16905
G1 X150.06 Y139.128 E16.2119
G1 X149.207 Y139.475 E16.25478
G1 X148.327 Y139.745 E16.29764
G1 X147.427 Y139.939 E16.34052
G1 X146.513 Y140.053 E16.3834
G1 X145.958 Y140.084 E16.40929
G1 X145.34 Y140.097 E16.43807
G1 X122.641 Y140.097 E17.49503
G1 X120.677 Y140.066 E17.5865
G1 X118.08 Y140.06 E17.70742
G1 X116.207 Y140.097 E17.79465
G1 X86.955 Y140.097 E19.15675
G1 X86.257 Y140.087 E19.18926
G1 X85.338 Y140.034 E19.23212
G1 X84.427 Y139.901 E19.27499
G1 X83.531 Y139.69 E19.31785
G1 X82.657 Y139.402 E19.3607
G1 X81.81 Y139.039 E19.40361
G1 X80.999 Y138.604 E19.44646
G1 X80.229 Y138.1 E19.48932
G1 X79.505 Y137.531 E19.53219
G1 X78.833 Y136.901 E19.57508
G1 X78.218 Y136.216 E19.61795
G1 X77.665 Y135.48 E19.66082
G1 X77.178 Y134.699 E19.70367
G1 X76.761 Y133.878 E19.74655
G1 X76.416 Y133.024 E19.78944
G1 X76.147 Y132.144 E19.83229
G1 X75.955 Y131.243 E19.87519
G1 X75.842 Y130.33 E19.91802
G1 X75.813 Y129.775 E19.9439
G1 X75.8 Y129.156 E19.97273
G1 X75.801 Y116.079 E20.58165
G1 X75.811 Y115.381 E20.61416
G1 X75.864 Y114.462 E20.65702
G1 X75.997 Y113.551 E20.69989
G1 X76.208 Y112.655 E20.74275
G1 X76.496 Y111.781 E20.7856
G1 X76.859 Y110.934 E20.82851
G1 X77.294 Y110.123 E20.87136
G1 X77.798 Y109.353 E20.91422
G1 X78.367 Y108.629 E20.95709
G1 X78.997 Y107.957 E20.99999
G1 X79.682 Y107.342 E21.04285
G1 X80.418 Y106.789 E21.08572
G0 F6000 X80.07 Y107.543
G1 F1200 X81.155 Y106.791 E21.14719
G1 X82.238 Y106.141 E21.206
G1 X82.809 Y105.811 E21.23671
G1 X84.935 Y104.497 E21.35309
G1 X87.055 Y103.103 E21.47124
G1 X88.093 Y102.379 E21.53016
G1 X88.699 Y101.97 E21.56421
G1 X89.469 Y101.499 E21.60624
G1 X90.278 Y101.097 E21.6483
G1 X91.55 Y100.633 E21.71135
G1 X92.397 Y100.387 E21.75242
G1 X108.896 Y95.84 E22.54932
G1 X109.601 Y95.656 E22.58325
G1 X110.484 Y95.466 E22.62531
G1 X111.613 Y95.341 E22.6782
G1 X111.902 Y95.325 E22.69168
G1 X112.338 Y95.31 E22.71199
G1 X113.023 Y95.302 E22.74389
G1 X145.1 Y95.303 E24.23753
G1 X145.798 Y95.313 E24.27004
G1 X146.7 Y95.366 E24.31211
G1 X147.593 Y95.498 E24.35414
G1 X148.471 Y95.709 E24.39619
G1 X149.327 Y95.997 E24.43824
G1 X150.154 Y96.359 E24.48028
G1 X150.946 Y96.794 E24.52236
G1 X151.697 Y97.296 E24.56442
G1 X152.4 Y97.863 E24.60647
G1 X153.05 Y98.49 E24.64853
G1 X153.642 Y99.172 E24.69058
G1 X154.172 Y99.903 E24.73262
G1 X154.634 Y100.679 E24.77468
G1 X155.027 Y101.492 E24.81672
G1 X155.345 Y102.337 E24.85876
G1 X155.588 Y103.207 E24.90083
G1 X155.753 Y104.095 E24.94288
G1 X155.848 Y105.226 E24.99573
G1 X155.861 Y105.833 E25.024
G1 X155.861 Y128.9 E26.0981
G1 X155.852 Y129.616 E26.13144
G1 X155.801 Y130.518 E26.17351
G1 X155.67 Y131.411 E26.21554
G1 X155.461 Y132.29 E26.25761
G1 X155.174 Y133.146 E26.29965
G1 X154.813 Y133.974 E26.34171
G1 X154.381 Y134.767 E26.38376
G1 X153.88 Y135.518 E26.42579
G1 X153.314 Y136.222 E26.46785
G1 X152.688 Y136.874 E26.50994
G1 X152.007 Y137.467 E26.55199
G1 X151.277 Y137.998 E26.59402
G1 X150.502 Y138.462 E26.63608
G1 X149.689 Y138.855 E26.67813
G1 X148.845 Y139.176 E26.72018
G1 X147.975 Y139.42 E26.76225
G1 X147.088 Y139.587 E26.80428
G1 X145.946 Y139.684 E26.85765
G1 X145.34 Y139.697 E26.88587
G1 X122.647 Y139.697 E27.94255
G1 X120.684 Y139.666 E28.03397
G1 X118.073 Y139.66 E28.15555
G1 X116.207 Y139.697 E28.24246
G1 X86.961 Y139.697 E29.60427
G1 X86.263 Y139.687 E29.63678
G1 X85.361 Y139.634 E29.67885
G1 X84.468 Y139.502 E29.72088
G1 X83.59 Y139.291 E29.76293
G1 X82.734 Y139.003 E29.80499
G1 X81.907 Y138.641 E29.84702
G1 X81.115 Y138.206 E29.8891
G1 X80.364 Y137.704 E29.93116
G1 X79.661 Y137.137 E29.97322
G1 X79.011 Y136.51 E30.01527
G1 X78.419 Y135.828 E30.05732
G1 X77.889 Y135.097 E30.09936
G1 X77.427 Y134.321 E30.14142
G1 X77.034 Y133.508 E30.18347
G1 X76.716 Y132.663 E30.22551
G1 X76.473 Y131.793 E30.26757
G1 X76.308 Y130.905 E30.30962
G1 X76.213 Y129.764 E30.36294
G1 X76.2 Y129.156 E30.39126
G1 X76.201 Y116.085 E30.9999
G1 X76.211 Y115.387 E31.0324
G1 X76.264 Y114.485 E31.07447
G1 X76.396 Y113.592 E31.11651
G1 X76.607 Y112.714 E31.15856
G1 X76.895 Y111.858 E31.20061
G1 X77.257 Y111.031 E31.24265
G1 X77.692 Y110.239 E31.28472
G1 X78.194 Y109.488 E31.32678
G1 X78.761 Y108.785 E31.36884
G1 X79.388 Y108.135 E31.41089
G1 X80.07 Y107.543 E31.45294
G1 F2700 E26.45294
;MESH:nintendo_switch_6_slot_cart_holder_v3.stl
G0 F6000 X93.737 Y110.734
G0 X94.822 Y110.734
G0 X95.177 Y120.878
G0 X90.615 Y121.28
G0 X90.615 Y116.286
G0 X87.182 Y116.302
G0 X87.182 Y128.716
G0 X115.897 Y128.898
;TYPE:WALL-INNER
G1 F2700 E31.45294
G1 F1200 X87 Y128.898 E32.79851
G1 X87 Y116.121 E33.39346
G1 X90.597 Y116.103 E33.56095
G1 X90.797 Y116.103 E33.57027
G1 X90.797 Y116.303 E33.5763
G1 X90.797 Y121.098 E33.79957
G1 X94.563 Y121.101 E33.97493
G1 X95.002 Y120.788 E34.00004
G1 X95.002 Y110.872 E34.46177
G1 X112.279 Y106.109 E35.29627
G1 X112.415 Y106.102 E35.30261
G1 X145.061 Y106.102 E36.82275
G1 X145.062 Y128.699 E37.87496
G1 X145.062 Y128.898 E37.88422
G1 X144.863 Y128.898 E37.89022
G1 X122.702 Y128.898 E38.92213
G1 X122.702 Y110.895 E39.76042
G1 X115.91 Y110.895 E40.07669
G1 X115.897 Y128.898 E40.91498
G0 F6000 X116.297 Y129.298
;TYPE:WALL-OUTER
G1 F1200 X86.6 Y129.298 E42.2978
G1 X86.6 Y115.723 E42.92991
G1 X91.197 Y115.701 E43.14396
G1 X91.197 Y120.698 E43.37665
G1 X94.435 Y120.701 E43.52742
G1 X94.602 Y120.582 E43.53697
G1 X94.602 Y110.567 E44.00331
G1 X112.211 Y105.713 E44.85384
G1 X112.411 Y105.702 E44.86317
G1 X145.461 Y105.702 E46.40211
G1 X145.462 Y129.298 E47.50084
G1 X122.302 Y129.298 E48.57927
G1 X122.302 Y111.295 E49.41756
G1 X116.31 Y111.295 E49.69658
G1 X116.297 Y129.298 E50.53487
G0 F6000 X116.027 Y129.028
G0 X115.507 Y128.788
G0 X115.507 Y128.508
;TYPE:SKIN
G1 F1200 X87.39 Y128.508 E51.84412
G1 X87.39 Y116.509 E52.40284
G1 X90.407 Y116.495 E52.54333
G1 X90.407 Y121.488 E52.77582
G1 X94.688 Y121.491 E52.97516
G1 X95.392 Y120.989 E53.01542
G1 X95.392 Y111.168 E53.47273
G1 X112.339 Y106.497 E54.29128
G1 X112.435 Y106.492 E54.29576
G1 X144.671 Y106.492 E55.7968
G1 X144.672 Y128.508 E56.82196
G1 X123.092 Y128.508 E57.82681
G1 X123.092 Y110.505 E58.66511
G1 X115.52 Y110.505 E59.01769
G1 X115.507 Y128.508 E59.85599
G0 F6000 X115.507 Y128.788
G0 X87.617 Y128.788
G0 X87.617 Y128.346
G1 F1200 X87.549 Y128.279 E59.86043
G0 F6000 X87.549 Y127.713
G1 F1200 X88.183 Y128.346 E59.90215
G0 F6000 X88.748 Y128.346
G1 F1200 X87.549 Y127.147 E59.98111
G0 F6000 X87.549 Y126.582
G1 F1200 X89.314 Y128.346 E60.0973
G0 F6000 X89.88 Y128.346
G1 F1200 X87.549 Y126.016 E60.25077
G0 F6000 X87.549 Y125.45
G1 F1200 X90.446 Y128.346 E60.44151
G0 F6000 X91.011 Y128.346
G1 F1200 X87.549 Y124.884 E60.66949
G0 F6000 X87.549 Y124.319
G1 F1200 X91.577 Y128.346 E60.9347
G0 F6000 X92.143 Y128.346
G1 F1200 X87.549 Y123.753 E61.23719
G0 F6000 X87.549 Y123.187
G1 F1200 X92.708 Y128.346 E61.57692
G0 F6000 X93.274 Y128.346
G1 F1200 X87.549 Y122.622 E61.95389
G0 F6000 X87.549 Y122.056
G1 F1200 X93.84 Y128.346 E62.36813
G0 F6000 X94.405 Y128.346
G1 F1200 X87.549 Y121.49 E62.81961
G0 F6000 X87.549 Y120.925
G1 F1200 X94.971 Y128.346 E63.30833
G0 F6000 X95.537 Y128.346
G1 F1200 X87.549 Y120.359 E63.83432
G0 F6000 X87.549 Y119.793
G1 F1200 X96.102 Y128.346 E64.39755
G0 F6000 X96.668 Y128.346
G1 F1200 X87.549 Y119.228 E64.99802
G0 F6000 X87.549 Y118.662
G1 F1200 X90.247 Y121.36 E65.17569
G0 F6000 X90.535 Y121.647
G1 F1200 X97.234 Y128.346 E65.61683
G0 F6000 X97.799 Y128.346
G1 F1200 X91.1 Y121.647 E66.05797
G0 F6000 X91.667 Y121.648
G1 F1200 X98.365 Y128.346 E66.49904
G0 F6000 X98.931 Y128.346
G1 F1200 X92.232 Y121.648 E66.94015
G0 F6000 X92.799 Y121.649
G1 F1200 X99.496 Y128.346 E67.38116
G0 F6000 X100.062 Y128.346
G1 F1200 X93.364 Y121.649 E67.8222
G0 F6000 X93.931 Y121.649
G1 F1200 X100.628 Y128.346 E68.26321
G0 F6000 X101.194 Y128.346
G1 F1200 X94.497 Y121.649 E68.70422
G0 F6000 X94.928 Y121.515
G1 F1200 X101.759 Y128.346 E69.15405
G0 F6000 X102.325 Y128.346
G1 F1200 X95.258 Y121.28 E69.61939
G0 F6000 X95.552 Y121.007
G1 F1200 X102.891 Y128.346 E70.10268
G0 F6000 X103.456 Y128.346
G1 F1200 X95.552 Y120.442 E70.62317
G0 F6000 X95.552 Y119.876
G1 F1200 X104.022 Y128.346 E71.18093
G0 F6000 X104.588 Y128.346
G1 F1200 X95.552 Y119.31 E71.77597
G0 F6000 X95.552 Y118.745
G1 F1200 X105.153 Y128.346 E72.40821
G0 F6000 X105.719 Y128.346
G1 F1200 X95.552 Y118.179 E73.07773
G0 F6000 X95.552 Y117.613
G1 F1200 X106.285 Y128.346 E73.78451
G0 F6000 X106.85 Y128.346
G1 F1200 X95.552 Y117.048 E74.5285
G0 F6000 X95.552 Y116.482
G1 F1200 X107.416 Y128.346 E75.30977
G0 F6000 X107.982 Y128.346
G1 F1200 X95.552 Y115.916 E76.12831
G0 F6000 X95.552 Y115.351
G1 F1200 X108.547 Y128.346 E76.98405
G0 F6000 X109.113 Y128.346
G1 F1200 X95.552 Y114.785 E77.87706
G0 F6000 X95.552 Y114.219
G1 F1200 X109.679 Y128.346 E78.80735
G0 F6000 X110.245 Y128.346
G1 F1200 X95.552 Y113.653 E79.77491
G0 F6000 X95.552 Y113.088
G1 F1200 X110.81 Y128.346 E80.77968
G0 F6000 X111.376 Y128.346
G1 F1200 X95.552 Y112.522 E81.82171
G0 F6000 X95.552 Y111.956
G1 F1200 X111.942 Y128.346 E82.90102
G0 F6000 X112.507 Y128.346
G1 F1200 X95.552 Y111.391 E84.01754
G0 F6000 X95.916 Y111.189
G1 F1200 X113.073 Y128.346 E85.14736
G0 F6000 X113.639 Y128.346
G1 F1200 X96.359 Y111.067 E86.28524
G0 F6000 X96.802 Y110.945
G1 F1200 X114.204 Y128.346 E87.43116
G0 F6000 X114.77 Y128.346
G1 F1200 X97.246 Y110.822 E88.58514
G0 F6000 X97.689 Y110.7
G1 F1200 X115.336 Y128.346 E89.7472
G0 F6000 X115.347 Y127.792
G1 F1200 X98.133 Y110.578 E90.88077
G0 F6000 X98.577 Y110.456
G1 F1200 X115.348 Y127.227 E91.98517
G0 F6000 X115.348 Y126.661
G1 F1200 X99.02 Y110.334 E93.06036
G0 F6000 X99.463 Y110.211
G1 F1200 X115.348 Y126.096 E94.10641
G0 F6000 X115.348 Y125.531
G1 F1200 X99.907 Y110.089 E95.12326
G0 F6000 X100.35 Y109.967
G1 F1200 X115.349 Y124.966 E96.11097
G0 F6000 X115.349 Y124.4
G1 F1200 X100.794 Y109.845 E97.06945
G0 F6000 X101.237 Y109.723
G1 F1200 X115.35 Y123.835 E97.99878
G0 F6000 X115.351 Y123.27
G1 F1200 X101.681 Y109.6 E98.89897
G0 F6000 X102.124 Y109.478
G1 F1200 X115.351 Y122.704 E99.76996
G0 F6000 X115.351 Y122.139
G1 F1200 X102.567 Y109.356 E100.61177
G0 F6000 X103.011 Y109.233
G1 F1200 X115.351 Y121.574 E101.42442
G0 F6000 X115.352 Y121.009
G1 F1200 X103.455 Y109.112 E102.20785
G0 F6000 X103.898 Y108.989
G1 F1200 X115.352 Y120.443 E102.96212
G0 F6000 X115.353 Y119.878
G1 F1200 X104.342 Y108.867 E103.68721
G0 F6000 X104.785 Y108.745
G1 F1200 X115.353 Y119.313 E104.38313
G0 F6000 X115.353 Y118.747
G1 F1200 X105.228 Y108.622 E105.04988
G0 F6000 X105.672 Y108.501
G1 F1200 X115.354 Y118.182 E105.68743
G0 F6000 X115.354 Y117.617
G1 F1200 X106.116 Y108.378 E106.2958
G0 F6000 X106.559 Y108.256
G1 F1200 X115.355 Y117.052 E106.87503
