;FLAVOR:Marlin
;TIME:948
;Filament used: 0.670713m
;Layer height: 0.28
;MINX:34.806
;MINY:59.329
;MINZ:0.28
;MAXX:200.192
;MAXY:175.654
;MAXZ:0.56
;Generated with Cura_SteamEngine 4.7.0
M140 S55
M105
M190 S55
M104 S210
M105
M109 S210
M82 ;absolute extrusion mode
; Ender 3 Custom Start G-code
G92 E0 ; Reset Extruder
G28 ; Home all axes
G1 Z2.0 F3000 ; Move Z Axis up little to prevent scratching of Heat Bed
G1 X0.1 Y20 Z0.3 F5000.0 ; Move to start position
G1 X0.1 Y200.0 Z0.3 F1500.0 E15 ; Draw the first line
G1 X0.4 Y200.0 Z0.3 F5000.0 ; Move to side a little
G1 X0.4 Y20 Z0.3 F1500.0 E30 ; Draw the second line
G92 E0 ; Reset Extruder
G1 Z2.0 F3000 ; Move Z Axis up little to prevent scratching of Heat Bed
G1 X5 Y20 Z0.3 F5000.0 ; Move over to prevent blob squish
G92 E0
G92 E0
G1 F2700 E-5
;LAYER_COUNT:2
;LAYER:0
M107
G0 F6000 X47.108 Y62.107 Z0.28
;TYPE:SKIRT
G1 F2700 E0
G1 F1200 X47.256 Y61.999 E0.00853
G1 X47.737 Y61.668 E0.03572
G1 X48.005 Y61.495 E0.05057
G1 X48.698 Y61.086 E0.08804
G1 X48.852 Y61.003 E0.09619
G1 X49.32 Y60.766 E0.12062
G1 X49.611 Y60.628 E0.13561
G1 X50.341 Y60.316 E0.17258
G1 X50.498 Y60.256 E0.18041
G1 X51 Y60.079 E0.20519
G1 X51.303 Y59.981 E0.22002
G1 X52.069 Y59.766 E0.25707
G1 X52.232 Y59.727 E0.26487
G1 X52.767 Y59.614 E0.29033
G1 X53.1 Y59.553 E0.3061
G1 X54.074 Y59.423 E0.35185
G1 X54.321 Y59.402 E0.36339
G1 X55.008 Y59.367 E0.39542
G1 X55.873 Y59.352 E0.43571
G1 X56.206 Y59.351 E0.45121
G1 X57.257 Y59.367 E0.50016
G1 X59.89 Y59.37 E0.62276
G1 X61.275 Y59.339 E0.68727
G1 X61.973 Y59.332 E0.71977
G1 X63.305 Y59.334 E0.7818
G1 X65.117 Y59.36 E0.86618
G1 X67.746 Y59.362 E0.9886
G1 X68.807 Y59.337 E1.03802
G1 X69.447 Y59.332 E1.06782
G1 X70.814 Y59.332 E1.13147
G1 X72.709 Y59.357 E1.21972
G1 X75.349 Y59.355 E1.34265
G1 X75.773 Y59.345 E1.3624
G1 X77.23 Y59.329 E1.43024
G1 X109.859 Y59.339 E2.94959
G1 X117.554 Y59.343 E3.3079
G1 X150.746 Y59.333 E4.85346
G1 X157.708 Y59.329 E5.17764
G1 X157.857 Y59.33 E5.18458
G1 X159.716 Y59.356 E5.27115
G1 X162.311 Y59.357 E5.39198
G1 X164.331 Y59.331 E5.48605
G1 X165.408 Y59.332 E5.5362
G1 X167.126 Y59.358 E5.6162
G1 X169.852 Y59.359 E5.74314
G1 X171.86 Y59.332 E5.83665
G1 X172.969 Y59.333 E5.88829
G1 X175.023 Y59.362 E5.98394
G1 X177.678 Y59.365 E6.10757
G1 X178.985 Y59.348 E6.16843
G1 X179.238 Y59.348 E6.18021
G1 X179.49 Y59.351 E6.19195
G1 X179.844 Y59.361 E6.20844
G1 X180.445 Y59.389 E6.23645
G1 X181.298 Y59.465 E6.27633
G1 X181.534 Y59.496 E6.28741
G1 X182.335 Y59.634 E6.32526
G1 X182.649 Y59.701 E6.34021
G1 X183.414 Y59.895 E6.37696
G1 X183.583 Y59.945 E6.38517
G1 X184.127 Y60.123 E6.41182
G1 X184.451 Y60.239 E6.42784
G1 X185.209 Y60.545 E6.46591
G1 X185.353 Y60.61 E6.47326
G1 X185.804 Y60.827 E6.49657
G1 X186.101 Y60.979 E6.51211
G1 X186.816 Y61.382 E6.55032
G1 X186.939 Y61.458 E6.55706
G1 X187.36 Y61.733 E6.58047
G1 X187.652 Y61.934 E6.59698
G1 X188.384 Y62.488 E6.63972
G1 X188.49 Y62.576 E6.64614
G1 X188.781 Y62.827 E6.66403
G1 X189.021 Y63.042 E6.67904
G1 X189.57 Y63.572 E6.71457
G1 X189.693 Y63.7 E6.72284
G1 X190.112 Y64.164 E6.75195
G1 X190.298 Y64.383 E6.76533
G1 X190.696 Y64.881 E6.79501
G1 X190.823 Y65.051 E6.80489
G1 X191.199 Y65.59 E6.83549
G1 X191.367 Y65.848 E6.84983
G1 X191.778 Y66.537 E6.88719
G1 X191.87 Y66.706 E6.89615
G1 X192.132 Y67.222 E6.92309
G1 X192.272 Y67.518 E6.93834
G1 X192.602 Y68.298 E6.97778
G1 X192.659 Y68.45 E6.98534
G1 X192.81 Y68.882 E7.00664
G1 X192.909 Y69.187 E7.02158
G1 X193.124 Y69.949 E7.05844
G1 X193.163 Y70.111 E7.0662
G1 X193.277 Y70.649 E7.09181
G1 X193.338 Y70.98 E7.10748
G1 X193.458 Y71.831 E7.1475
G1 X193.475 Y72.004 E7.1556
G1 X193.512 Y72.502 E7.17885
G1 X193.528 Y72.828 E7.19405
G1 X193.536 Y73.619 E7.23088
G1 X193.532 Y73.759 E7.2374
G1 X193.504 Y74.277 E7.26156
G1 X193.476 Y74.629 E7.278
G1 X193.367 Y75.509 E7.31929
G1 X193.344 Y75.646 E7.32576
G1 X193.26 Y76.088 E7.34671
G1 X193.188 Y76.425 E7.36275
G1 X193.05 Y76.992 E7.38993
G1 X192.796 Y77.918 E7.43464
G1 X192.161 Y80.373 E7.55271
G1 X191.598 Y82.819 E7.66959
G1 X191.098 Y85.329 E7.78876
G1 X190.664 Y87.872 E7.90889
G1 X190.314 Y90.34 E8.02496
G1 X190.026 Y92.9 E8.14491
G1 X189.814 Y95.417 E8.26253
G1 X189.672 Y97.96 E8.38113
G1 X189.603 Y100.485 E8.49875
G1 X189.605 Y103.02 E8.61679
G1 X189.68 Y105.592 E8.7366
G1 X189.824 Y108.087 E8.85297
G1 X190.042 Y110.635 E8.97205
G1 X190.333 Y113.173 E9.091
G1 X190.691 Y115.671 E9.20851
G1 X191.123 Y118.18 E9.32706
G1 X191.626 Y120.676 E9.44562
G1 X192.188 Y123.11 E9.56194
G1 X192.842 Y125.614 E9.68245
G1 X193.551 Y128.047 E9.80045
G1 X194.328 Y130.456 E9.91831
G1 X195.169 Y132.83 E10.03559
G1 X196.092 Y135.221 E10.15493
G1 X197.072 Y137.56 E10.27302
G1 X198.14 Y139.918 E10.39355
G1 X198.802 Y141.299 E10.46486
G1 X198.935 Y141.585 E10.47955
G1 X199.275 Y142.431 E10.52201
G1 X199.417 Y142.836 E10.54199
G1 X199.534 Y143.191 E10.5594
G1 X199.565 Y143.291 E10.56427
G1 X199.779 Y144.096 E10.60306
G1 X199.884 Y144.568 E10.62557
G1 X199.949 Y144.887 E10.64073
G1 X199.97 Y144.998 E10.64599
G1 X200.098 Y145.888 E10.68786
G1 X200.131 Y146.221 E10.70344
G1 X200.153 Y146.471 E10.71513
G1 X200.166 Y146.646 E10.7233
G1 X200.192 Y147.598 E10.76765
G1 X200.182 Y148.119 E10.79191
G1 X200.17 Y148.466 E10.80808
G1 X200.166 Y148.541 E10.81157
G1 X200.083 Y149.403 E10.8519
G1 X200.03 Y149.784 E10.86981
G1 X199.988 Y150.056 E10.88263
G1 X199.961 Y150.218 E10.89027
G1 X199.769 Y151.119 E10.93317
G1 X199.664 Y151.521 E10.95252
G1 X199.576 Y151.835 E10.9677
G1 X199.542 Y151.95 E10.97329
G1 X199.252 Y152.794 E11.01484
G1 X199.065 Y153.269 E11.03861
G1 X198.922 Y153.614 E11.056
G1 X198.539 Y154.411 E11.09718
G1 X198.35 Y154.764 E11.11582
G1 X198.161 Y155.101 E11.13381
G1 X198.082 Y155.236 E11.14109
G1 X197.644 Y155.921 E11.17895
G1 X197.39 Y156.285 E11.19962
G1 X197.173 Y156.583 E11.21679
G1 X197.109 Y156.668 E11.22174
G1 X196.562 Y157.335 E11.26191
G1 X196.264 Y157.668 E11.28272
G1 X196.076 Y157.872 E11.29563
G1 X195.99 Y157.963 E11.30147
G1 X195.317 Y158.613 E11.34503
G1 X195.008 Y158.885 E11.3642
G1 X194.778 Y159.081 E11.37827
G1 X194.661 Y159.178 E11.38535
G1 X193.937 Y159.726 E11.42763
G1 X193.606 Y159.954 E11.44635
G1 X193.318 Y160.145 E11.46244
G1 X193.218 Y160.209 E11.46797
G1 X192.501 Y160.628 E11.50663
G1 X192.077 Y160.853 E11.52899
G1 X191.756 Y161.016 E11.54575
G1 X190.827 Y161.467 E11.59384
G1 X164.138 Y173.968 E12.96616
G1 X163.352 Y174.323 E13.00632
G1 X162.882 Y174.521 E13.03007
G1 X162.467 Y174.684 E13.05083
G1 X161.665 Y174.961 E13.09034
G1 X161.438 Y175.029 E13.10137
G1 X161.101 Y175.124 E13.11767
G1 X160.781 Y175.208 E13.13308
G1 X160.03 Y175.375 E13.1689
G1 X159.79 Y175.419 E13.18026
G1 X159.458 Y175.474 E13.19593
G1 X159.15 Y175.52 E13.21044
G1 X158.363 Y175.607 E13.2473
G1 X158.137 Y175.623 E13.25785
G1 X157.806 Y175.641 E13.27329
G1 X157.465 Y175.654 E13.28918
G1 X156.589 Y175.649 E13.32997
G1 X156.317 Y175.636 E13.34265
G1 X156.009 Y175.617 E13.35702
G1 X155.702 Y175.593 E13.37136
G1 X154.987 Y175.512 E13.40487
G1 X154.8 Y175.484 E13.41367
G1 X154.449 Y175.425 E13.43024
G1 X154.088 Y175.358 E13.44734
G1 X153.183 Y175.147 E13.49061
G1 X152.931 Y175.076 E13.5028
G1 X152.666 Y174.997 E13.51568
G1 X152.38 Y174.908 E13.52963
G1 X151.996 Y174.78 E13.54847
G1 X151.92 Y174.753 E13.55223
G1 X151.526 Y174.604 E13.57184
G1 X151.029 Y174.404 E13.59679
G1 X148.626 Y173.477 E13.71672
G1 X146.255 Y172.638 E13.83383
G1 X143.805 Y171.851 E13.95366
G1 X141.359 Y171.138 E14.07229
G1 X138.893 Y170.496 E14.19095
G1 X136.439 Y169.929 E14.30823
G1 X134.014 Y169.441 E14.42341
G1 X131.437 Y168.998 E14.54516
G1 X128.928 Y168.641 E14.66317
G1 X126.403 Y168.352 E14.78151
G1 X123.868 Y168.136 E14.89998
G1 X121.362 Y167.993 E15.01686
G1 X118.794 Y167.92 E15.13648
G1 X116.26 Y167.918 E15.25448
G1 X113.73 Y167.989 E15.37233
G1 X111.2 Y168.131 E15.49032
G1 X108.629 Y168.349 E15.61047
G1 X106.125 Y168.633 E15.72782
G1 X103.641 Y168.986 E15.84464
G1 X101.117 Y169.417 E15.96387
G1 X98.653 Y169.909 E16.08087
G1 X96.121 Y170.491 E16.20185
G1 X93.695 Y171.123 E16.31858
G1 X91.26 Y171.829 E16.43663
G1 X88.835 Y172.608 E16.55524
G1 X86.449 Y173.449 E16.67304
G1 X83.99 Y174.395 E16.79572
G1 X83.364 Y174.645 E16.82711
G1 X82.629 Y174.907 E16.86344
G1 X82.428 Y174.97 E16.87325
G1 X82.063 Y175.077 E16.89096
G1 X81.726 Y175.169 E16.90723
G1 X80.966 Y175.345 E16.94355
G1 X80.68 Y175.4 E16.95711
G1 X80.339 Y175.46 E16.97324
G1 X80.072 Y175.502 E16.98582
G1 X79.338 Y175.59 E17.02024
G1 X79.099 Y175.61 E17.03141
G1 X78.729 Y175.635 E17.04868
G1 X78.411 Y175.65 E17.0635
G1 X77.563 Y175.654 E17.10299
G1 X77.285 Y175.644 E17.11594
G1 X76.969 Y175.628 E17.13068
G1 X76.671 Y175.608 E17.14459
G1 X75.951 Y175.534 E17.17829
G1 X75.735 Y175.504 E17.18844
G1 X75.367 Y175.446 E17.20579
G1 X75.021 Y175.385 E17.22215
G1 X74.164 Y175.196 E17.26301
G1 X73.939 Y175.136 E17.27386
G1 X73.665 Y175.058 E17.28712
G1 X73.355 Y174.966 E17.30218
G1 X72.903 Y174.821 E17.32428
G1 X72.514 Y174.678 E17.34358
G1 X72.294 Y174.592 E17.35458
G1 X72.021 Y174.481 E17.3683
G1 X71.656 Y174.326 E17.38677
G1 X71.441 Y174.231 E17.39771
G1 X70.836 Y173.957 E17.42864
G1 X44.173 Y161.467 E18.79965
G1 X43.101 Y160.946 E18.85515
G1 X42.837 Y160.813 E18.86891
G1 X42.667 Y160.724 E18.87785
G1 X41.896 Y160.276 E18.91937
G1 X41.462 Y159.998 E18.94337
G1 X41.106 Y159.759 E18.96334
G1 X40.429 Y159.247 E19.00286
G1 X40.112 Y158.986 E19.02198
G1 X39.915 Y158.82 E19.03398
G1 X39.795 Y158.716 E19.04137
G1 X39.087 Y158.041 E19.08692
G1 X38.81 Y157.75 E19.10563
G1 X38.55 Y157.467 E19.12352
G1 X37.968 Y156.763 E19.16605
G1 X37.683 Y156.385 E19.1881
G1 X37.452 Y156.066 E19.20644
G1 X37.395 Y155.984 E19.21109
G1 X36.953 Y155.29 E19.2494
G1 X36.739 Y154.922 E19.26922
G1 X36.616 Y154.704 E19.28088
G1 X36.549 Y154.582 E19.28736
G1 X36.121 Y153.708 E19.33267
G1 X35.959 Y153.332 E19.35174
G1 X35.829 Y153.017 E19.36761
G1 X35.499 Y152.071 E19.41426
G1 X35.335 Y151.515 E19.44125
G1 X35.062 Y150.337 E19.49756
G1 X34.991 Y149.919 E19.5173
G1 X34.944 Y149.616 E19.53158
G1 X34.923 Y149.465 E19.53868
G1 X34.84 Y148.6 E19.57914
G1 X34.82 Y148.223 E19.59672
G1 X34.809 Y147.917 E19.61098
G1 X34.806 Y147.786 E19.61708
G1 X34.824 Y146.899 E19.65839
G1 X34.858 Y146.369 E19.68312
G1 X34.893 Y145.954 E19.70251
G1 X34.901 Y145.878 E19.70607
G1 X35.017 Y145.082 E19.74353
G1 X35.083 Y144.727 E19.76034
G1 X35.151 Y144.392 E19.77626
G1 X35.185 Y144.238 E19.7836
G1 X35.402 Y143.418 E19.8231
G1 X35.552 Y142.934 E19.84669
G1 X35.658 Y142.612 E19.86248
G1 X35.684 Y142.537 E19.86617
G1 X36.022 Y141.687 E19.90877
G1 X36.182 Y141.332 E19.9269
G1 X37.438 Y138.653 E20.06467
G1 X38.466 Y136.29 E20.18467
G1 X39.369 Y134.046 E20.2973
G1 X40.286 Y131.56 E20.42068
G1 X41.083 Y129.198 E20.53676
G1 X41.841 Y126.721 E20.65738
G1 X42.508 Y124.3 E20.77431
G1 X43.118 Y121.815 E20.89346
G1 X43.634 Y119.423 E21.0074
G1 X44.112 Y116.856 E21.12899
G1 X44.509 Y114.325 E21.24828
G1 X44.828 Y111.838 E21.36504
G1 X45.082 Y109.276 E21.48492
G1 X45.259 Y106.781 E21.60139
G1 X45.368 Y104.216 E21.72093
G1 X45.404 Y101.683 E21.83889
G1 X45.368 Y99.15 E21.95685
G1 X45.26 Y96.608 E22.07532
G1 X45.081 Y94.066 E22.19398
G1 X44.831 Y91.555 E22.31148
G1 X44.506 Y89.014 E22.43077
G1 X44.112 Y86.504 E22.54907
G1 X43.655 Y84.043 E22.66563
G1 X43.111 Y81.515 E22.78604
G1 X42.517 Y79.087 E22.90243
G1 X42.158 Y77.79 E22.96509
G1 X41.918 Y76.876 E23.0091
G1 X41.832 Y76.522 E23.02606
G1 X41.721 Y75.993 E23.05123
G1 X41.654 Y75.624 E23.06869
G1 X41.539 Y74.8 E23.10743
G1 X41.527 Y74.678 E23.11314
G1 X41.491 Y74.198 E23.13555
G1 X41.473 Y73.844 E23.15206
G1 X41.466 Y72.974 E23.19257
G1 X41.471 Y72.829 E23.19933
G1 X41.495 Y72.394 E23.21961
G1 X41.522 Y72.045 E23.23591
G1 X41.636 Y71.122 E23.27922
G1 X41.661 Y70.975 E23.28616
G1 X41.738 Y70.574 E23.30517
G1 X41.804 Y70.262 E23.32002
G1 X42.015 Y69.437 E23.35968
G1 X42.067 Y69.264 E23.36809
G1 X42.227 Y68.775 E23.39204
G1 X42.345 Y68.444 E23.40841
G1 X42.682 Y67.617 E23.44999
G1 X42.743 Y67.484 E23.4568
G1 X42.916 Y67.124 E23.4754
G1 X43.061 Y66.838 E23.49033
G1 X43.509 Y66.044 E23.53278
G1 X43.594 Y65.908 E23.54025
G1 X43.855 Y65.512 E23.56234
G1 X44.059 Y65.217 E23.57904
G1 X44.568 Y64.543 E23.61837
G1 X44.651 Y64.442 E23.62445
G1 X44.977 Y64.064 E23.6477
G1 X45.222 Y63.794 E23.66467
G1 X45.792 Y63.214 E23.70254
G1 X45.891 Y63.121 E23.70886
G1 X46.271 Y62.782 E23.73258
G1 X46.517 Y62.573 E23.74761
G1 X47.108 Y62.107 E23.78265
G1 F2700 E18.78265
;MESH:M_Version.stl
G0 F6000 X180.147 Y68.915
G0 X181.269 Y69.216
G0 X182.275 Y69.797
G0 X182.713 Y70.18
G0 X183.419 Y71.102
G0 X183.677 Y71.624
G0 X183.978 Y72.746
G0 X183.978 Y73.908
G0 X183.677 Y75.03
G0 X183.096 Y76.036
G0 X182.275 Y76.858
G0 X125.727 Y113.403
G0 X180.955 Y149.439
G0 X179.5 Y149.568
G0 X180.428 Y150.821
;TYPE:WALL-INNER
G1 F2700 E23.78265
G1 F1200 X180.69 Y150.971 E23.79671
G1 X180.974 Y151.075 E23.81079
G1 X181.274 Y151.127 E23.82497
G1 X181.577 Y151.126 E23.83908
G1 X181.874 Y151.074 E23.85312
G1 X182.135 Y150.979 E23.86605
G1 X186.98 Y148.708 E24.11521
G1 X187.221 Y148.569 E24.12816
G1 X187.451 Y148.373 E24.14224
G1 X187.644 Y148.143 E24.15622
G1 X187.796 Y147.881 E24.17032
G1 X187.899 Y147.594 E24.18452
G1 X187.951 Y147.297 E24.19856
G1 X187.951 Y146.993 E24.21271
G1 X187.898 Y146.695 E24.22681
G1 X187.794 Y146.411 E24.24089
G1 X187.641 Y146.148 E24.25506
G1 X187.446 Y145.917 E24.26914
G1 X187.215 Y145.724 E24.28315
G1 X186.951 Y145.572 E24.29734
G1 X186.666 Y145.469 E24.31145
G1 X186.369 Y145.417 E24.32549
G1 X186.065 Y145.417 E24.33964
G1 X185.767 Y145.47 E24.35374
G1 X185.507 Y145.565 E24.36663
G1 X180.661 Y147.835 E24.61581
G1 X180.422 Y147.975 E24.6287
G1 X180.191 Y148.169 E24.64275
G1 X179.998 Y148.401 E24.6568
G1 X179.846 Y148.663 E24.67091
G1 X179.743 Y148.951 E24.68515
G1 X179.691 Y149.247 E24.69914
G1 X179.691 Y149.55 E24.71325
G1 X179.744 Y149.848 E24.72735
G1 X179.848 Y150.133 E24.74147
G1 X180 Y150.394 E24.75554
G1 X180.195 Y150.626 E24.76965
G1 X180.428 Y150.821 E24.7838
G0 F6000 X180.658 Y150.492
;TYPE:WALL-OUTER
G1 F1200 X180.859 Y150.607 E24.79458
G1 X181.078 Y150.687 E24.80544
G1 X181.308 Y150.727 E24.81631
G1 X181.541 Y150.726 E24.82716
G1 X181.77 Y150.686 E24.83798
G1 X181.981 Y150.609 E24.84844
G1 X186.795 Y148.353 E25.09599
G1 X186.989 Y148.241 E25.10642
G1 X187.166 Y148.09 E25.11726
G1 X187.315 Y147.912 E25.12807
G1 X187.432 Y147.711 E25.1389
G1 X187.511 Y147.491 E25.14978
G1 X187.551 Y147.262 E25.16061
G1 X187.551 Y147.029 E25.17146
G1 X187.51 Y146.8 E25.18229
G1 X187.43 Y146.581 E25.19315
G1 X187.313 Y146.379 E25.20401
G1 X187.163 Y146.202 E25.21482
G1 X186.985 Y146.053 E25.22563
G1 X186.782 Y145.936 E25.23654
G1 X186.563 Y145.857 E25.24738
G1 X186.334 Y145.817 E25.2582
G1 X186.101 Y145.817 E25.26905
G1 X185.872 Y145.858 E25.27989
G1 X185.661 Y145.935 E25.29034
G1 X180.847 Y148.19 E25.53788
G1 X180.653 Y148.303 E25.54833
G1 X180.476 Y148.452 E25.55911
G1 X180.327 Y148.631 E25.56995
G1 X180.21 Y148.832 E25.58078
G1 X180.131 Y149.053 E25.59171
G1 X180.091 Y149.282 E25.60253
G1 X180.091 Y149.514 E25.61334
G1 X180.132 Y149.743 E25.62417
G1 X180.212 Y149.962 E25.63503
G1 X180.329 Y150.163 E25.64585
G1 X180.479 Y150.342 E25.65673
G1 X180.658 Y150.492 E25.6676
G0 F6000 X180.407 Y150.853
G1 F2700 E20.6676
G0 F6000 X179.844 Y150.504
G0 X179.015 Y151.112
G0 X178.676 Y152.607
G0 X178.515 Y153.051
G0 X178.28 Y153.46
G0 X177.976 Y153.824
G0 X177.65 Y154.096
G0 X170.837 Y157.524
;TYPE:WALL-INNER
G1 F2700 E25.6676
G1 F1200 X177.298 Y154.497 E25.99984
G1 X177.707 Y154.26 E26.02185
G1 X178.09 Y153.938 E26.04515
G1 X178.412 Y153.553 E26.06852
G1 X178.661 Y153.119 E26.09182
G1 X178.832 Y152.648 E26.11515
G1 X178.918 Y152.154 E26.1385
G1 X178.917 Y151.653 E26.16183
G1 X178.83 Y151.162 E26.18505
G1 X178.658 Y150.691 E26.20839
G1 X178.405 Y150.256 E26.23183
G1 X178.083 Y149.875 E26.25505
G1 X177.7 Y149.553 E26.27835
G1 X177.266 Y149.304 E26.30165
G1 X176.795 Y149.133 E26.32498
G1 X176.302 Y149.047 E26.34829
G1 X175.8 Y149.047 E26.37166
G1 X175.307 Y149.135 E26.39498
G1 X174.861 Y149.298 E26.41709
G1 X168.406 Y152.335 E26.74927
