;FLAVOR:Marlin
;TIME:7525
;Filament used: 4.49397m
;Layer height: 0.2
;MINX:76.588
;MINY:64.264
;MINZ:0.2
;MAXX:171.719
;MAXY:165.643
;MAXZ:23.4
;Generated with Cura_SteamEngine 4.9.1
M140 S55
M105
M190 S55
M104 S215
M105
M109 S215
M82 ;absolute extrusion mode
; Ender 3 Custom Start G-code
G92 E0 ; Reset Extruder
G28 ; Home all axes
G1 Z2.0 F3000 ; Move Z Axis up little to prevent scratching of Heat Bed
G1 X0.1 Y20 Z0.3 F5000.0 ; Move to start position
G1 X0.1 Y200.0 Z0.3 F1500.0 E15 ; Draw the first line
G1 X0.4 Y200.0 Z0.3 F5000.0 ; Move to side a little
G1 X0.4 Y20 Z0.3 F1500.0 E30 ; Draw the second line
G92 E0 ; Reset Extruder
G1 Z2.0 F3000 ; Move Z Axis up little to prevent scratching of Heat Bed
G1 X5 Y20 Z0.3 F5000.0 ; Move over to prevent blob squish
G92 E0
G92 E0
G1 F2700 E-5
;LAYER_COUNT:117
;LAYER:0
M107
G0 F6000 X88.559 Y74.68 Z0.2
;TYPE:SKIRT
G1 F2700 E0
G1 F1200 X89.439 Y73.726 E0.04317
G1 X90.152 Y73.039 E0.0761
G1 X90.477 Y72.735 E0.0909
G1 X91.074 Y72.195 E0.11767
G1 X92.08 Y71.39 E0.16053
G1 X92.993 Y70.745 E0.19771
G1 X93.369 Y70.489 E0.21284
G1 X93.919 Y70.126 E0.23476
G1 X95.026 Y69.485 E0.2773
G1 X96.045 Y68.973 E0.31523
G1 X96.415 Y68.795 E0.32889
G1 X96.991 Y68.526 E0.35003
G1 X98.223 Y68.039 E0.39409
G1 X99.182 Y67.725 E0.42766
G1 X99.619 Y67.589 E0.44288
G1 X100.334 Y67.379 E0.46766
G1 X101.582 Y67.091 E0.51026
G1 X102.76 Y66.892 E0.55
G1 X103.109 Y66.841 E0.56173
G1 X103.791 Y66.748 E0.58462
G1 X105.076 Y66.649 E0.62749
G1 X106.262 Y66.629 E0.66694
G1 X106.65 Y66.63 E0.67985
G1 X107.355 Y66.64 E0.7033
G1 X107.665 Y66.649 E0.71361
G1 X108.928 Y66.703 E0.75566
G1 X109.146 Y66.704 E0.76291
G1 X109.825 Y66.737 E0.78552
G1 X112.344 Y66.787 E0.86932
G1 X114.865 Y66.766 E0.95317
G1 X117.395 Y66.673 E1.03737
G1 X119.909 Y66.51 E1.12117
G1 X122.383 Y66.279 E1.20381
G1 X124.92 Y65.969 E1.28882
G1 X127.381 Y65.599 E1.37159
G1 X129.874 Y65.15 E1.45584
G1 X131.629 Y64.791 E1.51542
G1 X132.636 Y64.576 E1.54967
G1 X133.561 Y64.419 E1.58088
G1 X134.233 Y64.355 E1.60333
G1 X135.047 Y64.303 E1.63046
G1 X135.621 Y64.277 E1.64957
G1 X135.933 Y64.268 E1.65995
G1 X136.228 Y64.264 E1.66976
G1 X136.525 Y64.264 E1.67964
G1 X137.046 Y64.271 E1.69697
G1 X137.362 Y64.28 E1.70749
G1 X137.851 Y64.303 E1.72377
G1 X138.418 Y64.34 E1.74267
G1 X139.351 Y64.441 E1.77388
G1 X140.433 Y64.661 E1.8106
G1 X140.593 Y64.702 E1.8161
G1 X140.854 Y64.773 E1.82509
G1 X143.395 Y65.491 E1.91292
G1 X144.698 Y65.815 E1.95757
G1 X146.237 Y66.215 E2.01046
G1 X147.134 Y66.489 E2.04166
G1 X148.004 Y66.839 E2.07285
G1 X148.564 Y67.112 E2.09357
G1 X149.329 Y67.513 E2.1223
G1 X149.912 Y67.829 E2.14435
G1 X150.343 Y68.071 E2.16079
G1 X150.661 Y68.256 E2.17303
G1 X150.915 Y68.41 E2.18291
G1 X151.282 Y68.643 E2.19737
G1 X151.891 Y69.046 E2.22166
G1 X152.651 Y69.596 E2.25286
G1 X153.36 Y70.209 E2.28403
G1 X153.783 Y70.629 E2.30386
G1 X154.101 Y70.962 E2.31917
G1 X155.891 Y72.79 E2.40427
G1 X157.331 Y74.188 E2.47102
G1 X157.62 Y74.464 E2.48431
G1 X158.27 Y75.14 E2.5155
G1 X158.861 Y75.869 E2.54672
G1 X159.139 Y76.263 E2.56275
G1 X159.42 Y76.679 E2.57945
G1 X159.583 Y76.927 E2.58932
G1 X159.804 Y77.274 E2.603
G1 X159.968 Y77.54 E2.6134
G1 X160.072 Y77.714 E2.62014
G1 X160.241 Y78.006 E2.63136
G1 X160.625 Y78.699 E2.65771
G1 X160.902 Y79.216 E2.67722
G1 X161.034 Y79.47 E2.68674
G1 X161.219 Y79.838 E2.70044
G1 X161.604 Y80.693 E2.73163
G1 X161.974 Y81.778 E2.76976
G1 X162.098 Y82.244 E2.7858
G1 X162.229 Y82.783 E2.80424
G1 X162.872 Y85.265 E2.88952
G1 X163.131 Y86.153 E2.92029
G1 X163.355 Y86.953 E2.94792
G1 X163.484 Y87.403 E2.96349
G1 X163.583 Y87.77 E2.97613
G1 X163.625 Y87.937 E2.98186
G1 X164.268 Y90.364 E3.06537
G1 X164.995 Y92.817 E3.15046
G1 X165.765 Y95.173 E3.2329
G1 X166.628 Y97.581 E3.31798
G1 X167.541 Y99.916 E3.40137
G1 X168.511 Y102.206 E3.48408
G1 X169.561 Y104.498 E3.56793
G1 X169.951 Y105.283 E3.59709
G1 X170.111 Y105.641 E3.61013
G1 X170.597 Y106.639 E3.64705
G1 X170.972 Y107.498 E3.67823
G1 X171.272 Y108.387 E3.70943
G1 X171.495 Y109.298 E3.74063
G1 X171.64 Y110.225 E3.77183
G1 X171.704 Y111.14 E3.80234
G1 X171.714 Y111.486 E3.81385
G1 X171.719 Y111.804 E3.82443
G1 X171.718 Y115.529 E3.94833
G1 X171.696 Y117.109 E4.00088
G1 X171.69 Y119.17 E4.06943
G1 X171.699 Y120.235 E4.10485
G1 X171.698 Y126.413 E4.31034
G1 X171.688 Y127.105 E4.33335
G1 X171.634 Y128.041 E4.36454
G1 X171.501 Y128.97 E4.39575
G1 X171.29 Y129.883 E4.42692
G1 X171.001 Y130.776 E4.45814
G1 X170.637 Y131.64 E4.48932
G1 X170.201 Y132.47 E4.5205
G1 X169.696 Y133.261 E4.55172
G1 X169.125 Y134.005 E4.58291
G1 X168.27 Y134.917 E4.62449
G1 X167.595 Y135.559 E4.65547
G1 X167.435 Y135.708 E4.66274
G1 X140.432 Y160.386 E5.87943
G1 X139.753 Y160.988 E5.90961
G1 X138.754 Y161.774 E5.95189
G1 X138.523 Y161.935 E5.96125
G1 X138.251 Y162.119 E5.97218
G1 X137.83 Y162.392 E5.98887
G1 X136.504 Y163.225 E6.04095
G1 X135.926 Y163.564 E6.06324
G1 X135.688 Y163.694 E6.07226
G1 X134.847 Y164.108 E6.10343
G1 X133.886 Y164.478 E6.13768
G1 X132.999 Y164.773 E6.16877
G1 X132.488 Y164.929 E6.18654
G1 X132.352 Y164.967 E6.19124
G1 X131.823 Y165.101 E6.20939
G1 X131.364 Y165.205 E6.22504
G1 X130.376 Y165.382 E6.25843
G1 X129.847 Y165.452 E6.27618
G1 X129.559 Y165.486 E6.28582
G1 X128.915 Y165.554 E6.30736
G1 X128.554 Y165.586 E6.31941
G1 X128.333 Y165.602 E6.32678
G1 X127.709 Y165.63 E6.34756
G1 X126.763 Y165.643 E6.37903
G1 X109.829 Y165.643 E6.94225
G1 X109.121 Y165.633 E6.9658
G1 X108.176 Y165.579 E6.99729
G1 X107.987 Y165.56 E7.0036
G1 X107.463 Y165.494 E7.02117
G1 X107.041 Y165.431 E7.03536
G1 X106.12 Y165.254 E7.06655
G1 X105.218 Y164.998 E7.09774
G1 X104.34 Y164.666 E7.12896
G1 X103.495 Y164.261 E7.16013
G1 X102.686 Y163.785 E7.19135
G1 X101.921 Y163.242 E7.22255
G1 X101.206 Y162.636 E7.25372
G1 X100.615 Y162.048 E7.28145
G1 X100.239 Y161.642 E7.29986
G1 X98.941 Y160.192 E7.36458
G1 X97.256 Y158.414 E7.44606
G1 X95.427 Y156.592 E7.53192
G1 X93.629 Y154.898 E7.61409
G1 X91.738 Y153.216 E7.69826
G1 X89.803 Y151.591 E7.7823
G1 X87.835 Y150.029 E7.86587
G1 X85.827 Y148.528 E7.94925
G1 X83.887 Y147.157 E8.02827
G1 X83.303 Y146.756 E8.05183
G1 X82.552 Y146.191 E8.08309
G1 X82.39 Y146.058 E8.09006
G1 X82.002 Y145.724 E8.10708
G1 X81.675 Y145.429 E8.12173
G1 X80.998 Y144.763 E8.15332
G1 X80.86 Y144.615 E8.16005
G1 X80.528 Y144.242 E8.17666
G1 X80.231 Y143.893 E8.1919
G1 X79.657 Y143.158 E8.22292
G1 X79.552 Y143.011 E8.22893
G1 X79.275 Y142.604 E8.2453
G1 X79.02 Y142.211 E8.26088
G1 X78.511 Y141.343 E8.29435
G1 X78.419 Y141.168 E8.30093
G1 X78.213 Y140.755 E8.31628
G1 X78.018 Y140.343 E8.33144
G1 X77.67 Y139.521 E8.36113
G1 X77.593 Y139.317 E8.36838
G1 X77.423 Y138.835 E8.38538
G1 X77.29 Y138.426 E8.39968
G1 X77.043 Y137.54 E8.43027
G1 X77 Y137.357 E8.43653
G1 X76.89 Y136.831 E8.4544
G1 X76.805 Y136.369 E8.47002
G1 X76.674 Y135.44 E8.50123
G1 X76.655 Y135.244 E8.50778
G1 X76.618 Y134.742 E8.52452
G1 X76.595 Y134.29 E8.53957
G1 X76.588 Y133.352 E8.57077
G1 X76.595 Y133.149 E8.57753
G1 X76.623 Y132.653 E8.59405
G1 X76.659 Y132.202 E8.6091
G1 X76.771 Y131.287 E8.63976
G1 X76.803 Y131.093 E8.6463
G1 X76.898 Y130.588 E8.66339
G1 X76.994 Y130.138 E8.67869
G1 X77.236 Y129.206 E8.71072
G1 X77.294 Y129.017 E8.71729
G1 X77.451 Y128.545 E8.73384
G1 X77.833 Y127.475 E8.77163
G1 X78.681 Y124.989 E8.85899
G1 X79.413 Y122.624 E8.94133
G1 X80.104 Y120.144 E9.02696
G1 X80.702 Y117.743 E9.10926
G1 X81.253 Y115.229 E9.19486
G1 X81.709 Y112.812 E9.27667
G1 X82.113 Y110.29 E9.36162
G1 X82.438 Y107.809 E9.44484
G1 X82.693 Y105.33 E9.52773
G1 X82.88 Y102.814 E9.61164
G1 X82.996 Y100.258 E9.69674
G1 X83.039 Y97.766 E9.77964
G1 X83.013 Y95.284 E9.86219
G1 X82.874 Y92.027 E9.97062
G1 X82.8 Y90.816 E10.01097
G1 X82.798 Y89.524 E10.05395
G1 X82.866 Y88.354 E10.09293
G1 X82.898 Y87.945 E10.10657
G1 X82.956 Y87.303 E10.12801
G1 X83.142 Y86.05 E10.17014
G1 X83.378 Y84.924 E10.20841
G1 X83.489 Y84.444 E10.22479
G1 X83.633 Y83.855 E10.24496
G1 X84.004 Y82.642 E10.28715
G1 X84.327 Y81.771 E10.31805
G1 X84.602 Y81.07 E10.34309
G1 X84.811 Y80.561 E10.36139
G1 X85.361 Y79.416 E10.40364
G1 X85.954 Y78.346 E10.44433
G1 X86.157 Y77.997 E10.45776
G1 X86.472 Y77.469 E10.47821
G1 X87.193 Y76.407 E10.5209
G1 X87.761 Y75.667 E10.55193
G1 X87.901 Y75.488 E10.55949
G1 X88.144 Y75.187 E10.57235
G1 X88.559 Y74.68 E10.59414
G0 F6000 X88.868 Y74.933
G1 F1200 X89.716 Y74.014 E10.63574
G1 X90.429 Y73.327 E10.66867
G1 X90.748 Y73.029 E10.68319
G1 X91.342 Y72.492 E10.70982
G1 X92.311 Y71.717 E10.75109
G1 X93.219 Y71.075 E10.78808
G1 X93.589 Y70.823 E10.80296
G1 X94.139 Y70.46 E10.82488
G1 X95.206 Y69.842 E10.86589
G1 X96.219 Y69.333 E10.9036
G1 X96.585 Y69.158 E10.91709
G1 X97.161 Y68.889 E10.93824
G1 X98.348 Y68.419 E10.9807
G1 X99.307 Y68.105 E11.01426
G1 X99.736 Y67.972 E11.0292
G1 X100.446 Y67.763 E11.05382
G1 X101.649 Y67.485 E11.09488
G1 X102.624 Y67.319 E11.12778
G1 X103.012 Y67.259 E11.14084
G1 X103.845 Y67.144 E11.16881
G1 X105.083 Y67.049 E11.2101
G1 X106.262 Y67.029 E11.24932
G1 X106.644 Y67.03 E11.26203
G1 X107.349 Y67.04 E11.28548
G1 X107.648 Y67.049 E11.29543
G1 X108.729 Y67.095 E11.33141
G1 X109.127 Y67.103 E11.34466
G1 X109.833 Y67.137 E11.36816
G1 X112.339 Y67.187 E11.45153
G1 X114.882 Y67.166 E11.53611
G1 X117.401 Y67.073 E11.61995
G1 X119.936 Y66.909 E11.70444
G1 X122.436 Y66.676 E11.78795
G1 X124.952 Y66.368 E11.87226
G1 X127.446 Y65.993 E11.95615
G1 X129.979 Y65.537 E12.04175
G1 X131.684 Y65.188 E12.09963
G1 X132.719 Y64.967 E12.13483
G1 X133.627 Y64.814 E12.16546
G1 X134.258 Y64.755 E12.18654
G1 X135.304 Y64.69 E12.22139
G1 X135.638 Y64.676 E12.23251
G1 X135.938 Y64.668 E12.24249
G1 X136.233 Y64.664 E12.25231
G1 X136.519 Y64.664 E12.26182
G1 X137.04 Y64.671 E12.27915
G1 X137.345 Y64.679 E12.2893
G1 X137.825 Y64.702 E12.30528
G1 X138.392 Y64.739 E12.32418
G1 X139.307 Y64.839 E12.35479
G1 X140.333 Y65.049 E12.38963
G1 X140.745 Y65.158 E12.4038
G1 X143.287 Y65.876 E12.49166
G1 X144.597 Y66.202 E12.53655
G1 X146.136 Y66.602 E12.58944
G1 X147.017 Y66.872 E12.62009
G1 X147.87 Y67.217 E12.65069
G1 X148.379 Y67.466 E12.66954
G1 X149.14 Y67.865 E12.69812
G1 X149.717 Y68.177 E12.71994
G1 X150.148 Y68.419 E12.73638
G1 X150.454 Y68.598 E12.74817
G1 X150.708 Y68.752 E12.75805
G1 X151.062 Y68.976 E12.77198
G1 X151.671 Y69.379 E12.79627
G1 X152.416 Y69.92 E12.82689
G1 X153.111 Y70.524 E12.85752
G1 X153.493 Y70.905 E12.87546
G1 X153.771 Y71.196 E12.88885
G1 X155.629 Y73.094 E12.97719
G1 X156.99 Y74.415 E13.04027
G1 X157.344 Y74.753 E13.05655
G1 X157.982 Y75.418 E13.0872
G1 X158.808 Y76.487 E13.13213
G1 X159.089 Y76.903 E13.14883
G1 X159.246 Y77.142 E13.15834
G1 X159.467 Y77.489 E13.17203
G1 X159.625 Y77.745 E13.18203
G1 X159.729 Y77.919 E13.18877
G1 X159.891 Y78.2 E13.19956
G1 X160.19 Y78.737 E13.22
G1 X160.549 Y79.405 E13.24523
G1 X160.677 Y79.65 E13.25442
G1 X160.862 Y80.018 E13.26812
G1 X161.239 Y80.858 E13.29874
G1 X161.589 Y81.887 E13.33489
G1 X161.709 Y82.339 E13.35045
G1 X161.821 Y82.801 E13.36626
G1 X162.489 Y85.381 E13.4549
G1 X162.745 Y86.261 E13.48538
G1 X162.95 Y86.994 E13.5107
G1 X163.099 Y87.513 E13.52866
G1 X163.195 Y87.867 E13.54086
G1 X163.223 Y87.981 E13.54476
G1 X163.896 Y90.516 E13.632
G1 X164.604 Y92.908 E13.71497
G1 X165.395 Y95.327 E13.79961
G1 X166.243 Y97.694 E13.88324
G1 X167.171 Y100.069 E13.96805
G1 X168.156 Y102.393 E14.052
G1 X169.196 Y104.665 E14.13511
G1 X169.593 Y105.462 E14.16472
G1 X169.749 Y105.813 E14.1775
G1 X170.237 Y106.814 E14.21454
G1 X170.605 Y107.658 E14.24516
G1 X170.897 Y108.531 E14.27578
G1 X171.112 Y109.426 E14.3064
G1 X171.25 Y110.337 E14.33704
G1 X171.305 Y111.152 E14.36421
G1 X171.315 Y111.498 E14.37572
G1 X171.319 Y111.804 E14.3859
G1 X171.318 Y115.524 E14.50963
G1 X171.296 Y117.103 E14.56215
G1 X171.29 Y119.173 E14.631
G1 X171.299 Y120.238 E14.66642
G1 X171.298 Y126.407 E14.87161
G1 X171.288 Y127.099 E14.89462
G1 X171.235 Y128.018 E14.92524
G1 X171.102 Y128.929 E14.95586
G1 X170.89 Y129.825 E14.98649
G1 X170.602 Y130.7 E15.01712
G1 X170.239 Y131.546 E15.04774
G1 X169.804 Y132.357 E15.07835
G1 X169.3 Y133.128 E15.10899
G1 X168.731 Y133.851 E15.13959
G1 X167.994 Y134.627 E15.17518
G1 X167.319 Y135.269 E15.20617
G1 X167.165 Y135.413 E15.21318
G1 X140.162 Y160.091 E16.42987
G1 X139.488 Y160.689 E16.45984
G1 X138.525 Y161.446 E16.50058
G1 X138.294 Y161.607 E16.50994
G1 X138.032 Y161.784 E16.52046
G1 X137.618 Y162.053 E16.53688
G1 X136.292 Y162.886 E16.58896
G1 X135.734 Y163.213 E16.61047
G1 X135.496 Y163.343 E16.61949
G1 X134.67 Y163.749 E16.65011
G1 X133.76 Y164.098 E16.68252
G1 X132.873 Y164.393 E16.71361
G1 X132.381 Y164.544 E16.73073
G1 X132.245 Y164.582 E16.73543
G1 X131.734 Y164.711 E16.75296
G1 X131.275 Y164.815 E16.76861
G1 X130.324 Y164.985 E16.80074
G1 X129.795 Y165.055 E16.81849
G1 X129.517 Y165.088 E16.8278
G1 X128.873 Y165.156 E16.84934
G1 X128.525 Y165.187 E16.86096
G1 X128.304 Y165.203 E16.86833
G1 X127.703 Y165.23 E16.88834
G1 X126.763 Y165.243 E16.91961
G1 X109.834 Y165.243 E17.48267
G1 X109.126 Y165.233 E17.50622
G1 X108.216 Y165.181 E17.53653
G1 X108.027 Y165.162 E17.54285
G1 X107.522 Y165.099 E17.55978
G1 X107.1 Y165.036 E17.57397
G1 X106.196 Y164.86 E17.6046
G1 X105.311 Y164.607 E17.63522
G1 X104.451 Y164.278 E17.66584
G1 X103.623 Y163.876 E17.69646
G1 X102.833 Y163.403 E17.72708
G1 X102.087 Y162.864 E17.75769
G1 X101.39 Y162.262 E17.78832
G1 X100.907 Y161.776 E17.81111
G1 X100.677 Y161.529 E17.82234
G1 X100.537 Y161.375 E17.82926
G1 X99.246 Y159.933 E17.89363
G1 X97.511 Y158.103 E17.97751
G1 X95.737 Y156.335 E18.06081
G1 X93.887 Y154.591 E18.14537
G1 X91.995 Y152.909 E18.22957
G1 X90.063 Y151.286 E18.3135
G1 X88.099 Y149.728 E18.39688
G1 X86.034 Y148.184 E18.48263
G1 X84.105 Y146.821 E18.56119
G1 X83.53 Y146.426 E18.5844
G1 X82.806 Y145.882 E18.61452
G1 X82.644 Y145.749 E18.62149
G1 X82.27 Y145.427 E18.6379
G1 X81.943 Y145.132 E18.65255
G1 X81.29 Y144.49 E18.68301
G1 X81.152 Y144.342 E18.68974
G1 X80.832 Y143.983 E18.70573
G1 X80.535 Y143.634 E18.72097
G1 X79.982 Y142.925 E18.75088
G1 X79.877 Y142.778 E18.75689
G1 X79.611 Y142.387 E18.77262
G1 X79.356 Y141.994 E18.7882
G1 X78.866 Y141.156 E18.82049
G1 X78.774 Y140.981 E18.82706
G1 X78.575 Y140.584 E18.84183
G1 X78.38 Y140.172 E18.85699
G1 X78.044 Y139.38 E18.88561
G1 X77.967 Y139.176 E18.89286
G1 X77.804 Y138.711 E18.90925
G1 X77.671 Y138.302 E18.92355
G1 X77.432 Y137.449 E18.95302
G1 X77.389 Y137.266 E18.95927
G1 X77.283 Y136.759 E18.9765
G1 X77.198 Y136.297 E18.99212
G1 X77.072 Y135.402 E19.02218
G1 X77.053 Y135.206 E19.02873
G1 X77.018 Y134.722 E19.04487
G1 X76.995 Y134.27 E19.05993
G1 X76.987 Y133.366 E19.08999
G1 X76.994 Y133.163 E19.09675
G1 X77.022 Y132.685 E19.11267
G1 X77.058 Y132.234 E19.12772
G1 X77.165 Y131.352 E19.15727
G1 X77.197 Y131.158 E19.16381
G1 X77.289 Y130.671 E19.1803
G1 X77.385 Y130.221 E19.1956
G1 X77.618 Y129.323 E19.22646
G1 X77.676 Y129.134 E19.23303
G1 X77.827 Y128.679 E19.24898
G1 X78.216 Y127.591 E19.28741
G1 X79.065 Y125.099 E19.37497
G1 X79.807 Y122.704 E19.45836
G1 X80.483 Y120.276 E19.54219
G1 X81.095 Y117.82 E19.62638
G1 X81.642 Y115.326 E19.7113
G1 X82.104 Y112.878 E19.79416
G1 X82.505 Y110.369 E19.87867
G1 X82.833 Y107.87 E19.9625
G1 X83.094 Y105.328 E20.04749
G1 X83.28 Y102.824 E20.131
G1 X83.396 Y100.284 E20.21557
G1 X83.439 Y97.768 E20.29926
G1 X83.413 Y95.263 E20.38258
G1 X83.275 Y92.039 E20.48991
G1 X83.199 Y90.791 E20.5315
G1 X83.197 Y89.547 E20.57287
G1 X83.253 Y88.563 E20.60566
G1 X83.282 Y88.154 E20.61929
G1 X83.354 Y87.339 E20.64651
G1 X83.534 Y86.132 E20.68709
G1 X83.769 Y85.012 E20.72516
G1 X83.877 Y84.539 E20.74129
G1 X84.021 Y83.95 E20.76146
G1 X84.379 Y82.781 E20.80213
G1 X84.702 Y81.91 E20.83302
G1 X84.915 Y81.365 E20.85248
G1 X85.181 Y80.713 E20.87591
G1 X85.711 Y79.61 E20.91661
G1 X86.202 Y78.722 E20.95036
G1 X86.427 Y78.329 E20.96542
G1 X86.816 Y77.674 E20.99076
G1 X87.51 Y76.651 E21.03187
G1 X88.078 Y75.911 E21.0629
G1 X88.383 Y75.527 E21.07921
G1 X88.868 Y74.933 E21.10471
G0 F6000 X89.178 Y75.186
G1 F1200 X89.994 Y74.302 E21.14473
G1 X90.707 Y73.615 E21.17766
G1 X91.112 Y73.238 E21.19606
G1 X91.61 Y72.789 E21.21836
G1 X92.542 Y72.043 E21.25807
