;FLAVOR:Marlin
;TIME:3310
;Filament used: 3.03122m
;Layer height: 0.28
;MINX:81.65
;MINY:81.65
;MINZ:0.28
;MAXX:153.35
;MAXY:153.35
;MAXZ:11.2
;Generated with Cura_SteamEngine 4.7.0
M140 S65
M105
M190 S65
M104 S225
M105
M109 S225
M82 ;absolute extrusion mode
; Ender 3 Custom Start G-code
G92 E0 ; Reset Extruder
G28 ; Home all axes
G1 Z2.0 F3000 ; Move Z Axis up little to prevent scratching of Heat Bed
G1 X0.1 Y20 Z0.3 F5000.0 ; Move to start position
G1 X0.1 Y200.0 Z0.3 F1500.0 E15 ; Draw the first line
G1 X0.4 Y200.0 Z0.3 F5000.0 ; Move to side a little
G1 X0.4 Y20 Z0.3 F1500.0 E30 ; Draw the second line
G92 E0 ; Reset Extruder
G1 Z2.0 F3000 ; Move Z Axis up little to prevent scratching of Heat Bed
G1 X5 Y20 Z0.3 F5000.0 ; Move over to prevent blob squish
G92 E0
G92 E0
G1 F2700 E-5
;LAYER_COUNT:40
;LAYER:0
M107
G0 F6000 X85.742 Y85.554 Z0.28
;TYPE:SKIRT
G1 F2700 E0
G1 F1200 X86.103 Y85.212 E0.02316
G1 X87.058 Y84.408 E0.08128
G1 X87.113 Y84.367 E0.08448
G1 X87.799 Y83.897 E0.1232
G1 X88.134 Y83.686 E0.14164
G1 X89.071 Y83.16 E0.19167
G1 X89.47 Y82.962 E0.21241
G1 X90.312 Y82.589 E0.25529
G1 X90.759 Y82.425 E0.27746
G1 X90.97 Y82.353 E0.28785
G1 X91.655 Y82.145 E0.32118
G1 X91.756 Y82.118 E0.32605
G1 X92.755 Y81.902 E0.37364
G1 X93.296 Y81.812 E0.39918
G1 X94.237 Y81.698 E0.44332
G1 X94.29 Y81.694 E0.44579
G1 X94.931 Y81.665 E0.47567
G1 X95.808 Y81.652 E0.51651
G1 X139.05 Y81.65 E2.53004
G1 X139.979 Y81.662 E2.5733
G1 X140.519 Y81.683 E2.59846
G1 X140.734 Y81.697 E2.6085
G1 X141.383 Y81.76 E2.63886
G1 X141.548 Y81.781 E2.6466
G1 X142.594 Y81.967 E2.69607
G1 X143.023 Y82.066 E2.71658
G1 X143.888 Y82.305 E2.75836
G1 X143.947 Y82.324 E2.76125
G1 X144.383 Y82.475 E2.78273
G1 X144.588 Y82.551 E2.79291
G1 X145.307 Y82.848 E2.82914
G1 X145.388 Y82.885 E2.83328
G1 X146.238 Y83.321 E2.87777
G1 X146.627 Y83.543 E2.89862
G1 X147.516 Y84.11 E2.94772
G1 X147.824 Y84.329 E2.96532
G1 X148.811 Y85.125 E3.02436
G1 X148.877 Y85.185 E3.02851
G1 X149.442 Y85.738 E3.06533
G1 X149.784 Y86.099 E3.08848
G1 X150.464 Y86.891 E3.13709
G1 X150.509 Y86.949 E3.14051
G1 X151.111 Y87.81 E3.18943
G1 X151.322 Y88.146 E3.2079
G1 X151.835 Y89.062 E3.25679
G1 X152.032 Y89.458 E3.27738
G1 X152.406 Y90.299 E3.32024
G1 X152.569 Y90.742 E3.34222
G1 X152.642 Y90.955 E3.35271
G1 X152.862 Y91.68 E3.38799
G1 X152.889 Y91.782 E3.3929
G1 X153.098 Y92.751 E3.43906
G1 X153.188 Y93.291 E3.46455
G1 X153.301 Y94.221 E3.50817
G1 X153.305 Y94.273 E3.5106
G1 X153.335 Y94.929 E3.54118
G1 X153.348 Y95.808 E3.58211
G1 X153.35 Y139.05 E5.59564
G1 X153.338 Y139.979 E5.6389
G1 X153.317 Y140.519 E5.66407
G1 X153.303 Y140.734 E5.6741
G1 X153.24 Y141.383 E5.70446
G1 X153.219 Y141.548 E5.71221
G1 X153.033 Y142.594 E5.76168
G1 X152.934 Y143.023 E5.78218
G1 X152.695 Y143.888 E5.82397
G1 X152.676 Y143.947 E5.82685
G1 X152.528 Y144.374 E5.84789
G1 X152.457 Y144.566 E5.85743
G1 X152.193 Y145.214 E5.89001
G1 X152.151 Y145.308 E5.8948
G1 X151.679 Y146.238 E5.94337
G1 X151.457 Y146.627 E5.96422
G1 X150.89 Y147.516 E6.01332
G1 X150.671 Y147.824 E6.03092
G1 X149.855 Y148.834 E6.09138
G1 X149.791 Y148.904 E6.09579
G1 X149.258 Y149.446 E6.13119
G1 X148.897 Y149.788 E6.15435
G1 X147.942 Y150.592 E6.21248
G1 X147.887 Y150.633 E6.21567
G1 X147.201 Y151.103 E6.25439
G1 X146.866 Y151.314 E6.27283
G1 X145.929 Y151.84 E6.32286
G1 X145.532 Y152.037 E6.3435
G1 X144.69 Y152.41 E6.38638
G1 X144.257 Y152.569 E6.40786
G1 X144.044 Y152.642 E6.41834
G1 X143.345 Y152.855 E6.45237
G1 X143.244 Y152.882 E6.45724
G1 X142.245 Y153.098 E6.50483
G1 X141.704 Y153.188 E6.53037
G1 X140.763 Y153.302 E6.57451
G1 X140.71 Y153.306 E6.57698
G1 X140.069 Y153.335 E6.60686
G1 X139.192 Y153.348 E6.6477
G1 X95.95 Y153.35 E8.66123
G1 X95.021 Y153.338 E8.70449
G1 X94.481 Y153.317 E8.72965
G1 X94.266 Y153.303 E8.73969
G1 X93.617 Y153.24 E8.77005
G1 X93.452 Y153.219 E8.77779
G1 X92.406 Y153.033 E8.82726
G1 X91.977 Y152.934 E8.84776
G1 X91.056 Y152.677 E8.89229
G1 X90.992 Y152.656 E8.89542
G1 X90.619 Y152.525 E8.91383
G1 X90.419 Y152.451 E8.92376
G1 X89.693 Y152.152 E8.96032
G1 X89.612 Y152.115 E8.96447
G1 X88.754 Y151.675 E9.00937
G1 X88.364 Y151.452 E9.03029
G1 X87.483 Y150.889 E9.07897
G1 X87.175 Y150.67 E9.09657
G1 X86.171 Y149.859 E9.15667
G1 X86.102 Y149.796 E9.16102
G1 X85.554 Y149.258 E9.19678
G1 X85.212 Y148.897 E9.21993
G1 X84.427 Y147.967 E9.2766
G1 X84.385 Y147.911 E9.27986
G1 X83.888 Y147.188 E9.32071
G1 X83.677 Y146.852 E9.33919
G1 X83.168 Y145.945 E9.38762
G1 X82.98 Y145.568 E9.40724
G1 X82.806 Y145.202 E9.42611
G1 X82.419 Y144.226 E9.47499
G1 X82.348 Y144.017 E9.48527
G1 X82.137 Y143.314 E9.51945
G1 X82.109 Y143.208 E9.52456
G1 X81.9 Y142.237 E9.5708
G1 X81.811 Y141.701 E9.5961
G1 X81.699 Y140.778 E9.6394
G1 X81.695 Y140.726 E9.64183
G1 X81.665 Y140.07 E9.67241
G1 X81.652 Y139.192 E9.71329
G1 X81.65 Y95.95 E11.72682
G1 X81.662 Y95.021 E11.77008
G1 X81.683 Y94.481 E11.79525
G1 X81.697 Y94.266 E11.80528
G1 X81.76 Y93.617 E11.83564
G1 X81.781 Y93.452 E11.84339
G1 X81.967 Y92.406 E11.89286
G1 X82.066 Y91.977 E11.91336
G1 X82.305 Y91.112 E11.95515
G1 X82.324 Y91.053 E11.95803
G1 X82.471 Y90.628 E11.97897
G1 X82.546 Y90.425 E11.98905
G1 X82.851 Y89.686 E12.02628
G1 X82.889 Y89.603 E12.03053
G1 X83.321 Y88.762 E12.07455
G1 X83.543 Y88.373 E12.09541
G1 X84.11 Y87.484 E12.1445
G1 X84.329 Y87.176 E12.1621
G1 X85.145 Y86.166 E12.22256
G1 X85.209 Y86.096 E12.22698
G1 X85.742 Y85.554 E12.26238
G0 F6000 X86.017 Y85.844
G1 F1200 X86.378 Y85.502 E12.28553
G1 X87.297 Y84.729 E12.34145
G1 X87.352 Y84.688 E12.34464
G1 X88.012 Y84.235 E12.38192
G1 X88.347 Y84.024 E12.40035
G1 X89.249 Y83.518 E12.44851
G1 X89.648 Y83.32 E12.46925
G1 X90.888 Y82.804 E12.53179
G1 X91.099 Y82.732 E12.54217
G1 X91.759 Y82.531 E12.5743
G1 X91.86 Y82.504 E12.57917
G1 X92.82 Y82.296 E12.62491
G1 X93.361 Y82.206 E12.65044
G1 X94.267 Y82.097 E12.69294
G1 X94.32 Y82.093 E12.69541
G1 X94.937 Y82.065 E12.72417
G1 X95.814 Y82.052 E12.76501
G1 X139.05 Y82.05 E14.77826
G1 X139.974 Y82.062 E14.82129
G1 X140.493 Y82.083 E14.84548
G1 X140.708 Y82.097 E14.85551
G1 X141.333 Y82.157 E14.88474
G1 X141.498 Y82.178 E14.89249
G1 X142.504 Y82.357 E14.94007
G1 X142.933 Y82.456 E14.96057
G1 X143.766 Y82.686 E15.00081
G1 X143.825 Y82.705 E15.0037
G1 X144.244 Y82.85 E15.02434
G1 X144.449 Y82.926 E15.03452
G1 X145.141 Y83.212 E15.06939
G1 X145.222 Y83.249 E15.07353
G1 X146.04 Y83.668 E15.11633
G1 X146.429 Y83.89 E15.13719
G1 X147.284 Y84.436 E15.18442
G1 X147.592 Y84.655 E15.20202
G1 X148.542 Y85.421 E15.25885
G1 X148.608 Y85.481 E15.263
G1 X149.152 Y86.013 E15.29843
G1 X149.494 Y86.374 E15.32158
G1 X150.148 Y87.136 E15.36834
G1 X150.193 Y87.194 E15.37176
G1 X150.772 Y88.023 E15.41885
G1 X150.983 Y88.359 E15.43732
G1 X151.477 Y89.24 E15.48435
G1 X151.674 Y89.636 E15.50495
G1 X152.191 Y90.872 E15.56733
G1 X152.264 Y91.085 E15.57782
G1 X152.475 Y91.782 E15.61173
G1 X152.502 Y91.884 E15.61664
G1 X152.703 Y92.817 E15.66108
G1 X152.793 Y93.357 E15.68657
G1 X152.902 Y94.252 E15.72856
G1 X152.906 Y94.304 E15.73098
G1 X152.935 Y94.935 E15.7604
G1 X152.948 Y95.814 E15.80133
G1 X152.95 Y139.05 E17.81458
G1 X152.938 Y139.974 E17.85761
G1 X152.917 Y140.493 E17.8818
G1 X152.903 Y140.708 E17.89183
G1 X152.843 Y141.333 E17.92107
G1 X152.822 Y141.498 E17.92881
G1 X152.643 Y142.504 E17.97639
G1 X152.544 Y142.933 E17.99689
G1 X152.314 Y143.766 E18.03713
G1 X152.295 Y143.825 E18.04002
G1 X152.153 Y144.236 E18.06026
G1 X152.082 Y144.428 E18.0698
G1 X151.828 Y145.051 E18.10112
G1 X151.786 Y145.145 E18.10592
G1 X151.332 Y146.04 E18.15265
G1 X151.11 Y146.429 E18.1735
G1 X150.564 Y147.284 E18.22074
G1 X150.345 Y147.592 E18.23834
G1 X149.56 Y148.564 E18.29652
G1 X149.496 Y148.634 E18.30093
G1 X148.983 Y149.156 E18.33501
G1 X148.622 Y149.498 E18.35817
G1 X147.703 Y150.271 E18.41409
G1 X147.648 Y150.312 E18.41728
G1 X146.988 Y150.765 E18.45456
G1 X146.653 Y150.976 E18.47299
G1 X145.751 Y151.482 E18.52115
G1 X145.354 Y151.679 E18.54179
G1 X144.127 Y152.191 E18.60369
G1 X143.914 Y152.264 E18.61418
G1 X143.241 Y152.469 E18.64694
G1 X143.14 Y152.496 E18.65181
G1 X142.18 Y152.704 E18.69755
G1 X141.639 Y152.794 E18.72308
G1 X140.733 Y152.903 E18.76557
G1 X140.68 Y152.907 E18.76805
G1 X140.063 Y152.935 E18.79681
G1 X139.186 Y152.948 E18.83765
G1 X95.95 Y152.95 E20.8509
G1 X95.026 Y152.938 E20.89393
G1 X94.507 Y152.917 E20.91812
G1 X94.292 Y152.903 E20.92815
G1 X93.667 Y152.843 E20.95738
G1 X93.502 Y152.822 E20.96513
G1 X92.496 Y152.643 E21.01271
G1 X92.067 Y152.544 E21.03321
G1 X91.181 Y152.297 E21.07604
G1 X91.117 Y152.276 E21.07918
G1 X90.758 Y152.15 E21.09689
G1 X90.558 Y152.076 E21.10682
G1 X89.859 Y151.788 E21.14202
G1 X89.778 Y151.751 E21.14617
G1 X88.953 Y151.328 E21.18934
G1 X88.563 Y151.105 E21.21026
G1 X87.715 Y150.563 E21.25712
G1 X87.407 Y150.344 E21.27472
G1 X86.44 Y149.564 E21.33257
G1 X86.371 Y149.501 E21.33692
G1 X85.844 Y148.983 E21.37133
G1 X85.502 Y148.622 E21.39449
G1 X84.747 Y147.727 E21.44901
G1 X84.705 Y147.671 E21.45227
G1 X84.227 Y146.975 E21.49158
G1 X84.016 Y146.639 E21.51006
G1 X83.526 Y145.767 E21.55663
G1 X83.338 Y145.39 E21.57625
G1 X83.17 Y145.037 E21.59445
G1 X82.798 Y144.097 E21.64153
G1 X82.727 Y143.888 E21.65181
G1 X82.523 Y143.212 E21.68468
G1 X82.495 Y143.106 E21.68979
G1 X82.295 Y142.172 E21.73427
G1 X82.206 Y141.636 E21.75957
G1 X82.098 Y140.747 E21.80127
G1 X82.094 Y140.695 E21.8037
G1 X82.065 Y140.064 E21.83311
G1 X82.052 Y139.186 E21.874
G1 X82.05 Y95.95 E23.88725
G1 X82.062 Y95.026 E23.93027
G1 X82.083 Y94.507 E23.95446
G1 X82.097 Y94.292 E23.96449
G1 X82.157 Y93.667 E23.99373
G1 X82.178 Y93.502 E24.00147
G1 X82.357 Y92.496 E24.04905
G1 X82.456 Y92.067 E24.06956
G1 X82.686 Y91.234 E24.10979
G1 X82.705 Y91.175 E24.11268
G1 X82.846 Y90.767 E24.13278
G1 X82.921 Y90.564 E24.14286
G1 X83.215 Y89.853 E24.17868
G1 X83.253 Y89.77 E24.18294
G1 X83.668 Y88.96 E24.22531
G1 X83.89 Y88.571 E24.24617
G1 X84.436 Y87.716 E24.29341
G1 X84.655 Y87.408 E24.31101
G1 X85.44 Y86.436 E24.36918
G1 X85.504 Y86.366 E24.3736
G1 X86.017 Y85.844 E24.40768
G1 F2700 E19.40768
;MESH:60mmlower.stl
G0 F6000 X100.331 Y96.344
G0 X100.667 Y94.877
G0 X102.761 Y95.472
;TYPE:WALL-INNER
G1 F2700 E24.40768
G1 F1200 X102.356 Y95.327 E24.42771
G1 X101.944 Y95.213 E24.44761
G1 X101.522 Y95.131 E24.46763
G1 X101.094 Y95.082 E24.48769
G1 X100.667 Y95.067 E24.50759
G1 X100.239 Y95.082 E24.52753
G1 X99.811 Y95.131 E24.54759
G1 X99.389 Y95.213 E24.56761
G1 X98.977 Y95.327 E24.58751
G1 X98.573 Y95.472 E24.6075
G1 X98.181 Y95.648 E24.62751
G1 X97.806 Y95.853 E24.64741
G1 X97.445 Y96.085 E24.66739
G1 X97.103 Y96.346 E24.68742
G1 X96.783 Y96.632 E24.70741
G1 X96.486 Y96.941 E24.72736
G1 X96.213 Y97.272 E24.74734
G1 X95.966 Y97.622 E24.76729
G1 X95.747 Y97.99 E24.78723
G1 X95.556 Y98.376 E24.80728
G1 X95.396 Y98.774 E24.82726
G1 X95.266 Y99.182 E24.8472
G1 X95.168 Y99.601 E24.86723
G1 X95.103 Y100.024 E24.88716
G1 X95.07 Y100.451 E24.9071
G1 X95.07 Y100.882 E24.92717
G1 X95.103 Y101.309 E24.94711
G1 X95.168 Y101.733 E24.96709
G1 X95.266 Y102.152 E24.98713
G1 X95.396 Y102.56 E25.00706
G1 X95.556 Y102.958 E25.02704
G1 X95.746 Y103.342 E25.04699
G1 X95.966 Y103.712 E25.06703
G1 X96.213 Y104.062 E25.08698
G1 X96.486 Y104.392 E25.10692
G1 X96.783 Y104.701 E25.12688
G1 X97.103 Y104.987 E25.14686
G1 X97.445 Y105.247 E25.16687
G1 X97.806 Y105.481 E25.1869
G1 X98.181 Y105.685 E25.20678
G1 X98.573 Y105.861 E25.22679
G1 X98.977 Y106.007 E25.24679
G1 X99.39 Y106.12 E25.26673
G1 X99.811 Y106.202 E25.2867
G1 X100.238 Y106.251 E25.30671
G1 X100.667 Y106.267 E25.3267
G1 X101.095 Y106.251 E25.34665
G1 X101.522 Y106.202 E25.36666
G1 X101.943 Y106.12 E25.38663
G1 X102.356 Y106.007 E25.40657
G1 X102.761 Y105.861 E25.42662
G1 X103.152 Y105.685 E25.44658
G1 X103.528 Y105.481 E25.4665
G1 X103.889 Y105.247 E25.48653
G1 X104.23 Y104.987 E25.5065
G1 X104.551 Y104.701 E25.52652
G1 X104.847 Y104.392 E25.54644
G1 X105.12 Y104.062 E25.56639
G1 X105.367 Y103.712 E25.58633
G1 X105.587 Y103.342 E25.60638
G1 X105.777 Y102.958 E25.62633
G1 X105.937 Y102.56 E25.6463
G1 X106.067 Y102.151 E25.66629
G1 X106.164 Y101.733 E25.68627
G1 X106.231 Y101.309 E25.70626
G1 X106.263 Y100.881 E25.72624
G1 X106.263 Y100.452 E25.74622
G1 X106.231 Y100.024 E25.7662
G1 X106.164 Y99.601 E25.78614
G1 X106.067 Y99.183 E25.80613
G1 X105.937 Y98.774 E25.82611
G1 X105.777 Y98.376 E25.84608
G1 X105.586 Y97.99 E25.86614
G1 X105.367 Y97.622 E25.88608
G1 X105.12 Y97.273 E25.90599
G1 X104.848 Y96.941 E25.92597
G1 X104.55 Y96.631 E25.94599
G1 X104.23 Y96.346 E25.96595
G1 X103.888 Y96.086 E25.98595
G1 X103.528 Y95.853 E26.00592
G1 X103.152 Y95.648 E26.02586
G1 X102.761 Y95.472 E26.04583
G0 F6000 X102.611 Y95.843
;TYPE:WALL-OUTER
G1 F1200 X102.235 Y95.709 E26.06441
G1 X101.852 Y95.603 E26.08292
G1 X101.461 Y95.527 E26.10147
G1 X101.064 Y95.481 E26.12008
G1 X100.667 Y95.467 E26.13857
G1 X100.269 Y95.481 E26.15712
G1 X99.872 Y95.527 E26.17573
G1 X99.481 Y95.603 E26.19427
G1 X99.098 Y95.709 E26.21278
G1 X98.723 Y95.843 E26.23132
G1 X98.359 Y96.007 E26.24991
G1 X98.01 Y96.197 E26.26841
G1 X97.675 Y96.413 E26.28697
G1 X97.358 Y96.655 E26.30555
G1 X97.061 Y96.92 E26.32408
G1 X96.785 Y97.207 E26.34262
G1 X96.531 Y97.515 E26.36121
G1 X96.302 Y97.84 E26.37972
G1 X96.098 Y98.182 E26.39827
G1 X95.921 Y98.539 E26.41682
G1 X95.773 Y98.909 E26.43538
G1 X95.652 Y99.289 E26.45395
G1 X95.561 Y99.677 E26.4725
G1 X95.501 Y100.07 E26.49101
G1 X95.47 Y100.467 E26.50956
G1 X95.47 Y100.866 E26.52814
G1 X95.501 Y101.263 E26.54668
G1 X95.561 Y101.657 E26.56524
G1 X95.652 Y102.045 E26.58379
G1 X95.773 Y102.425 E26.60236
G1 X95.921 Y102.794 E26.62088
G1 X96.098 Y103.151 E26.63943
G1 X96.302 Y103.494 E26.65801
G1 X96.531 Y103.819 E26.67653
G1 X96.785 Y104.126 E26.69508
G1 X97.061 Y104.413 E26.71362
G1 X97.358 Y104.678 E26.73215
G1 X97.675 Y104.92 E26.75072
G1 X98.01 Y105.137 E26.76931
G1 X98.359 Y105.326 E26.78779
G1 X98.723 Y105.49 E26.80638
G1 X99.098 Y105.625 E26.82494
G1 X99.481 Y105.73 E26.84343
G1 X99.872 Y105.806 E26.86198
G1 X100.269 Y105.852 E26.88059
G1 X100.667 Y105.867 E26.89914
G1 X101.064 Y105.852 E26.91763
G1 X101.461 Y105.806 E26.93624
G1 X101.852 Y105.73 E26.95479
G1 X102.235 Y105.625 E26.97328
G1 X102.611 Y105.49 E26.99189
G1 X102.974 Y105.326 E27.01043
G1 X103.324 Y105.137 E27.02896
G1 X103.658 Y104.92 E27.0475
G1 X103.975 Y104.678 E27.06607
G1 X104.273 Y104.413 E27.08464
G1 X104.548 Y104.126 E27.10315
G1 X104.802 Y103.819 E27.1217
G1 X105.031 Y103.494 E27.14022
G1 X105.235 Y103.151 E27.1588
G1 X105.412 Y102.794 E27.17735
G1 X105.56 Y102.425 E27.19587
G1 X105.681 Y102.045 E27.21444
G1 X105.771 Y101.657 E27.23298
G1 X105.833 Y101.263 E27.25156
G1 X105.863 Y100.866 E27.27009
G1 X105.863 Y100.467 E27.28867
G1 X105.833 Y100.07 E27.30721
G1 X105.771 Y99.677 E27.32574
G1 X105.681 Y99.289 E27.34428
G1 X105.56 Y98.909 E27.36285
G1 X105.412 Y98.539 E27.38141
G1 X105.235 Y98.182 E27.39996
G1 X105.031 Y97.84 E27.41851
G1 X104.802 Y97.515 E27.43702
G1 X104.549 Y97.207 E27.45558
G1 X104.273 Y96.92 E27.47412
G1 X103.975 Y96.655 E27.49269
G1 X103.658 Y96.413 E27.51126
G1 X103.324 Y96.197 E27.52978
G1 X102.974 Y96.007 E27.54833
G1 X102.611 Y95.843 E27.56687
G0 F6000 X102.775 Y95.435
G1 F2700 E22.56687
G0 F6000 X104.352 Y96.199
G0 X103.675 Y97.544
G0 X130.049 Y100.008
G0 X128.609 Y99.782
G0 X129.146 Y102.307
G0 X129.657 Y103.446
G0 X130.415 Y104.439
G0 X131.376 Y105.232
G0 X132.494 Y105.785
G0 X133.71 Y106.071
G0 X134.957 Y106.071
G0 X136.172 Y105.785
G0 X137.29 Y105.232
G0 X138.252 Y104.439
G0 X139.528 Y102.761
;TYPE:WALL-INNER
G1 F2700 E27.56687
G1 F1200 X139.673 Y102.356 E27.5869
G1 X139.787 Y101.944 E27.60681
G1 X139.869 Y101.522 E27.62683
G1 X139.918 Y101.094 E27.64689
G1 X139.933 Y100.667 E27.66678
G1 X139.918 Y100.239 E27.68672
G1 X139.869 Y99.811 E27.70678
G1 X139.787 Y99.389 E27.7268
G1 X139.673 Y98.977 E27.74671
G1 X139.528 Y98.573 E27.76669
G1 X139.352 Y98.181 E27.7867
G1 X139.147 Y97.806 E27.8066
G1 X138.915 Y97.445 E27.82658
G1 X138.654 Y97.103 E27.84662
G1 X138.368 Y96.783 E27.8666
G1 X138.059 Y96.486 E27.88656
G1 X137.728 Y96.213 E27.90654
G1 X137.378 Y95.966 E27.92648
