;FLAVOR:Marlin
;TIME:1200
;Filament used: 0.873202m
;Layer height: 0.28
;MINX:94.852
;MINY:89.431
;MINZ:0.28
;MAXX:140.147
;MAXY:140.82
;MAXZ:11.76
;Generated with Cura_SteamEngine 4.6.1
M140 S60
M105
M190 S60
M104 S210
M105
M109 S210
M82 ;absolute extrusion mode
; Ender 3 Custom Start G-code
G92 E0 ; Reset Extruder
G28 ; Home all axes
G1 Z2.0 F3000 ; Move Z Axis up little to prevent scratching of Heat Bed
G1 X0.1 Y20 Z0.3 F5000.0 ; Move to start position
G1 X0.1 Y200.0 Z0.3 F1500.0 E15 ; Draw the first line
G1 X0.4 Y200.0 Z0.3 F5000.0 ; Move to side a little
G1 X0.4 Y20 Z0.3 F1500.0 E30 ; Draw the second line
G92 E0 ; Reset Extruder
G1 Z2.0 F3000 ; Move Z Axis up little to prevent scratching of Heat Bed
G1 X5 Y20 Z0.3 F5000.0 ; Move over to prevent blob squish
G92 E0
G92 E0
G1 F2700 E-5
;LAYER_COUNT:42
;LAYER:0
M107
G0 F6000 X129.281 Y90.242 Z0.28
;TYPE:SKIRT
G1 F2700 E0
G1 F1200 X130.183 Y90.295 E0.04207
G1 X131.076 Y90.427 E0.08411
G1 X131.954 Y90.638 E0.12615
G1 X132.81 Y90.926 E0.16821
G1 X133.637 Y91.288 E0.21025
G1 X134.429 Y91.723 E0.25232
G1 X135.18 Y92.225 E0.29438
G1 X135.883 Y92.792 E0.33644
G1 X136.533 Y93.419 E0.37849
G1 X137.125 Y94.101 E0.42054
G1 X137.655 Y94.832 E0.46259
G1 X138.117 Y95.608 E0.50464
G1 X138.51 Y96.421 E0.54669
G1 X138.828 Y97.266 E0.58873
G1 X139.071 Y98.136 E0.63079
G1 X139.236 Y99.024 E0.67285
G1 X139.331 Y100.152 E0.72556
G1 X139.344 Y100.757 E0.75373
G1 X139.347 Y127.999 E2.02224
G1 X139.339 Y128.539 E2.04738
G1 X139.31 Y129.166 E2.07661
G1 X139.237 Y130.12 E2.12116
G1 X139.204 Y130.472 E2.13763
G1 X139.168 Y130.795 E2.15276
G1 X139.029 Y131.687 E2.1948
G1 X138.864 Y132.38 E2.22797
G1 X138.598 Y133.243 E2.27002
G1 X138.257 Y134.079 E2.31206
G1 X137.843 Y134.882 E2.35413
G1 X137.36 Y135.645 E2.39617
G1 X136.811 Y136.362 E2.43822
G1 X136.201 Y137.028 E2.48028
G1 X135.534 Y137.637 E2.52233
G1 X134.816 Y138.185 E2.56439
G1 X134.053 Y138.668 E2.60644
G1 X133.25 Y139.08 E2.64847
G1 X132.413 Y139.421 E2.69055
G1 X131.55 Y139.685 E2.73257
G1 X130.666 Y139.873 E2.77466
G1 X129.77 Y139.981 E2.81668
G1 X129.219 Y140.009 E2.84237
G1 X128.767 Y140.019 E2.86342
G1 X128.389 Y140.02 E2.88103
G1 X127.718 Y140.01 E2.91227
G1 X126.891 Y139.964 E2.95084
G1 X126.486 Y139.925 E2.96979
G1 X123.823 Y139.699 E3.09423
G1 X121.296 Y139.557 E3.21209
G1 X118.761 Y139.486 E3.33017
G1 X116.227 Y139.486 E3.44817
G1 X113.662 Y139.559 E3.56765
G1 X111.16 Y139.702 E3.68435
G1 X108.02 Y139.973 E3.8311
G1 X107.449 Y140.006 E3.85773
G1 X107.116 Y140.016 E3.87325
G1 X106.684 Y140.02 E3.89336
G1 X105.875 Y140.01 E3.93104
G1 X104.973 Y139.959 E3.9731
G1 X104.08 Y139.828 E4.01513
G1 X103.201 Y139.619 E4.0572
G1 X102.345 Y139.333 E4.09923
G1 X101.517 Y138.972 E4.14129
G1 X100.724 Y138.54 E4.18334
G1 X99.972 Y138.039 E4.22541
G1 X99.268 Y137.473 E4.26747
G1 X98.617 Y136.848 E4.3095
G1 X98.023 Y136.167 E4.35157
G1 X97.493 Y135.436 E4.39362
G1 X97.028 Y134.662 E4.43566
G1 X96.634 Y133.849 E4.47773
G1 X96.314 Y133.005 E4.51976
G1 X96.069 Y132.135 E4.56185
G1 X95.883 Y131.103 E4.61068
G1 X95.795 Y130.414 E4.64302
G1 X95.754 Y130.041 E4.66049
G1 X95.702 Y129.466 E4.68738
G1 X95.666 Y128.856 E4.71583
G1 X95.652 Y128.075 E4.7522
G1 X95.657 Y100.94 E6.01572
G1 X95.667 Y100.285 E6.04622
G1 X95.721 Y99.384 E6.08825
G1 X95.854 Y98.491 E6.13029
G1 X96.066 Y97.613 E6.17235
G1 X96.355 Y96.757 E6.21442
G1 X96.718 Y95.93 E6.25648
G1 X97.153 Y95.139 E6.29851
G1 X97.656 Y94.389 E6.34056
G1 X98.223 Y93.686 E6.38262
G1 X98.851 Y93.037 E6.42467
G1 X99.533 Y92.445 E6.46672
G1 X100.265 Y91.916 E6.50877
G1 X101.041 Y91.454 E6.55083
G1 X101.855 Y91.063 E6.59288
G1 X102.7 Y90.745 E6.63492
G1 X103.57 Y90.503 E6.67697
G1 X104.459 Y90.339 E6.71906
G1 X105.561 Y90.246 E6.77056
G1 X106.2 Y90.231 E6.80032
G1 X128.583 Y90.232 E7.84257
G1 X129.281 Y90.242 E7.87507
G0 F6000 X129.287 Y89.842
G1 F1200 X130.206 Y89.895 E7.91793
G1 X131.117 Y90.028 E7.9608
G1 X132.013 Y90.239 E8.00367
G1 X132.887 Y90.527 E8.04652
G1 X133.734 Y90.89 E8.08943
G1 X134.545 Y91.325 E8.13228
G1 X135.315 Y91.829 E8.17513
G1 X136.039 Y92.398 E8.21801
G1 X136.711 Y93.028 E8.2609
G1 X137.326 Y93.713 E8.30377
G1 X137.879 Y94.449 E8.34663
G1 X138.366 Y95.23 E8.38949
G1 X138.783 Y96.051 E8.43237
G1 X139.128 Y96.905 E8.47526
G1 X139.397 Y97.785 E8.5181
G1 X139.589 Y98.686 E8.561
G1 X139.702 Y99.599 E8.60384
G1 X139.731 Y100.141 E8.62911
G1 X139.744 Y100.757 E8.6578
G1 X139.747 Y128.005 E9.92658
G1 X139.739 Y128.545 E9.95173
G1 X139.709 Y129.197 E9.98212
G1 X139.636 Y130.151 E10.02667
G1 X139.602 Y130.516 E10.04374
G1 X139.566 Y130.839 E10.05888
G1 X139.424 Y131.749 E10.10176
G1 X139.251 Y132.481 E10.13679
G1 X138.981 Y133.361 E10.17965
G1 X138.635 Y134.214 E10.22251
G1 X138.217 Y135.034 E10.26537
G1 X137.729 Y135.815 E10.30825
G1 X137.175 Y136.55 E10.35111
G1 X136.559 Y137.235 E10.39401
G1 X135.886 Y137.863 E10.43687
G1 X135.162 Y138.431 E10.47972
G1 X134.39 Y138.934 E10.52262
G1 X133.578 Y139.368 E10.56549
G1 X132.732 Y139.73 E10.60834
G1 X131.857 Y140.017 E10.65122
G1 X130.961 Y140.227 E10.69407
G1 X130.049 Y140.358 E10.73698
G1 X129.227 Y140.408 E10.77532
G1 X128.775 Y140.418 E10.79637
G1 X128.383 Y140.42 E10.81463
G1 X127.712 Y140.41 E10.84588
G1 X126.853 Y140.362 E10.88594
G1 X126.419 Y140.32 E10.90624
G1 X123.802 Y140.098 E11.02854
G1 X121.297 Y139.957 E11.14536
G1 X118.75 Y139.886 E11.26401
G1 X116.238 Y139.886 E11.38098
G1 X113.697 Y139.959 E11.49935
G1 X111.181 Y140.102 E11.61669
G1 X108.054 Y140.372 E11.76284
G1 X107.461 Y140.406 E11.7905
G1 X107.128 Y140.416 E11.80601
G1 X106.679 Y140.42 E11.82692
G1 X105.87 Y140.41 E11.86459
G1 X104.951 Y140.359 E11.90745
G1 X104.039 Y140.228 E11.95035
G1 X103.143 Y140.018 E11.9932
G1 X102.268 Y139.732 E12.03607
G1 X101.421 Y139.371 E12.07894
G1 X100.609 Y138.937 E12.12181
G1 X99.837 Y138.435 E12.16469
G1 X99.112 Y137.868 E12.20755
G1 X98.439 Y137.239 E12.25044
G1 X97.823 Y136.555 E12.29331
G1 X97.269 Y135.82 E12.33616
G1 X96.78 Y135.04 E12.37903
G1 X96.361 Y134.22 E12.42191
G1 X96.015 Y133.367 E12.46477
G1 X95.744 Y132.487 E12.50765
G1 X95.486 Y131.154 E12.57087
G1 X95.398 Y130.465 E12.60321
G1 X95.356 Y130.077 E12.62139
G1 X95.304 Y129.502 E12.64827
G1 X95.266 Y128.868 E12.67784
G1 X95.252 Y128.075 E12.71478
G1 X95.257 Y100.934 E13.97857
G1 X95.267 Y100.279 E14.00908
G1 X95.321 Y99.36 E14.05194
G1 X95.455 Y98.449 E14.09482
G1 X95.667 Y97.553 E14.13769
G1 X95.956 Y96.679 E14.18056
G1 X96.32 Y95.833 E14.22344
G1 X96.756 Y95.023 E14.26628
G1 X97.26 Y94.252 E14.30917
G1 X97.83 Y93.529 E14.35204
G1 X98.46 Y92.858 E14.3949
G1 X99.146 Y92.244 E14.43776
G1 X99.882 Y91.691 E14.48063
G1 X100.664 Y91.205 E14.5235
G1 X101.485 Y90.789 E14.56636
G1 X102.339 Y90.445 E14.60923
G1 X103.22 Y90.177 E14.65211
G1 X104.12 Y89.986 E14.69495
G1 X105.034 Y89.874 E14.73783
G1 X105.549 Y89.846 E14.76185
G1 X106.2 Y89.831 E14.79217
G1 X128.589 Y89.832 E15.83469
G1 X129.287 Y89.842 E15.8672
G0 F6000 X129.293 Y89.442
G1 F1200 X130.229 Y89.496 E15.91085
G1 X131.157 Y89.628 E15.9545
G1 X132.071 Y89.84 E15.99819
G1 X132.963 Y90.129 E16.04185
G1 X133.828 Y90.492 E16.08553
G1 X134.658 Y90.928 E16.12919
G1 X135.449 Y91.433 E16.17289
G1 X136.193 Y92.004 E16.21656
G1 X136.886 Y92.636 E16.26023
G1 X137.523 Y93.324 E16.30389
G1 X138.098 Y94.065 E16.34756
G1 X138.609 Y94.851 E16.39122
G1 X139.051 Y95.679 E16.43492
G1 X139.42 Y96.541 E16.47858
G1 X139.715 Y97.431 E16.52224
G1 X139.933 Y98.343 E16.56591
G1 X140.073 Y99.271 E16.60961
G1 X140.131 Y100.13 E16.6497
G1 X140.144 Y100.757 E16.6789
G1 X140.147 Y128.011 E17.94796
G1 X140.139 Y128.551 E17.97311
G1 X140.108 Y129.227 E18.00462
G1 X140.035 Y130.181 E18.04917
G1 X139.999 Y130.56 E18.0669
G1 X139.963 Y130.883 E18.08203
G1 X139.82 Y131.81 E18.1257
G1 X139.638 Y132.582 E18.16264
G1 X139.364 Y133.478 E18.20627
G1 X139.014 Y134.349 E18.24998
G1 X138.591 Y135.186 E18.29364
G1 X138.098 Y135.984 E18.33732
G1 X137.539 Y136.737 E18.38099
G1 X136.918 Y137.44 E18.42467
G1 X136.239 Y138.087 E18.46834
G1 X135.508 Y138.674 E18.51199
G1 X134.729 Y139.197 E18.55569
G1 X133.909 Y139.651 E18.59933
G1 X133.053 Y140.034 E18.643
G1 X132.167 Y140.343 E18.68669
G1 X131.259 Y140.575 E18.73033
G1 X130.333 Y140.729 E18.77404
G1 X129.236 Y140.808 E18.82525
G1 X128.784 Y140.818 E18.8463
G1 X128.377 Y140.82 E18.86526
G1 X127.706 Y140.81 E18.8965
G1 X126.815 Y140.76 E18.93806
G1 X126.438 Y140.724 E18.95569
G1 X123.78 Y140.498 E19.07991
G1 X121.264 Y140.357 E19.19725
G1 X118.739 Y140.286 E19.31487
G1 X116.215 Y140.286 E19.43239
G1 X113.729 Y140.357 E19.5482
G1 X111.205 Y140.501 E19.66592
G1 X108.088 Y140.77 E19.8116
G1 X107.473 Y140.806 E19.84029
G1 X107.14 Y140.816 E19.8558
G1 X106.674 Y140.82 E19.8775
G1 X105.865 Y140.81 E19.91517
G1 X104.929 Y140.759 E19.95882
G1 X104 Y140.627 E20.00251
G1 X103.086 Y140.418 E20.04617
G1 X102.193 Y140.131 E20.08985
G1 X101.328 Y139.769 E20.13351
G1 X100.496 Y139.335 E20.17721
G1 X99.705 Y138.831 E20.22088
G1 X98.96 Y138.262 E20.26453
G1 X98.265 Y137.632 E20.30821
G1 X97.627 Y136.944 E20.3519
G1 X97.05 Y136.205 E20.39556
G1 X96.538 Y135.419 E20.43924
G1 X96.095 Y134.593 E20.48288
G1 X95.723 Y133.731 E20.5266
G1 X95.427 Y132.842 E20.57023
G1 X95.207 Y131.93 E20.61391
G1 X95.09 Y131.205 E20.64811
G1 X95.002 Y130.516 E20.68045
G1 X94.958 Y130.113 E20.69933
G1 X94.906 Y129.538 E20.72621
G1 X94.866 Y128.88 E20.75691
G1 X94.852 Y128.075 E20.7944
G1 X94.857 Y100.928 E22.05848
G1 X94.867 Y100.273 E22.08898
G1 X94.922 Y99.337 E22.13264
G1 X95.055 Y98.409 E22.17629
G1 X95.268 Y97.495 E22.21999
G1 X95.557 Y96.603 E22.26365
G1 X95.922 Y95.739 E22.30733
G1 X96.358 Y94.909 E22.35098
G1 X96.864 Y94.119 E22.39467
G1 X97.435 Y93.375 E22.43834
G1 X98.068 Y92.683 E22.48201
G1 X98.757 Y92.047 E22.52567
G1 X99.498 Y91.472 E22.56934
G1 X100.285 Y90.962 E22.61301
G1 X101.113 Y90.521 E22.65669
G1 X101.975 Y90.152 E22.70036
G1 X102.866 Y89.858 E22.74404
G1 X103.778 Y89.641 E22.7877
G1 X104.706 Y89.502 E22.83139
G1 X105.537 Y89.446 E22.87017
G1 X106.2 Y89.431 E22.90105
G1 X128.595 Y89.432 E23.94386
G1 X129.293 Y89.442 E23.97636
G1 F2700 E18.97636
;MESH:cableChain_bedCornerCover_v2.stl
G0 F6000 X121.625 Y107.742
G0 X120.19 Y107.742
G0 X120.36 Y109.669
;TYPE:WALL-INNER
G1 F2700 E23.97636
G1 F1200 X124.06 Y109.669 E24.14865
G1 X124.06 Y103.469 E24.43735
G1 X120.36 Y103.469 E24.60964
G1 X120.36 Y109.669 E24.89833
G0 F6000 X120.76 Y109.269
;TYPE:WALL-OUTER
G1 F1200 X123.66 Y109.269 E25.03337
G1 X123.66 Y103.869 E25.28482
G1 X120.76 Y103.869 E25.41985
G1 X120.76 Y109.269 E25.6713
G1 F2700 E20.6713
G0 F6000 X120.46 Y109.269
G0 X120.17 Y109.669
G0 X121.613 Y108.416
G0 X113.387 Y108.416
G0 X114.83 Y109.669
G0 X114.64 Y109.669
;TYPE:WALL-INNER
G1 F2700 E25.6713
G1 F1200 X114.64 Y103.469 E25.96
G1 X110.94 Y103.469 E26.13228
G1 X110.94 Y109.669 E26.42098
G1 X114.64 Y109.669 E26.59327
G0 F6000 X114.24 Y109.269
;TYPE:WALL-OUTER
G1 F1200 X114.24 Y103.869 E26.84472
G1 X111.34 Y103.869 E26.97975
G1 X111.34 Y109.269 E27.2312
G1 X114.24 Y109.269 E27.36624
G1 F2700 E22.36624
G0 F6000 X114.54 Y109.269
G0 X114.64 Y109.859
G0 X114.64 Y111.779
G0 X114.64 Y118.169
;TYPE:WALL-INNER
G1 F2700 E27.36624
G1 F1200 X114.64 Y111.969 E27.65493
G1 X110.94 Y111.969 E27.82722
G1 X110.94 Y118.169 E28.11592
G1 X114.64 Y118.169 E28.28821
G0 F6000 X114.24 Y117.769
;TYPE:WALL-OUTER
G1 F1200 X114.24 Y112.369 E28.53965
G1 X111.34 Y112.369 E28.67469
G1 X111.34 Y117.769 E28.92614
G1 X114.24 Y117.769 E29.06117
G1 F2700 E24.06117
G0 F6000 X114.54 Y117.769
G0 X114.83 Y118.169
G0 X113.387 Y116.916
G0 X121.613 Y116.916
G0 X120.17 Y118.169
G0 X120.36 Y118.169
;TYPE:WALL-INNER
G1 F2700 E29.06117
G1 F1200 X124.06 Y118.169 E29.23346
G1 X124.06 Y111.969 E29.52216
G1 X120.36 Y111.969 E29.69445
G1 X120.36 Y118.169 E29.98314
G0 F6000 X120.76 Y117.769
;TYPE:WALL-OUTER
G1 F1200 X123.66 Y117.769 E30.11818
G1 X123.66 Y112.369 E30.36963
G1 X120.76 Y112.369 E30.50466
G1 X120.76 Y117.769 E30.75611
G1 F2700 E25.75611
G0 F6000 X120.46 Y117.769
G0 X120.532 Y117.997
G0 X123.888 Y117.997
G0 X124.23 Y116.033
G0 X122.795 Y116.033
G0 X129.811 Y118.363
G0 X128.746 Y118.364
G0 X128.46 Y129.221
;TYPE:WALL-INNER
G1 F2700 E30.75611
G1 F1200 X128.46 Y128.533 E30.78814
G1 X128.46 Y124.32 E30.98432
G1 X128.304 Y124.32 E30.99158
G1 X106.695 Y124.32 E31.99779
G1 X106.54 Y124.32 E32.00501
G1 X106.54 Y128.529 E32.201
G1 X106.54 Y129.221 E32.23322
G1 X106.524 Y129.221 E32.23396
G1 X106.452 Y128.529 E32.23829
G1 X106.452 Y124.32 E32.28151
G1 X106.452 Y124.165 E32.28674
G1 X106.456 Y101.031 E33.36396
G1 X128.544 Y101.031 E34.39247
G1 X128.547 Y124.163 E35.46959
G1 X128.547 Y124.319 E35.47686
G1 X128.548 Y128.533 E35.5199
G1 X128.48 Y129.221 E35.52436
G1 X128.46 Y129.221 E35.52529
G0 F6000 X128.06 Y129.621
;TYPE:WALL-OUTER
G1 F1200 X128.06 Y124.72 E35.7535
G1 X106.94 Y124.72 E36.73694
G1 X106.94 Y129.621 E36.96515
G1 X106.163 Y129.621 E37.00133
G1 X106.052 Y128.551 E37.05142
G1 X106.056 Y100.631 E38.35149
G1 X128.944 Y100.631 E39.41726
G1 X128.948 Y128.552 E40.71737
G1 X128.843 Y129.621 E40.76739
G1 X128.06 Y129.621 E40.80385
G0 F6000 X128.33 Y129.351
G0 X128.437 Y123.93
G0 X128.157 Y123.93
;TYPE:SKIN
G1 F1200 X106.843 Y123.93 E41.79632
G1 X106.846 Y101.421 E42.84443
G1 X128.154 Y101.421 E43.83662
G1 X128.157 Y123.93 E44.88474
G1 F2700 E39.88474
G0 F6000 X128.437 Y123.93
G0 X128.337 Y118.309
G0 X129.811 Y118.308
G0 X122.807 Y116.916
G0 X124.25 Y118.309
G0 X124.17 Y118.309
G0 X124.45 Y118.559
G1 F2700 E44.88474
G1 F1200 X124.45 Y111.579 E45.20975
G1 X119.97 Y111.579 E45.41836
G1 X119.97 Y118.559 E45.74338
G1 X124.45 Y118.559 E45.95199
G1 F2700 E40.95199
G0 F6000 X124.17 Y118.309
G0 X124.17 Y111.779
G0 X124.17 Y109.859
G0 X124.45 Y110.059
G1 F2700 E45.95199
G1 F1200 X124.45 Y103.079 E46.27701
G1 X119.97 Y103.079 E46.48561
G1 X119.97 Y110.059 E46.81063
G1 X124.45 Y110.059 E47.01924
G1 F2700 E42.01924
G0 F6000 X124.17 Y109.809
G0 X120.17 Y109.809
G0 X121.613 Y108.416
G0 X113.387 Y108.416
G0 X114.83 Y109.809
G0 X114.75 Y109.809
G0 X115.03 Y110.059
G1 F2700 E47.01924
G1 F1200 X115.03 Y103.079 E47.34426
G1 X110.55 Y103.079 E47.55286
G1 X110.55 Y110.059 E47.87788
G1 X115.03 Y110.059 E48.08649
G1 F2700 E43.08649
G0 F6000 X114.75 Y109.809
G0 X114.75 Y111.779
G0 X114.75 Y118.309
G0 X115.03 Y118.559
G1 F2700 E48.08649
G1 F1200 X115.03 Y111.579 E48.41151
G1 X110.55 Y111.579 E48.62012
G1 X110.55 Y118.559 E48.94513
G1 X115.03 Y118.559 E49.15374
G1 F2700 E44.15374
G0 F6000 X114.75 Y118.309
G0 X114.81 Y116.033
G0 X113.375 Y116.033
G0 X110.744 Y125.585
G0 X110.744 Y124.11
G0 X107.364 Y124.21
G0 X107.364 Y123.769
G1 F2700 E49.15374
G1 F1200 X107.002 Y123.407 E49.17758
G0 F6000 X107.002 Y122.842
G1 F1200 X107.93 Y123.769 E49.23866
G0 F6000 X108.496 Y123.769
G1 F1200 X107.002 Y122.276 E49.33701
G0 F6000 X107.002 Y121.71
G1 F1200 X109.062 Y123.769 E49.47263
G0 F6000 X109.627 Y123.769
G1 F1200 X107.002 Y121.145 E49.64546
G0 F6000 X107.002 Y120.579
G1 F1200 X110.193 Y123.769 E49.85556
G0 F6000 X110.759 Y123.769
G1 F1200 X107.002 Y120.013 E50.10293
G0 F6000 X107.002 Y119.448
G1 F1200 X111.324 Y123.769 E50.38751
G0 F6000 X111.89 Y123.769
G1 F1200 X107.002 Y118.882 E50.70936
G0 F6000 X107.002 Y118.316
G1 F1200 X112.456 Y123.769 E51.06848
G0 F6000 X113.021 Y123.769
G1 F1200 X107.003 Y117.751 E51.46477
G0 F6000 X107.003 Y117.185
G1 F1200 X113.587 Y123.769 E51.89834
G0 F6000 X114.153 Y123.769
G1 F1200 X107.003 Y116.62 E52.36915
G0 F6000 X107.003 Y116.054
G1 F1200 X114.718 Y123.769 E52.87719
G0 F6000 X115.284 Y123.769
G1 F1200 X107.003 Y115.488 E53.42251
G0 F6000 X107.003 Y114.923
G1 F1200 X110.389 Y118.309 E53.64549
G0 F6000 X110.389 Y117.743
G1 F1200 X107.003 Y114.357 E53.86846
G0 F6000 X107.003 Y113.791
G1 F1200 X110.389 Y117.178 E54.09147
G0 F6000 X110.389 Y116.612
G1 F1200 X107.003 Y113.226 E54.31444
G0 F6000 X107.004 Y112.661
G1 F1200 X110.389 Y116.046 E54.53735
G0 F6000 X110.389 Y115.481
G1 F1200 X107.004 Y112.095 E54.76029
G0 F6000 X107.004 Y111.529
G1 F1200 X110.389 Y114.915 E54.98323
G0 F6000 X110.389 Y114.349
G1 F1200 X107.004 Y110.964 E55.20614
G0 F6000 X107.004 Y110.398
G1 F1200 X110.389 Y113.784 E55.42908
G0 F6000 X110.389 Y113.218
