;FLAVOR:Marlin
;TIME:9236
;Filament used: 6.2868m
;Layer height: 0.28
;MINX:31.424
;MINY:68.056
;MINZ:0.28
;MAXX:182.1
;MAXY:166.077
;MAXZ:33.88
;Generated with Cura_SteamEngine 4.6.1
M140 S60
M105
M190 S60
M104 S210
M105
M109 S210
M82 ;absolute extrusion mode
; Ender 3 Custom Start G-code
G92 E0 ; Reset Extruder
G28 ; Home all axes
G1 Z2.0 F3000 ; Move Z Axis up little to prevent scratching of Heat Bed
G1 X0.1 Y20 Z0.3 F5000.0 ; Move to start position
G1 X0.1 Y200.0 Z0.3 F1500.0 E15 ; Draw the first line
G1 X0.4 Y200.0 Z0.3 F5000.0 ; Move to side a little
G1 X0.4 Y20 Z0.3 F1500.0 E30 ; Draw the second line
G92 E0 ; Reset Extruder
G1 Z2.0 F3000 ; Move Z Axis up little to prevent scratching of Heat Bed
G1 X5 Y20 Z0.3 F5000.0 ; Move over to prevent blob squish
G92 E0
G92 E0
G1 F2700 E-5
;LAYER_COUNT:121
;LAYER:0
M107
G0 F6000 X125.62 Y68.872 Z0.28
;TYPE:SKIRT
G1 F2700 E0
G1 F1200 X126.098 Y68.897 E0.02229
G1 X126.992 Y68.969 E0.06405
G1 X127.497 Y69.026 E0.08772
G1 X127.997 Y69.093 E0.11121
G1 X128.468 Y69.168 E0.13341
G1 X129.034 Y69.271 E0.1602
G1 X129.631 Y69.395 E0.18859
G1 X130.299 Y69.556 E0.22059
G1 X130.757 Y69.679 E0.24267
G1 X131.36 Y69.857 E0.27195
G1 X131.941 Y70.045 E0.30038
G1 X132.175 Y70.127 E0.31193
G1 X132.593 Y70.279 E0.33264
G1 X133.063 Y70.463 E0.35614
G1 X133.776 Y70.763 E0.39216
G1 X134.269 Y70.986 E0.41736
G1 X134.694 Y71.192 E0.43935
G1 X135.268 Y71.488 E0.46942
G1 X135.812 Y71.788 E0.49835
G1 X136.27 Y72.056 E0.52306
G1 X136.504 Y72.2 E0.53585
G1 X137.257 Y72.687 E0.57761
G1 X137.511 Y72.862 E0.59197
G1 X137.926 Y73.158 E0.61571
G1 X138.311 Y73.447 E0.63812
G1 X138.757 Y73.798 E0.66455
G1 X139.214 Y74.175 E0.69214
G1 X139.425 Y74.357 E0.70511
G1 X139.757 Y74.652 E0.72579
G1 X140.128 Y74.999 E0.74945
G1 X141.199 Y76.051 E0.81935
G1 X143.136 Y77.909 E0.94433
G1 X145.014 Y79.612 E1.06238
G1 X146.951 Y81.27 E1.1811
G1 X148.934 Y82.873 E1.29984
G1 X150.931 Y84.396 E1.41678
G1 X153.004 Y85.886 E1.53566
G1 X155.115 Y87.314 E1.65433
G1 X157.251 Y88.674 E1.77224
G1 X159.421 Y89.97 E1.88994
G1 X161.64 Y91.211 E2.00832
G1 X163.924 Y92.405 E2.12833
G1 X166.18 Y93.506 E2.24522
G1 X167.686 Y94.197 E2.32238
G1 X168.065 Y94.381 E2.34199
G1 X168.512 Y94.609 E2.36536
G1 X168.826 Y94.776 E2.38192
G1 X169.282 Y95.029 E2.4062
G1 X170.051 Y95.502 E2.44824
G1 X170.66 Y95.948 E2.48339
G1 X171.033 Y96.243 E2.50553
G1 X171.291 Y96.454 E2.52105
G1 X171.692 Y96.793 E2.54551
G1 X172.529 Y97.585 E2.59916
G1 X172.976 Y98.059 E2.6295
G1 X174.75 Y99.89 E2.74821
G1 X177.265 Y102.316 E2.91093
G1 X177.698 Y102.722 E2.93856
G1 X178.329 Y103.368 E2.98061
G1 X178.9 Y104.067 E3.02264
G1 X179.408 Y104.814 E3.06471
G1 X179.847 Y105.603 E3.10675
G1 X180.215 Y106.428 E3.14881
G1 X180.509 Y107.282 E3.19087
G1 X180.657 Y107.846 E3.21802
G1 X180.857 Y108.707 E3.25918
G1 X181.004 Y109.387 E3.29157
G1 X181.087 Y109.796 E3.31101
G1 X181.227 Y110.689 E3.3531
G1 X181.287 Y111.526 E3.39217
G1 X181.297 Y111.867 E3.40806
G1 X181.3 Y112.268 E3.42673
G1 X181.291 Y113.168 E3.46864
G1 X181.245 Y114.049 E3.50972
G1 X181.194 Y114.558 E3.53354
G1 X180.977 Y116.473 E3.62328
G1 X180.763 Y119.003 E3.74151
G1 X180.62 Y121.545 E3.86006
G1 X180.549 Y124.08 E3.97815
G1 X180.549 Y126.615 E4.09619
G1 X180.622 Y129.178 E4.21558
G1 X180.765 Y131.673 E4.33195
G1 X180.984 Y134.232 E4.45154
G1 X181.063 Y134.964 E4.48582
G1 X181.114 Y135.506 E4.51117
G1 X181.157 Y136.284 E4.54746
G1 X181.169 Y137.034 E4.58238
G1 X181.168 Y146.925 E5.04295
G1 X181.158 Y147.62 E5.07532
G1 X181.105 Y148.521 E5.11734
G1 X180.972 Y149.415 E5.15943
G1 X180.762 Y150.293 E5.20147
G1 X180.474 Y151.149 E5.24352
G1 X180.111 Y151.976 E5.28557
G1 X179.677 Y152.768 E5.32763
G1 X179.175 Y153.518 E5.36965
G1 X178.583 Y154.25 E5.41349
G1 X178.447 Y154.403 E5.42302
G1 X177.949 Y154.924 E5.45658
G1 X177.608 Y155.257 E5.47877
G1 X176.935 Y155.858 E5.52079
G1 X176.211 Y156.398 E5.56285
G1 X175.442 Y156.872 E5.60491
G1 X174.634 Y157.276 E5.64697
G1 X173.794 Y157.606 E5.689
G1 X172.928 Y157.861 E5.73103
G1 X172.042 Y158.039 E5.77311
G1 X170.843 Y158.153 E5.8292
G1 X170.306 Y158.172 E5.85422
G1 X169.945 Y158.178 E5.87103
G1 X148.029 Y158.177 E6.89153
G1 X147.331 Y158.167 E6.92404
G1 X146.198 Y158.088 E6.97692
G1 X145.395 Y157.985 E7.01462
G1 X144.104 Y157.801 E7.07534
G1 X141.581 Y157.512 E7.19359
G1 X139.027 Y157.292 E7.31295
G1 X136.534 Y157.149 E7.42923
G1 X133.965 Y157.075 E7.5489
G1 X131.431 Y157.073 E7.6669
G1 X128.899 Y157.143 E7.78484
G1 X126.358 Y157.285 E7.90335
G1 X123.823 Y157.498 E8.0218
G1 X122.979 Y157.589 E8.06133
G1 X122.37 Y157.636 E8.08977
G1 X121.883 Y157.659 E8.11247
G1 X121.402 Y157.67 E8.13488
G1 X117.453 Y157.67 E8.31876
G1 X114.847 Y157.707 E8.44012
G1 X112.282 Y157.816 E8.55966
G1 X109.775 Y157.994 E8.67669
G1 X107.234 Y158.245 E8.79559
G1 X104.726 Y158.566 E8.91332
G1 X102.221 Y158.96 E9.0314
G1 X99.734 Y159.422 E9.14919
G1 X97.213 Y159.965 E9.26927
G1 X94.788 Y160.56 E9.38554
G1 X92.322 Y161.237 E9.50461
G1 X89.895 Y161.98 E9.6228
G1 X87.493 Y162.791 E9.74085
G1 X85.102 Y163.673 E9.85952
G1 X83.585 Y164.284 E9.93567
G1 X82.849 Y164.571 E9.97246
G1 X81.994 Y164.862 E10.01451
G1 X81.116 Y165.075 E10.05658
G1 X80.223 Y165.211 E10.09864
G1 X79.443 Y165.264 E10.13505
G1 X78.866 Y165.277 E10.16192
G1 X78.345 Y165.277 E10.18618
G1 X77.647 Y165.267 E10.21869
G1 X76.745 Y165.214 E10.26076
G1 X75.674 Y165.046 E10.31124
G1 X75.102 Y164.925 E10.33846
G1 X72.575 Y164.418 E10.45848
G1 X70.062 Y163.988 E10.57719
G1 X68.785 Y163.805 E10.63726
G1 X68.073 Y163.693 E10.67082
G1 X67.188 Y163.513 E10.71288
G1 X66.299 Y163.248 E10.75607
G1 X66.104 Y163.18 E10.76569
G1 X65.47 Y162.935 E10.79734
G1 X65.155 Y162.801 E10.81328
G1 X64.341 Y162.411 E10.85531
G1 X63.338 Y161.798 E10.91004
G1 X62.509 Y161.223 E10.95702
G1 X61.679 Y160.633 E11.00444
G1 X59.571 Y159.226 E11.12245
G1 X57.399 Y157.861 E11.2419
G1 X56.018 Y157.045 E11.31659
G1 X55.597 Y156.788 E11.33956
G1 X54.848 Y156.284 E11.3816
G1 X54.238 Y155.796 E11.41797
G1 X53.499 Y155.154 E11.46356
G1 X52.645 Y154.388 E11.51698
G1 X50.712 Y152.75 E11.63495
G1 X48.733 Y151.167 E11.75296
G1 X46.713 Y149.644 E11.87076
G1 X44.63 Y148.163 E11.98977
G1 X42.524 Y146.755 E12.10773
G1 X40.352 Y145.389 E12.22721
G1 X38.483 Y144.281 E12.32838
G1 X37.335 Y143.618 E12.39011
G1 X36.573 Y143.132 E12.43219
G1 X35.858 Y142.581 E12.47422
G1 X35.194 Y141.969 E12.51627
G1 X34.587 Y141.3 E12.55834
G1 X34.041 Y140.581 E12.60037
G1 X33.561 Y139.815 E12.64247
G1 X33.151 Y139.011 E12.68449
G1 X32.814 Y138.173 E12.72655
G1 X32.551 Y137.309 E12.7686
G1 X32.367 Y136.425 E12.81065
G1 X32.239 Y135.099 E12.87268
G1 X32.224 Y134.46 E12.90244
G1 X32.225 Y132.826 E12.97853
G1 X32.235 Y132.128 E13.01103
G1 X32.288 Y131.226 E13.05311
G1 X32.42 Y130.333 E13.09514
G1 X32.631 Y129.455 E13.13719
G1 X32.919 Y128.599 E13.17924
G1 X33.281 Y127.772 E13.22128
G1 X33.716 Y126.98 E13.26335
G1 X34.218 Y126.229 E13.30542
G1 X34.598 Y125.744 E13.33411
G1 X34.733 Y125.582 E13.34393
G1 X35.083 Y125.184 E13.36861
G1 X35.331 Y124.916 E13.38561
G1 X35.824 Y124.419 E13.4182
G1 X37.605 Y122.742 E13.53211
G1 X39.425 Y120.933 E13.6516
G1 X41.172 Y119.093 E13.76975
G1 X42.862 Y117.212 E13.88749
G1 X44.53 Y115.246 E14.00755
G1 X46.08 Y113.308 E14.1231
G1 X47.623 Y111.264 E14.24235
G1 X49.115 Y109.17 E14.36208
G1 X50.502 Y107.099 E14.47814
G1 X51.878 Y104.914 E14.59838
G1 X53.151 Y102.76 E14.71488
G1 X54.395 Y100.51 E14.8346
G1 X55.56 Y98.257 E14.9527
G1 X56.66 Y95.973 E15.07075
G1 X57.685 Y93.681 E15.18766
G1 X58.666 Y91.309 E15.30718
G1 X59.592 Y88.885 E15.42801
G1 X60.402 Y86.555 E15.54287
G1 X61.094 Y84.39 E15.64871
G1 X61.319 Y83.656 E15.68446
G1 X61.621 Y82.805 E15.7265
G1 X61.998 Y81.985 E15.76853
G1 X62.446 Y81.199 E15.81066
G1 X62.908 Y80.471 E15.85081
G1 X63.982 Y78.838 E15.94182
G1 X64.376 Y78.258 E15.97447
G1 X64.916 Y77.535 E16.01648
G1 X65.518 Y76.861 E16.05857
G1 X66.177 Y76.244 E16.1006
G1 X66.888 Y75.687 E16.14266
G1 X67.646 Y75.196 E16.18471
G1 X68.444 Y74.773 E16.22677
G1 X69.276 Y74.423 E16.2688
G1 X70.136 Y74.148 E16.31084
G1 X71.017 Y73.949 E16.3529
G1 X71.912 Y73.83 E16.39494
G1 X72.575 Y73.793 E16.42586
G1 X73.218 Y73.778 E16.45581
G1 X73.59 Y73.776 E16.47313
G1 X74.351 Y73.786 E16.50857
G1 X75.207 Y73.833 E16.54849
G1 X76.643 Y73.973 E16.61567
G1 X78.138 Y74.111 E16.68558
G1 X80.676 Y74.284 E16.80403
G1 X83.243 Y74.387 E16.92366
G1 X85.741 Y74.416 E17.03999
G1 X88.309 Y74.373 E17.15958
G1 X90.839 Y74.26 E17.2775
G1 X93.411 Y74.071 E17.39759
G1 X95.62 Y73.848 E17.50097
G1 X95.992 Y73.817 E17.51835
G1 X96.417 Y73.79 E17.53818
G1 X99.059 Y73.602 E17.66152
G1 X101.562 Y73.352 E17.77865
G1 X104.085 Y73.028 E17.89709
G1 X106.6 Y72.632 E18.01565
G1 X109.112 Y72.164 E18.13463
G1 X111.564 Y71.634 E18.25144
G1 X114.068 Y71.02 E18.37149
G1 X116.503 Y70.348 E18.48911
G1 X118.545 Y69.733 E18.58842
G1 X118.954 Y69.619 E18.60819
G1 X119.446 Y69.493 E18.63184
G1 X119.923 Y69.383 E18.65463
G1 X120.458 Y69.273 E18.68006
G1 X120.825 Y69.204 E18.69745
G1 X121.308 Y69.123 E18.72026
G1 X121.62 Y69.076 E18.73495
G1 X122.039 Y69.019 E18.75464
G1 X122.524 Y68.965 E18.77736
G1 X123.105 Y68.918 E18.8045
G1 X124.033 Y68.867 E18.84778
G1 X124.571 Y68.856 E18.87284
G1 X125.191 Y68.86 E18.90171
G1 X125.62 Y68.872 E18.92169
G0 F6000 X125.631 Y68.472
G1 F1200 X126.128 Y68.498 E18.94487
G1 X127.034 Y68.571 E18.98719
G1 X127.55 Y68.63 E19.01137
G1 X128.05 Y68.697 E19.03486
G1 X128.54 Y68.774 E19.05796
G1 X129.106 Y68.877 E19.08475
G1 X129.717 Y69.004 E19.11381
G1 X130.394 Y69.167 E19.14623
G1 X130.87 Y69.296 E19.1692
G1 X131.473 Y69.474 E19.19847
G1 X132.069 Y69.666 E19.22763
G1 X132.729 Y69.903 E19.26028
G1 X133.218 Y70.095 E19.28474
G1 X133.931 Y70.395 E19.32076
G1 X134.443 Y70.626 E19.34692
G1 X134.868 Y70.832 E19.36891
G1 X135.17 Y70.984 E19.38465
G1 X135.705 Y71.27 E19.4129
G1 X136.254 Y71.581 E19.44228
G1 X136.718 Y71.862 E19.46754
G1 X137.479 Y72.354 E19.50974
G1 X137.743 Y72.536 E19.52467
G1 X138.158 Y72.832 E19.5484
G1 X138.559 Y73.132 E19.57172
G1 X139.005 Y73.483 E19.59815
G1 X139.472 Y73.869 E19.62636
G1 X139.691 Y74.058 E19.63983
G1 X140.023 Y74.353 E19.66051
G1 X140.408 Y74.713 E19.68506
G1 X141.538 Y75.823 E19.75881
G1 X143.399 Y77.608 E19.87889
G1 X145.277 Y79.311 E19.99694
G1 X147.199 Y80.956 E20.11474
G1 X149.183 Y82.56 E20.23353
G1 X151.162 Y84.068 E20.34939
G1 X153.256 Y85.574 E20.46949
G1 X155.307 Y86.962 E20.58481
G1 X157.465 Y88.336 E20.70394
G1 X159.642 Y89.635 E20.82198
G1 X161.841 Y90.865 E20.9393
G1 X164.077 Y92.035 E21.05681
G1 X166.395 Y93.165 E21.17689
G1 X167.852 Y93.834 E21.25155
G1 X168.246 Y94.024 E21.27191
G1 X168.693 Y94.252 E21.29528
G1 X169.02 Y94.426 E21.31253
G1 X169.476 Y94.679 E21.33681
G1 X170.261 Y95.16 E21.37968
G1 X170.908 Y95.634 E21.41703
G1 X171.281 Y95.929 E21.43917
G1 X171.549 Y96.148 E21.45529
G1 X171.95 Y96.487 E21.47974
G1 X172.82 Y97.311 E21.53553
G1 X173.236 Y97.752 E21.56376
G1 X175.048 Y99.621 E21.68498
G1 X177.533 Y102.02 E21.84581
G1 X177.971 Y102.43 E21.87375
G1 X178.615 Y103.088 E21.91662
G1 X179.199 Y103.8 E21.9595
G1 X179.72 Y104.559 E22.00237
G1 X180.173 Y105.361 E22.04526
G1 X180.554 Y106.199 E22.08812
G1 X180.861 Y107.066 E22.13095
G1 X181.047 Y107.755 E22.16418
G1 X181.248 Y108.622 E22.20562
G1 X181.396 Y109.308 E22.2383
G1 X181.479 Y109.717 E22.25773
G1 X181.623 Y110.626 E22.30059
G1 X181.686 Y111.514 E22.34204
G1 X181.696 Y111.855 E22.35793
G1 X181.7 Y112.272 E22.37734
G1 X181.691 Y113.172 E22.41925
G1 X181.643 Y114.087 E22.46192
G1 X181.591 Y114.603 E22.48607
G1 X181.374 Y116.515 E22.57567
G1 X181.162 Y119.024 E22.69292
G1 X181.02 Y121.544 E22.81044
G1 X180.949 Y124.091 E22.92909
G1 X180.949 Y126.603 E23.04606
G1 X181.022 Y129.144 E23.16443
G1 X181.167 Y131.687 E23.28303
G1 X181.381 Y134.194 E23.40019
G1 X181.461 Y134.927 E23.43453
G1 X181.512 Y135.469 E23.45988
G1 X181.557 Y136.277 E23.49756
G1 X181.569 Y137.034 E23.53281
G1 X181.568 Y146.931 E23.99366
G1 X181.558 Y147.626 E24.02602
G1 X181.505 Y148.545 E24.06889
G1 X181.372 Y149.456 E24.11176
G1 X181.161 Y150.352 E24.15462
G1 X180.872 Y151.226 E24.19748
G1 X180.509 Y152.072 E24.24035
G1 X180.074 Y152.883 E24.2832
G1 X179.57 Y153.654 E24.32609
G1 X178.882 Y154.515 E24.37741
G1 X178.746 Y154.668 E24.38694
G1 X178.229 Y155.21 E24.42182
G1 X177.888 Y155.543 E24.44402
G1 X177.202 Y156.157 E24.48689
G1 X176.465 Y156.709 E24.52976
G1 X175.683 Y157.195 E24.57263
G1 X174.862 Y157.612 E24.61551
G1 X174.008 Y157.955 E24.65837
G1 X173.127 Y158.224 E24.70126
G1 X172.227 Y158.414 E24.74409
G1 X170.857 Y158.552 E24.80821
G1 X170.32 Y158.571 E24.83323
G1 X169.945 Y158.578 E24.85069
G1 X148.023 Y158.577 E25.87147
G1 X147.325 Y158.567 E25.90398
G1 X146.148 Y158.484 E25.95892
G1 X145.339 Y158.381 E25.99689
G1 X144.043 Y158.196 E26.05785
G1 X141.537 Y157.909 E26.1753
G1 X139.038 Y157.694 E26.2921
G1 X136.498 Y157.549 E26.41056
G1 X133.954 Y157.475 E26.52907
G1 X131.442 Y157.473 E26.64604
G1 X128.896 Y157.543 E26.76464
G1 X126.413 Y157.682 E26.88044
G1 X123.812 Y157.901 E27.00198
G1 X123.021 Y157.986 E27.03903
G1 X122.389 Y158.035 E27.06854
G1 X121.902 Y158.058 E27.09124
G1 X121.402 Y158.07 E27.11453
G1 X117.459 Y158.07 E27.29814
G1 X114.834 Y158.107 E27.42038
G1 X112.326 Y158.214 E27.53727
G1 X109.806 Y158.392 E27.6549
G1 X107.291 Y158.641 E27.77258
G1 X104.802 Y158.96 E27.88943
G1 X102.25 Y159.361 E28.00972
G1 X99.819 Y159.813 E28.12486
G1 X97.32 Y160.351 E28.24389
G1 X94.884 Y160.948 E28.36067
G1 X92.418 Y161.626 E28.47976
G1 X90.025 Y162.359 E28.5963
G1 X87.611 Y163.173 E28.71493
G1 X85.252 Y164.043 E28.832
G1 X83.73 Y164.657 E28.90842
G1 X82.994 Y164.944 E28.94521
G1 X82.123 Y165.241 E28.98806
G1 X81.229 Y165.461 E29.03093
G1 X80.319 Y165.603 E29.07381
G1 X79.455 Y165.663 E29.11414
G1 X78.868 Y165.677 E29.14148
G1 X78.339 Y165.677 E29.16612
G1 X77.641 Y165.667 E29.19862
G1 X76.722 Y165.614 E29.24149
G1 X75.591 Y165.437 E29.29479
G1 X75.036 Y165.319 E29.32121
G1 X72.5 Y164.811 E29.44164
G1 X70.004 Y164.384 E29.55956
G1 X68.723 Y164.2 E29.61982
G1 X68.011 Y164.088 E29.65338
G1 X67.108 Y163.906 E29.69627
G1 X66.168 Y163.626 E29.74194
G1 X65.973 Y163.558 E29.75156
G1 X65.314 Y163.303 E29.78446
G1 X64.999 Y163.169 E29.8004
G1 X64.168 Y162.772 E29.84329
G1 X63.11 Y162.127 E29.90098
G1 X62.277 Y161.549 E29.94819
G1 X61.47 Y160.976 E29.99428
G1 X59.341 Y159.554 E30.1135
G1 X57.208 Y158.214 E30.23079
G1 X55.81 Y157.386 E30.30645
G1 X55.389 Y157.129 E30.32942
G1 X54.625 Y156.616 E30.37227
G1 X53.976 Y156.098 E30.41093
G1 X53.232 Y155.452 E30.45681
G1 X52.375 Y154.683 E30.51043
G1 X50.466 Y153.066 E30.62692
G1 X48.488 Y151.483 E30.74489
G1 X46.486 Y149.974 E30.86163
G1 X44.406 Y148.495 E30.98047
G1 X42.285 Y147.076 E31.0993
G1 X40.157 Y145.738 E31.21634
G1 X38.259 Y144.613 E31.31908
G1 X37.135 Y143.964 E31.37952
G1 X36.358 Y143.47 E31.42239
G1 X35.627 Y142.91 E31.46527
G1 X34.948 Y142.289 E31.50812
G1 X34.325 Y141.611 E31.55099
G1 X33.763 Y140.881 E31.59389
G1 X33.267 Y140.106 E31.63673
G1 X32.84 Y139.29 E31.67962
G1 X32.485 Y138.441 E31.72247
G1 X32.205 Y137.564 E31.76534
G1 X32.002 Y136.666 E31.80821
G1 X31.878 Y135.753 E31.85111
G1 X31.839 Y135.111 E31.88106
G1 X31.829 Y134.787 E31.89615
G1 X31.824 Y134.46 E31.91138
G1 X31.825 Y132.82 E31.98775
G1 X31.835 Y132.122 E32.02025
G1 X31.888 Y131.203 E32.06311
G1 X32.021 Y130.292 E32.10598
G1 X32.232 Y129.396 E32.14885
G1 X32.52 Y128.522 E32.1917
G1 X32.883 Y127.675 E32.23461
G1 X33.318 Y126.864 E32.27746
G1 X33.822 Y126.094 E32.32031
G1 X34.291 Y125.488 E32.35599
G1 X34.426 Y125.326 E32.36581
G1 X34.789 Y124.913 E32.39142
G1 X35.037 Y124.645 E32.40842
G1 X35.549 Y124.128 E32.4423
G1 X37.33 Y122.45 E32.55624
G1 X39.136 Y120.656 E32.67477
G1 X40.867 Y118.833 E32.79183
G1 X42.591 Y116.914 E32.91195
G1 X44.197 Y115.021 E33.02755
G1 X45.782 Y113.04 E33.14568
G1 X47.312 Y111.014 E33.2639
G1 X48.773 Y108.961 E33.38123
G1 X50.175 Y106.868 E33.49854
G1 X51.522 Y104.729 E33.61624
G1 X52.814 Y102.542 E33.73452
G1 X54.04 Y100.326 E33.85244
G1 X55.194 Y98.093 E33.96949
G1 X56.291 Y95.815 E34.08722
G1 X57.34 Y93.471 E34.2068
G1 X58.29 Y91.174 E34.32254
