;FLAVOR:Marlin
;TIME:1950
;Filament used: 1.602m
;Layer height: 0.28
;MINX:71.5
;MINY:96.5
;MINZ:0.28
;MAXX:163.5
;MAXY:138.5
;MAXZ:7.56
;Generated with Cura_SteamEngine 4.5.0
M140 S65
M105
M190 S65
M104 S215
M105
M109 S215
M82 ;absolute extrusion mode
; Ender 3 Custom Start G-code
G92 E0 ; Reset Extruder
G28 ; Home all axes
G1 Z2.0 F3000 ; Move Z Axis up little to prevent scratching of Heat Bed
G1 X0.1 Y20 Z0.3 F5000.0 ; Move to start position
G1 X0.1 Y200.0 Z0.3 F1500.0 E15 ; Draw the first line
G1 X0.4 Y200.0 Z0.3 F5000.0 ; Move to side a little
G1 X0.4 Y20 Z0.3 F1500.0 E30 ; Draw the second line
G92 E0 ; Reset Extruder
G1 Z2.0 F3000 ; Move Z Axis up little to prevent scratching of Heat Bed
G1 X5 Y20 Z0.3 F5000.0 ; Move over to prevent blob squish
G92 E0
G92 E0
G1 F2700 E-5
;LAYER_COUNT:27
;LAYER:0
M107
G0 F6000 X76.126 Y98.551 Z0.28
;TYPE:SKIRT
G1 F2700 E0
G1 F1200 X76.912 Y98.039 E0.04368
G1 X77.739 Y97.597 E0.08734
G1 X78.601 Y97.227 E0.13102
G1 X79.491 Y96.931 E0.1747
G1 X80.403 Y96.713 E0.21836
G1 X81.33 Y96.572 E0.26202
G1 X82.201 Y96.513 E0.30267
G1 X82.83 Y96.5 E0.33197
G1 X151.793 Y96.5 E3.54317
G1 X151.951 Y96.501 E3.55053
G1 X152.649 Y96.511 E3.58304
G1 X153.585 Y96.565 E3.62669
G1 X154.513 Y96.697 E3.67034
G1 X155.427 Y96.909 E3.71403
G1 X156.319 Y97.198 E3.75769
G1 X157.184 Y97.561 E3.80137
G1 X158.014 Y97.997 E3.84503
G1 X158.805 Y98.502 E3.88872
G1 X159.549 Y99.073 E3.9324
G1 X160.242 Y99.705 E3.97607
G1 X160.879 Y100.393 E4.01973
G1 X161.454 Y101.134 E4.0634
G1 X161.965 Y101.92 E4.10706
G1 X162.407 Y102.748 E4.15076
G1 X162.776 Y103.61 E4.19442
G1 X163.071 Y104.5 E4.23808
G1 X163.289 Y105.412 E4.28174
G1 X163.429 Y106.34 E4.32544
G1 X163.487 Y107.201 E4.36563
G1 X163.5 Y107.83 E4.39492
G1 X163.499 Y126.9 E5.2829
G1 X163.49 Y127.627 E5.31676
G1 X163.439 Y128.564 E5.36045
G1 X163.307 Y129.492 E5.4041
G1 X163.098 Y130.406 E5.44776
G1 X162.811 Y131.299 E5.49143
G1 X162.449 Y132.165 E5.53514
G1 X162.015 Y132.996 E5.57879
G1 X161.511 Y133.787 E5.62247
G1 X160.942 Y134.532 E5.66612
G1 X160.311 Y135.227 E5.70983
G1 X159.624 Y135.865 E5.75348
G1 X158.885 Y136.442 E5.79714
G1 X158.099 Y136.954 E5.84082
G1 X157.273 Y137.397 E5.88447
G1 X156.411 Y137.769 E5.92818
G1 X155.522 Y138.065 E5.97181
G1 X154.61 Y138.285 E6.0155
G1 X153.683 Y138.426 E6.05916
G1 X152.799 Y138.487 E6.10042
G1 X152.17 Y138.5 E6.12971
G1 X83.207 Y138.5 E9.34092
G1 X82.367 Y138.49 E9.38004
G1 X81.431 Y138.438 E9.42369
G1 X80.502 Y138.306 E9.46738
G1 X79.588 Y138.096 E9.51105
G1 X78.695 Y137.809 E9.55473
G1 X77.83 Y137.446 E9.59841
G1 X76.999 Y137.012 E9.64206
G1 X76.208 Y136.508 E9.68573
G1 X75.463 Y135.938 E9.72941
G1 X74.769 Y135.307 E9.77309
G1 X74.132 Y134.62 E9.81671
G1 X73.555 Y133.88 E9.86041
G1 X73.043 Y133.094 E9.90409
G1 X72.6 Y132.267 E9.94777
G1 X72.229 Y131.406 E9.99143
G1 X71.933 Y130.516 E10.0351
G1 X71.714 Y129.604 E10.07878
G1 X71.573 Y128.677 E10.12244
G1 X71.513 Y127.788 E10.16393
G1 X71.5 Y127.158 E10.19327
G1 X71.501 Y108.025 E11.08418
G1 X71.51 Y107.36 E11.11515
G1 X71.563 Y106.424 E11.1588
G1 X71.695 Y105.495 E11.2025
G1 X71.906 Y104.581 E11.24618
G1 X72.194 Y103.689 E11.28982
G1 X72.557 Y102.824 E11.3335
G1 X72.992 Y101.993 E11.37718
G1 X73.496 Y101.203 E11.42081
G1 X74.066 Y100.458 E11.46449
G1 X74.698 Y99.764 E11.5082
G1 X75.386 Y99.127 E11.55186
G1 X76.126 Y98.551 E11.59552
G0 F6000 X76.51 Y98.77
G1 F1200 X77.291 Y98.282 E11.63841
G1 X78.111 Y97.864 E11.68126
G1 X78.965 Y97.519 E11.72415
G1 X79.845 Y97.249 E11.76701
G1 X80.745 Y97.057 E11.80986
G1 X81.659 Y96.943 E11.85275
G1 X82.212 Y96.913 E11.87854
G1 X82.83 Y96.9 E11.90732
G1 X151.793 Y96.9 E15.11853
G1 X151.945 Y96.901 E15.12561
G1 X152.643 Y96.911 E15.15811
G1 X153.562 Y96.964 E15.20098
G1 X154.473 Y97.097 E15.24385
G1 X155.369 Y97.308 E15.28671
G1 X156.243 Y97.596 E15.32956
G1 X157.09 Y97.959 E15.37247
G1 X157.901 Y98.394 E15.41532
G1 X158.671 Y98.898 E15.45817
G1 X159.395 Y99.467 E15.50105
G1 X160.067 Y100.097 E15.54394
G1 X160.682 Y100.782 E15.58681
G1 X161.235 Y101.518 E15.62968
G1 X161.722 Y102.299 E15.67253
G1 X162.139 Y103.12 E15.71541
G1 X162.484 Y103.974 E15.7583
G1 X162.753 Y104.854 E15.80115
G1 X162.945 Y105.755 E15.84404
G1 X163.058 Y106.668 E15.88688
G1 X163.087 Y107.212 E15.91225
G1 X163.1 Y107.83 E15.94103
G1 X163.099 Y126.895 E16.82878
G1 X163.09 Y127.622 E16.86263
G1 X163.039 Y128.541 E16.90549
G1 X162.908 Y129.453 E16.94839
G1 X162.698 Y130.349 E16.99125
G1 X162.412 Y131.224 E17.03411
G1 X162.051 Y132.071 E17.07698
G1 X161.617 Y132.883 E17.11986
G1 X161.115 Y133.655 E17.16273
G1 X160.547 Y134.38 E17.20562
G1 X159.919 Y135.053 E17.24848
G1 X159.235 Y135.669 E17.29134
G1 X158.5 Y136.223 E17.3342
G1 X157.72 Y136.712 E17.37707
G1 X156.9 Y137.131 E17.41995
G1 X156.047 Y137.477 E17.46281
G1 X155.167 Y137.748 E17.50569
G1 X154.267 Y137.941 E17.54855
G1 X153.353 Y138.056 E17.59144
G1 X152.788 Y138.087 E17.61779
G1 X152.17 Y138.1 E17.64657
G1 X83.207 Y138.1 E20.85778
G1 X82.372 Y138.09 E20.89666
G1 X81.453 Y138.038 E20.93952
G1 X80.542 Y137.907 E20.98238
G1 X79.646 Y137.697 E21.02523
G1 X78.771 Y137.41 E21.06811
G1 X77.924 Y137.048 E21.111
G1 X77.112 Y136.614 E21.15388
G1 X76.341 Y136.112 E21.19672
G1 X75.616 Y135.544 E21.2396
G1 X74.943 Y134.915 E21.2825
G1 X74.328 Y134.231 E21.32533
G1 X73.774 Y133.496 E21.36818
G1 X73.286 Y132.715 E21.41107
G1 X72.867 Y131.895 E21.45394
G1 X72.521 Y131.042 E21.49681
G1 X72.251 Y130.162 E21.53967
G1 X72.058 Y129.261 E21.58257
G1 X71.944 Y128.348 E21.62542
G1 X71.913 Y127.777 E21.65205
G1 X71.9 Y127.158 E21.68088
G1 X71.901 Y108.031 E22.57151
G1 X71.91 Y107.366 E22.60248
G1 X71.962 Y106.446 E22.64538
G1 X72.094 Y105.535 E22.68825
G1 X72.305 Y104.639 E22.73111
G1 X72.592 Y103.764 E22.77399
G1 X72.955 Y102.918 E22.81686
G1 X73.389 Y102.106 E22.85973
G1 X73.892 Y101.335 E22.90259
G1 X74.461 Y100.611 E22.94547
G1 X75.089 Y99.939 E22.9883
G1 X75.774 Y99.323 E23.0312
G1 X76.51 Y98.77 E23.07406
G0 F6000 X76.894 Y98.994
G1 F1200 X77.669 Y98.531 E23.1161
G1 X78.482 Y98.138 E23.15815
G1 X79.327 Y97.818 E23.20022
G1 X80.196 Y97.575 E23.24224
G1 X81.084 Y97.409 E23.2843
G1 X82.223 Y97.313 E23.33753
G1 X82.83 Y97.3 E23.3658
G1 X151.793 Y97.3 E26.577
G1 X151.939 Y97.301 E26.5838
G1 X152.637 Y97.311 E26.61631
G1 X153.539 Y97.364 E26.65838
G1 X154.432 Y97.496 E26.70042
G1 X155.31 Y97.707 E26.74246
G1 X156.166 Y97.995 E26.78452
G1 X156.993 Y98.357 E26.82655
G1 X157.785 Y98.792 E26.86863
G1 X158.536 Y99.294 E26.91069
G1 X159.239 Y99.861 E26.95275
G1 X159.889 Y100.488 E26.9948
G1 X160.481 Y101.17 E27.03685
G1 X161.011 Y101.901 E27.07889
G1 X161.473 Y102.677 E27.12095
G1 X161.866 Y103.49 E27.163
G1 X162.184 Y104.335 E27.20504
G1 X162.427 Y105.205 E27.2471
G1 X162.592 Y106.093 E27.28915
G1 X162.687 Y107.223 E27.34196
G1 X162.7 Y107.83 E27.37023
G1 X162.699 Y126.89 E28.25774
G1 X162.69 Y127.617 E28.2916
G1 X162.639 Y128.519 E28.33366
G1 X162.508 Y129.413 E28.37574
G1 X162.299 Y130.291 E28.41776
G1 X162.013 Y131.148 E28.45983
G1 X161.652 Y131.976 E28.50189
G1 X161.22 Y132.768 E28.5439
G1 X160.719 Y133.52 E28.58598
G1 X160.153 Y134.224 E28.62804
G1 X159.528 Y134.875 E28.67006
G1 X158.847 Y135.469 E28.71214
G1 X158.116 Y136 E28.75421
G1 X157.342 Y136.464 E28.79623
G1 X156.529 Y136.858 E28.8383
G1 X155.685 Y137.178 E28.88033
G1 X154.815 Y137.423 E28.92242
G1 X153.928 Y137.589 E28.96443
G1 X152.777 Y137.687 E29.01822
G1 X152.17 Y137.7 E29.04649
G1 X83.207 Y137.7 E32.2577
G1 X82.377 Y137.69 E32.29635
G1 X81.476 Y137.639 E32.33837
G1 X80.582 Y137.507 E32.38045
G1 X79.704 Y137.298 E32.42248
G1 X78.847 Y137.011 E32.46456
G1 X78.02 Y136.65 E32.50658
G1 X77.227 Y136.217 E32.54865
G1 X76.476 Y135.716 E32.59069
G1 X75.772 Y135.15 E32.63275
G1 X75.121 Y134.524 E32.67481
G1 X74.528 Y133.843 E32.71685
G1 X73.998 Y133.112 E32.7589
G1 X73.534 Y132.337 E32.80096
G1 X73.14 Y131.524 E32.84302
G1 X72.82 Y130.68 E32.88505
G1 X72.576 Y129.81 E32.92713
G1 X72.41 Y128.922 E32.96919
G1 X72.313 Y127.767 E33.02317
G1 X72.3 Y127.158 E33.05153
G1 X72.301 Y108.036 E33.94193
G1 X72.31 Y107.371 E33.9729
G1 X72.362 Y106.469 E34.01497
G1 X72.494 Y105.576 E34.057
G1 X72.704 Y104.698 E34.09904
G1 X72.991 Y103.841 E34.14112
G1 X73.353 Y103.014 E34.18316
G1 X73.786 Y102.222 E34.22519
G1 X74.288 Y101.471 E34.26725
G1 X74.855 Y100.767 E34.30934
G1 X75.481 Y100.117 E34.35136
G1 X76.162 Y99.524 E34.39341
G1 X76.894 Y98.994 E34.43549
G1 F2700 E29.43549
;MESH:Nameplate_Kora.stl
G0 F6000 X82.914 Y106.835
G0 X82.914 Y107.914
G0 X83.1 Y126.9
;TYPE:WALL-INNER
G1 F2700 E34.43549
G1 F1200 X83.1 Y108.1 E35.3109
G1 X151.9 Y108.1 E38.51452
G1 X151.9 Y126.9 E39.38992
G1 X83.1 Y126.9 E42.59354
G0 F6000 X82.7 Y127.3
;TYPE:WALL-OUTER
G1 F1200 X82.7 Y107.7 E43.5062
G1 X152.3 Y107.7 E46.74706
G1 X152.3 Y127.3 E47.65972
G1 X82.7 Y127.3 E50.90059
G0 F6000 X82.97 Y127.03
G0 X83.21 Y126.51
G0 X83.49 Y126.51
;TYPE:SKIN
G1 F1200 X83.49 Y108.49 E51.73968
G1 X151.51 Y108.49 E54.90697
G1 X151.51 Y126.51 E55.74606
G1 X83.49 Y126.51 E58.91336
G0 F6000 X83.922 Y126.349
G1 F1200 X83.65 Y126.076 E58.9313
G0 F6000 X83.65 Y125.51
G1 F1200 X84.488 Y126.349 E58.98652
G0 F6000 X85.054 Y126.349
G1 F1200 X83.65 Y124.945 E59.07897
G0 F6000 X83.65 Y124.379
G1 F1200 X85.62 Y126.349 E59.2087
G0 F6000 X86.185 Y126.349
G1 F1200 X83.65 Y123.813 E59.37567
G0 F6000 X83.65 Y123.248
G1 F1200 X86.751 Y126.349 E59.57987
G0 F6000 X87.317 Y126.349
G1 F1200 X83.65 Y122.682 E59.82135
G0 F6000 X83.65 Y122.116
G1 F1200 X87.882 Y126.349 E60.10007
G0 F6000 X88.448 Y126.349
G1 F1200 X83.65 Y121.55 E60.41606
G0 F6000 X83.65 Y120.985
G1 F1200 X89.014 Y126.349 E60.76929
G0 F6000 X89.579 Y126.349
G1 F1200 X83.65 Y120.419 E61.15975
G0 F6000 X83.65 Y119.853
G1 F1200 X90.145 Y126.349 E61.58749
G0 F6000 X90.711 Y126.349
G1 F1200 X83.65 Y119.288 E62.05247
G0 F6000 X83.65 Y118.722
G1 F1200 X91.276 Y126.349 E62.55469
G0 F6000 X91.842 Y126.349
G1 F1200 X83.65 Y118.156 E63.09418
G0 F6000 X83.65 Y117.591
G1 F1200 X92.408 Y126.349 E63.67091
G0 F6000 X92.973 Y126.349
G1 F1200 X83.65 Y117.025 E64.28488
G0 F6000 X83.65 Y116.459
G1 F1200 X93.539 Y126.349 E64.93612
G0 F6000 X94.105 Y126.349
G1 F1200 X83.65 Y115.894 E65.6246
G0 F6000 X83.65 Y115.328
G1 F1200 X94.67 Y126.349 E66.35032
G0 F6000 X95.236 Y126.349
G1 F1200 X83.65 Y114.762 E67.11331
G0 F6000 X83.65 Y114.197
G1 F1200 X95.802 Y126.349 E67.91354
G0 F6000 X96.368 Y126.349
G1 F1200 X83.65 Y113.631 E68.75104
G0 F6000 X83.65 Y113.065
G1 F1200 X96.933 Y126.349 E69.62578
G0 F6000 X97.499 Y126.349
G1 F1200 X83.65 Y112.499 E70.5378
G0 F6000 X83.65 Y111.934
G1 F1200 X98.065 Y126.349 E71.48705
G0 F6000 X98.63 Y126.349
G1 F1200 X83.65 Y111.368 E72.47354
G0 F6000 X83.65 Y110.802
G1 F1200 X99.196 Y126.349 E73.4973
G0 F6000 X99.762 Y126.349
G1 F1200 X83.65 Y110.237 E74.55831
G0 F6000 X83.65 Y109.671
G1 F1200 X100.327 Y126.349 E75.65655
G0 F6000 X100.893 Y126.349
G1 F1200 X83.65 Y109.105 E76.79206
G0 F6000 X83.759 Y108.649
G1 F1200 X101.459 Y126.349 E77.95764
G0 F6000 X102.024 Y126.349
G1 F1200 X84.325 Y108.649 E79.12318
G0 F6000 X84.89 Y108.649
G1 F1200 X102.59 Y126.349 E80.28875
G0 F6000 X103.156 Y126.349
G1 F1200 X85.456 Y108.649 E81.45433
G0 F6000 X86.022 Y108.649
G1 F1200 X103.721 Y126.349 E82.61987
G0 F6000 X104.287 Y126.349
G1 F1200 X86.588 Y108.649 E83.78541
G0 F6000 X87.153 Y108.649
G1 F1200 X104.853 Y126.349 E84.95099
G0 F6000 X105.419 Y126.349
G1 F1200 X87.719 Y108.649 E86.11656
G0 F6000 X88.285 Y108.649
G1 F1200 X105.984 Y126.349 E87.28211
G0 F6000 X106.55 Y126.349
G1 F1200 X88.85 Y108.649 E88.44768
G0 F6000 X89.416 Y108.649
G1 F1200 X107.116 Y126.349 E89.61326
G0 F6000 X107.681 Y126.349
G1 F1200 X89.982 Y108.649 E90.7788
G0 F6000 X90.547 Y108.649
G1 F1200 X108.247 Y126.349 E91.94437
G0 F6000 X108.813 Y126.349
G1 F1200 X91.113 Y108.649 E93.10995
G0 F6000 X91.679 Y108.649
G1 F1200 X109.378 Y126.349 E94.27549
G0 F6000 X109.944 Y126.349
G1 F1200 X92.244 Y108.649 E95.44107
G0 F6000 X92.81 Y108.649
G1 F1200 X110.51 Y126.349 E96.60664
G0 F6000 X111.075 Y126.349
G1 F1200 X93.376 Y108.649 E97.77218
G0 F6000 X93.941 Y108.649
G1 F1200 X111.641 Y126.349 E98.93776
G0 F6000 X112.207 Y126.349
G1 F1200 X94.507 Y108.649 E100.10334
G0 F6000 X95.073 Y108.649
G1 F1200 X112.772 Y126.349 E101.26888
G0 F6000 X113.338 Y126.349
G1 F1200 X95.639 Y108.649 E102.43442
G0 F6000 X96.204 Y108.649
G1 F1200 X113.904 Y126.349 E103.6
G0 F6000 X114.469 Y126.349
G1 F1200 X96.77 Y108.649 E104.76554
G0 F6000 X97.336 Y108.649
G1 F1200 X115.035 Y126.349 E105.93108
G0 F6000 X115.601 Y126.349
G1 F1200 X97.901 Y108.649 E107.09665
G0 F6000 X98.467 Y108.649
G1 F1200 X116.167 Y126.349 E108.26223
G0 F6000 X116.732 Y126.349
G1 F1200 X99.033 Y108.649 E109.42777
G0 F6000 X99.598 Y108.649
G1 F1200 X117.298 Y126.349 E110.59335
G0 F6000 X117.864 Y126.349
G1 F1200 X100.164 Y108.649 E111.75892
G0 F6000 X100.73 Y108.649
G1 F1200 X118.429 Y126.349 E112.92447
G0 F6000 X118.995 Y126.349
G1 F1200 X101.295 Y108.649 E114.09004
G0 F6000 X101.861 Y108.649
G1 F1200 X119.561 Y126.349 E115.25562
G0 F6000 X120.126 Y126.349
G1 F1200 X102.427 Y108.649 E116.42116
G0 F6000 X102.992 Y108.649
G1 F1200 X120.692 Y126.349 E117.58673
G0 F6000 X121.258 Y126.349
G1 F1200 X103.558 Y108.649 E118.75231
G0 F6000 X104.124 Y108.649
G1 F1200 X121.823 Y126.349 E119.91785
G0 F6000 X122.389 Y126.349
G1 F1200 X104.689 Y108.649 E121.08343
G0 F6000 X105.255 Y108.649
G1 F1200 X122.955 Y126.349 E122.249
G0 F6000 X123.52 Y126.349
G1 F1200 X105.821 Y108.649 E123.41454
G0 F6000 X106.387 Y108.649
G1 F1200 X124.086 Y126.349 E124.58009
G0 F6000 X124.652 Y126.349
G1 F1200 X106.952 Y108.649 E125.74566
G0 F6000 X107.518 Y108.649
G1 F1200 X125.218 Y126.349 E126.91124
G0 F6000 X125.783 Y126.349
G1 F1200 X108.084 Y108.649 E128.07678
G0 F6000 X108.649 Y108.649
G1 F1200 X126.349 Y126.349 E129.24235
G0 F6000 X126.915 Y126.349
G1 F1200 X109.215 Y108.649 E130.40793
G0 F6000 X109.781 Y108.649
G1 F1200 X127.48 Y126.349 E131.57347
G0 F6000 X128.046 Y126.349
G1 F1200 X110.346 Y108.649 E132.73905
G0 F6000 X110.912 Y108.649
G1 F1200 X128.612 Y126.349 E133.90462
G0 F6000 X129.177 Y126.349
G1 F1200 X111.478 Y108.649 E135.07016
G0 F6000 X112.043 Y108.649
G1 F1200 X129.743 Y126.349 E136.23574
G0 F6000 X130.309 Y126.349
G1 F1200 X112.609 Y108.649 E137.40131
G0 F6000 X113.175 Y108.649
G1 F1200 X130.874 Y126.349 E138.56686
G0 F6000 X131.44 Y126.349
G1 F1200 X113.74 Y108.649 E139.73243
G0 F6000 X114.306 Y108.649
G1 F1200 X132.006 Y126.349 E140.89801
G0 F6000 X132.571 Y126.349
G1 F1200 X114.872 Y108.649 E142.06355
G0 F6000 X115.438 Y108.649
G1 F1200 X133.137 Y126.349 E143.22909
G0 F6000 X133.703 Y126.349
G1 F1200 X116.003 Y108.649 E144.39467
G0 F6000 X116.569 Y108.649
G1 F1200 X134.268 Y126.349 E145.56021
G0 F6000 X134.834 Y126.349
G1 F1200 X117.135 Y108.649 E146.72575
G0 F6000 X117.7 Y108.649
G1 F1200 X135.4 Y126.349 E147.89133
G0 F6000 X135.966 Y126.349
G1 F1200 X118.266 Y108.649 E149.0569
G0 F6000 X118.832 Y108.649
G1 F1200 X136.531 Y126.349 E150.22244
G0 F6000 X137.097 Y126.349
G1 F1200 X119.397 Y108.649 E151.38802
G0 F6000 X119.963 Y108.649
G1 F1200 X137.663 Y126.349 E152.55359
G0 F6000 X138.228 Y126.349
G1 F1200 X120.529 Y108.649 E153.71914
G0 F6000 X121.094 Y108.649
G1 F1200 X138.794 Y126.349 E154.88471
G0 F6000 X139.36 Y126.349
G1 F1200 X121.66 Y108.649 E156.05029
G0 F6000 X122.226 Y108.649
G1 F1200 X139.925 Y126.349 E157.21583
G0 F6000 X140.491 Y126.349
G1 F1200 X122.791 Y108.649 E158.38141
G0 F6000 X123.357 Y108.649
G1 F1200 X141.057 Y126.349 E159.54698
G0 F6000 X141.622 Y126.349
G1 F1200 X123.923 Y108.649 E160.71252
G0 F6000 X124.488 Y108.649
G1 F1200 X142.188 Y126.349 E161.8781
G0 F6000 X142.754 Y126.349
G1 F1200 X125.054 Y108.649 E163.04367
G0 F6000 X125.62 Y108.649
G1 F1200 X143.319 Y126.349 E164.20922
G0 F6000 X143.885 Y126.349
G1 F1200 X126.186 Y108.649 E165.37476
G0 F6000 X126.751 Y108.649
G1 F1200 X144.451 Y126.349 E166.54033
G0 F6000 X145.016 Y126.349
G1 F1200 X127.317 Y108.649 E167.70588
G0 F6000 X127.883 Y108.649
G1 F1200 X145.582 Y126.349 E168.87142
G0 F6000 X146.148 Y126.349
G1 F1200 X128.448 Y108.649 E170.03699
G0 F6000 X129.014 Y108.649
G1 F1200 X146.714 Y126.349 E171.20257
