;FLAVOR:Marlin
;TIME:3646
;Filament used: 2.4918m
;Layer height: 0.24
;MINX:103.211
;MINY:100.775
;MINZ:0.28
;MAXX:131.8
;MAXY:136.855
;MAXZ:39.4
;Generated with Cura_SteamEngine 4.6.1
M140 S65
M105
M190 S65
M104 S215
M105
M109 S215
M82 ;absolute extrusion mode
; Ender 3 Custom Start G-code
G92 E0 ; Reset Extruder
G28 ; Home all axes
G1 Z2.0 F3000 ; Move Z Axis up little to prevent scratching of Heat Bed
G1 X0.1 Y20 Z0.3 F5000.0 ; Move to start position
G1 X0.1 Y200.0 Z0.3 F1500.0 E15 ; Draw the first line
G1 X0.4 Y200.0 Z0.3 F5000.0 ; Move to side a little
G1 X0.4 Y20 Z0.3 F1500.0 E30 ; Draw the second line
G92 E0 ; Reset Extruder
G1 Z2.0 F3000 ; Move Z Axis up little to prevent scratching of Heat Bed
G1 X5 Y20 Z0.3 F5000.0 ; Move over to prevent blob squish
G92 E0
G92 E0
G1 F2700 E-5
;LAYER_COUNT:164
;LAYER:0
M107
G0 F6000 X107.9 Y105.319 Z0.28
;TYPE:SKIRT
G1 F2700 E0
G1 F1200 X108.005 Y105.242 E0.00606
G1 X108.125 Y105.242 E0.01165
G1 X108.23 Y105.319 E0.01771
G1 X108.268 Y105.436 E0.02344
G1 X108.23 Y105.553 E0.02917
G1 X108.125 Y105.63 E0.03523
G1 X108.005 Y105.63 E0.04082
G1 X107.9 Y105.553 E0.04688
G1 X107.862 Y105.436 E0.05261
G1 X107.9 Y105.319 E0.05834
G0 F6000 X107.559 Y105.072
G1 F1200 X107.874 Y104.842 E0.0765
G1 X108.256 Y104.842 E0.09429
G1 X108.571 Y105.072 E0.11245
G1 X108.69 Y105.436 E0.13028
G1 X108.571 Y105.8 E0.14811
G1 X108.256 Y106.03 E0.16628
G1 X107.874 Y106.03 E0.18406
G1 X107.559 Y105.8 E0.20223
G1 X107.44 Y105.436 E0.22006
G1 X107.559 Y105.072 E0.23789
G0 F6000 X107.219 Y104.824
G1 F1200 X107.744 Y104.442 E0.26812
G1 X108.386 Y104.442 E0.29802
G1 X108.911 Y104.824 E0.32825
G1 X109.11 Y105.436 E0.35822
G1 X108.911 Y106.048 E0.38818
G1 X108.386 Y106.43 E0.41841
G1 X107.744 Y106.43 E0.44831
G1 X107.219 Y106.048 E0.47854
G1 X107.02 Y105.436 E0.50851
G1 X107.219 Y104.824 E0.53847
G0 F6000 X106.878 Y104.577
G1 F1200 X107.614 Y104.042 E0.58084
G1 X108.516 Y104.042 E0.62284
G1 X109.252 Y104.577 E0.66521
G1 X109.531 Y105.436 E0.70727
G1 X109.252 Y106.295 E0.74932
G1 X108.516 Y106.83 E0.79169
G1 X107.614 Y106.83 E0.83369
G1 X106.878 Y106.295 E0.87606
G1 X106.599 Y105.436 E0.91812
G1 X106.878 Y104.577 E0.96017
G0 F6000 X106.538 Y104.331
G1 F1200 X107.485 Y103.642 E1.0147
G1 X108.645 Y103.642 E1.06872
G1 X109.592 Y104.331 E1.12325
G1 X109.951 Y105.436 E1.17735
G1 X109.592 Y106.541 E1.23145
G1 X108.645 Y107.23 E1.28599
G1 X107.485 Y107.23 E1.34
G1 X106.538 Y106.541 E1.39453
G1 X106.179 Y105.436 E1.44863
G1 X106.538 Y104.331 E1.50273
G0 F6000 X106.199 Y104.082
G1 F1200 X107.353 Y103.242 E1.5692
G1 X108.777 Y103.242 E1.6355
G1 X109.931 Y104.082 E1.70197
G1 X110.372 Y105.436 E1.76828
G1 X109.931 Y106.79 E1.83458
G1 X108.777 Y107.63 E1.90105
G1 X107.353 Y107.63 E1.96735
G1 X106.199 Y106.79 E2.03382
G1 X105.758 Y105.436 E2.10012
G1 X106.199 Y104.082 E2.16643
G0 F6000 X105.857 Y103.836
G1 F1200 X107.224 Y102.842 E2.24513
G1 X108.906 Y102.842 E2.32346
G1 X110.273 Y103.836 E2.40216
G1 X110.793 Y105.436 E2.4805
G1 X110.273 Y107.036 E2.55883
G1 X108.906 Y108.03 E2.63754
G1 X107.224 Y108.03 E2.71586
G1 X105.857 Y107.036 E2.79456
G1 X105.337 Y105.436 E2.8729
G1 X105.857 Y103.836 E2.95124
G0 F6000 X105.517 Y103.589
G1 F1200 X107.094 Y102.442 E3.04204
G1 X109.036 Y102.442 E3.13247
G1 X110.613 Y103.589 E3.22327
G1 X111.213 Y105.436 E3.31369
G1 X110.613 Y107.283 E3.40412
G1 X109.036 Y108.43 E3.49492
G1 X107.094 Y108.43 E3.58535
G1 X105.517 Y107.283 E3.67615
G1 X104.917 Y105.436 E3.76658
G1 X105.517 Y103.589 E3.85701
G0 F6000 X105.178 Y103.341
G1 F1200 X106.963 Y102.042 E3.9598
G1 X109.167 Y102.042 E4.06243
G1 X110.952 Y103.341 E4.16523
G1 X111.633 Y105.436 E4.2678
G1 X110.952 Y107.531 E4.37038
G1 X109.167 Y108.83 E4.47318
G1 X106.963 Y108.83 E4.5758
G1 X105.178 Y107.531 E4.6786
G1 X104.497 Y105.436 E4.78118
G1 X105.178 Y103.341 E4.88375
G0 F6000 X104.837 Y103.095
G1 F1200 X106.834 Y101.642 E4.99875
G1 X109.296 Y101.642 E5.11339
G1 X111.293 Y103.095 E5.22839
G1 X112.055 Y105.436 E5.34303
G1 X111.293 Y107.777 E5.45766
G1 X109.296 Y109.23 E5.57266
G1 X106.834 Y109.23 E5.6873
G1 X104.837 Y107.777 E5.8023
G1 X104.075 Y105.436 E5.91694
G1 X104.837 Y103.095 E6.03157
G1 F2700 E1.03157
G0 F6000 X123.267 Y107.841
G0 X123.531 Y107.989
G0 X128.291 Y113.556
G0 X128.351 Y113.719
G0 X128.741 Y117.615
G1 F2700 E6.03157
G1 F1200 X129.188 Y117.941 E6.05733
G1 X129.963 Y120.319 E6.17379
G1 X129.188 Y122.697 E6.29026
G1 X127.161 Y124.173 E6.40701
G1 X126.399 Y124.173 E6.4425
G1 X128.484 Y121.719 E6.59244
G1 X128.52 Y121.659 E6.5957
G1 X128.734 Y121.073 E6.62475
G1 X128.746 Y121.004 E6.62801
G1 X128.741 Y117.615 E6.78581
G0 F6000 X129.143 Y119.093
G1 F1200 X129.542 Y120.319 E6.84585
G1 X128.848 Y122.45 E6.95021
G1 X127.641 Y123.329 E7.01973
G1 X128.789 Y121.978 E7.10229
G1 X128.896 Y121.796 E7.11212
G1 X129.11 Y121.21 E7.14117
G1 X129.146 Y121.003 E7.15095
G1 X129.143 Y119.093 E7.23989
G1 F2700 E2.23989
G0 F6000 X128.306 Y121.41
G0 X123.555 Y127.004
G0 X123.406 Y127.088
G0 X116.739 Y129.107
G1 F2700 E7.23989
G1 F1200 X119.253 Y129.107 E7.35695
G1 X121.291 Y130.591 E7.47434
G1 X122.07 Y132.981 E7.59139
G1 X121.291 Y135.371 E7.70844
G1 X119.253 Y136.855 E7.82583
G1 X116.739 Y136.855 E7.9429
G1 X114.701 Y135.371 E8.06029
G1 X113.922 Y132.981 E8.17734
G1 X114.701 Y130.591 E8.29439
G1 X116.739 Y129.107 E8.41178
G0 F6000 X116.868 Y129.507
G1 F1200 X119.124 Y129.507 E8.51683
G1 X120.951 Y130.838 E8.62208
G1 X121.649 Y132.981 E8.72703
G1 X120.951 Y135.124 E8.83198
G1 X119.124 Y136.455 E8.93723
G1 X116.868 Y136.455 E9.04228
G1 X115.041 Y135.124 E9.14753
G1 X114.343 Y132.981 E9.25248
G1 X115.041 Y130.838 E9.35743
G1 X116.868 Y129.507 E9.46268
G0 F6000 X116.998 Y129.907
G1 F1200 X118.994 Y129.907 E9.55562
G1 X120.61 Y131.084 E9.64871
G1 X121.228 Y132.981 E9.74162
G1 X120.61 Y134.878 E9.83452
G1 X118.994 Y136.055 E9.92761
G1 X116.998 Y136.055 E10.02055
G1 X115.382 Y134.878 E10.11364
G1 X114.764 Y132.981 E10.20654
G1 X115.382 Y131.084 E10.29944
G1 X116.998 Y129.907 E10.39254
G0 F6000 X117.129 Y130.307
G1 F1200 X118.863 Y130.307 E10.47328
G1 X120.27 Y131.332 E10.55434
G1 X120.808 Y132.981 E10.6351
G1 X120.27 Y134.63 E10.71587
G1 X118.863 Y135.655 E10.79693
G1 X117.129 Y135.655 E10.87767
G1 X115.722 Y134.63 E10.95873
G1 X115.184 Y132.981 E11.0395
G1 X115.722 Y131.332 E11.12026
G1 X117.129 Y130.307 E11.20132
G0 F6000 X117.259 Y130.707
G1 F1200 X118.733 Y130.707 E11.26996
G1 X119.931 Y131.579 E11.33895
G1 X120.387 Y132.981 E11.4076
G1 X119.931 Y134.383 E11.47625
G1 X118.733 Y135.255 E11.54525
G1 X117.259 Y135.255 E11.61388
G1 X116.061 Y134.383 E11.68288
G1 X115.605 Y132.981 E11.75153
G1 X116.061 Y131.579 E11.82018
G1 X117.259 Y130.707 E11.88917
G0 F6000 X117.389 Y131.107
G1 F1200 X118.603 Y131.107 E11.9457
G1 X119.59 Y131.825 E12.00254
G1 X119.966 Y132.981 E12.05914
G1 X119.59 Y134.137 E12.11574
G1 X118.603 Y134.855 E12.17258
G1 X117.389 Y134.855 E12.22911
G1 X116.402 Y134.137 E12.28594
G1 X116.026 Y132.981 E12.34254
G1 X116.402 Y131.825 E12.39915
G1 X117.389 Y131.107 E12.45598
G0 F6000 X117.52 Y131.507
G1 F1200 X118.472 Y131.507 E12.50031
G1 X119.25 Y132.074 E12.54514
G1 X119.546 Y132.981 E12.58956
G1 X119.25 Y133.888 E12.63399
G1 X118.472 Y134.455 E12.67882
G1 X117.52 Y134.455 E12.72314
G1 X116.742 Y133.888 E12.76797
G1 X116.446 Y132.981 E12.8124
G1 X116.742 Y132.074 E12.85682
G1 X117.52 Y131.507 E12.90165
G0 F6000 X117.649 Y131.907
G1 F1200 X118.343 Y131.907 E12.93397
G1 X118.91 Y132.32 E12.96663
G1 X119.125 Y132.981 E12.99899
G1 X118.91 Y133.642 E13.03136
G1 X118.343 Y134.055 E13.06402
G1 X117.649 Y134.055 E13.09634
G1 X117.082 Y133.642 E13.129
G1 X116.867 Y132.981 E13.16137
G1 X117.082 Y132.32 E13.19374
G1 X117.649 Y131.907 E13.2264
G0 F6000 X117.78 Y132.307
G1 F1200 X118.212 Y132.307 E13.24651
G1 X118.569 Y132.567 E13.26708
G1 X118.704 Y132.981 E13.28736
G1 X118.569 Y133.395 E13.30763
G1 X118.212 Y133.655 E13.3282
G1 X117.78 Y133.655 E13.34831
G1 X117.423 Y133.395 E13.36888
G1 X117.288 Y132.981 E13.38915
G1 X117.423 Y132.567 E13.40943
G1 X117.78 Y132.307 E13.43
G0 F6000 X117.91 Y132.707
G1 F1200 X118.082 Y132.707 E13.438
G1 X118.229 Y132.815 E13.4465
G1 X118.284 Y132.981 E13.45464
G1 X118.229 Y133.147 E13.46278
G1 X118.082 Y133.255 E13.47128
G1 X117.91 Y133.255 E13.47929
G1 X117.763 Y133.147 E13.48778
G1 X117.708 Y132.981 E13.49592
G1 X117.763 Y132.815 E13.50407
G1 X117.91 Y132.707 E13.51256
G1 F2700 E8.51256
;MESH:rosca_final.stl
G0 F6000 X117.132 Y128.224
G0 X116.95 Y127.175
G0 X116.104 Y127.12
;TYPE:WALL-INNER
G1 F2700 E13.51256
G1 F1200 X110.222 Y123.785 E13.82741
G1 X107.891 Y117.514 E14.13894
G1 X110.201 Y111.238 E14.45034
G1 X116.074 Y107.886 E14.76522
G1 X122.765 Y109.037 E15.08136
G1 X127.135 Y114.149 E15.39451
G1 X127.146 Y120.823 E15.70528
G1 X122.783 Y125.961 E16.01915
G1 X116.104 Y127.12 E16.3348
G0 F6000 X116.031 Y127.538
;TYPE:WALL-OUTER
G1 F1200 X109.898 Y124.061 E16.66308
G1 X107.465 Y117.515 E16.98826
G1 X109.876 Y110.963 E17.31335
G1 X116.001 Y107.468 E17.64172
G1 X122.975 Y108.667 E17.97123
G1 X127.535 Y114.001 E18.29799
G1 X127.546 Y120.97 E18.6225
G1 X122.994 Y126.33 E18.94994
G1 X116.031 Y127.538 E19.27901
G0 F6000 X116.106 Y127.105
G0 X116.176 Y126.712
;TYPE:SKIN
G1 F1200 X110.538 Y123.515 E19.58081
G1 X108.306 Y117.514 E19.87894
G1 X110.518 Y111.507 E20.17701
G1 X116.146 Y108.294 E20.47878
G1 X122.561 Y109.397 E20.78187
G1 X126.745 Y114.292 E21.08172
G1 X126.756 Y120.681 E21.37922
G1 X122.577 Y125.601 E21.6798
G1 X116.176 Y126.712 E21.98231
G0 F6000 X116.223 Y126.987
G0 X110.362 Y123.664
G0 X110.083 Y123.093
G0 X110.496 Y122.941
G1 F1200 X111.337 Y123.782 E22.0377
G0 F6000 X111.119 Y124.165
G0 X112.426 Y124.906
G0 X112.644 Y124.523
G1 F1200 X110.16 Y122.04 E22.20124
G0 F6000 X109.824 Y121.138
G1 F1200 X113.95 Y125.264 E22.47294
G0 F6000 X113.732 Y125.647
G0 X115.04 Y126.388
G0 X115.258 Y126.006
G1 F1200 X109.489 Y120.237 E22.85284
G0 F6000 X109.154 Y119.336
G1 F1200 X116.338 Y126.52 E23.32592
G0 F6000 X116.82 Y126.437
G1 F1200 X108.819 Y118.436 E23.8528
G0 F6000 X108.484 Y117.535
G1 F1200 X117.301 Y126.352 E24.43341
G0 F6000 X117.784 Y126.269
G1 F1200 X108.624 Y117.109 E25.03662
G0 F6000 X108.777 Y116.696
G1 F1200 X118.266 Y126.186 E25.66151
G0 F6000 X118.747 Y126.101
G1 F1200 X108.929 Y116.283 E26.30805
G0 F6000 X109.081 Y115.87
G1 F1200 X119.23 Y126.018 E26.97634
G0 F6000 X119.712 Y125.935
G1 F1200 X109.233 Y115.456 E27.6664
G0 F6000 X109.385 Y115.042
G1 F1200 X120.194 Y125.851 E28.37819
G0 F6000 X120.676 Y125.767
G1 F1200 X109.538 Y114.629 E29.11165
G0 F6000 X109.69 Y114.216
G1 F1200 X121.158 Y125.683 E29.86681
G0 F6000 X121.64 Y125.6
G1 F1200 X109.842 Y113.802 E30.64372
G0 F6000 X109.995 Y113.389
G1 F1200 X122.122 Y125.516 E31.44231
G0 F6000 X122.553 Y125.382
G1 F1200 X110.147 Y112.975 E32.2593
G0 F6000 X110.299 Y112.562
G1 F1200 X122.813 Y125.075 E33.08333
G0 F6000 X123.073 Y124.77
G1 F1200 X110.452 Y112.149 E33.91445
G0 F6000 X110.604 Y111.735
G1 F1200 X123.332 Y124.464 E34.75264
G0 F6000 X123.593 Y124.158
G1 F1200 X110.904 Y111.47 E35.5882
G0 F6000 X111.264 Y111.264
G1 F1200 X123.852 Y123.852 E36.41714
G0 F6000 X124.112 Y123.547
G1 F1200 X111.625 Y111.059 E37.23946
G0 F6000 X111.985 Y110.853
G1 F1200 X124.372 Y123.24 E38.05517
G0 F6000 X124.631 Y122.934
G1 F1200 X112.345 Y110.648 E38.86422
G0 F6000 X112.705 Y110.442
G1 F1200 X124.892 Y122.629 E39.66676
G0 F6000 X125.151 Y122.323
G1 F1200 X113.065 Y110.237 E40.46264
G0 F6000 X113.425 Y110.031
G1 F1200 X125.411 Y122.017 E41.25194
G0 F6000 X125.671 Y121.711
G1 F1200 X113.785 Y109.825 E42.03465
G0 F6000 X114.145 Y109.619
G1 F1200 X125.931 Y121.405 E42.81078
G0 F6000 X126.19 Y121.099
G1 F1200 X114.506 Y109.414 E43.58023
G0 F6000 X114.865 Y109.209
G1 F1200 X126.451 Y120.794 E44.34315
G0 F6000 X126.594 Y120.372
G1 F1200 X115.225 Y109.003 E45.09182
G0 F6000 X115.586 Y108.798
G1 F1200 X126.594 Y119.805 E45.81668
G0 F6000 X126.592 Y119.238
G1 F1200 X115.946 Y108.592 E46.51774
G0 F6000 X116.423 Y108.504
G1 F1200 X126.591 Y118.672 E47.18732
G0 F6000 X126.59 Y118.105
G1 F1200 X117.106 Y108.621 E47.81186
G0 F6000 X117.789 Y108.738
G1 F1200 X126.589 Y117.538 E48.39135
G0 F6000 X126.589 Y116.972
G1 F1200 X118.472 Y108.856 E48.92584
G0 F6000 X119.156 Y108.974
G1 F1200 X126.587 Y116.405 E49.41518
G0 F6000 X126.586 Y115.838
G1 F1200 X119.839 Y109.091 E49.85948
G0 F6000 X120.522 Y109.209
M104 S210
G1 F1200 X126.586 Y115.272 E50.25877
G0 F6000 X126.584 Y114.705
G1 F1200 X121.205 Y109.326 E50.61299
G0 F6000 X121.889 Y109.444
G1 F1200 X125.337 Y112.892 E50.84005
G0 F6000 X125.603 Y112.664
G1 F2700 E45.84005
;MESH:NONMESH
G0 F300 X125.603 Y112.664 Z0.52
G0 F6000 X125.672 Y112.608
G0 X122.674 Y109.197
G0 X116.106 Y108.067
G0 X110.054 Y111.113
G0 X109.517 Y110.173
G0 X104.876 Y103.083
;TIME_ELAPSED:67.816140
;LAYER:1
M140 S60
M106 S85
;TYPE:SUPPORT
G1 F2700 E50.84005
G1 F1350 X106.862 Y101.638 E50.93807
G1 X109.312 Y101.638 E51.03586
G1 X111.298 Y103.083 E51.13389
G1 X112.055 Y105.41 E51.23155
G1 X111.177 Y107.875 E51.33599
G1 X111.129 Y108.022 E51.34216
G1 X109.383 Y109.294 E51.42838
G1 X107.194 Y109.294 E51.51575
G1 X106.887 Y109.204 E51.52852
G1 X104.876 Y107.741 E51.62777
G1 X104.118 Y105.412 E51.72553
G1 X104.876 Y103.083 E51.82328
G1 F2700 E46.82328
G0 F7500 X104.367 Y102.384
G0 X106.581 Y100.775
G0 X109.593 Y100.775
G0 X123.553 Y107.996
G0 X128.302 Y113.569
G0 X128.389 Y113.803
G0 X128.391 Y116.604
G0 X128.746 Y117.644
G1 F2700 E51.82328
G1 F1350 X129.171 Y117.953 E51.84425
G1 X129.942 Y120.319 E51.94357
G1 X129.171 Y122.685 E52.04289
G1 X127.154 Y124.153 E52.14246
G1 X126.424 Y124.153 E52.1716
G1 X128.505 Y121.711 E52.29965
G1 X128.746 Y121.058 E52.32743
G1 X128.746 Y117.644 E52.46369
G1 F2700 E47.46369
G0 F7500 X129.255 Y116.944
G0 X129.905 Y117.42
G0 X130.849 Y120.319
G0 X129.905 Y123.218
G0 X127.435 Y125.016
G0 X123.291 Y127.154
G0 X119.789 Y128.42
G0 X119.281 Y129.12
G1 F2700 E52.46369
G1 F1350 X121.308 Y130.596 E52.56377
G1 X122.083 Y132.974 E52.66359
G1 X121.308 Y135.352 E52.76342
G1 X119.281 Y136.828 E52.8635
G1 X116.779 Y136.828 E52.96336
G1 X114.752 Y135.352 E53.06343
G1 X113.977 Y132.974 E53.16326
G1 X114.752 Y130.596 E53.26308
G1 X116.779 Y129.12 E53.36316
G1 X119.281 Y129.12 E53.46302
G1 F2700 E48.46302
;MESH:rosca_final.stl
G0 F7500 X118.883 Y126.819
G0 X116.089 Y127.121
;TYPE:WALL-INNER
G1 F2700 E53.46302
G1 F1350 X110.205 Y123.776 E53.73316
G1 X107.886 Y117.499 E54.00024
G1 X110.205 Y111.224 E54.26724
G1 X116.09 Y107.878 E54.53744
G1 X122.783 Y109.039 E54.80856
G1 X127.146 Y114.16 E55.07707
G1 X127.146 Y120.84 E55.34368
G1 X122.784 Y125.96 E55.61214
G1 X116.089 Y127.121 E55.88334
G0 F7500 X116.015 Y127.54
;TYPE:WALL-OUTER
G1 F1350 X109.881 Y124.052 E56.16497
G1 X107.46 Y117.499 E56.4438
G1 X109.881 Y110.948 E56.72255
G1 X116.016 Y107.459 E57.00423
G1 X122.993 Y108.67 E57.28687
G1 X127.546 Y114.014 E57.56707
G1 X127.546 Y120.986 E57.84534
G1 X122.994 Y126.329 E58.12549
G1 X116.015 Y127.54 E58.4082
G0 F7500 X116.09 Y127.107
G0 X116.161 Y126.713
;TYPE:SKIN
G1 F1350 X110.522 Y123.507 E58.66709
G1 X108.301 Y117.499 E58.92275
G1 X110.522 Y111.493 E59.17832
G1 X116.162 Y108.286 E59.43728
G1 X122.577 Y109.399 E59.69714
G1 X126.756 Y114.304 E59.95432
G1 X126.756 Y120.696 E60.20944
G1 X122.578 Y125.6 E60.46657
G1 X116.161 Y126.713 E60.72651
G0 F7500 X116.208 Y126.988
G0 X122.356 Y125.922
G0 X122.281 Y125.488
G1 F1350 X123.502 Y124.267 E60.79543
G0 F7500 X123.837 Y124.553
G0 X122.692 Y125.8
G0 X121.671 Y126.041
G0 X121.596 Y125.607
G1 F1350 X126.595 Y120.609 E61.07757
G0 F7500 X126.595 Y120.043
G1 F1350 X120.912 Y125.726 E61.39834
G0 F7500 X120.228 Y125.844
G1 F1350 X126.595 Y119.477 E61.75772
G0 F7500 X126.595 Y118.912
G1 F1350 X119.544 Y125.963 E62.15571
G0 F7500 X118.859 Y126.082
G1 F1350 X126.595 Y118.346 E62.59237
G0 F7500 X126.595 Y117.78
G1 F1350 X118.175 Y126.2 E63.06763
G0 F7500 X117.49 Y126.319
G1 F1350 X126.595 Y117.214 E63.58155
G0 F7500 X126.595 Y116.649
G1 F1350 X116.806 Y126.438 E64.13409
G0 F7500 X116.154 Y126.524
G1 F1350 X126.595 Y116.083 E64.72342
G0 F7500 X126.595 Y115.517
G1 F1350 X115.793 Y126.319 E65.33313
G0 F7500 X115.433 Y126.114
