;FLAVOR:Marlin
;TIME:3309
;Filament used: 2.06464m
;Layer height: 0.28
;MINX:66.578
;MINY:49.605
;MINZ:0.28
;MAXX:169.384
;MAXY:185.4
;MAXZ:7
;Generated with Cura_SteamEngine 4.7.0
M140 S55
M105
M190 S55
M104 S210
M105
M109 S210
M82 ;absolute extrusion mode
; Ender 3 Custom Start G-code
G92 E0 ; Reset Extruder
G28 ; Home all axes
G1 Z2.0 F3000 ; Move Z Axis up little to prevent scratching of Heat Bed
G1 X0.1 Y20 Z0.3 F5000.0 ; Move to start position
G1 X0.1 Y200.0 Z0.3 F1500.0 E15 ; Draw the first line
G1 X0.4 Y200.0 Z0.3 F5000.0 ; Move to side a little
G1 X0.4 Y20 Z0.3 F1500.0 E30 ; Draw the second line
G92 E0 ; Reset Extruder
G1 Z2.0 F3000 ; Move Z Axis up little to prevent scratching of Heat Bed
G1 X5 Y20 Z0.3 F5000.0 ; Move over to prevent blob squish
G92 E0
G92 E0
G1 F2700 E-5
;LAYER_COUNT:25
;LAYER:0
M107
G0 F6000 X69.156 Y53.545 Z0.28
;TYPE:SKIRT
G1 F2700 E0
G1 F1200 X69.788 Y52.852 E0.04367
G1 X70.477 Y52.216 E0.08733
G1 X71.218 Y51.641 E0.13101
G1 X72.005 Y51.131 E0.17468
G1 X72.833 Y50.69 E0.21836
G1 X73.695 Y50.321 E0.26202
G1 X74.586 Y50.027 E0.30571
G1 X75.498 Y49.809 E0.34937
G1 X76.425 Y49.671 E0.39301
G1 X77.313 Y49.612 E0.43445
G1 X77.393 Y49.61 E0.43818
G1 X77.833 Y49.608 E0.45867
G1 X78.033 Y49.611 E0.46798
G1 X78.616 Y49.635 E0.49515
G1 X78.996 Y49.667 E0.51291
G1 X80.175 Y49.784 E0.56808
G1 X80.867 Y49.862 E0.6005
G1 X83.362 Y50.073 E0.7171
G1 X85.867 Y50.212 E0.83392
G1 X88.399 Y50.282 E0.95186
G1 X90.923 Y50.28 E1.06939
G1 X93.401 Y50.208 E1.18483
G1 X95.935 Y50.062 E1.30302
G1 X98.468 Y49.844 E1.4214
G1 X99.102 Y49.773 E1.45111
G1 X100.175 Y49.665 E1.50132
G1 X101.105 Y49.611 E1.5447
G1 X101.233 Y49.609 E1.55066
G1 X101.567 Y49.609 E1.56621
G1 X102.111 Y49.617 E1.59155
G1 X104.722 Y49.617 E1.71313
G1 X105.157 Y49.607 E1.73339
G1 X105.583 Y49.605 E1.75322
G1 X105.964 Y49.611 E1.77097
G1 X106.557 Y49.637 E1.79861
G1 X106.918 Y49.667 E1.81547
G1 X108.097 Y49.784 E1.87064
G1 X108.789 Y49.862 E1.90307
G1 X111.284 Y50.073 E2.01966
G1 X113.789 Y50.212 E2.13648
G1 X116.321 Y50.282 E2.25443
G1 X118.845 Y50.28 E2.37196
G1 X121.323 Y50.208 E2.48739
G1 X123.857 Y50.062 E2.60558
G1 X126.39 Y49.844 E2.72396
G1 X127.024 Y49.773 E2.75367
G1 X128.097 Y49.665 E2.80389
G1 X129.199 Y49.61 E2.85526
G1 X129.494 Y49.61 E2.869
G1 X130.431 Y49.65 E2.91267
G1 X131.361 Y49.77 E2.95633
G1 X132.278 Y49.968 E3.00002
G1 X133.174 Y50.244 E3.04367
G1 X134.044 Y50.595 E3.08736
G1 X134.959 Y51.063 E3.13521
G1 X135.752 Y51.563 E3.17887
G1 X136.767 Y52.356 E3.23884
G1 X137.198 Y52.735 E3.26557
G1 X139.183 Y54.432 E3.38717
G1 X141.178 Y56.042 E3.50654
G1 X143.153 Y57.545 E3.62211
G1 X145.2 Y59.015 E3.73946
G1 X147.269 Y60.412 E3.8557
G1 X149.413 Y61.773 E3.97395
G1 X151.579 Y63.063 E4.09134
G1 X153.802 Y64.305 E4.20992
G1 X155.978 Y65.44 E4.3242
G1 X158.278 Y66.559 E4.4433
G1 X160.57 Y67.594 E4.5604
G1 X162.363 Y68.346 E4.65093
G1 X162.763 Y68.52 E4.67124
G1 X163.606 Y68.93 E4.71489
G1 X164.411 Y69.411 E4.75856
G1 X165.173 Y69.959 E4.80226
G1 X165.885 Y70.569 E4.84592
G1 X166.542 Y71.238 E4.88958
G1 X167.14 Y71.961 E4.93327
G1 X167.674 Y72.732 E4.97694
G1 X168.141 Y73.545 E5.0206
G1 X168.537 Y74.395 E5.06427
G1 X168.859 Y75.276 E5.10794
G1 X169.104 Y76.181 E5.1516
G1 X169.272 Y77.104 E5.19529
G1 X169.371 Y78.301 E5.25121
G1 X169.38 Y78.624 E5.26626
G1 X169.384 Y78.93 E5.28051
G1 X169.383 Y83.826 E5.50849
G1 X169.373 Y84.55 E5.5422
G1 X169.364 Y84.865 E5.55688
G1 X169.325 Y85.782 E5.59961
G1 X169.273 Y86.706 E5.64271
G1 X169.201 Y89.206 E5.75917
G1 X169.199 Y91.732 E5.87679
G1 X169.27 Y94.301 E5.99646
G1 X169.339 Y95.67 E6.06028
G1 X169.356 Y95.963 E6.07395
G1 X169.369 Y96.267 E6.08812
G1 X169.379 Y96.597 E6.10349
G1 X169.384 Y96.93 E6.119
G1 X169.383 Y101.826 E6.34698
G1 X169.373 Y102.55 E6.38069
G1 X169.364 Y102.865 E6.39537
G1 X169.325 Y103.782 E6.43811
G1 X169.273 Y104.706 E6.4812
G1 X169.201 Y107.206 E6.59766
G1 X169.199 Y109.732 E6.71528
G1 X169.27 Y112.301 E6.83495
G1 X169.339 Y113.67 E6.89878
G1 X169.356 Y113.963 E6.91244
G1 X169.369 Y114.267 E6.92661
G1 X169.379 Y114.597 E6.94198
G1 X169.384 Y114.93 E6.95749
G1 X169.383 Y119.826 E7.18547
G1 X169.373 Y120.55 E7.21918
G1 X169.364 Y120.865 E7.23386
G1 X169.325 Y121.782 E7.2766
G1 X169.273 Y122.706 E7.31969
G1 X169.201 Y125.206 E7.43615
G1 X169.199 Y127.732 E7.55377
G1 X169.27 Y130.301 E7.67344
G1 X169.339 Y131.67 E7.73727
G1 X169.356 Y131.963 E7.75093
G1 X169.369 Y132.267 E7.7651
G1 X169.379 Y132.597 E7.78047
G1 X169.384 Y132.93 E7.79598
G1 X169.383 Y137.826 E8.02396
G1 X169.373 Y138.55 E8.05768
G1 X169.364 Y138.865 E8.07235
G1 X169.325 Y139.782 E8.11509
G1 X169.273 Y140.706 E8.15818
G1 X169.201 Y143.206 E8.27464
G1 X169.199 Y145.732 E8.39226
G1 X169.27 Y148.301 E8.51193
G1 X169.339 Y149.67 E8.57576
G1 X169.356 Y149.963 E8.58942
G1 X169.369 Y150.267 E8.60359
G1 X169.379 Y150.597 E8.61896
G1 X169.384 Y150.93 E8.63447
G1 X169.383 Y155.826 E8.86245
G1 X169.373 Y156.55 E8.89617
G1 X169.364 Y156.865 E8.91084
G1 X169.325 Y157.782 E8.95358
G1 X169.273 Y158.706 E8.99667
G1 X169.201 Y161.206 E9.11313
G1 X169.199 Y163.732 E9.23075
G1 X169.27 Y166.301 E9.35042
G1 X169.339 Y167.67 E9.41425
G1 X169.356 Y167.963 E9.42791
G1 X169.369 Y168.267 E9.44208
G1 X169.379 Y168.597 E9.45746
G1 X169.384 Y168.93 E9.47296
G1 X169.383 Y173.8 E9.69973
G1 X169.374 Y174.527 E9.73359
G1 X169.323 Y175.464 E9.77728
G1 X169.191 Y176.392 E9.82093
G1 X168.982 Y177.306 E9.86459
G1 X168.695 Y178.199 E9.90826
G1 X168.333 Y179.065 E9.95197
G1 X167.899 Y179.896 E9.99562
G1 X167.395 Y180.687 E10.0393
G1 X166.826 Y181.432 E10.08295
G1 X166.195 Y182.127 E10.12666
G1 X165.508 Y182.765 E10.17031
G1 X164.769 Y183.342 E10.21397
G1 X163.983 Y183.854 E10.25765
G1 X163.157 Y184.297 E10.3013
G1 X162.295 Y184.669 E10.34501
G1 X161.406 Y184.965 E10.38864
G1 X160.494 Y185.185 E10.43233
G1 X159.567 Y185.326 E10.47599
G1 X158.683 Y185.387 E10.51725
G1 X158.362 Y185.396 E10.5322
G1 X158.054 Y185.4 E10.54654
G1 X134.949 Y185.399 E11.62241
G1 X133.194 Y185.374 E11.70414
G1 X130.551 Y185.374 E11.82721
G1 X129.529 Y185.396 E11.87481
G1 X129.292 Y185.399 E11.88584
G1 X106.085 Y185.399 E12.96646
G1 X104.973 Y185.383 E13.01824
G1 X102.345 Y185.383 E13.14061
G1 X101.636 Y185.398 E13.17364
G1 X101.339 Y185.4 E13.18747
G1 X78.143 Y185.399 E14.26757
G1 X77.445 Y185.39 E14.30007
G1 X76.509 Y185.338 E14.34372
G1 X75.58 Y185.206 E14.38742
G1 X74.666 Y184.996 E14.43109
G1 X73.773 Y184.709 E14.47476
G1 X72.908 Y184.346 E14.51844
G1 X72.077 Y183.912 E14.5621
G1 X71.286 Y183.408 E14.60577
G1 X70.541 Y182.838 E14.64945
G1 X69.847 Y182.207 E14.69313
G1 X69.21 Y181.52 E14.73675
G1 X68.633 Y180.78 E14.78045
G1 X68.121 Y179.994 E14.82412
G1 X67.678 Y179.167 E14.86781
G1 X67.307 Y178.306 E14.91147
G1 X67.011 Y177.416 E14.95514
G1 X66.792 Y176.504 E14.99881
G1 X66.651 Y175.577 E15.04247
G1 X66.591 Y174.688 E15.08396
G1 X66.582 Y174.355 E15.09948
G1 X66.578 Y174.058 E15.11331
G1 X66.579 Y169.151 E15.3418
G1 X66.589 Y168.444 E15.37472
G1 X66.598 Y168.132 E15.38926
G1 X66.637 Y167.217 E15.4319
G1 X66.689 Y166.294 E15.47495
G1 X66.761 Y163.794 E15.59141
G1 X66.763 Y161.269 E15.70898
G1 X66.692 Y158.699 E15.8287
G1 X66.624 Y157.341 E15.89201
G1 X66.606 Y157.036 E15.90624
G1 X66.591 Y156.7 E15.9219
G1 X66.582 Y156.383 E15.93666
G1 X66.578 Y156.071 E15.95119
G1 X66.579 Y151.151 E16.18029
G1 X66.589 Y150.444 E16.21321
G1 X66.598 Y150.132 E16.22775
G1 X66.637 Y149.217 E16.27039
G1 X66.689 Y148.294 E16.31344
G1 X66.761 Y145.794 E16.4299
G1 X66.763 Y143.269 E16.54747
G1 X66.692 Y140.699 E16.66719
G1 X66.624 Y139.341 E16.7305
G1 X66.606 Y139.036 E16.74473
G1 X66.591 Y138.7 E16.76039
G1 X66.582 Y138.383 E16.77516
G1 X66.578 Y138.071 E16.78969
G1 X66.579 Y133.151 E17.01878
G1 X66.589 Y132.444 E17.05171
G1 X66.598 Y132.132 E17.06624
G1 X66.637 Y131.217 E17.10889
G1 X66.689 Y130.294 E17.15193
G1 X66.761 Y127.794 E17.26839
G1 X66.763 Y125.269 E17.38597
G1 X66.692 Y122.699 E17.50568
G1 X66.624 Y121.341 E17.56899
G1 X66.606 Y121.036 E17.58322
G1 X66.591 Y120.7 E17.59888
G1 X66.582 Y120.383 E17.61365
G1 X66.578 Y120.071 E17.62818
G1 X66.579 Y115.151 E17.85727
G1 X66.589 Y114.444 E17.8902
G1 X66.598 Y114.132 E17.90473
G1 X66.637 Y113.217 E17.94738
G1 X66.689 Y112.294 E17.99042
G1 X66.761 Y109.794 E18.10688
G1 X66.763 Y107.269 E18.22446
G1 X66.692 Y104.699 E18.34417
G1 X66.624 Y103.341 E18.40749
G1 X66.606 Y103.036 E18.42171
G1 X66.591 Y102.7 E18.43737
G1 X66.582 Y102.383 E18.45214
G1 X66.578 Y102.071 E18.46667
G1 X66.579 Y97.151 E18.69577
G1 X66.589 Y96.444 E18.72869
G1 X66.598 Y96.132 E18.74322
G1 X66.637 Y95.217 E18.78587
G1 X66.689 Y94.294 E18.82892
G1 X66.761 Y91.794 E18.94538
G1 X66.763 Y89.269 E19.06295
G1 X66.692 Y86.699 E19.18267
G1 X66.624 Y85.341 E19.24598
G1 X66.606 Y85.036 E19.26021
G1 X66.591 Y84.7 E19.27587
G1 X66.582 Y84.383 E19.29063
G1 X66.578 Y84.071 E19.30516
G1 X66.579 Y79.111 E19.53612
G1 X66.589 Y78.437 E19.56751
G1 X66.598 Y78.129 E19.58186
G1 X66.638 Y77.196 E19.62534
G1 X66.689 Y76.294 E19.66741
G1 X66.761 Y73.794 E19.78387
G1 X66.763 Y71.269 E19.90144
G1 X66.692 Y68.699 E20.02116
G1 X66.624 Y67.341 E20.08447
G1 X66.606 Y67.036 E20.0987
G1 X66.591 Y66.7 E20.11436
G1 X66.582 Y66.383 E20.12913
G1 X66.578 Y66.071 E20.14366
G1 X66.579 Y61.109 E20.37471
G1 X66.589 Y60.444 E20.40568
G1 X66.643 Y59.507 E20.44938
G1 X66.777 Y58.579 E20.49304
G1 X66.989 Y57.665 E20.53673
G1 X67.278 Y56.773 E20.58039
G1 X67.643 Y55.909 E20.62406
G1 X68.079 Y55.079 E20.66772
G1 X68.585 Y54.289 E20.7114
G1 X69.156 Y53.545 E20.75507
G0 F6000 X69.55 Y53.699
G1 F1200 X70.18 Y53.027 E20.79797
G1 X70.866 Y52.413 E20.84084
G1 X71.602 Y51.861 E20.88367
G1 X72.384 Y51.374 E20.92657
G1 X73.205 Y50.958 E20.96943
G1 X74.059 Y50.614 E21.0123
G1 X74.939 Y50.345 E21.05515
G1 X75.84 Y50.154 E21.09803
G1 X76.754 Y50.042 E21.14091
G1 X77.323 Y50.012 E21.16744
G1 X77.403 Y50.01 E21.17117
G1 X77.827 Y50.008 E21.19091
G1 X78.027 Y50.011 E21.20023
G1 X78.589 Y50.035 E21.22642
G1 X78.957 Y50.065 E21.24361
G1 X80.131 Y50.182 E21.29855
G1 X80.826 Y50.26 E21.33111
G1 X83.307 Y50.47 E21.44705
G1 X85.87 Y50.612 E21.56658
G1 X88.388 Y50.682 E21.68387
G1 X90.9 Y50.68 E21.80084
G1 X93.469 Y50.606 E21.92052
G1 X95.956 Y50.462 E22.03652
G1 X98.474 Y50.246 E22.1542
G1 X99.142 Y50.171 E22.1855
G1 X100.215 Y50.063 E22.23571
G1 X101.111 Y50.011 E22.2775
G1 X101.239 Y50.009 E22.28346
G1 X101.561 Y50.009 E22.29846
G1 X102.105 Y50.017 E22.32379
G1 X104.731 Y50.017 E22.44607
G1 X105.166 Y50.007 E22.46633
G1 X105.577 Y50.005 E22.48547
G1 X105.958 Y50.011 E22.50321
G1 X106.529 Y50.036 E22.52982
G1 X106.879 Y50.065 E22.54618
G1 X108.053 Y50.182 E22.60111
G1 X108.748 Y50.26 E22.63368
G1 X111.229 Y50.47 E22.74962
G1 X113.792 Y50.612 E22.86915
G1 X116.31 Y50.682 E22.98644
G1 X118.822 Y50.68 E23.10341
G1 X121.391 Y50.606 E23.22308
G1 X123.878 Y50.462 E23.33908
G1 X126.396 Y50.246 E23.45676
G1 X127.064 Y50.171 E23.48806
G1 X128.137 Y50.063 E23.53828
G1 X129.199 Y50.01 E23.58779
G1 X129.494 Y50.01 E23.60153
G1 X130.414 Y50.05 E23.64441
G1 X131.327 Y50.17 E23.68728
G1 X132.226 Y50.368 E23.73015
G1 X133.104 Y50.644 E23.773
G1 X133.955 Y50.995 E23.81587
G1 X134.76 Y51.411 E23.85806
G1 X135.539 Y51.902 E23.90094
G1 X136.503 Y52.656 E23.95793
G1 X136.957 Y53.056 E23.9861
G1 X138.955 Y54.764 E24.1085
G1 X140.89 Y56.325 E24.22426
G1 X142.923 Y57.873 E24.34325
G1 X144.989 Y59.355 E24.46164
G1 X147.052 Y60.749 E24.57758
G1 X149.199 Y62.112 E24.696
G1 X151.385 Y63.414 E24.81447
G1 X153.574 Y64.637 E24.93123
G1 X155.825 Y65.811 E25.04945
G1 X158.117 Y66.926 E25.16813
G1 X160.387 Y67.951 E25.28411
G1 X162.068 Y68.655 E25.36897
G1 X162.603 Y68.887 E25.39612
G1 X163.431 Y69.29 E25.439
G1 X164.22 Y69.764 E25.48186
G1 X164.965 Y70.305 E25.52473
G1 X165.661 Y70.908 E25.56761
G1 X166.301 Y71.569 E25.61045
G1 X166.882 Y72.284 E25.65335
G1 X167.399 Y73.046 E25.69623
G1 X167.847 Y73.85 E25.73909
G1 X168.225 Y74.689 E25.78194
G1 X168.527 Y75.559 E25.82482
G1 X168.753 Y76.451 E25.86767
G1 X168.901 Y77.36 E25.91055
G1 X168.971 Y78.312 E25.955
G1 X168.98 Y78.635 E25.97005
G1 X168.984 Y78.93 E25.98378
G1 X168.983 Y83.82 E26.21148
G1 X168.973 Y84.544 E26.2452
G1 X168.964 Y84.848 E26.25936
G1 X168.918 Y85.917 E26.30918
G1 X168.875 Y86.672 E26.3444
G1 X168.801 Y89.229 E26.46351
G1 X168.799 Y91.743 E26.58057
G1 X168.869 Y94.288 E26.69912
G1 X168.944 Y95.776 E26.7685
G1 X168.956 Y95.986 E26.77829
G1 X168.969 Y96.279 E26.79195
G1 X168.979 Y96.609 E26.80732
G1 X168.984 Y96.93 E26.82227
G1 X168.983 Y101.82 E27.04997
G1 X168.973 Y102.544 E27.08369
G1 X168.964 Y102.848 E27.09785
G1 X168.918 Y103.917 E27.14767
G1 X168.875 Y104.672 E27.18289
G1 X168.801 Y107.229 E27.302
G1 X168.799 Y109.743 E27.41906
G1 X168.869 Y112.288 E27.53761
G1 X168.944 Y113.776 E27.60699
G1 X168.956 Y113.986 E27.61678
G1 X168.969 Y114.279 E27.63044
G1 X168.979 Y114.609 E27.64581
G1 X168.984 Y114.93 E27.66076
G1 X168.983 Y119.82 E27.88846
G1 X168.973 Y120.544 E27.92218
G1 X168.964 Y120.848 E27.93634
G1 X168.918 Y121.917 E27.98616
G1 X168.875 Y122.672 E28.02137
G1 X168.801 Y125.229 E28.14049
G1 X168.799 Y127.743 E28.25755
G1 X168.869 Y130.288 E28.3761
G1 X168.944 Y131.776 E28.44548
G1 X168.956 Y131.986 E28.45527
G1 X168.969 Y132.279 E28.46893
G1 X168.979 Y132.609 E28.4843
G1 X168.984 Y132.93 E28.49925
G1 X168.983 Y137.82 E28.72695
G1 X168.973 Y138.544 E28.76066
G1 X168.964 Y138.848 E28.77483
G1 X168.918 Y139.917 E28.82465
G1 X168.875 Y140.672 E28.85986
G1 X168.801 Y143.229 E28.97898
G1 X168.799 Y145.743 E29.09604
G1 X168.869 Y148.288 E29.21459
G1 X168.944 Y149.776 E29.28397
G1 X168.956 Y149.986 E29.29376
G1 X168.969 Y150.279 E29.30742
G1 X168.979 Y150.609 E29.32279
G1 X168.984 Y150.93 E29.33774
G1 X168.983 Y155.82 E29.56544
G1 X168.973 Y156.544 E29.59915
G1 X168.964 Y156.848 E29.61332
G1 X168.918 Y157.917 E29.66314
G1 X168.875 Y158.672 E29.69835
G1 X168.801 Y161.229 E29.81747
G1 X168.799 Y163.743 E29.93453
G1 X168.869 Y166.288 E30.05308
G1 X168.944 Y167.776 E30.12245
G1 X168.956 Y167.986 E30.13225
G1 X168.969 Y168.279 E30.14591
G1 X168.979 Y168.609 E30.16128
G1 X168.984 Y168.93 E30.17623
G1 X168.983 Y173.795 E30.40276
G1 X168.974 Y174.522 E30.43662
G1 X168.923 Y175.441 E30.47948
G1 X168.792 Y176.353 E30.52238
G1 X168.582 Y177.249 E30.56523
G1 X168.296 Y178.124 E30.6081
G1 X167.935 Y178.971 E30.65097
G1 X167.501 Y179.783 E30.69384
G1 X166.999 Y180.555 E30.73672
G1 X166.431 Y181.28 E30.7796
G1 X165.803 Y181.953 E30.82247
G1 X165.119 Y182.569 E30.86533
G1 X164.384 Y183.123 E30.90819
G1 X163.604 Y183.612 E30.95105
G1 X162.784 Y184.031 E30.99393
G1 X161.931 Y184.377 E31.0368
G1 X161.051 Y184.648 E31.07967
G1 X160.151 Y184.841 E31.12253
G1 X159.237 Y184.956 E31.16543
G1 X158.672 Y184.987 E31.19177
G1 X158.351 Y184.996 E31.20673
G1 X158.054 Y185 E31.22056
G1 X134.955 Y184.999 E32.29614
G1 X133.2 Y184.974 E32.37787
G1 X130.588 Y184.974 E32.4995
G1 X129.52 Y184.997 E32.54924
G1 X129.292 Y184.999 E32.55986
G1 X106.091 Y184.999 E33.64019
G1 X104.979 Y184.983 E33.69198
G1 X102.336 Y184.983 E33.81505
G1 X101.633 Y184.998 E33.84779
G1 X101.336 Y185 E33.86162
G1 X78.148 Y184.999 E34.94135
G1 X77.45 Y184.99 E34.97385
G1 X76.531 Y184.938 E35.01672
G1 X75.62 Y184.807 E35.05957
G1 X74.724 Y184.597 E35.10242
G1 X73.849 Y184.31 E35.1453
G1 X73.002 Y183.948 E35.18819
G1 X72.19 Y183.514 E35.23107
G1 X71.419 Y183.012 E35.27391
G1 X70.694 Y182.444 E35.31679
G1 X70.021 Y181.815 E35.35969
G1 X69.406 Y181.131 E35.40252
G1 X68.852 Y180.396 E35.44537
G1 X68.364 Y179.615 E35.48826
G1 X67.945 Y178.795 E35.53114
G1 X67.599 Y177.942 E35.574
G1 X67.329 Y177.062 E35.61686
G1 X67.136 Y176.161 E35.65977
G1 X67.022 Y175.248 E35.70261
G1 X66.991 Y174.677 E35.72924
G1 X66.982 Y174.344 E35.74475
G1 X66.978 Y174.058 E35.75807
G1 X66.979 Y169.157 E35.98628
G1 X66.989 Y168.45 E36.0192
G1 X66.998 Y168.149 E36.03322
G1 X67.044 Y167.083 E36.08291
G1 X67.087 Y166.328 E36.11812
G1 X67.161 Y163.771 E36.23724
G1 X67.163 Y161.258 E36.35425
G1 X67.093 Y158.712 E36.47285
G1 X67.018 Y157.224 E36.54222
G1 X67.005 Y157.012 E36.55211
G1 X66.991 Y156.689 E36.56717
G1 X66.982 Y156.372 E36.58194
G1 X66.978 Y156.071 E36.59595
