;FLAVOR:Marlin
;TIME:1275
;Filament used: 1.12826m
;Layer height: 0.28
;MINX:97.535
;MINY:97.537
;MINZ:0.28
;MAXX:137.458
;MAXY:137.463
;MAXZ:9.52
;Generated with Cura_SteamEngine 4.9.1
M140 S55
M105
M190 S55
M104 S215
M105
M109 S215
M82 ;absolute extrusion mode
; Ender 3 Custom Start G-code
G92 E0 ; Reset Extruder
G28 ; Home all axes
G1 Z2.0 F3000 ; Move Z Axis up little to prevent scratching of Heat Bed
G1 X0.1 Y20 Z0.3 F5000.0 ; Move to start position
G1 X0.1 Y200.0 Z0.3 F1500.0 E15 ; Draw the first line
G1 X0.4 Y200.0 Z0.3 F5000.0 ; Move to side a little
G1 X0.4 Y20 Z0.3 F1500.0 E30 ; Draw the second line
G92 E0 ; Reset Extruder
G1 Z2.0 F3000 ; Move Z Axis up little to prevent scratching of Heat Bed
G1 X5 Y20 Z0.3 F5000.0 ; Move over to prevent blob squish
G92 E0
G92 E0
G1 F2700 E-5
;LAYER_COUNT:34
;LAYER:0
M107
;MESH:LegoToiletPaperHolder_scaleddown.stl
G0 F6000 X117.009 Y134.048 Z0.28
;TYPE:WALL-INNER
G1 F2700 E0
G1 F1200 X117.991 Y134.048 E0.04573
G1 X118.971 Y133.99 E0.09144
G1 X119.945 Y133.874 E0.13711
G1 X120.91 Y133.7 E0.18277
G1 X121.863 Y133.469 E0.22843
G1 X122.802 Y133.183 E0.27414
G1 X123.721 Y132.841 E0.3198
G1 X124.619 Y132.446 E0.36548
G1 X125.493 Y131.997 E0.41123
G1 X126.338 Y131.498 E0.45693
G1 X127.151 Y130.951 E0.50256
G1 X127.931 Y130.355 E0.54827
G1 X128.674 Y129.715 E0.59393
G1 X129.379 Y129.031 E0.63967
G1 X130.041 Y128.307 E0.68535
G1 X130.659 Y127.545 E0.73103
G1 X131.231 Y126.749 E0.77668
G1 X131.755 Y125.918 E0.82242
G1 X132.228 Y125.059 E0.86808
G1 X132.65 Y124.174 E0.91374
G1 X133.019 Y123.264 E0.95946
G1 X133.333 Y122.335 E1.00512
G1 X133.591 Y121.388 E1.05083
G1 X133.794 Y120.428 E1.09652
G1 X133.939 Y119.458 E1.14219
G1 X134.026 Y118.481 E1.18786
G1 X134.055 Y117.5 E1.23356
G1 X134.026 Y116.519 E1.27926
G1 X133.939 Y115.542 E1.32493
G1 X133.794 Y114.572 E1.3706
G1 X133.591 Y113.612 E1.41629
G1 X133.333 Y112.665 E1.46199
G1 X133.019 Y111.736 E1.50766
G1 X132.65 Y110.826 E1.55338
G1 X132.228 Y109.941 E1.59904
G1 X131.755 Y109.082 E1.6447
G1 X131.231 Y108.251 E1.69044
G1 X130.659 Y107.455 E1.73608
G1 X130.041 Y106.693 E1.78177
G1 X129.379 Y105.969 E1.82745
G1 X128.674 Y105.285 E1.87319
G1 X127.931 Y104.645 E1.91885
G1 X127.151 Y104.049 E1.96456
G1 X126.338 Y103.502 E2.01019
G1 X125.493 Y103.003 E2.05588
G1 X124.619 Y102.554 E2.10164
G1 X123.721 Y102.159 E2.14732
G1 X122.802 Y101.817 E2.19298
G1 X121.863 Y101.531 E2.23868
G1 X120.91 Y101.3 E2.28435
G1 X119.945 Y101.126 E2.33
G1 X118.971 Y101.01 E2.37568
G1 X117.991 Y100.952 E2.42139
G1 X117.009 Y100.952 E2.46712
G1 X116.029 Y101.01 E2.51283
G1 X115.055 Y101.126 E2.5585
G1 X114.09 Y101.3 E2.60416
G1 X113.137 Y101.531 E2.64982
G1 X112.198 Y101.817 E2.69553
G1 X111.279 Y102.159 E2.74119
G1 X110.381 Y102.554 E2.78687
G1 X109.507 Y103.003 E2.83262
G1 X108.662 Y103.502 E2.87832
G1 X107.849 Y104.049 E2.92395
G1 X107.069 Y104.645 E2.96966
G1 X106.326 Y105.285 E3.01532
G1 X105.621 Y105.969 E3.06106
G1 X104.959 Y106.693 E3.10674
G1 X104.341 Y107.455 E3.15242
G1 X103.769 Y108.251 E3.19807
G1 X103.245 Y109.082 E3.24381
G1 X102.772 Y109.941 E3.28947
G1 X102.35 Y110.826 E3.33513
G1 X101.981 Y111.736 E3.38085
G1 X101.667 Y112.665 E3.42651
G1 X101.409 Y113.612 E3.47222
G1 X101.206 Y114.572 E3.51791
G1 X101.061 Y115.542 E3.56358
G1 X100.974 Y116.519 E3.60925
G1 X100.945 Y117.5 E3.65495
G1 X100.974 Y118.481 E3.70065
G1 X101.061 Y119.458 E3.74632
G1 X101.206 Y120.428 E3.79199
G1 X101.409 Y121.388 E3.83768
G1 X101.667 Y122.335 E3.88339
G1 X101.981 Y123.264 E3.92905
G1 X102.35 Y124.174 E3.97477
G1 X102.772 Y125.059 E4.02043
G1 X103.245 Y125.918 E4.06609
G1 X103.769 Y126.749 E4.11183
G1 X104.341 Y127.545 E4.15748
G1 X104.959 Y128.307 E4.20316
G1 X105.621 Y129.031 E4.24884
G1 X106.326 Y129.715 E4.29458
G1 X107.069 Y130.355 E4.34024
G1 X107.849 Y130.951 E4.38595
G1 X108.662 Y131.498 E4.43158
G1 X109.507 Y131.997 E4.47728
G1 X110.381 Y132.446 E4.52303
G1 X111.279 Y132.841 E4.56871
G1 X112.198 Y133.183 E4.61437
G1 X113.137 Y133.469 E4.66008
G1 X114.09 Y133.7 E4.70574
G1 X115.055 Y133.874 E4.7514
G1 X116.029 Y133.99 E4.79707
G1 X117.009 Y134.048 E4.84278
G0 F6000 X117.021 Y133.648
;TYPE:WALL-OUTER
G1 F1200 X117.979 Y133.648 E4.88739
G1 X118.935 Y133.591 E4.93199
G1 X119.886 Y133.478 E4.97658
G1 X120.827 Y133.308 E5.02111
G1 X121.758 Y133.083 E5.06571
G1 X122.674 Y132.804 E5.11029
G1 X123.571 Y132.47 E5.15486
G1 X124.447 Y132.085 E5.19942
G1 X125.3 Y131.647 E5.24407
G1 X126.124 Y131.16 E5.28864
G1 X126.918 Y130.626 E5.33319
G1 X127.679 Y130.044 E5.3778
G1 X128.404 Y129.42 E5.42234
G1 X129.092 Y128.752 E5.467
G1 X129.738 Y128.046 E5.51156
G1 X130.341 Y127.302 E5.55615
G1 X130.899 Y126.525 E5.60069
G1 X131.41 Y125.715 E5.64529
G1 X131.872 Y124.876 E5.68989
G1 X132.284 Y124.013 E5.73442
G1 X132.644 Y123.125 E5.77903
G1 X132.95 Y122.218 E5.82361
G1 X133.202 Y121.294 E5.8682
G1 X133.4 Y120.357 E5.9128
G1 X133.542 Y119.411 E5.95734
G1 X133.627 Y118.457 E6.00194
G1 X133.655 Y117.5 E6.04652
G1 X133.627 Y116.543 E6.0911
G1 X133.542 Y115.589 E6.1357
G1 X133.4 Y114.643 E6.18024
G1 X133.202 Y113.706 E6.22484
G1 X132.95 Y112.782 E6.26943
G1 X132.644 Y111.875 E6.31401
G1 X132.284 Y110.987 E6.35862
G1 X131.872 Y110.124 E6.40315
G1 X131.41 Y109.285 E6.44775
G1 X130.899 Y108.475 E6.49235
G1 X130.341 Y107.698 E6.53689
G1 X129.738 Y106.954 E6.58148
G1 X129.092 Y106.248 E6.62604
G1 X128.404 Y105.58 E6.6707
G1 X127.679 Y104.956 E6.71524
G1 X126.918 Y104.374 E6.75985
G1 X126.124 Y103.84 E6.8044
G1 X125.3 Y103.353 E6.84897
G1 X124.447 Y102.915 E6.89362
G1 X123.571 Y102.53 E6.93818
G1 X122.674 Y102.196 E6.98275
G1 X121.758 Y101.917 E7.02734
G1 X120.827 Y101.692 E7.07193
G1 X119.886 Y101.522 E7.11646
G1 X118.935 Y101.409 E7.16105
G1 X117.979 Y101.352 E7.20565
G1 X117.021 Y101.352 E7.25026
G1 X116.065 Y101.409 E7.29485
G1 X115.114 Y101.522 E7.33945
G1 X114.173 Y101.692 E7.38397
G1 X113.242 Y101.917 E7.42857
G1 X112.326 Y102.196 E7.47316
G1 X111.429 Y102.53 E7.51773
G1 X110.553 Y102.915 E7.56228
G1 X109.7 Y103.353 E7.60693
G1 X108.876 Y103.84 E7.6515
G1 X108.082 Y104.374 E7.69606
G1 X107.321 Y104.956 E7.74067
G1 X106.596 Y105.58 E7.78521
G1 X105.908 Y106.248 E7.82986
G1 X105.262 Y106.954 E7.87442
G1 X104.659 Y107.698 E7.91902
G1 X104.101 Y108.475 E7.96356
G1 X103.59 Y109.285 E8.00815
G1 X103.128 Y110.124 E8.05275
G1 X102.716 Y110.987 E8.09728
G1 X102.356 Y111.875 E8.1419
G1 X102.05 Y112.782 E8.18647
G1 X101.798 Y113.706 E8.23107
G1 X101.6 Y114.643 E8.27566
G1 X101.458 Y115.589 E8.32021
G1 X101.373 Y116.543 E8.36481
G1 X101.345 Y117.5 E8.40939
G1 X101.373 Y118.457 E8.45397
G1 X101.458 Y119.411 E8.49857
G1 X101.6 Y120.357 E8.54311
G1 X101.798 Y121.294 E8.5877
G1 X102.05 Y122.218 E8.6323
G1 X102.356 Y123.125 E8.67687
G1 X102.716 Y124.013 E8.72149
G1 X103.128 Y124.876 E8.76602
G1 X103.59 Y125.715 E8.81062
G1 X104.101 Y126.525 E8.85521
G1 X104.659 Y127.302 E8.89976
G1 X105.262 Y128.046 E8.94435
G1 X105.908 Y128.752 E8.98891
G1 X106.596 Y129.42 E9.03356
G1 X107.321 Y130.044 E9.0781
G1 X108.082 Y130.626 E9.12271
G1 X108.876 Y131.16 E9.16727
G1 X109.7 Y131.647 E9.21184
G1 X110.553 Y132.085 E9.25649
G1 X111.429 Y132.47 E9.30104
G1 X112.326 Y132.804 E9.34561
G1 X113.242 Y133.083 E9.3902
G1 X114.173 Y133.308 E9.4348
G1 X115.114 Y133.478 E9.47933
G1 X116.065 Y133.591 E9.52392
G1 X117.021 Y133.648 E9.56852
G0 F6000 X117.008 Y134.087
G1 F2700 E4.56852
G0 F6000 X117.75 Y134.238
G0 X117.854 Y136.849
G0 X117.75 Y137.063
;TYPE:WALL-INNER
G1 F2700 E9.56852
G1 F1200 X116.727 Y137.049 E9.61616
G1 X115.693 Y136.981 E9.66441
G1 X114.665 Y136.858 E9.71262
G1 X113.658 Y136.684 E9.7602
G1 X112.642 Y136.452 E9.80873
G1 X111.646 Y136.169 E9.85694
G1 X110.676 Y135.837 E9.90468
G1 X109.716 Y135.449 E9.9529
G1 X108.775 Y135.011 E10.00123
G1 X107.866 Y134.527 E10.04918
G1 X106.977 Y133.994 E10.09745
G1 X106.133 Y133.423 E10.14489
G1 X105.304 Y132.797 E10.19327
G1 X104.505 Y132.125 E10.24188
G1 X103.752 Y131.419 E10.28994
G1 X103.045 Y130.684 E10.33743
G1 X102.363 Y129.895 E10.38599
G1 X101.734 Y129.086 E10.43371
G1 X101.135 Y128.222 E10.48266
G1 X100.596 Y127.351 E10.53036
G1 X100.107 Y126.46 E10.57769
G1 X99.654 Y125.517 E10.6264
G1 X99.259 Y124.572 E10.67409
G1 X98.908 Y123.59 E10.72265
G1 X98.614 Y122.606 E10.77047
G1 X98.369 Y121.596 E10.81887
G1 X98.182 Y120.591 E10.86647
G1 X98.043 Y119.546 E10.91555
G1 X97.962 Y118.527 E10.96315
G1 X97.935 Y117.5 E11.01099
G1 X97.962 Y116.473 E11.05883
G1 X98.043 Y115.454 E11.10643
G1 X98.182 Y114.409 E11.15552
G1 X98.368 Y113.405 E11.20306
G1 X98.615 Y112.39 E11.2517
G1 X98.908 Y111.41 E11.29933
G1 X99.259 Y110.428 E11.34789
G1 X99.654 Y109.483 E11.39558
G1 X100.11 Y108.534 E11.44461
G1 X100.596 Y107.649 E11.49162
G1 X101.135 Y106.778 E11.53932
G1 X101.736 Y105.912 E11.5884
G1 X102.363 Y105.105 E11.63599
G1 X103.045 Y104.316 E11.68455
G1 X103.752 Y103.581 E11.73204
G1 X104.517 Y102.863 E11.78089
G1 X105.294 Y102.21 E11.82815
G1 X106.133 Y101.577 E11.87709
G1 X106.977 Y101.006 E11.92454
G1 X107.866 Y100.473 E11.97281
G1 X108.775 Y99.988 E12.02078
G1 X109.716 Y99.551 E12.06909
G1 X110.679 Y99.162 E12.11746
G1 X111.646 Y98.831 E12.16505
G1 X112.642 Y98.548 E12.21326
G1 X113.658 Y98.316 E12.26179
G1 X114.665 Y98.142 E12.30937
G1 X115.693 Y98.019 E12.35758
G1 X116.727 Y97.951 E12.40583
G1 X117.75 Y97.937 E12.45347
G1 X118.806 Y97.979 E12.50268
G1 X119.804 Y98.071 E12.54935
G1 X120.852 Y98.224 E12.59867
G1 X121.858 Y98.427 E12.64646
G1 X122.848 Y98.681 E12.69405
G1 X123.846 Y98.994 E12.74275
G1 X124.809 Y99.353 E12.79061
G1 X125.764 Y99.766 E12.83906
G1 X126.684 Y100.224 E12.88691
G1 X127.577 Y100.73 E12.9347
G1 X128.444 Y101.282 E12.98256
G1 X129.286 Y101.884 E13.03076
G1 X130.101 Y102.535 E13.07933
G1 X130.867 Y103.213 E13.12696
G1 X131.609 Y103.946 E13.17553
G1 X132.304 Y104.709 E13.22359
G1 X132.953 Y105.501 E13.27127
G1 X133.571 Y106.342 E13.31986
G1 X134.126 Y107.188 E13.36698
G1 X134.652 Y108.088 E13.41552
G1 X135.134 Y109.025 E13.46458
G1 X135.548 Y109.948 E13.51169
G1 X135.926 Y110.922 E13.56034
G1 X136.247 Y111.903 E13.6084
G1 X136.511 Y112.88 E13.65552
G1 X136.732 Y113.909 E13.70453
G1 X136.892 Y114.909 E13.75169
G1 X137.004 Y115.958 E13.80081
G1 X137.058 Y116.979 E13.84842
G1 X137.058 Y118.021 E13.89694
G1 X137.005 Y119.032 E13.94408
G1 X136.893 Y120.084 E13.99334
G1 X136.731 Y121.091 E14.04084
G1 X136.513 Y122.113 E14.08949
G1 X136.247 Y123.098 E14.137
G1 X135.926 Y124.078 E14.18502
G1 X135.552 Y125.042 E14.23317
G1 X135.134 Y125.975 E14.28077
G1 X134.653 Y126.911 E14.32978
G1 X134.127 Y127.81 E14.37828
G1 X133.571 Y128.658 E14.42549
G1 X132.965 Y129.483 E14.47316
G1 X132.302 Y130.293 E14.5219
G1 X131.609 Y131.054 E14.56983
G1 X130.873 Y131.779 E14.61793
G1 X130.101 Y132.465 E14.66602
G1 X129.286 Y133.116 E14.71459
G1 X128.447 Y133.716 E14.76262
G1 X127.577 Y134.27 E14.81065
G1 X126.684 Y134.776 E14.85844
G1 X125.764 Y135.234 E14.9063
G1 X124.809 Y135.647 E14.95474
G1 X123.846 Y136.006 E15.0026
G1 X122.848 Y136.319 E15.0513
G1 X121.858 Y136.573 E15.0989
G1 X120.852 Y136.776 E15.14668
G1 X119.804 Y136.929 E15.196
G1 X118.806 Y137.021 E15.24267
G1 X117.75 Y137.063 E15.29188
G0 F6000 X117.761 Y137.463
;TYPE:WALL-OUTER
G1 F1200 X116.715 Y137.449 E15.34059
G1 X115.658 Y137.379 E15.38992
G1 X114.606 Y137.254 E15.43925
G1 X113.576 Y137.076 E15.48792
G1 X112.541 Y136.839 E15.53736
G1 X111.534 Y136.553 E15.5861
G1 X110.529 Y136.209 E15.63557
G1 X109.552 Y135.815 E15.68462
G1 X108.606 Y135.374 E15.73322
G1 X107.666 Y134.874 E15.7828
G1 X106.771 Y134.337 E15.8314
G1 X105.898 Y133.747 E15.88046
G1 X105.048 Y133.105 E15.93006
G1 X104.247 Y132.431 E15.97881
G1 X103.473 Y131.706 E16.02819
G1 X102.742 Y130.946 E16.07729
G1 X102.06 Y130.157 E16.12585
G1 X101.407 Y129.316 E16.17543
G1 X100.806 Y128.45 E16.22452
G1 X100.251 Y127.554 E16.27359
G1 X99.749 Y126.639 E16.32219
G1 X99.293 Y125.69 E16.37122
G1 X98.882 Y124.707 E16.42083
G1 X98.531 Y123.725 E16.46939
G1 X98.226 Y122.705 E16.51896
G1 X97.98 Y121.69 E16.56759
G1 X97.785 Y120.644 E16.61714
G1 X97.646 Y119.599 E16.66623
G1 X97.563 Y118.559 E16.71481
G1 X97.535 Y117.505 E16.7639
G1 X97.563 Y116.441 E16.81346
G1 X97.646 Y115.401 E16.86204
G1 X97.785 Y114.356 E16.91113
G1 X97.979 Y113.31 E16.96067
G1 X98.226 Y112.295 E17.00931
G1 X98.531 Y111.275 E17.05889
G1 X98.882 Y110.293 E17.10744
G1 X99.293 Y109.31 E17.15706
G1 X99.749 Y108.361 E17.20608
G1 X100.251 Y107.446 E17.25468
G1 X100.806 Y106.55 E17.30376
G1 X101.407 Y105.684 E17.35284
G1 X102.06 Y104.843 E17.40242
G1 X102.742 Y104.054 E17.45098
G1 X103.473 Y103.294 E17.50008
G1 X104.25 Y102.566 E17.54966
G1 X105.048 Y101.895 E17.59821
G1 X105.898 Y101.253 E17.64781
G1 X106.771 Y100.663 E17.69688
G1 X107.666 Y100.126 E17.74548
G1 X108.606 Y99.625 E17.79508
G1 X109.552 Y99.185 E17.84366
G1 X110.529 Y98.791 E17.89271
G1 X111.534 Y98.447 E17.94217
G1 X112.541 Y98.161 E17.99092
G1 X113.576 Y97.924 E18.04036
G1 X114.606 Y97.746 E18.08903
G1 X115.658 Y97.621 E18.13836
G1 X116.715 Y97.551 E18.18769
G1 X117.761 Y97.537 E18.2364
G1 X118.822 Y97.579 E18.28584
G1 X119.861 Y97.675 E18.33443
G1 X120.914 Y97.829 E18.38398
G1 X121.937 Y98.035 E18.43257
G1 X122.968 Y98.299 E18.48213
G1 X123.974 Y98.614 E18.53122
G1 X124.953 Y98.979 E18.57987
G1 X125.93 Y99.402 E18.62944
G1 X126.873 Y99.872 E18.6785
G1 X127.781 Y100.386 E18.72709
G1 X128.67 Y100.952 E18.77616
G1 X129.536 Y101.571 E18.82573
G1 X130.351 Y102.222 E18.8743
G1 X131.148 Y102.928 E18.92388
G1 X131.89 Y103.661 E18.97244
G1 X132.6 Y104.44 E19.02152
G1 X133.275 Y105.264 E19.07112
G1 X133.893 Y106.105 E19.11972
G1 X134.471 Y106.986 E19.16878
G1 X135.008 Y107.905 E19.21834
G1 X135.49 Y108.842 E19.26741
G1 X135.918 Y109.794 E19.31601
G1 X136.299 Y110.777 E19.3651
G1 X136.627 Y111.778 E19.41415
G1 X136.902 Y112.796 E19.46325
G1 X137.126 Y113.837 E19.51284
G1 X137.29 Y114.867 E19.5614
G1 X137.402 Y115.916 E19.61052
G1 X137.458 Y116.979 E19.66009
G1 X137.458 Y118.021 E19.70861
G1 X137.403 Y119.074 E19.75771
G1 X137.29 Y120.133 E19.8073
G1 X137.125 Y121.163 E19.85587
G1 X136.902 Y122.204 E19.90545
G1 X136.63 Y123.212 E19.95406
G1 X136.299 Y124.223 E20.0036
G1 X135.922 Y125.196 E20.05219
G1 X135.49 Y126.158 E20.10129
G1 X135.008 Y127.095 E20.15036
G1 X134.471 Y128.014 E20.19992
G1 X133.893 Y128.895 E20.24898
G1 X133.275 Y129.736 E20.29758
G1 X132.607 Y130.552 E20.34668
G1 X131.89 Y131.339 E20.39626
G1 X131.147 Y132.071 E20.44482
G1 X130.351 Y132.778 E20.4944
G1 X129.536 Y133.429 E20.54297
G1 X128.673 Y134.046 E20.59237
G1 X127.781 Y134.614 E20.64161
G1 X126.873 Y135.128 E20.69019
G1 X125.93 Y135.598 E20.73925
G1 X124.953 Y136.021 E20.78883
G1 X123.974 Y136.386 E20.83748
G1 X122.968 Y136.701 E20.88657
G1 X121.937 Y136.965 E20.93612
G1 X120.914 Y137.171 E20.98471
G1 X119.861 Y137.325 E21.03427
G1 X118.822 Y137.421 E21.08285
G1 X117.761 Y137.463 E21.1323
G0 F6000 X117.756 Y137.024
G0 X117.74 Y136.673
;TYPE:SKIN
G1 F1200 X116.753 Y136.659 E21.17826
G1 X115.726 Y136.591 E21.22619
G1 X114.711 Y136.47 E21.27378
G1 X113.738 Y136.303 E21.31975
G1 X112.739 Y136.074 E21.36748
G1 X111.767 Y135.798 E21.41453
G1 X110.803 Y135.468 E21.46197
G1 X109.862 Y135.088 E21.50923
G1 X108.973 Y134.674 E21.55489
G1 X108.061 Y134.188 E21.60301
G1 X107.178 Y133.659 E21.65094
G1 X106.368 Y133.111 E21.69648
G1 X105.539 Y132.485 E21.74485
G1 X104.769 Y131.837 E21.79171
G1 X104.019 Y131.134 E21.83958
G1 X103.326 Y130.413 E21.88614
G1 X102.671 Y129.654 E21.93283
G1 X102.042 Y128.846 E21.98051
G1 X101.461 Y128.008 E22.02799
G1 X100.928 Y127.146 E22.07518
G1 X100.454 Y126.282 E22.12107
G1 X100.01 Y125.358 E22.1688
G1 X99.623 Y124.431 E22.21558
G1 X99.279 Y123.469 E22.26315
G1 X98.991 Y122.504 E22.31005
G1 X98.755 Y121.536 E22.35644
G1 X98.566 Y120.519 E22.40461
G1 X98.429 Y119.495 E22.45271
G1 X98.352 Y118.517 E22.49839
G1 X98.325 Y117.51 E22.5453
G1 X98.352 Y116.483 E22.59314
G1 X98.429 Y115.505 E22.63882
G1 X98.566 Y114.48 E22.68697
G1 X98.75 Y113.486 E22.73404
G1 X98.992 Y112.492 E22.78168
G1 X99.279 Y111.531 E22.82838
G1 X99.623 Y110.569 E22.87595
G1 X100.01 Y109.642 E22.92273
G1 X100.457 Y108.712 E22.97078
G1 X100.928 Y107.854 E23.01635
