;FLAVOR:Marlin
;TIME:14525
;Filament used: 13.1968m
;Layer height: 0.28
;MINX:19.335
;MINY:23.7
;MINZ:0.28
;MAXX:214.8
;MAXY:211.3
;MAXZ:6.72
;Generated with Cura_SteamEngine 4.6.1
M140 S60
M105
M190 S60
M104 S210
M105
M109 S210
M82 ;absolute extrusion mode
; Ender 3 Custom Start G-code
G92 E0 ; Reset Extruder
G28 ; Home all axes
G1 Z2.0 F3000 ; Move Z Axis up little to prevent scratching of Heat Bed
G1 X0.1 Y20 Z0.3 F5000.0 ; Move to start position
G1 X0.1 Y200.0 Z0.3 F1500.0 E15 ; Draw the first line
G1 X0.4 Y200.0 Z0.3 F5000.0 ; Move to side a little
G1 X0.4 Y20 Z0.3 F1500.0 E30 ; Draw the second line
G92 E0 ; Reset Extruder
G1 Z2.0 F3000 ; Move Z Axis up little to prevent scratching of Heat Bed
G1 X5 Y20 Z0.3 F5000.0 ; Move over to prevent blob squish
G92 E0
G92 E0
G1 F2700 E-5
;LAYER_COUNT:24
;LAYER:0
M107
;MESH:main_part_alt.stl
G0 F6000 X28.53 Y106.728 Z0.28
;TYPE:WALL-INNER
G1 F2700 E0
G1 F1200 X28.728 Y106.53 E0.01304
G1 X28.887 Y106.301 E0.02602
G1 X29.006 Y106.049 E0.039
G1 X29.079 Y105.778 E0.05207
G1 X29.102 Y105.5 E0.06505
G1 X29.079 Y105.222 E0.07804
G1 X29.006 Y104.951 E0.09111
G1 X28.887 Y104.699 E0.10409
G1 X28.728 Y104.47 E0.11707
G1 X28.53 Y104.272 E0.13011
G1 X28.301 Y104.113 E0.14309
G1 X28.049 Y103.994 E0.15607
G1 X27.778 Y103.921 E0.16914
G1 X27.5 Y103.898 E0.18213
G1 X27.222 Y103.921 E0.19511
G1 X26.951 Y103.994 E0.20818
G1 X26.699 Y104.113 E0.22116
G1 X26.47 Y104.272 E0.23414
G1 X26.272 Y104.47 E0.24718
G1 X26.113 Y104.699 E0.26016
G1 X25.994 Y104.951 E0.27314
G1 X25.921 Y105.222 E0.28621
G1 X25.898 Y105.5 E0.2992
G1 X25.921 Y105.778 E0.31218
G1 X25.994 Y106.049 E0.32525
G1 X26.113 Y106.301 E0.33823
G1 X26.272 Y106.53 E0.35121
G1 X26.47 Y106.728 E0.36425
G1 X26.699 Y106.887 E0.37723
G1 X26.951 Y107.006 E0.39021
G1 X27.222 Y107.079 E0.40328
G1 X27.5 Y107.102 E0.41627
G1 X27.778 Y107.079 E0.42926
G1 X28.049 Y107.006 E0.44232
G1 X28.301 Y106.887 E0.4553
G1 X28.53 Y106.728 E0.46828
G0 F6000 X28.272 Y106.42
;TYPE:WALL-OUTER
G1 F1200 X28.42 Y106.272 E0.47803
G1 X28.54 Y106.1 E0.48779
G1 X28.629 Y105.911 E0.49752
G1 X28.683 Y105.709 E0.50726
G1 X28.701 Y105.5 E0.51703
G1 X28.683 Y105.291 E0.52679
G1 X28.629 Y105.089 E0.53653
G1 X28.54 Y104.9 E0.54626
G1 X28.42 Y104.728 E0.55602
G1 X28.272 Y104.58 E0.56577
G1 X28.1 Y104.46 E0.57553
G1 X27.911 Y104.371 E0.58526
G1 X27.709 Y104.317 E0.595
G1 X27.5 Y104.299 E0.60477
G1 X27.291 Y104.317 E0.61453
G1 X27.089 Y104.371 E0.62427
G1 X26.9 Y104.46 E0.634
G1 X26.728 Y104.58 E0.64376
G1 X26.58 Y104.728 E0.65351
G1 X26.46 Y104.9 E0.66328
G1 X26.371 Y105.089 E0.673
G1 X26.317 Y105.291 E0.68274
G1 X26.299 Y105.5 E0.69251
G1 X26.317 Y105.709 E0.70228
G1 X26.371 Y105.911 E0.71201
G1 X26.46 Y106.1 E0.72174
G1 X26.58 Y106.272 E0.7315
G1 X26.728 Y106.42 E0.74125
G1 X26.9 Y106.54 E0.75102
G1 X27.089 Y106.629 E0.76074
G1 X27.291 Y106.683 E0.77048
G1 X27.5 Y106.701 E0.78025
G1 X27.709 Y106.683 E0.79002
G1 X27.911 Y106.629 E0.79975
G1 X28.1 Y106.54 E0.80948
G1 X28.272 Y106.42 E0.81925
G0 F6000 X28.554 Y106.757
G1 F2700 E-4.18075
G0 F6000 X28.92 Y105.75
G0 X28.92 Y105.25
G0 X28.748 Y104.779
G0 X27.811 Y103.732
G0 X27.559 Y105.172
G0 X27.559 Y97.828
G0 X27.811 Y99.268
G0 X28.53 Y98.728
;TYPE:WALL-INNER
G1 F2700 E0.81925
G1 F1200 X28.728 Y98.53 E0.83228
G1 X28.887 Y98.301 E0.84527
G1 X29.006 Y98.049 E0.85824
G1 X29.079 Y97.778 E0.87131
G1 X29.102 Y97.5 E0.8843
G1 X29.079 Y97.222 E0.89729
G1 X29.006 Y96.951 E0.91036
G1 X28.887 Y96.699 E0.92333
G1 X28.728 Y96.47 E0.93632
G1 X28.53 Y96.272 E0.94935
G1 X28.301 Y96.113 E0.96234
G1 X28.049 Y95.994 E0.97531
G1 X27.778 Y95.921 E0.98838
G1 X27.5 Y95.898 E1.00137
G1 X27.222 Y95.921 E1.01436
G1 X26.951 Y95.994 E1.02743
G1 X26.699 Y96.113 E1.04041
G1 X26.47 Y96.272 E1.05339
G1 X26.272 Y96.47 E1.06643
G1 X26.113 Y96.699 E1.07941
G1 X25.994 Y96.951 E1.09238
G1 X25.921 Y97.222 E1.10545
G1 X25.898 Y97.5 E1.11844
G1 X25.921 Y97.778 E1.13143
G1 X25.994 Y98.049 E1.1445
G1 X26.113 Y98.301 E1.15748
G1 X26.272 Y98.53 E1.17046
G1 X26.47 Y98.728 E1.1835
G1 X26.699 Y98.887 E1.19648
G1 X26.951 Y99.006 E1.20945
G1 X27.222 Y99.079 E1.22252
G1 X27.5 Y99.102 E1.23551
G1 X27.778 Y99.079 E1.2485
G1 X28.049 Y99.006 E1.26157
G1 X28.301 Y98.887 E1.27455
G1 X28.53 Y98.728 E1.28753
G0 F6000 X28.272 Y98.42
;TYPE:WALL-OUTER
G1 F1200 X28.42 Y98.272 E1.29727
G1 X28.54 Y98.1 E1.30704
G1 X28.629 Y97.911 E1.31677
G1 X28.683 Y97.709 E1.3265
G1 X28.701 Y97.5 E1.33627
G1 X28.683 Y97.291 E1.34604
G1 X28.629 Y97.089 E1.35578
G1 X28.54 Y96.9 E1.3655
G1 X28.42 Y96.728 E1.37527
G1 X28.272 Y96.58 E1.38501
G1 X28.1 Y96.46 E1.39478
G1 X27.911 Y96.371 E1.40451
G1 X27.709 Y96.317 E1.41424
G1 X27.5 Y96.299 E1.42401
G1 X27.291 Y96.317 E1.43378
G1 X27.089 Y96.371 E1.44352
G1 X26.9 Y96.46 E1.45324
G1 X26.728 Y96.58 E1.46301
G1 X26.58 Y96.728 E1.47276
G1 X26.46 Y96.9 E1.48252
G1 X26.371 Y97.089 E1.49225
G1 X26.317 Y97.291 E1.50198
G1 X26.299 Y97.5 E1.51175
G1 X26.317 Y97.709 E1.52152
G1 X26.371 Y97.911 E1.53126
G1 X26.46 Y98.1 E1.54098
G1 X26.58 Y98.272 E1.55075
G1 X26.728 Y98.42 E1.5605
G1 X26.9 Y98.54 E1.57026
G1 X27.089 Y98.629 E1.57999
G1 X27.291 Y98.683 E1.58973
G1 X27.5 Y98.701 E1.59949
G1 X27.709 Y98.683 E1.60926
G1 X27.911 Y98.629 E1.619
G1 X28.1 Y98.54 E1.62873
G1 X28.272 Y98.42 E1.63849
G0 F6000 X28.554 Y98.757
G1 F2700 E-3.36151
G0 F6000 X28.92 Y97.75
G0 X28.92 Y97.25
G0 X28.748 Y96.779
G0 X27.811 Y95.732
G0 X27.559 Y97.172
G0 X27.559 Y89.828
G0 X27.811 Y91.268
G0 X28.53 Y90.728
;TYPE:WALL-INNER
G1 F2700 E1.63849
G1 F1200 X28.728 Y90.53 E1.65153
G1 X28.887 Y90.301 E1.66451
G1 X29.006 Y90.049 E1.67749
G1 X29.079 Y89.778 E1.69056
G1 X29.102 Y89.5 E1.70355
G1 X29.079 Y89.222 E1.71653
G1 X29.006 Y88.951 E1.7296
G1 X28.887 Y88.699 E1.74258
G1 X28.728 Y88.47 E1.75556
G1 X28.53 Y88.272 E1.7686
G1 X28.301 Y88.113 E1.78158
G1 X28.049 Y87.994 E1.79456
G1 X27.778 Y87.921 E1.80763
G1 X27.5 Y87.898 E1.82062
G1 X27.222 Y87.921 E1.83361
G1 X26.951 Y87.994 E1.84667
G1 X26.699 Y88.113 E1.85965
G1 X26.47 Y88.272 E1.87263
G1 X26.272 Y88.47 E1.88567
G1 X26.113 Y88.699 E1.89865
G1 X25.994 Y88.951 E1.91163
G1 X25.921 Y89.222 E1.9247
G1 X25.898 Y89.5 E1.93769
G1 X25.921 Y89.778 E1.95068
G1 X25.994 Y90.049 E1.96374
G1 X26.113 Y90.301 E1.97672
G1 X26.272 Y90.53 E1.9897
G1 X26.47 Y90.728 E2.00274
G1 X26.699 Y90.887 E2.01572
G1 X26.951 Y91.006 E2.0287
G1 X27.222 Y91.079 E2.04177
G1 X27.5 Y91.102 E2.05476
G1 X27.778 Y91.079 E2.06775
G1 X28.049 Y91.006 E2.08082
G1 X28.301 Y90.887 E2.09379
G1 X28.53 Y90.728 E2.10677
G0 F6000 X28.272 Y90.42
;TYPE:WALL-OUTER
G1 F1200 X28.42 Y90.272 E2.11652
G1 X28.54 Y90.1 E2.12628
G1 X28.629 Y89.911 E2.13601
G1 X28.683 Y89.709 E2.14575
G1 X28.701 Y89.5 E2.15552
G1 X28.683 Y89.291 E2.16528
G1 X28.629 Y89.089 E2.17502
G1 X28.54 Y88.9 E2.18475
G1 X28.42 Y88.728 E2.19451
G1 X28.272 Y88.58 E2.20426
G1 X28.1 Y88.46 E2.21403
G1 X27.911 Y88.371 E2.22375
G1 X27.709 Y88.317 E2.23349
G1 X27.5 Y88.299 E2.24326
G1 X27.291 Y88.317 E2.25303
G1 X27.089 Y88.371 E2.26276
G1 X26.9 Y88.46 E2.27249
G1 X26.728 Y88.58 E2.28225
G1 X26.58 Y88.728 E2.292
G1 X26.46 Y88.9 E2.30177
G1 X26.371 Y89.089 E2.31149
G1 X26.317 Y89.291 E2.32123
G1 X26.299 Y89.5 E2.331
G1 X26.317 Y89.709 E2.34077
G1 X26.371 Y89.911 E2.3505
G1 X26.46 Y90.1 E2.36023
G1 X26.58 Y90.272 E2.37
G1 X26.728 Y90.42 E2.37974
G1 X26.9 Y90.54 E2.38951
G1 X27.089 Y90.629 E2.39923
G1 X27.291 Y90.683 E2.40897
G1 X27.5 Y90.701 E2.41874
G1 X27.709 Y90.683 E2.42851
G1 X27.911 Y90.629 E2.43824
G1 X28.1 Y90.54 E2.44797
G1 X28.272 Y90.42 E2.45774
G0 F6000 X28.554 Y90.757
G1 F2700 E-2.54226
G0 F6000 X28.92 Y89.75
G0 X28.92 Y89.25
G0 X28.748 Y88.779
G0 X27.811 Y87.732
G0 X27.559 Y89.172
G0 X27.5 Y81.832
G0 X27.5 Y83.293
G0 X28.049 Y83.006
;TYPE:WALL-INNER
G1 F2700 E2.45774
G1 F1200 X28.301 Y82.887 E2.47071
G1 X28.53 Y82.728 E2.48369
G1 X28.728 Y82.53 E2.49673
G1 X28.887 Y82.301 E2.50971
G1 X29.006 Y82.049 E2.52269
G1 X29.079 Y81.778 E2.53576
G1 X29.102 Y81.5 E2.54875
G1 X29.079 Y81.222 E2.56174
G1 X29.006 Y80.951 E2.57481
G1 X28.887 Y80.699 E2.58778
G1 X28.728 Y80.47 E2.60077
G1 X28.53 Y80.272 E2.6138
G1 X28.301 Y80.113 E2.62679
G1 X28.049 Y79.994 E2.63976
G1 X27.778 Y79.921 E2.65283
G1 X27.5 Y79.898 E2.66582
G1 X27.222 Y79.921 E2.67881
G1 X26.951 Y79.994 E2.69188
G1 X26.699 Y80.113 E2.70485
G1 X26.47 Y80.272 E2.71784
G1 X26.272 Y80.47 E2.73087
G1 X26.113 Y80.699 E2.74386
G1 X25.994 Y80.951 E2.75683
G1 X25.921 Y81.222 E2.7699
G1 X25.898 Y81.5 E2.78289
G1 X25.921 Y81.778 E2.79588
G1 X25.994 Y82.049 E2.80895
G1 X26.113 Y82.301 E2.82192
G1 X26.272 Y82.53 E2.83491
G1 X26.47 Y82.728 E2.84795
G1 X26.699 Y82.887 E2.86093
G1 X26.951 Y83.006 E2.8739
G1 X27.222 Y83.079 E2.88697
G1 X27.5 Y83.102 E2.89996
G1 X27.778 Y83.079 E2.91295
G1 X28.049 Y83.006 E2.92602
G0 F6000 X27.911 Y82.629
;TYPE:WALL-OUTER
G1 F1200 X28.1 Y82.54 E2.93575
G1 X28.272 Y82.42 E2.94551
G1 X28.42 Y82.272 E2.95526
G1 X28.54 Y82.1 E2.96502
G1 X28.629 Y81.911 E2.97475
G1 X28.683 Y81.709 E2.98449
G1 X28.701 Y81.5 E2.99426
G1 X28.683 Y81.291 E3.00402
G1 X28.629 Y81.089 E3.01376
G1 X28.54 Y80.9 E3.02349
G1 X28.42 Y80.728 E3.03325
G1 X28.272 Y80.58 E3.043
G1 X28.1 Y80.46 E3.05276
G1 X27.911 Y80.371 E3.06249
G1 X27.709 Y80.317 E3.07223
G1 X27.5 Y80.299 E3.082
G1 X27.291 Y80.317 E3.09176
G1 X27.089 Y80.371 E3.1015
G1 X26.9 Y80.46 E3.11123
G1 X26.728 Y80.58 E3.12099
G1 X26.58 Y80.728 E3.13074
G1 X26.46 Y80.9 E3.14051
G1 X26.371 Y81.089 E3.15023
G1 X26.317 Y81.291 E3.15997
G1 X26.299 Y81.5 E3.16974
G1 X26.317 Y81.709 E3.1795
G1 X26.371 Y81.911 E3.18924
G1 X26.46 Y82.1 E3.19897
G1 X26.58 Y82.272 E3.20873
G1 X26.728 Y82.42 E3.21848
G1 X26.9 Y82.54 E3.22825
G1 X27.089 Y82.629 E3.23797
G1 X27.291 Y82.683 E3.24771
G1 X27.5 Y82.701 E3.25748
G1 X27.709 Y82.683 E3.26725
G1 X27.911 Y82.629 E3.27698
G0 F6000 X28.062 Y83.042
G1 F2700 E-1.72302
G0 F6000 X28.748 Y82.221
G0 X28.92 Y81.75
G0 X28.92 Y81.25
G0 X28.748 Y80.779
G0 X27.811 Y79.732
G0 X27.559 Y81.172
G0 X27.5 Y73.832
G0 X27.5 Y75.293
G0 X28.049 Y75.006
;TYPE:WALL-INNER
G1 F2700 E3.27698
G1 F1200 X28.301 Y74.887 E3.28996
G1 X28.53 Y74.728 E3.30294
G1 X28.728 Y74.53 E3.31598
G1 X28.887 Y74.301 E3.32896
G1 X29.006 Y74.049 E3.34194
G1 X29.079 Y73.778 E3.35501
G1 X29.102 Y73.5 E3.36799
G1 X29.079 Y73.222 E3.38098
G1 X29.006 Y72.951 E3.39405
G1 X28.887 Y72.699 E3.40703
G1 X28.728 Y72.47 E3.42001
G1 X28.53 Y72.272 E3.43305
G1 X28.301 Y72.113 E3.44603
G1 X28.049 Y71.994 E3.45901
G1 X27.778 Y71.921 E3.47208
G1 X27.5 Y71.898 E3.48507
G1 X27.222 Y71.921 E3.49805
G1 X26.951 Y71.994 E3.51112
G1 X26.699 Y72.113 E3.5241
G1 X26.47 Y72.272 E3.53708
G1 X26.272 Y72.47 E3.55012
G1 X26.113 Y72.699 E3.5631
G1 X25.994 Y72.951 E3.57608
G1 X25.921 Y73.222 E3.58915
G1 X25.898 Y73.5 E3.60214
G1 X25.921 Y73.778 E3.61513
G1 X25.994 Y74.049 E3.62819
G1 X26.113 Y74.301 E3.64117
G1 X26.272 Y74.53 E3.65415
G1 X26.47 Y74.728 E3.66719
G1 X26.699 Y74.887 E3.68017
G1 X26.951 Y75.006 E3.69315
G1 X27.222 Y75.079 E3.70622
G1 X27.5 Y75.102 E3.71921
G1 X27.778 Y75.079 E3.7322
G1 X28.049 Y75.006 E3.74526
G0 F6000 X27.911 Y74.629
;TYPE:WALL-OUTER
G1 F1200 X28.1 Y74.54 E3.75499
G1 X28.272 Y74.42 E3.76476
G1 X28.42 Y74.272 E3.7745
G1 X28.54 Y74.1 E3.78427
G1 X28.629 Y73.911 E3.794
G1 X28.683 Y73.709 E3.80373
G1 X28.701 Y73.5 E3.8135
G1 X28.683 Y73.291 E3.82327
G1 X28.629 Y73.089 E3.83301
G1 X28.54 Y72.9 E3.84273
G1 X28.42 Y72.728 E3.8525
G1 X28.272 Y72.58 E3.86224
G1 X28.1 Y72.46 E3.87201
G1 X27.911 Y72.371 E3.88174
G1 X27.709 Y72.317 E3.89147
G1 X27.5 Y72.299 E3.90124
G1 X27.291 Y72.317 E3.91101
G1 X27.089 Y72.371 E3.92075
G1 X26.9 Y72.46 E3.93047
G1 X26.728 Y72.58 E3.94024
G1 X26.58 Y72.728 E3.94999
G1 X26.46 Y72.9 E3.95975
G1 X26.371 Y73.089 E3.96948
G1 X26.317 Y73.291 E3.97921
G1 X26.299 Y73.5 E3.98898
G1 X26.317 Y73.709 E3.99875
G1 X26.371 Y73.911 E4.00849
G1 X26.46 Y74.1 E4.01821
G1 X26.58 Y74.272 E4.02798
G1 X26.728 Y74.42 E4.03773
G1 X26.9 Y74.54 E4.04749
G1 X27.089 Y74.629 E4.05722
G1 X27.291 Y74.683 E4.06696
G1 X27.5 Y74.701 E4.07672
G1 X27.709 Y74.683 E4.08649
G1 X27.911 Y74.629 E4.09623
G0 F6000 X28.062 Y75.042
G1 F2700 E-0.90377
G0 F6000 X28.748 Y74.221
G0 X28.92 Y73.75
G0 X28.92 Y73.25
G0 X28.748 Y72.779
G0 X27.811 Y71.732
G0 X27.559 Y73.172
G0 X27.5 Y65.832
G0 X27.5 Y67.293
G0 X28.049 Y67.006
;TYPE:WALL-INNER
G1 F2700 E4.09623
G1 F1200 X28.301 Y66.887 E4.1092
G1 X28.53 Y66.728 E4.12219
G1 X28.728 Y66.53 E4.13522
G1 X28.887 Y66.301 E4.14821
G1 X29.006 Y66.049 E4.16118
G1 X29.079 Y65.778 E4.17425
G1 X29.102 Y65.5 E4.18724
G1 X29.079 Y65.222 E4.20023
G1 X29.006 Y64.951 E4.2133
G1 X28.887 Y64.699 E4.22627
G1 X28.728 Y64.47 E4.23926
G1 X28.53 Y64.272 E4.25229
G1 X28.301 Y64.113 E4.26528
G1 X28.049 Y63.994 E4.27825
G1 X27.778 Y63.921 E4.29132
G1 X27.5 Y63.898 E4.30431
G1 X27.222 Y63.921 E4.3173
G1 X26.951 Y63.994 E4.33037
G1 X26.699 Y64.113 E4.34335
G1 X26.47 Y64.272 E4.35633
G1 X26.272 Y64.47 E4.36937
G1 X26.113 Y64.699 E4.38235
G1 X25.994 Y64.951 E4.39532
G1 X25.921 Y65.222 E4.40839
G1 X25.898 Y65.5 E4.42138
G1 X25.921 Y65.778 E4.43437
G1 X25.994 Y66.049 E4.44744
G1 X26.113 Y66.301 E4.46042
G1 X26.272 Y66.53 E4.4734
G1 X26.47 Y66.728 E4.48644
G1 X26.699 Y66.887 E4.49942
G1 X26.951 Y67.006 E4.51239
G1 X27.222 Y67.079 E4.52546
G1 X27.5 Y67.102 E4.53845
G1 X27.778 Y67.079 E4.55144
G1 X28.049 Y67.006 E4.56451
G0 F6000 X27.911 Y66.629
;TYPE:WALL-OUTER
G1 F1200 X28.1 Y66.54 E4.57424
G1 X28.272 Y66.42 E4.584
G1 X28.42 Y66.272 E4.59375
G1 X28.54 Y66.1 E4.60351
G1 X28.629 Y65.911 E4.61324
G1 X28.683 Y65.709 E4.62298
G1 X28.701 Y65.5 E4.63275
G1 X28.683 Y65.291 E4.64251
G1 X28.629 Y65.089 E4.65225
G1 X28.54 Y64.9 E4.66198
G1 X28.42 Y64.728 E4.67174
G1 X28.272 Y64.58 E4.68149
G1 X28.1 Y64.46 E4.69126
G1 X27.911 Y64.371 E4.70098
G1 X27.709 Y64.317 E4.71072
G1 X27.5 Y64.299 E4.72049
G1 X27.291 Y64.317 E4.73026
G1 X27.089 Y64.371 E4.73999
G1 X26.9 Y64.46 E4.74972
G1 X26.728 Y64.58 E4.75948
G1 X26.58 Y64.728 E4.76923
G1 X26.46 Y64.9 E4.779
G1 X26.371 Y65.089 E4.78872
G1 X26.317 Y65.291 E4.79846
G1 X26.299 Y65.5 E4.80823
G1 X26.317 Y65.709 E4.818
G1 X26.371 Y65.911 E4.82773
G1 X26.46 Y66.1 E4.83746
G1 X26.58 Y66.272 E4.84723
G1 X26.728 Y66.42 E4.85697
G1 X26.9 Y66.54 E4.86674
G1 X27.089 Y66.629 E4.87646
G1 X27.291 Y66.683 E4.8862
G1 X27.5 Y66.701 E4.89597
G1 X27.709 Y66.683 E4.90574
G1 X27.911 Y66.629 E4.91547
G0 F6000 X28.062 Y67.042
G1 F2700 E-0.08453
G0 F6000 X28.748 Y66.221
G0 X28.92 Y65.75
G0 X28.92 Y65.25
G0 X28.748 Y64.779
G0 X27.811 Y63.732
G0 X27.559 Y65.172
G0 X27.5 Y57.832
G0 X27.5 Y59.293
G0 X28.049 Y59.006
;TYPE:WALL-INNER
G1 F2700 E4.91547
G1 F1200 X28.301 Y58.887 E4.92845
G1 X28.53 Y58.728 E4.94143
G1 X28.728 Y58.53 E4.95447
G1 X28.887 Y58.301 E4.96745
G1 X29.006 Y58.049 E4.98043
G1 X29.079 Y57.778 E4.9935
G1 X29.102 Y57.5 E5.00649
G1 X29.079 Y57.222 E5.01947
G1 X29.006 Y56.951 E5.03254
G1 X28.887 Y56.699 E5.04552
G1 X28.728 Y56.47 E5.0585
G1 X28.53 Y56.272 E5.07154
G1 X28.301 Y56.113 E5.08452
G1 X28.049 Y55.994 E5.0975
G1 X27.778 Y55.921 E5.11057
G1 X27.5 Y55.898 E5.12356
G1 X27.222 Y55.921 E5.13655
G1 X26.951 Y55.994 E5.14961
G1 X26.699 Y56.113 E5.16259
G1 X26.47 Y56.272 E5.17557
G1 X26.272 Y56.47 E5.18861
G1 X26.113 Y56.699 E5.20159
G1 X25.994 Y56.951 E5.21457
G1 X25.921 Y57.222 E5.22764
G1 X25.898 Y57.5 E5.24063
G1 X25.921 Y57.778 E5.25362
G1 X25.994 Y58.049 E5.26668
G1 X26.113 Y58.301 E5.27966
G1 X26.272 Y58.53 E5.29264
G1 X26.47 Y58.728 E5.30568
G1 X26.699 Y58.887 E5.31866
G1 X26.951 Y59.006 E5.33164
G1 X27.222 Y59.079 E5.34471
G1 X27.5 Y59.102 E5.3577
G1 X27.778 Y59.079 E5.37069
G1 X28.049 Y59.006 E5.38376
G0 F6000 X27.911 Y58.629
;TYPE:WALL-OUTER
G1 F1200 X28.1 Y58.54 E5.39348
G1 X28.272 Y58.42 E5.40325
G1 X28.42 Y58.272 E5.41299
G1 X28.54 Y58.1 E5.42276
G1 X28.629 Y57.911 E5.43249
G1 X28.683 Y57.709 E5.44222
G1 X28.701 Y57.5 E5.45199
G1 X28.683 Y57.291 E5.46176
G1 X28.629 Y57.089 E5.4715
G1 X28.54 Y56.9 E5.48122
G1 X28.42 Y56.728 E5.49099
G1 X28.272 Y56.58 E5.50074
G1 X28.1 Y56.46 E5.5105
G1 X27.911 Y56.371 E5.52023
G1 X27.709 Y56.317 E5.52996
G1 X27.5 Y56.299 E5.53973
G1 X27.291 Y56.317 E5.5495
G1 X27.089 Y56.371 E5.55924
G1 X26.9 Y56.46 E5.56896
