;FLAVOR:Marlin
;TIME:3058
;Filament used: 2.78148m
;Layer height: 0.28
;MINX:81.65
;MINY:81.65
;MINZ:0.28
;MAXX:153.35
;MAXY:153.35
;MAXZ:9.8
;Generated with Cura_SteamEngine 4.7.0
M140 S65
M105
M190 S65
M104 S225
M105
M109 S225
M82 ;absolute extrusion mode
; Ender 3 Custom Start G-code
G92 E0 ; Reset Extruder
G28 ; Home all axes
G1 Z2.0 F3000 ; Move Z Axis up little to prevent scratching of Heat Bed
G1 X0.1 Y20 Z0.3 F5000.0 ; Move to start position
G1 X0.1 Y200.0 Z0.3 F1500.0 E15 ; Draw the first line
G1 X0.4 Y200.0 Z0.3 F5000.0 ; Move to side a little
G1 X0.4 Y20 Z0.3 F1500.0 E30 ; Draw the second line
G92 E0 ; Reset Extruder
G1 Z2.0 F3000 ; Move Z Axis up little to prevent scratching of Heat Bed
G1 X5 Y20 Z0.3 F5000.0 ; Move over to prevent blob squish
G92 E0
G92 E0
G1 F2700 E-5
;LAYER_COUNT:35
;LAYER:0
M107
G0 F6000 X85.818 Y85.482 Z0.28
;TYPE:SKIRT
G1 F2700 E0
G1 F1200 X86.103 Y85.212 E0.01828
G1 X87.058 Y84.408 E0.07641
G1 X87.113 Y84.367 E0.0796
G1 X87.799 Y83.897 E0.11833
G1 X88.134 Y83.686 E0.13676
G1 X89.071 Y83.16 E0.1868
G1 X89.47 Y82.962 E0.20754
G1 X90.312 Y82.589 E0.25042
G1 X90.759 Y82.425 E0.27259
G1 X90.97 Y82.353 E0.28297
G1 X91.792 Y82.109 E0.3229
G1 X91.954 Y82.068 E0.33068
G1 X92.782 Y81.893 E0.37009
G1 X93.171 Y81.827 E0.38846
G1 X94.084 Y81.713 E0.4313
G1 X94.723 Y81.68 E0.4611
G1 X96.065 Y81.652 E0.5236
G1 X96.286 Y81.65 E0.53389
G1 X139.097 Y81.65 E2.52735
G1 X139.949 Y81.661 E2.56702
G1 X140.467 Y81.681 E2.59116
G1 X140.72 Y81.697 E2.60297
G1 X141.396 Y81.762 E2.63459
G1 X141.568 Y81.784 E2.64266
G1 X142.627 Y81.974 E2.69276
G1 X143.035 Y82.069 E2.71227
G1 X143.845 Y82.292 E2.75139
G1 X143.911 Y82.313 E2.75461
G1 X144.382 Y82.475 E2.77781
G1 X144.587 Y82.551 E2.78799
G1 X145.268 Y82.831 E2.82227
G1 X145.632 Y83.001 E2.84098
G1 X145.814 Y83.09 E2.85041
G1 X146.49 Y83.451 E2.8861
G1 X146.636 Y83.536 E2.89397
G1 X147.479 Y84.082 E2.94073
G1 X147.758 Y84.282 E2.95672
G1 X148.562 Y84.92 E3.00451
G1 X148.802 Y85.13 E3.01936
G1 X149.519 Y85.819 E3.06566
G1 X149.786 Y86.101 E3.08375
G1 X150.464 Y86.891 E3.13222
G1 X150.509 Y86.949 E3.13564
G1 X151.111 Y87.81 E3.18456
G1 X151.322 Y88.146 E3.20303
G1 X151.835 Y89.062 E3.25192
G1 X152.032 Y89.458 E3.27252
G1 X152.406 Y90.299 E3.31537
G1 X152.569 Y90.742 E3.33735
G1 X152.642 Y90.955 E3.34784
G1 X152.895 Y91.806 E3.38918
G1 X152.936 Y91.969 E3.397
G1 X153.105 Y92.773 E3.43526
G1 X153.171 Y93.16 E3.45354
G1 X153.286 Y94.073 E3.49639
G1 X153.32 Y94.721 E3.52661
G1 X153.348 Y96.065 E3.5892
G1 X153.35 Y96.286 E3.59949
G1 X153.349 Y139.238 E5.59952
G1 X153.34 Y139.914 E5.631
G1 X153.323 Y140.398 E5.65355
G1 X153.307 Y140.669 E5.66619
G1 X153.244 Y141.351 E5.69808
G1 X153.222 Y141.528 E5.70639
G1 X153.024 Y142.638 E5.75889
G1 X152.928 Y143.048 E5.7785
G1 X152.708 Y143.845 E5.817
G1 X152.687 Y143.911 E5.82022
G1 X152.524 Y144.385 E5.84356
G1 X152.452 Y144.579 E5.8532
G1 X152.215 Y145.164 E5.88259
G1 X152.178 Y145.248 E5.88686
G1 X151.986 Y145.659 E5.90798
G1 X151.886 Y145.862 E5.91852
G1 X151.498 Y146.578 E5.95644
G1 X151.424 Y146.703 E5.96321
G1 X150.918 Y147.479 E6.00634
G1 X150.718 Y147.758 E6.02233
G1 X150.08 Y148.562 E6.07012
G1 X149.87 Y148.802 E6.08497
G1 X149.184 Y149.516 E6.13107
G1 X148.898 Y149.787 E6.14942
G1 X147.942 Y150.592 E6.20762
G1 X147.887 Y150.633 E6.21081
G1 X147.201 Y151.103 E6.24953
G1 X146.866 Y151.314 E6.26797
G1 X145.929 Y151.84 E6.318
G1 X145.53 Y152.038 E6.33874
G1 X144.688 Y152.411 E6.38163
G1 X144.241 Y152.575 E6.4038
G1 X144.03 Y152.647 E6.41418
G1 X143.208 Y152.891 E6.4541
G1 X143.046 Y152.932 E6.46189
G1 X142.218 Y153.107 E6.50129
G1 X141.829 Y153.173 E6.51966
G1 X140.916 Y153.287 E6.56251
G1 X140.277 Y153.32 E6.5923
G1 X138.935 Y153.348 E6.6548
G1 X138.714 Y153.35 E6.6651
G1 X95.752 Y153.349 E8.66559
G1 X95.052 Y153.339 E8.69818
G1 X94.537 Y153.319 E8.72218
G1 X94.283 Y153.303 E8.73403
G1 X93.604 Y153.238 E8.7658
G1 X93.432 Y153.216 E8.77387
G1 X92.373 Y153.026 E8.82397
G1 X91.965 Y152.931 E8.84348
G1 X91.155 Y152.708 E8.8826
G1 X91.089 Y152.687 E8.88582
G1 X90.618 Y152.525 E8.90901
G1 X90.413 Y152.449 E8.91919
G1 X89.732 Y152.169 E8.95348
G1 X89.357 Y151.994 E8.97275
G1 X89.147 Y151.891 E8.98364
G1 X88.35 Y151.457 E9.0259
G1 X88.232 Y151.386 E9.03231
G1 X87.516 Y150.914 E9.07224
G1 X87.236 Y150.713 E9.08829
G1 X86.439 Y150.081 E9.13566
G1 X86.2 Y149.872 E9.15044
G1 X85.484 Y149.184 E9.19668
G1 X85.213 Y148.898 E9.21502
G1 X84.427 Y147.967 E9.27176
G1 X84.385 Y147.911 E9.27502
G1 X83.888 Y147.188 E9.31587
G1 X83.677 Y146.852 E9.33435
G1 X83.164 Y145.936 E9.38323
G1 X82.967 Y145.54 E9.40383
G1 X82.593 Y144.699 E9.44668
G1 X82.42 Y144.228 E9.47005
G1 X82.348 Y144.016 E9.48047
G1 X82.109 Y143.208 E9.51971
G1 X82.068 Y143.046 E9.52749
G1 X81.893 Y142.218 E9.5669
G1 X81.827 Y141.829 E9.58527
G1 X81.713 Y140.916 E9.62811
G1 X81.68 Y140.277 E9.65791
G1 X81.652 Y138.935 E9.72041
G1 X81.65 Y138.714 E9.7307
G1 X81.651 Y95.752 E11.73119
G1 X81.661 Y95.052 E11.76379
G1 X81.68 Y94.557 E11.78686
G1 X81.696 Y94.295 E11.79908
G1 X81.77 Y93.532 E11.83477
G1 X81.792 Y93.368 E11.84248
G1 X81.974 Y92.373 E11.88958
G1 X82.069 Y91.965 E11.90909
G1 X82.292 Y91.155 E11.94821
G1 X82.313 Y91.089 E11.95143
G1 X82.475 Y90.618 E11.97462
G1 X82.551 Y90.413 E11.9848
G1 X82.831 Y89.732 E12.01909
G1 X83.001 Y89.367 E12.03784
G1 X83.092 Y89.181 E12.04748
G1 X83.463 Y88.49 E12.084
G1 X83.546 Y88.348 E12.09166
G1 X84.082 Y87.521 E12.13755
G1 X84.282 Y87.242 E12.15353
G1 X84.922 Y86.436 E12.20146
G1 X85.133 Y86.195 E12.21637
G1 X85.818 Y85.482 E12.26241
G0 F6000 X86.093 Y85.772
G1 F1200 X86.378 Y85.502 E12.28069
G1 X87.297 Y84.729 E12.33661
G1 X87.352 Y84.688 E12.3398
G1 X88.012 Y84.235 E12.37708
G1 X88.347 Y84.024 E12.39551
G1 X89.249 Y83.518 E12.44367
G1 X89.648 Y83.32 E12.46441
G1 X90.888 Y82.804 E12.52695
G1 X91.099 Y82.732 E12.53733
G1 X91.89 Y82.497 E12.57576
G1 X92.052 Y82.456 E12.58354
G1 X92.849 Y82.288 E12.62147
G1 X93.238 Y82.222 E12.63984
G1 X94.134 Y82.11 E12.68188
G1 X94.731 Y82.08 E12.70972
G1 X96.073 Y82.052 E12.77222
G1 X96.286 Y82.05 E12.78214
G1 X139.097 Y82.05 E14.7756
G1 X139.943 Y82.061 E14.815
G1 X140.442 Y82.08 E14.83825
G1 X140.695 Y82.096 E14.85005
G1 X141.345 Y82.158 E14.88046
G1 X141.517 Y82.18 E14.88853
G1 X142.536 Y82.364 E14.93675
G1 X142.944 Y82.459 E14.95625
G1 X143.724 Y82.673 E14.99392
G1 X143.79 Y82.694 E14.99714
G1 X144.243 Y82.85 E15.01945
G1 X144.448 Y82.926 E15.02963
G1 X145.104 Y83.196 E15.06266
G1 X145.456 Y83.36 E15.08075
G1 X145.638 Y83.449 E15.09018
G1 X146.289 Y83.797 E15.12455
G1 X146.435 Y83.882 E15.13242
G1 X147.246 Y84.407 E15.1774
G1 X147.525 Y84.607 E15.19339
G1 X148.299 Y85.221 E15.23939
G1 X148.539 Y85.431 E15.25424
G1 X149.229 Y86.094 E15.2988
G1 X149.496 Y86.376 E15.31688
G1 X150.148 Y87.136 E15.36351
G1 X150.193 Y87.194 E15.36693
G1 X150.772 Y88.023 E15.41401
G1 X150.983 Y88.359 E15.43249
G1 X151.477 Y89.24 E15.47952
G1 X151.674 Y89.636 E15.50011
G1 X152.191 Y90.872 E15.5625
G1 X152.264 Y91.085 E15.57298
G1 X152.507 Y91.904 E15.61276
G1 X152.548 Y92.067 E15.62059
G1 X152.711 Y92.84 E15.65738
G1 X152.777 Y93.227 E15.67566
G1 X152.889 Y94.123 E15.7177
G1 X152.92 Y94.73 E15.746
G1 X152.948 Y96.074 E15.8086
G1 X152.95 Y96.286 E15.81847
G1 X152.949 Y139.233 E17.81826
G1 X152.94 Y139.909 E17.84974
G1 X152.923 Y140.374 E17.87141
G1 X152.907 Y140.645 E17.88405
G1 X152.847 Y141.302 E17.91477
G1 X152.825 Y141.479 E17.92308
G1 X152.634 Y142.546 E17.97355
G1 X152.538 Y142.956 E17.99316
G1 X152.327 Y143.724 E18.03024
G1 X152.306 Y143.79 E18.03347
G1 X152.149 Y144.246 E18.05593
G1 X152.077 Y144.44 E18.06556
G1 X151.849 Y145.003 E18.09385
G1 X151.812 Y145.087 E18.09812
G1 X151.627 Y145.482 E18.11843
G1 X151.527 Y145.685 E18.12897
G1 X151.154 Y146.374 E18.16545
G1 X151.08 Y146.499 E18.17221
G1 X150.593 Y147.246 E18.21374
G1 X150.393 Y147.525 E18.22972
G1 X149.779 Y148.299 E18.27572
G1 X149.569 Y148.539 E18.29057
G1 X148.909 Y149.226 E18.33493
G1 X148.623 Y149.497 E18.35328
G1 X147.703 Y150.271 E18.40926
G1 X147.648 Y150.312 E18.41246
G1 X146.988 Y150.765 E18.44973
G1 X146.653 Y150.976 E18.46817
G1 X145.751 Y151.482 E18.51633
G1 X145.352 Y151.68 E18.53707
G1 X144.112 Y152.196 E18.59961
G1 X143.901 Y152.268 E18.60999
G1 X143.11 Y152.503 E18.64841
G1 X142.948 Y152.544 E18.65619
G1 X142.151 Y152.712 E18.69412
G1 X141.762 Y152.778 E18.71249
G1 X140.866 Y152.89 E18.75454
G1 X140.269 Y152.92 E18.78237
G1 X138.927 Y152.948 E18.84487
G1 X138.714 Y152.95 E18.85479
G1 X95.757 Y152.949 E20.85505
G1 X95.057 Y152.939 E20.88765
G1 X94.562 Y152.92 E20.91072
G1 X94.308 Y152.904 E20.92257
G1 X93.655 Y152.842 E20.95311
G1 X93.483 Y152.82 E20.96118
G1 X92.464 Y152.636 E21.0094
G1 X92.056 Y152.541 E21.02891
G1 X91.276 Y152.327 E21.06657
G1 X91.21 Y152.306 E21.06979
G1 X90.757 Y152.15 E21.0921
G1 X90.552 Y152.074 E21.10228
G1 X89.896 Y151.804 E21.13532
G1 X89.533 Y151.635 E21.15396
G1 X89.323 Y151.532 E21.16485
G1 X88.556 Y151.114 E21.20553
G1 X88.438 Y151.043 E21.21194
G1 X87.749 Y150.589 E21.25036
G1 X87.469 Y150.388 E21.26641
G1 X86.703 Y149.78 E21.31195
G1 X86.464 Y149.571 E21.32673
G1 X85.774 Y148.909 E21.37126
G1 X85.503 Y148.623 E21.3896
G1 X84.747 Y147.727 E21.44419
G1 X84.705 Y147.671 E21.44745
G1 X84.227 Y146.975 E21.48677
G1 X84.016 Y146.639 E21.50524
G1 X83.522 Y145.758 E21.55227
G1 X83.325 Y145.362 E21.57287
G1 X82.959 Y144.537 E21.6149
G1 X82.799 Y144.099 E21.63661
G1 X82.727 Y143.887 E21.64703
G1 X82.497 Y143.11 E21.68477
G1 X82.456 Y142.948 E21.69255
G1 X82.288 Y142.151 E21.73047
G1 X82.222 Y141.762 E21.74885
G1 X82.11 Y140.866 E21.79089
G1 X82.08 Y140.269 E21.81873
G1 X82.052 Y138.927 E21.88123
G1 X82.05 Y138.714 E21.89115
G1 X82.051 Y95.757 E23.89141
G1 X82.061 Y95.057 E23.924
G1 X82.079 Y94.581 E23.94618
G1 X82.095 Y94.319 E23.95841
G1 X82.167 Y93.585 E23.99275
G1 X82.189 Y93.421 E24.00045
G1 X82.364 Y92.464 E24.04576
G1 X82.459 Y92.056 E24.06526
G1 X82.673 Y91.276 E24.10292
G1 X82.694 Y91.21 E24.10615
G1 X82.85 Y90.757 E24.12846
G1 X82.926 Y90.552 E24.13864
G1 X83.196 Y89.896 E24.17167
G1 X83.361 Y89.542 E24.18986
G1 X83.452 Y89.356 E24.1995
G1 X83.808 Y88.692 E24.23458
G1 X83.891 Y88.55 E24.24224
G1 X84.407 Y87.754 E24.28641
G1 X84.607 Y87.475 E24.3024
G1 X85.223 Y86.699 E24.34853
G1 X85.434 Y86.458 E24.36345
G1 X86.093 Y85.772 E24.40774
G1 F2700 E19.40774
;MESH:60mmlower.stl
G0 F6000 X97.313 Y131.585
G0 X96.199 Y130.648
G0 X95.472 Y132.239
;TYPE:WALL-INNER
G1 F2700 E24.40774
G1 F1200 X95.327 Y132.644 E24.42777
G1 X95.213 Y133.056 E24.44768
G1 X95.131 Y133.478 E24.46769
G1 X95.082 Y133.906 E24.48775
G1 X95.067 Y134.333 E24.50765
G1 X95.082 Y134.761 E24.52759
G1 X95.131 Y135.189 E24.54765
G1 X95.213 Y135.611 E24.56767
G1 X95.327 Y136.023 E24.58757
G1 X95.472 Y136.427 E24.60756
G1 X95.648 Y136.819 E24.62757
G1 X95.853 Y137.194 E24.64747
G1 X96.085 Y137.555 E24.66745
G1 X96.346 Y137.897 E24.68748
G1 X96.632 Y138.217 E24.70747
G1 X96.941 Y138.514 E24.72742
G1 X97.272 Y138.787 E24.7474
G1 X97.622 Y139.034 E24.76735
G1 X97.99 Y139.253 E24.78729
G1 X98.376 Y139.444 E24.80734
G1 X98.774 Y139.604 E24.82732
G1 X99.182 Y139.734 E24.84726
G1 X99.601 Y139.832 E24.86729
G1 X100.024 Y139.897 E24.88722
G1 X100.451 Y139.93 E24.90716
G1 X100.882 Y139.93 E24.92723
G1 X101.309 Y139.897 E24.94718
G1 X101.733 Y139.832 E24.96715
G1 X102.152 Y139.734 E24.98719
G1 X102.56 Y139.604 E25.00713
G1 X102.958 Y139.444 E25.0271
G1 X103.342 Y139.254 E25.04705
G1 X103.712 Y139.034 E25.06709
G1 X104.062 Y138.787 E25.08704
G1 X104.392 Y138.514 E25.10698
G1 X104.701 Y138.217 E25.12694
G1 X104.987 Y137.897 E25.14693
G1 X105.247 Y137.555 E25.16693
G1 X105.481 Y137.194 E25.18696
G1 X105.685 Y136.819 E25.20684
G1 X105.861 Y136.427 E25.22685
G1 X106.007 Y136.023 E25.24685
G1 X106.12 Y135.61 E25.26679
G1 X106.202 Y135.189 E25.28676
G1 X106.251 Y134.762 E25.30677
G1 X106.267 Y134.333 E25.32676
G1 X106.251 Y133.905 E25.34671
G1 X106.202 Y133.478 E25.36672
G1 X106.12 Y133.057 E25.38669
G1 X106.007 Y132.644 E25.40663
G1 X105.861 Y132.239 E25.42668
G1 X105.685 Y131.848 E25.44664
G1 X105.481 Y131.472 E25.46656
G1 X105.247 Y131.111 E25.48659
G1 X104.987 Y130.77 E25.50656
G1 X104.701 Y130.449 E25.52658
G1 X104.392 Y130.153 E25.54651
G1 X104.062 Y129.88 E25.56645
G1 X103.712 Y129.633 E25.5864
G1 X103.342 Y129.413 E25.60644
G1 X102.958 Y129.223 E25.62639
G1 X102.56 Y129.063 E25.64636
G1 X102.151 Y128.933 E25.66635
G1 X101.733 Y128.836 E25.68633
G1 X101.309 Y128.769 E25.70632
G1 X100.881 Y128.737 E25.7263
G1 X100.452 Y128.737 E25.74628
G1 X100.024 Y128.769 E25.76626
G1 X99.601 Y128.836 E25.78621
G1 X99.183 Y128.933 E25.80619
G1 X98.774 Y129.063 E25.82617
G1 X98.376 Y129.223 E25.84614
G1 X97.99 Y129.414 E25.8662
G1 X97.622 Y129.633 E25.88614
G1 X97.273 Y129.88 E25.90605
G1 X96.941 Y130.152 E25.92603
G1 X96.631 Y130.45 E25.94606
G1 X96.346 Y130.77 E25.96601
G1 X96.086 Y131.112 E25.98601
G1 X95.853 Y131.472 E26.00598
G1 X95.648 Y131.848 E26.02592
G1 X95.472 Y132.239 E26.04589
G0 F6000 X95.843 Y132.389
;TYPE:WALL-OUTER
G1 F1200 X95.709 Y132.765 E26.06447
G1 X95.603 Y133.148 E26.08298
G1 X95.527 Y133.539 E26.10153
G1 X95.481 Y133.936 E26.12014
G1 X95.467 Y134.333 E26.13863
G1 X95.481 Y134.731 E26.15718
G1 X95.527 Y135.128 E26.17579
G1 X95.603 Y135.519 E26.19433
G1 X95.709 Y135.902 E26.21284
G1 X95.843 Y136.277 E26.23138
G1 X96.007 Y136.641 E26.24997
G1 X96.197 Y136.99 E26.26848
G1 X96.413 Y137.325 E26.28704
G1 X96.655 Y137.642 E26.30561
G1 X96.92 Y137.939 E26.32414
G1 X97.207 Y138.215 E26.34268
G1 X97.515 Y138.469 E26.36127
G1 X97.84 Y138.698 E26.37978
G1 X98.182 Y138.902 E26.39833
G1 X98.539 Y139.079 E26.41688
G1 X98.909 Y139.227 E26.43544
G1 X99.289 Y139.348 E26.45401
G1 X99.677 Y139.439 E26.47256
G1 X100.07 Y139.499 E26.49108
G1 X100.467 Y139.53 E26.50962
G1 X100.866 Y139.53 E26.5282
G1 X101.263 Y139.499 E26.54674
G1 X101.657 Y139.439 E26.5653
G1 X102.045 Y139.348 E26.58385
G1 X102.425 Y139.227 E26.60242
G1 X102.794 Y139.079 E26.62094
G1 X103.151 Y138.902 E26.63949
G1 X103.494 Y138.698 E26.65807
G1 X103.819 Y138.469 E26.67659
G1 X104.126 Y138.215 E26.69514
G1 X104.413 Y137.939 E26.71368
G1 X104.678 Y137.642 E26.73222
G1 X104.92 Y137.325 E26.75079
G1 X105.137 Y136.99 E26.76937
G1 X105.326 Y136.641 E26.78785
G1 X105.49 Y136.277 E26.80644
G1 X105.625 Y135.902 E26.825
G1 X105.73 Y135.519 E26.84349
G1 X105.806 Y135.128 E26.86204
G1 X105.852 Y134.731 E26.88065
G1 X105.867 Y134.333 E26.8992
G1 X105.852 Y133.936 E26.9177
G1 X105.806 Y133.539 E26.93631
G1 X105.73 Y133.148 E26.95485
G1 X105.625 Y132.765 E26.97334
G1 X105.49 Y132.389 E26.99195
G1 X105.326 Y132.026 E27.01049
G1 X105.137 Y131.676 E27.02902
G1 X104.92 Y131.342 E27.04756
G1 X104.678 Y131.025 E27.06613
G1 X104.413 Y130.727 E27.0847
G1 X104.126 Y130.452 E27.10321
G1 X103.819 Y130.198 E27.12177
G1 X103.494 Y129.969 E27.14028
G1 X103.151 Y129.765 E27.15886
G1 X102.794 Y129.588 E27.17742
G1 X102.425 Y129.44 E27.19593
G1 X102.045 Y129.319 E27.2145
G1 X101.657 Y129.229 E27.23304
G1 X101.263 Y129.167 E27.25162
G1 X100.866 Y129.137 E27.27016
G1 X100.467 Y129.137 E27.28873
G1 X100.07 Y129.167 E27.30727
G1 X99.677 Y129.229 E27.3258
G1 X99.289 Y129.319 E27.34435
G1 X98.909 Y129.44 E27.36292
G1 X98.539 Y129.588 E27.38147
G1 X98.182 Y129.765 E27.40003
G1 X97.84 Y129.969 E27.41857
G1 X97.515 Y130.198 E27.43708
G1 X97.207 Y130.451 E27.45564
G1 X96.92 Y130.727 E27.47418
G1 X96.655 Y131.025 E27.49275
G1 X96.413 Y131.342 E27.51132
G1 X96.197 Y131.676 E27.52984
G1 X96.007 Y132.026 E27.54839
G1 X95.843 Y132.389 E27.56693
G0 F6000 X95.435 Y132.225
G1 F2700 E22.56693
G0 F6000 X96.748 Y130.561
G0 X97.71 Y129.768
G0 X98.828 Y129.215
G0 X100.043 Y128.929
G0 X101.29 Y128.929
G0 X102.506 Y129.215
G0 X103.624 Y129.768
G0 X104.585 Y130.561
G0 X105.343 Y131.554
G0 X105.854 Y132.693
G0 X106.391 Y135.218
G0 X104.951 Y134.992
G0 X131.096 Y137.217
G0 X130.009 Y138.186
G0 X132.239 Y139.528
;TYPE:WALL-INNER
G1 F2700 E27.56693
G1 F1200 X132.644 Y139.673 E27.58697
G1 X133.056 Y139.787 E27.60687
G1 X133.478 Y139.869 E27.62689
G1 X133.906 Y139.918 E27.64695
G1 X134.333 Y139.933 E27.66684
G1 X134.761 Y139.918 E27.68678
