;FLAVOR:Marlin
;TIME:1372
;Filament used: 1.21157m
;Layer height: 0.28
;MINX:84.794
;MINY:84.796
;MINZ:0.28
;MAXX:150.206
;MAXY:150.206
;MAXZ:8.68
;Generated with Cura_SteamEngine 4.9.1
M140 S55
M105
M190 S55
M104 S215
M105
M109 S215
M82 ;absolute extrusion mode
; Ender 3 Custom Start G-code
G92 E0 ; Reset Extruder
G28 ; Home all axes
G1 Z2.0 F3000 ; Move Z Axis up little to prevent scratching of Heat Bed
G1 X0.1 Y20 Z0.3 F5000.0 ; Move to start position
G1 X0.1 Y200.0 Z0.3 F1500.0 E15 ; Draw the first line
G1 X0.4 Y200.0 Z0.3 F5000.0 ; Move to side a little
G1 X0.4 Y20 Z0.3 F1500.0 E30 ; Draw the second line
G92 E0 ; Reset Extruder
G1 Z2.0 F3000 ; Move Z Axis up little to prevent scratching of Heat Bed
G1 X5 Y20 Z0.3 F5000.0 ; Move over to prevent blob squish
G92 E0
G92 E0
G1 F2700 E-5
;LAYER_COUNT:31
;LAYER:0
M107
G0 F6000 X94.511 Y94.236 Z0.28
;TYPE:SKIRT
G1 F2700 E0
G1 F1200 X94.723 Y94.027 E0.01386
G1 X95.009 Y93.753 E0.0323
G1 X95.21 Y93.566 E0.04509
G1 X95.751 Y93.073 E0.07917
G1 X95.989 Y92.862 E0.09398
G1 X96.324 Y92.574 E0.11455
G1 X96.53 Y92.401 E0.12708
G1 X97.085 Y91.947 E0.16047
G1 X97.295 Y91.78 E0.17296
G1 X97.588 Y91.552 E0.19025
G1 X97.844 Y91.358 E0.2052
G1 X98.479 Y90.893 E0.24185
G1 X98.737 Y90.71 E0.25658
G1 X99.254 Y90.356 E0.28576
G1 X99.852 Y89.962 E0.3191
G1 X100.131 Y89.785 E0.33449
G1 X100.47 Y89.576 E0.35303
G1 X100.716 Y89.428 E0.3664
G1 X101.394 Y89.034 E0.40291
G1 X101.628 Y88.902 E0.41542
G1 X101.965 Y88.717 E0.43333
G1 X102.25 Y88.566 E0.44834
G1 X102.913 Y88.227 E0.48302
G1 X103.147 Y88.111 E0.49518
G1 X103.504 Y87.939 E0.51363
G1 X103.77 Y87.815 E0.5273
G1 X104.46 Y87.505 E0.56252
G1 X104.765 Y87.373 E0.578
G1 X105.123 Y87.225 E0.59603
G1 X105.354 Y87.133 E0.60761
G1 X106.059 Y86.86 E0.64281
G1 X106.343 Y86.755 E0.65691
G1 X106.728 Y86.618 E0.67594
G1 X106.993 Y86.527 E0.68899
G1 X107.677 Y86.303 E0.7225
G1 X107.951 Y86.217 E0.73588
G1 X108.366 Y86.093 E0.75604
G1 X108.655 Y86.011 E0.77003
G1 X109.331 Y85.829 E0.80263
G1 X109.637 Y85.752 E0.81732
G1 X110.056 Y85.652 E0.83738
G1 X110.311 Y85.594 E0.84956
G1 X111.013 Y85.444 E0.88298
G1 X111.299 Y85.387 E0.89656
G1 X111.718 Y85.309 E0.91641
G1 X112.004 Y85.259 E0.92993
G1 X112.759 Y85.139 E0.96553
G1 X113.061 Y85.096 E0.97973
G1 X113.413 Y85.05 E0.99626
G1 X113.69 Y85.017 E1.00925
G1 X114.481 Y84.934 E1.04628
G1 X114.768 Y84.908 E1.0597
G1 X115.15 Y84.878 E1.07755
G1 X115.437 Y84.859 E1.09094
G1 X116.145 Y84.822 E1.12395
G1 X116.438 Y84.811 E1.1376
G1 X116.868 Y84.8 E1.15763
G1 X117.164 Y84.796 E1.17142
G1 X117.903 Y84.797 E1.20583
G1 X118.181 Y84.801 E1.21877
G1 X118.632 Y84.813 E1.23978
G1 X118.915 Y84.824 E1.25297
G1 X119.582 Y84.859 E1.28407
G1 X119.898 Y84.88 E1.29882
G1 X120.353 Y84.917 E1.32007
G1 X120.626 Y84.943 E1.33284
G1 X121.321 Y85.017 E1.36539
G1 X121.633 Y85.055 E1.38002
G1 X122.061 Y85.113 E1.40014
G1 X122.321 Y85.151 E1.41237
G1 X123.015 Y85.262 E1.4451
G1 X123.326 Y85.316 E1.4598
G1 X123.764 Y85.399 E1.48055
G1 X124.035 Y85.454 E1.49343
G1 X124.8 Y85.619 E1.52987
G1 X125.065 Y85.68 E1.54253
G1 X125.396 Y85.76 E1.55839
G1 X125.692 Y85.836 E1.57262
G1 X126.374 Y86.021 E1.60552
G1 X126.653 Y86.1 E1.61903
G1 X127.12 Y86.24 E1.64173
G1 X127.403 Y86.329 E1.65554
G1 X128.086 Y86.554 E1.68903
G1 X128.349 Y86.645 E1.70198
G1 X128.718 Y86.777 E1.72023
G1 X129.001 Y86.882 E1.73429
G1 X129.672 Y87.143 E1.76781
G1 X129.947 Y87.255 E1.78164
G1 X130.368 Y87.432 E1.80291
G1 X130.611 Y87.537 E1.81523
G1 X131.239 Y87.819 E1.84729
G1 X131.521 Y87.951 E1.86179
G1 X131.914 Y88.141 E1.88211
G1 X132.162 Y88.265 E1.89502
G1 X132.83 Y88.609 E1.93001
G1 X133.083 Y88.743 E1.94334
G1 X133.424 Y88.93 E1.96145
G1 X133.691 Y89.081 E1.97573
G1 X134.272 Y89.421 E2.00708
G1 X134.514 Y89.567 E2.02024
G1 X134.93 Y89.825 E2.04303
G1 X135.179 Y89.984 E2.05679
G1 X135.799 Y90.392 E2.09135
G1 X136.05 Y90.563 E2.10549
G1 X136.365 Y90.783 E2.12338
G1 X136.585 Y90.94 E2.13597
G1 X137.16 Y91.363 E2.16921
G1 X137.371 Y91.522 E2.18151
G1 X137.715 Y91.788 E2.20176
G1 X137.977 Y91.998 E2.21739
G1 X138.571 Y92.487 E2.25322
G1 X138.783 Y92.665 E2.26611
G1 X139.06 Y92.905 E2.28317
G1 X139.269 Y93.091 E2.2962
G1 X139.791 Y93.567 E2.3291
G1 X140.01 Y93.772 E2.34307
G1 X140.336 Y94.086 E2.36414
G1 X140.547 Y94.295 E2.37797
G1 X141.089 Y94.846 E2.41396
G1 X141.512 Y95.293 E2.44262
G1 X141.733 Y95.535 E2.45788
G1 X142.217 Y96.082 E2.49189
G1 X142.394 Y96.286 E2.50446
G1 X142.655 Y96.596 E2.52333
G1 X142.848 Y96.833 E2.53756
G1 X143.342 Y97.454 E2.57451
G1 X143.527 Y97.692 E2.58855
G1 X143.742 Y97.978 E2.60521
G1 X143.906 Y98.203 E2.61818
G1 X144.338 Y98.809 E2.65283
G1 X144.493 Y99.032 E2.66548
G1 X144.727 Y99.378 E2.68493
G1 X144.893 Y99.631 E2.69902
G1 X145.3 Y100.27 E2.73429
G1 X145.462 Y100.533 E2.74868
G1 X145.654 Y100.854 E2.76609
G1 X145.784 Y101.076 E2.77807
G1 X146.119 Y101.667 E2.80971
G1 X146.273 Y101.949 E2.82467
G1 X146.512 Y102.401 E2.84848
G1 X146.639 Y102.648 E2.86141
G1 X146.964 Y103.302 E2.89541
G1 X147.093 Y103.571 E2.90931
G1 X147.258 Y103.927 E2.92758
G1 X147.372 Y104.181 E2.94054
G1 X147.667 Y104.862 E2.9751
G1 X147.784 Y105.144 E2.98931
G1 X147.923 Y105.491 E3.00672
G1 X148.023 Y105.749 E3.0196
G1 X148.272 Y106.419 E3.05289
G1 X148.367 Y106.686 E3.06608
G1 X148.515 Y107.118 E3.08735
G1 X148.608 Y107.4 E3.10117
G1 X148.825 Y108.094 E3.13503
G1 X148.913 Y108.39 E3.14941
G1 X149.027 Y108.794 E3.16896
G1 X149.097 Y109.057 E3.18163
G1 X149.281 Y109.777 E3.21623
G1 X149.353 Y110.076 E3.23055
G1 X149.445 Y110.483 E3.24998
G1 X149.503 Y110.754 E3.26289
G1 X149.641 Y111.445 E3.2957
G1 X149.693 Y111.723 E3.30887
G1 X149.769 Y112.162 E3.32962
G1 X149.815 Y112.455 E3.34343
G1 X149.912 Y113.122 E3.37481
G1 X149.951 Y113.411 E3.38839
G1 X150.005 Y113.867 E3.40977
G1 X150.035 Y114.158 E3.42339
G1 X150.1 Y114.868 E3.45659
G1 X150.122 Y115.151 E3.46981
G1 X150.151 Y115.593 E3.49044
G1 X150.167 Y115.893 E3.50442
G1 X150.194 Y116.6 E3.53737
G1 X150.201 Y116.892 E3.55097
G1 X150.206 Y117.323 E3.57104
G1 X150.206 Y117.604 E3.58413
G1 X150.196 Y118.322 E3.61756
G1 X150.188 Y118.614 E3.63116
G1 X150.171 Y119.034 E3.65074
G1 X150.155 Y119.324 E3.66426
G1 X150.109 Y120.011 E3.69632
G1 X150.087 Y120.296 E3.70963
G1 X150.042 Y120.779 E3.73222
G1 X150.011 Y121.07 E3.74585
G1 X149.93 Y121.745 E3.7775
G1 X149.89 Y122.042 E3.79146
G1 X149.821 Y122.509 E3.81344
G1 X149.776 Y122.785 E3.82646
G1 X149.659 Y123.458 E3.85827
G1 X149.609 Y123.727 E3.87101
G1 X149.522 Y124.163 E3.89171
G1 X149.454 Y124.479 E3.90676
G1 X149.305 Y125.126 E3.93768
G1 X149.238 Y125.403 E3.95095
G1 X149.114 Y125.884 E3.97408
G1 X149.042 Y126.149 E3.98686
G1 X148.865 Y126.771 E4.01698
G1 X148.779 Y127.057 E4.03088
G1 X148.626 Y127.544 E4.05465
G1 X148.536 Y127.819 E4.06813
G1 X148.318 Y128.454 E4.09939
G1 X148.218 Y128.733 E4.11319
G1 X148.064 Y129.145 E4.13367
G1 X147.958 Y129.418 E4.14731
G1 X147.681 Y130.103 E4.18171
G1 X147.558 Y130.394 E4.19642
G1 X147.402 Y130.75 E4.21452
G1 X147.299 Y130.978 E4.22617
G1 X146.988 Y131.646 E4.26048
G1 X146.865 Y131.902 E4.27371
G1 X146.674 Y132.286 E4.29368
G1 X146.536 Y132.554 E4.30771
G1 X146.212 Y133.163 E4.33984
G1 X146.074 Y133.415 E4.35321
G1 X145.834 Y133.839 E4.3759
G1 X145.676 Y134.109 E4.39047
G1 X145.337 Y134.67 E4.42099
G1 X145.196 Y134.897 E4.43343
G1 X144.944 Y135.292 E4.45525
G1 X144.778 Y135.544 E4.4693
G1 X144.373 Y136.142 E4.50293
G1 X144.208 Y136.378 E4.51634
G1 X143.981 Y136.695 E4.53449
G1 X143.805 Y136.935 E4.54835
G1 X143.342 Y137.546 E4.58405
G1 X143.178 Y137.757 E4.59649
G1 X142.927 Y138.072 E4.61525
G1 X142.732 Y138.309 E4.62954
G1 X142.29 Y138.833 E4.66146
G1 X142.098 Y139.055 E4.67513
G1 X141.782 Y139.41 E4.69726
G1 X141.591 Y139.619 E4.71044
G1 X141.097 Y140.146 E4.74408
G1 X140.892 Y140.359 E4.75784
G1 X140.615 Y140.639 E4.77618
G1 X140.41 Y140.841 E4.78958
G1 X139.869 Y141.36 E4.82449
G1 X139.662 Y141.553 E4.83767
G1 X139.381 Y141.809 E4.85537
G1 X139.157 Y142.008 E4.86932
G1 X138.583 Y142.503 E4.90462
G1 X138.376 Y142.677 E4.91721
G1 X138.053 Y142.942 E4.93666
G1 X137.816 Y143.131 E4.95078
G1 X137.282 Y143.545 E4.98224
G1 X137.054 Y143.717 E4.99554
G1 X136.632 Y144.027 E5.01992
G1 X136.375 Y144.211 E5.03464
G1 X135.818 Y144.596 E5.06617
G1 X135.279 Y144.953 E5.09627
G1 X135.02 Y145.119 E5.1106
G1 X134.381 Y145.514 E5.14558
G1 X134.108 Y145.677 E5.16038
G1 X133.747 Y145.886 E5.17981
G1 X133.516 Y146.016 E5.19215
G1 X132.869 Y146.37 E5.22649
G1 X132.603 Y146.511 E5.24051
G1 X132.273 Y146.68 E5.25777
G1 X132.025 Y146.803 E5.27066
G1 X131.324 Y147.14 E5.30688
G1 X131.058 Y147.263 E5.32053
G1 X130.69 Y147.428 E5.33931
G1 X130.425 Y147.543 E5.35276
G1 X129.737 Y147.83 E5.38747
G1 X129.478 Y147.934 E5.40047
G1 X129.073 Y148.091 E5.42069
G1 X128.779 Y148.201 E5.43531
G1 X128.154 Y148.423 E5.46619
G1 X127.886 Y148.514 E5.47937
G1 X127.451 Y148.656 E5.50068
G1 X127.183 Y148.739 E5.51374
G1 X126.513 Y148.939 E5.5463
G1 X126.221 Y149.022 E5.56044
G1 X125.793 Y149.137 E5.58107
G1 X125.515 Y149.208 E5.59443
G1 X124.772 Y149.387 E5.63002
G1 X124.499 Y149.449 E5.64306
G1 X124.144 Y149.525 E5.65996
G1 X123.851 Y149.584 E5.67388
G1 X123.146 Y149.715 E5.70727
G1 X122.864 Y149.763 E5.72059
G1 X122.405 Y149.836 E5.74223
G1 X122.128 Y149.877 E5.75527
G1 X121.414 Y149.972 E5.78881
G1 X121.102 Y150.009 E5.80344
G1 X120.689 Y150.052 E5.82277
G1 X120.405 Y150.078 E5.83605
G1 X119.725 Y150.131 E5.86781
G1 X119.455 Y150.148 E5.88041
G1 X118.967 Y150.174 E5.90316
G1 X118.646 Y150.187 E5.91812
G1 X117.979 Y150.203 E5.94919
G1 X117.715 Y150.206 E5.96148
G1 X117.279 Y150.206 E5.98179
G1 X116.979 Y150.202 E5.99576
G1 X116.247 Y150.182 E6.02985
G1 X115.964 Y150.171 E6.04304
G1 X115.512 Y150.147 E6.06412
G1 X115.211 Y150.126 E6.07817
G1 X114.541 Y150.072 E6.10947
G1 X114.233 Y150.043 E6.12387
G1 X113.811 Y149.997 E6.14364
G1 X113.551 Y149.966 E6.15583
G1 X112.785 Y149.864 E6.19181
G1 X112.478 Y149.818 E6.20627
G1 X112.083 Y149.754 E6.2249
G1 X111.83 Y149.71 E6.23686
G1 X111.142 Y149.582 E6.26945
G1 X110.862 Y149.527 E6.28273
G1 X110.416 Y149.432 E6.30397
G1 X110.089 Y149.357 E6.31959
G1 X109.416 Y149.192 E6.35185
G1 X109.162 Y149.126 E6.36407
G1 X108.737 Y149.011 E6.38458
G1 X108.456 Y148.931 E6.39818
G1 X107.751 Y148.72 E6.43245
G1 X107.451 Y148.626 E6.44709
G1 X107.061 Y148.497 E6.46621
G1 X106.798 Y148.406 E6.47917
G1 X106.135 Y148.168 E6.51197
G1 X105.889 Y148.076 E6.5242
G1 X105.467 Y147.913 E6.54527
G1 X105.168 Y147.793 E6.56027
G1 X104.516 Y147.519 E6.5932
G1 X104.24 Y147.398 E6.60723
G1 X103.847 Y147.22 E6.62732
G1 X103.614 Y147.111 E6.6393
G1 X102.995 Y146.813 E6.67129
G1 X102.723 Y146.678 E6.68543
G1 X102.312 Y146.466 E6.70696
G1 X102.048 Y146.325 E6.7209
G1 X101.409 Y145.973 E6.75487
G1 X101.165 Y145.835 E6.76792
G1 X100.816 Y145.631 E6.78675
G1 X100.587 Y145.493 E6.7992
G1 X99.962 Y145.107 E6.8334
G1 X99.708 Y144.945 E6.84743
G1 X99.362 Y144.718 E6.8667
G1 X99.106 Y144.545 E6.88109
G1 X98.502 Y144.124 E6.91537
G1 X98.257 Y143.948 E6.92942
G1 X97.928 Y143.705 E6.94846
G1 X97.711 Y143.541 E6.96113
G1 X97.14 Y143.097 E6.99481
G1 X96.903 Y142.907 E7.00895
G1 X96.57 Y142.633 E7.02903
G1 X96.365 Y142.46 E7.04152
G1 X95.841 Y142.007 E7.07378
G1 X95.619 Y141.81 E7.0876
G1 X95.298 Y141.517 E7.10783
G1 X95.076 Y141.309 E7.122
G1 X94.536 Y140.788 E7.15694
G1 X94.331 Y140.585 E7.17037
G1 X94.033 Y140.282 E7.19016
G1 X93.855 Y140.097 E7.20212
G1 X93.382 Y139.593 E7.2343
G1 X93.145 Y139.331 E7.25075
G1 X92.852 Y138.998 E7.27141
G1 X92.696 Y138.817 E7.28253
G1 X92.243 Y138.279 E7.31528
G1 X92.048 Y138.041 E7.32961
G1 X91.745 Y137.66 E7.35228
G1 X91.57 Y137.435 E7.36555
G1 X91.178 Y136.915 E7.39587
G1 X91.003 Y136.675 E7.4097
G1 X90.743 Y136.31 E7.43057
G1 X90.577 Y136.071 E7.44412
G1 X90.161 Y135.453 E7.47881
G1 X89.998 Y135.204 E7.49267
G1 X89.8 Y134.892 E7.50987
G1 X89.662 Y134.669 E7.52208
G1 X89.295 Y134.059 E7.55523
G1 X89.141 Y133.795 E7.56946
G1 X88.9 Y133.368 E7.59229
G1 X88.757 Y133.105 E7.60623
G1 X88.429 Y132.485 E7.6389
G1 X88.298 Y132.229 E7.65229
G1 X88.11 Y131.85 E7.67199
G1 X87.988 Y131.597 E7.68506
G1 X87.673 Y130.919 E7.71988
G1 X87.541 Y130.624 E7.73492
G1 X87.395 Y130.284 E7.75215
G1 X87.302 Y130.061 E7.76341
G1 X87.032 Y129.392 E7.797
G1 X86.922 Y129.106 E7.81127
G1 X86.763 Y128.678 E7.83253
G1 X86.661 Y128.393 E7.84662
G1 X86.426 Y127.703 E7.88056
G1 X86.342 Y127.446 E7.89315
G1 X86.217 Y127.047 E7.91262
G1 X86.135 Y126.771 E7.92603
G1 X85.951 Y126.125 E7.95731
G1 X85.863 Y125.8 E7.97298
G1 X85.737 Y125.3 E7.99699
G1 X85.675 Y125.039 E8.00949
G1 X85.525 Y124.376 E8.04114
G1 X85.47 Y124.117 E8.05347
G1 X85.389 Y123.714 E8.07261
G1 X85.332 Y123.411 E8.08696
G1 X85.209 Y122.696 E8.12075
G1 X85.163 Y122.405 E8.13447
G1 X85.102 Y121.983 E8.15432
G1 X85.067 Y121.715 E8.16691
G1 X84.982 Y121.004 E8.20025
G1 X84.949 Y120.696 E8.21467
G1 X84.908 Y120.246 E8.23571
G1 X84.886 Y119.96 E8.24907
G1 X84.843 Y119.297 E8.28001
G1 X84.829 Y119.026 E8.29264
G1 X84.81 Y118.552 E8.31473
G1 X84.802 Y118.232 E8.32964
G1 X84.794 Y117.502 E8.36363
G1 X84.794 Y117.237 E8.37597
G1 X84.799 Y116.854 E8.39381
G1 X84.807 Y116.56 E8.4075
G1 X84.837 Y115.807 E8.44259
G1 X84.853 Y115.497 E8.45704
G1 X84.881 Y115.086 E8.47623
G1 X84.904 Y114.803 E8.48945
G1 X84.971 Y114.091 E8.52275
G1 X85.004 Y113.79 E8.53685
G1 X85.055 Y113.372 E8.55646
G1 X85.091 Y113.104 E8.56905
G1 X85.198 Y112.376 E8.60331
G1 X85.242 Y112.101 E8.61628
G1 X85.31 Y111.708 E8.63485
G1 X85.368 Y111.399 E8.64949
G1 X85.523 Y110.634 E8.68584
G1 X85.578 Y110.38 E8.69794
G1 X85.663 Y110.006 E8.7158
G1 X85.735 Y109.707 E8.73012
G1 X85.903 Y109.053 E8.76156
G1 X85.983 Y108.759 E8.77575
G1 X86.122 Y108.274 E8.79924
G1 X86.203 Y108.002 E8.81245
G1 X86.412 Y107.338 E8.84487
G1 X86.504 Y107.062 E8.85841
G1 X86.632 Y106.69 E8.87673
G1 X86.726 Y106.427 E8.88974
G1 X86.997 Y105.7 E8.92587
G1 X87.105 Y105.422 E8.93975
G1 X87.248 Y105.068 E8.95753
G1 X87.359 Y104.803 E8.97091
G1 X87.655 Y104.122 E9.00549
G1 X87.784 Y103.837 E9.02005
G1 X88.072 Y103.227 E9.05146
G1 X88.377 Y102.613 E9.08339
G1 X88.515 Y102.346 E9.09738
G1 X88.736 Y101.93 E9.11932
G1 X88.883 Y101.661 E9.13359
G1 X89.219 Y101.069 E9.16529
G1 X89.364 Y100.822 E9.17862
G1 X89.599 Y100.432 E9.19983
G1 X89.758 Y100.177 E9.21382
G1 X90.148 Y99.568 E9.24749
G1 X90.296 Y99.343 E9.26003
G1 X90.527 Y99.001 E9.27925
G1 X90.699 Y98.753 E9.2933
G1 X91.113 Y98.175 E9.32641
G1 X91.285 Y97.941 E9.33993
G1 X91.559 Y97.579 E9.36107
G1 X91.736 Y97.352 E9.37448
G1 X92.153 Y96.83 E9.40559
G1 X92.337 Y96.606 E9.41908
G1 X92.643 Y96.243 E9.44119
G1 X92.834 Y96.022 E9.45479
G1 X93.301 Y95.497 E9.48751
G1 X93.499 Y95.28 E9.50119
G1 X93.789 Y94.971 E9.52092
G1 X93.988 Y94.765 E9.53426
G1 X94.511 Y94.236 E9.5689
G0 F6000 X94.795 Y94.518
G1 F1200 X95 Y94.316 E9.5823
G1 X95.286 Y94.042 E9.60074
G1 X95.479 Y93.861 E9.61306
G1 X96.02 Y93.368 E9.64714
G1 X96.25 Y93.165 E9.66143
G1 X96.585 Y92.877 E9.682
G1 X96.783 Y92.71 E9.69406
G1 X97.338 Y92.256 E9.72745
G1 X97.54 Y92.095 E9.73948
G1 X97.833 Y91.867 E9.75676
G1 X98.08 Y91.681 E9.77116
G1 X98.715 Y91.216 E9.80781
G1 X98.964 Y91.039 E9.82204
G1 X99.292 Y90.813 E9.84058
G1 X100.072 Y90.297 E9.88413
G1 X100.341 Y90.125 E9.899
G1 X100.68 Y89.916 E9.91754
G1 X100.917 Y89.774 E9.93041
G1 X101.595 Y89.38 E9.96692
G1 X101.82 Y89.253 E9.97895
G1 X102.157 Y89.068 E9.99685
G1 X102.432 Y88.922 E10.01135
G1 X103.095 Y88.583 E10.04603
G1 X103.32 Y88.472 E10.05771
G1 X103.677 Y88.3 E10.07616
G1 X103.934 Y88.18 E10.08937
G1 X104.624 Y87.87 E10.12459
G1 X104.918 Y87.743 E10.1395
G1 X105.276 Y87.595 E10.15754
G1 X105.498 Y87.506 E10.16868
G1 X106.203 Y87.233 E10.20388
G1 X106.477 Y87.131 E10.2175
G1 X106.862 Y86.994 E10.23652
G1 X107.117 Y86.907 E10.24907
G1 X107.801 Y86.683 E10.28258
G1 X108.065 Y86.601 E10.29546
G1 X108.48 Y86.477 E10.31563
G1 X108.759 Y86.397 E10.32914
G1 X109.435 Y86.215 E10.36174
G1 X109.73 Y86.141 E10.3759
G1 X110.149 Y86.041 E10.39596
G1 X110.395 Y85.985 E10.40771
G1 X111.097 Y85.835 E10.44113
G1 X111.372 Y85.78 E10.45419
G1 X111.791 Y85.702 E10.47404
G1 X112.067 Y85.654 E10.48708
G1 X112.822 Y85.534 E10.52268
