;FLAVOR:Marlin
;TIME:15856
;Filament used: 8.36354m
;Layer height: 0.2
;MINX:30.163
;MINY:79.151
;MINZ:0.2
;MAXX:205.47
;MAXY:165.116
;MAXZ:31.6
;Generated with Cura_SteamEngine 4.7.0
M140 S65
M105
M190 S65
M104 S225
M105
M109 S225
M82 ;absolute extrusion mode
; Ender 3 Custom Start G-code
G92 E0 ; Reset Extruder
G28 ; Home all axes
G1 Z2.0 F3000 ; Move Z Axis up little to prevent scratching of Heat Bed
G1 X0.1 Y20 Z0.3 F5000.0 ; Move to start position
G1 X0.1 Y200.0 Z0.3 F1500.0 E15 ; Draw the first line
G1 X0.4 Y200.0 Z0.3 F5000.0 ; Move to side a little
G1 X0.4 Y20 Z0.3 F1500.0 E30 ; Draw the second line
G92 E0 ; Reset Extruder
G1 Z2.0 F3000 ; Move Z Axis up little to prevent scratching of Heat Bed
G1 X5 Y20 Z0.3 F5000.0 ; Move over to prevent blob squish
G92 E0
G92 E0
G1 F2700 E-5
;LAYER_COUNT:158
;LAYER:0
M107
G0 F6000 X55.071 Y96.448 Z0.2
;TYPE:SKIRT
G1 F2700 E0
G1 F1200 X55.605 Y96.168 E0.02005
G1 X55.947 Y96.001 E0.03271
G1 X56.233 Y95.866 E0.04323
G1 X56.368 Y95.805 E0.04816
G1 X57.223 Y95.463 E0.07879
G1 X57.839 Y95.268 E0.10028
G1 X58.216 Y95.161 E0.11331
G1 X58.477 Y95.09 E0.12231
G1 X58.594 Y95.06 E0.12633
G1 X59.495 Y94.87 E0.15695
G1 X60.04 Y94.795 E0.17525
G1 X60.315 Y94.764 E0.18445
G1 X60.698 Y94.728 E0.19725
G1 X60.974 Y94.707 E0.20646
G1 X61.407 Y94.682 E0.22088
G1 X62.351 Y94.649 E0.2523
G1 X64.902 Y94.523 E0.33725
G1 X67.422 Y94.328 E0.42131
G1 X69.932 Y94.062 E0.50526
G1 X72.438 Y93.724 E0.58937
G1 X74.947 Y93.313 E0.67393
G1 X77.435 Y92.833 E0.75821
G1 X79.875 Y92.29 E0.84135
G1 X82.366 Y91.663 E0.92678
G1 X84.296 Y91.123 E0.99344
G1 X98.622 Y86.945 E1.48977
G1 X99.929 Y86.58 E1.53491
G1 X100.665 Y86.385 E1.56023
G1 X101.477 Y86.182 E1.58807
G1 X101.708 Y86.127 E1.59597
G1 X102.172 Y86.022 E1.61179
G1 X102.675 Y85.913 E1.62891
G1 X102.853 Y85.876 E1.63496
G1 X104.049 Y85.637 E1.67552
G1 X104.355 Y85.58 E1.68588
G1 X104.945 Y85.48 E1.70578
G1 X105.152 Y85.447 E1.71275
G1 X106.573 Y85.235 E1.76054
G1 X106.88 Y85.194 E1.77084
G1 X107.486 Y85.123 E1.79113
G1 X109.068 Y84.965 E1.84401
G1 X109.405 Y84.937 E1.85526
G1 X109.671 Y84.919 E1.86413
G1 X111.591 Y84.82 E1.92807
G1 X111.889 Y84.809 E1.93799
G1 X112.527 Y84.795 E1.95921
G1 X113.876 Y84.779 E2.00408
G1 X148.598 Y84.779 E3.15894
G1 X151.223 Y84.742 E3.24626
G1 X153.731 Y84.635 E3.32975
G1 X156.248 Y84.457 E3.41368
G1 X158.772 Y84.207 E3.49804
G1 X161.28 Y83.886 E3.58213
G1 X163.742 Y83.499 E3.66502
G1 X166.264 Y83.03 E3.75034
G1 X168.776 Y82.49 E3.8358
G1 X171.207 Y81.892 E3.91907
G1 X173.609 Y81.231 E4.00193
G1 X176.071 Y80.477 E4.08757
G1 X177.727 Y79.928 E4.1456
G1 X178.01 Y79.831 E4.15555
G1 X179.054 Y79.532 E4.19167
G1 X179.227 Y79.492 E4.19757
G1 X179.841 Y79.369 E4.2184
G1 X180.224 Y79.304 E4.23132
G1 X181.138 Y79.19 E4.26196
G1 X181.707 Y79.159 E4.28091
G1 X181.889 Y79.154 E4.28696
G1 X182.35 Y79.151 E4.3023
G1 X182.723 Y79.157 E4.31471
G1 X183.643 Y79.212 E4.34536
G1 X184.16 Y79.279 E4.3627
G1 X184.323 Y79.304 E4.36818
G1 X184.795 Y79.387 E4.38412
G1 X185.18 Y79.464 E4.39718
G1 X186.074 Y79.683 E4.4278
G1 X186.67 Y79.877 E4.44864
G1 X186.821 Y79.931 E4.45398
G1 X187.238 Y80.09 E4.46882
G1 X187.514 Y80.202 E4.47873
G1 X188.101 Y80.461 E4.50007
G1 X188.697 Y80.746 E4.52204
G1 X189.062 Y80.929 E4.53562
G1 X190.329 Y81.596 E4.58324
G1 X190.744 Y81.827 E4.59904
G1 X190.973 Y81.961 E4.60786
G1 X191.376 Y82.209 E4.6236
G1 X191.543 Y82.317 E4.63022
G1 X191.762 Y82.463 E4.63897
G1 X192.162 Y82.736 E4.65508
G1 X192.348 Y82.865 E4.66261
G1 X192.439 Y82.93 E4.66633
G1 X192.722 Y83.14 E4.67805
G1 X192.897 Y83.274 E4.68538
G1 X193.089 Y83.424 E4.69348
G1 X193.449 Y83.713 E4.70884
G1 X193.787 Y83.996 E4.7235
G1 X193.882 Y84.079 E4.7277
G1 X194.25 Y84.417 E4.74431
G1 X195.46 Y85.579 E4.80011
G1 X195.613 Y85.729 E4.80724
G1 X198.201 Y88.318 E4.92899
G1 X198.845 Y88.981 E4.95973
G1 X199.141 Y89.295 E4.97409
G1 X199.349 Y89.524 E4.98438
G1 X199.772 Y90.003 E5.00563
G1 X200.174 Y90.485 E5.02651
G1 X200.664 Y91.111 E5.05295
G1 X200.865 Y91.377 E5.06404
G1 X201.085 Y91.677 E5.07641
G1 X201.446 Y92.201 E5.09757
G1 X201.896 Y92.899 E5.1252
G1 X202.088 Y93.209 E5.13732
G1 X202.288 Y93.544 E5.1503
G1 X202.586 Y94.077 E5.17061
G1 X202.963 Y94.8 E5.19773
G1 X203.122 Y95.118 E5.20956
G1 X203.286 Y95.46 E5.22217
G1 X203.538 Y96.028 E5.24284
G1 X203.84 Y96.766 E5.26936
G1 X203.963 Y97.08 E5.28058
G1 X204.099 Y97.445 E5.29353
G1 X204.313 Y98.08 E5.31582
G1 X204.559 Y98.894 E5.3441
G1 X204.653 Y99.223 E5.35548
G1 X204.742 Y99.556 E5.36695
G1 X204.882 Y100.149 E5.38721
G1 X205.058 Y101.001 E5.41615
G1 X205.123 Y101.344 E5.42776
G1 X205.183 Y101.692 E5.43951
G1 X205.272 Y102.321 E5.46063
G1 X205.363 Y103.139 E5.48801
G1 X205.397 Y103.498 E5.5
G1 X205.424 Y103.849 E5.51171
G1 X205.453 Y104.463 E5.53216
G1 X205.469 Y105.313 E5.56043
G1 X205.47 Y105.686 E5.57284
G1 X205.464 Y106.051 E5.58498
G1 X205.436 Y106.662 E5.60532
G1 X205.375 Y107.483 E5.6327
G1 X205.345 Y107.818 E5.64389
G1 X205.306 Y108.185 E5.65617
G1 X205.218 Y108.826 E5.67769
G1 X205.079 Y109.651 E5.70551
G1 X205.017 Y109.985 E5.71681
G1 X204.94 Y110.367 E5.72977
G1 X204.795 Y110.99 E5.75105
G1 X204.547 Y111.925 E5.78322
G1 X204.482 Y112.158 E5.79127
G1 X204.419 Y112.401 E5.79962
G1 X203.972 Y113.981 E5.85423
G1 X203.358 Y116.407 E5.93746
G1 X202.798 Y118.922 E6.02316
G1 X202.324 Y121.374 E6.10622
G1 X201.907 Y123.917 E6.19193
G1 X201.576 Y126.366 E6.27413
G1 X201.304 Y128.93 E6.35989
G1 X201.108 Y131.455 E6.44412
G1 X201.006 Y133.383 E6.50834
G1 X200.983 Y133.944 E6.52701
G1 X200.911 Y136.536 E6.61325
G1 X200.913 Y139.03 E6.69621
G1 X200.957 Y140.319 E6.7391
G1 X201.013 Y143.1 E6.83162
G1 X201.015 Y143.292 E6.838
G1 X201.015 Y144.042 E6.86295
G1 X201 Y145.062 E6.89688
G1 X201 Y147.742 E6.98602
G1 X201.013 Y148.352 E7.00631
G1 X201.015 Y148.704 E7.01802
G1 X201.015 Y150.057 E7.06302
G1 X201.006 Y150.757 E7.0863
G1 X200.954 Y151.676 E7.11692
G1 X200.823 Y152.588 E7.14756
G1 X200.613 Y153.484 E7.17817
G1 X200.326 Y154.359 E7.2088
G1 X199.964 Y155.205 E7.2394
G1 X199.53 Y156.018 E7.27006
G1 X199.028 Y156.789 E7.30066
G1 X198.46 Y157.514 E7.33129
G1 X197.832 Y158.186 E7.36188
G1 X197.147 Y158.802 E7.39252
G1 X196.412 Y159.356 E7.42313
G1 X195.631 Y159.844 E7.45376
G1 X194.811 Y160.263 E7.48439
G1 X193.958 Y160.609 E7.51501
G1 X192.743 Y160.96 E7.55707
G1 X192.473 Y161.021 E7.56628
G1 X191.215 Y161.227 E7.60868
G1 X191.039 Y161.245 E7.61456
G1 X190.547 Y161.284 E7.63098
G1 X190.294 Y161.298 E7.6394
G1 X189.927 Y161.312 E7.65162
G1 X188.574 Y161.34 E7.69663
G1 X188.355 Y161.342 E7.70391
G1 X183.356 Y161.341 E7.87018
G1 X182.517 Y161.329 E7.89809
G1 X179.441 Y161.336 E8.0004
G1 X179.075 Y161.341 E8.01257
G1 X83.173 Y161.342 E11.20228
G1 X81.087 Y161.342 E11.27167
G1 X78.462 Y161.379 E11.35898
G1 X75.954 Y161.486 E11.44247
G1 X73.437 Y161.664 E11.5264
G1 X70.913 Y161.914 E11.61076
G1 X68.405 Y162.235 E11.69486
G1 X65.943 Y162.622 E11.77775
G1 X63.421 Y163.091 E11.86307
G1 X60.909 Y163.631 E11.94853
G1 X58.472 Y164.23 E12.03199
G1 X56.915 Y164.649 E12.08562
G1 X56.415 Y164.77 E12.10273
G1 X56.254 Y164.805 E12.10821
G1 X55.839 Y164.887 E12.12228
G1 X55.481 Y164.95 E12.13437
G1 X54.568 Y165.07 E12.165
G1 X54.07 Y165.101 E12.18159
G1 X53.896 Y165.108 E12.18739
G1 X53.307 Y165.116 E12.20698
G1 X52.917 Y165.11 E12.21995
G1 X51.998 Y165.056 E12.25057
G1 X51.454 Y164.985 E12.26882
G1 X51.293 Y164.96 E12.27424
G1 X50.804 Y164.873 E12.29076
G1 X50.421 Y164.795 E12.30376
G1 X49.527 Y164.572 E12.3344
G1 X48.975 Y164.392 E12.35371
G1 X48.804 Y164.331 E12.35975
G1 X48.344 Y164.155 E12.37613
G1 X48.083 Y164.048 E12.38551
G1 X47.551 Y163.812 E12.40487
G1 X46.956 Y163.529 E12.42679
G1 X46.571 Y163.337 E12.4411
G1 X45.304 Y162.67 E12.48872
G1 X44.889 Y162.439 E12.50452
G1 X44.66 Y162.305 E12.51334
G1 X44.257 Y162.057 E12.52908
G1 X44.09 Y161.949 E12.53569
G1 X43.871 Y161.803 E12.54445
G1 X43.471 Y161.53 E12.56056
G1 X43.267 Y161.388 E12.56882
G1 X43.175 Y161.322 E12.57259
G1 X42.917 Y161.131 E12.58327
G1 X42.743 Y160.998 E12.59055
G1 X42.539 Y160.838 E12.59917
G1 X42.177 Y160.547 E12.61462
G1 X41.856 Y160.278 E12.62855
G1 X41.763 Y160.197 E12.63265
G1 X41.383 Y159.849 E12.64979
G1 X40.172 Y158.686 E12.70563
G1 X40.019 Y158.536 E12.71276
G1 X37.43 Y155.946 E12.83456
G1 X36.787 Y155.284 E12.86526
G1 X36.655 Y155.146 E12.87161
G1 X36.492 Y154.972 E12.87954
G1 X36.283 Y154.741 E12.8899
G1 X35.86 Y154.262 E12.91115
G1 X35.457 Y153.778 E12.9321
G1 X34.968 Y153.153 E12.9585
G1 X34.772 Y152.894 E12.9693
G1 X34.551 Y152.593 E12.98172
G1 X34.184 Y152.06 E13.00324
G1 X33.735 Y151.363 E13.03082
G1 X33.542 Y151.053 E13.04296
G1 X33.341 Y150.716 E13.05602
G1 X33.046 Y150.187 E13.07616
G1 X32.67 Y149.466 E13.10321
G1 X32.511 Y149.148 E13.11503
G1 X32.347 Y148.806 E13.12765
G1 X32.095 Y148.238 E13.14831
G1 X31.793 Y147.5 E13.17484
G1 X31.669 Y147.184 E13.18613
G1 X31.529 Y146.808 E13.19947
G1 X31.319 Y146.186 E13.22131
G1 X31.083 Y145.408 E13.24835
G1 X30.985 Y145.062 E13.26031
G1 X30.881 Y144.672 E13.27373
G1 X30.741 Y144.081 E13.29393
G1 X30.58 Y143.3 E13.32046
G1 X30.516 Y142.961 E13.33193
G1 X30.451 Y142.584 E13.34465
G1 X30.361 Y141.944 E13.36615
G1 X30.27 Y141.118 E13.39379
G1 X30.239 Y140.795 E13.40458
G1 X30.211 Y140.442 E13.41636
G1 X30.18 Y139.803 E13.43764
G1 X30.164 Y138.952 E13.46595
G1 X30.163 Y138.58 E13.47832
G1 X30.169 Y138.213 E13.49053
G1 X30.197 Y137.598 E13.511
G1 X30.258 Y136.78 E13.53829
G1 X30.288 Y136.448 E13.54937
G1 X30.327 Y136.081 E13.56165
G1 X30.415 Y135.44 E13.58317
G1 X30.554 Y134.615 E13.611
G1 X30.616 Y134.281 E13.62229
G1 X30.693 Y133.899 E13.63525
G1 X30.839 Y133.275 E13.65657
G1 X31.041 Y132.514 E13.68276
G1 X31.133 Y132.187 E13.69406
G1 X31.247 Y131.807 E13.70725
G1 X31.449 Y131.201 E13.7285
G1 X31.725 Y130.449 E13.75514
G1 X31.848 Y130.129 E13.76654
G1 X32.002 Y129.748 E13.78021
G1 X32.257 Y129.168 E13.80128
G1 X32.606 Y128.434 E13.82832
G1 X32.745 Y128.153 E13.83874
G1 X32.912 Y127.827 E13.85092
G1 X33.241 Y127.233 E13.87351
G1 X33.666 Y126.52 E13.90112
G1 X33.823 Y126.264 E13.91111
G1 X34.018 Y125.957 E13.9232
G1 X34.399 Y125.397 E13.94573
G1 X34.904 Y124.704 E13.97425
G1 X35.11 Y124.432 E13.9856
G1 X35.41 Y124.047 E14.00183
G1 X35.712 Y123.677 E14.01772
G1 X37.16 Y121.982 E14.09186
G1 X38.732 Y120.034 E14.17512
G1 X40.273 Y118.008 E14.25978
G1 X41.749 Y115.949 E14.34404
G1 X43.163 Y113.853 E14.42814
G1 X44.511 Y111.729 E14.51181
G1 X45.815 Y109.541 E14.59652
G1 X47.033 Y107.357 E14.6797
G1 X48.209 Y105.103 E14.76426
G1 X49.031 Y103.408 E14.82691
G1 X49.081 Y103.315 E14.83042
G1 X49.629 Y102.183 E14.87225
G1 X50.066 Y101.373 E14.90286
G1 X50.392 Y100.859 E14.92311
G1 X50.616 Y100.528 E14.9364
G1 X50.774 Y100.301 E14.9456
G1 X50.857 Y100.185 E14.95034
G1 X51.425 Y99.46 E14.98098
G1 X51.875 Y98.967 E15.00318
G1 X52.113 Y98.722 E15.01454
G1 X52.316 Y98.518 E15.02411
G1 X52.436 Y98.401 E15.02969
G1 X53.123 Y97.788 E15.06031
G1 X53.623 Y97.403 E15.0813
G1 X53.905 Y97.199 E15.09287
G1 X54.151 Y97.026 E15.10288
G1 X54.289 Y96.932 E15.10843
G1 X55.071 Y96.448 E15.13902
G0 F6000 X55.282 Y96.788
G1 F1200 X55.78 Y96.527 E15.15772
G1 X56.122 Y96.36 E15.17038
G1 X56.398 Y96.231 E15.18051
G1 X56.533 Y96.17 E15.18544
G1 X57.372 Y95.835 E15.21549
G1 X57.948 Y95.653 E15.23558
G1 X58.325 Y95.546 E15.24861
G1 X58.577 Y95.478 E15.25729
G1 X58.694 Y95.448 E15.26131
G1 X59.577 Y95.262 E15.29132
G1 X60.084 Y95.192 E15.30835
G1 X60.359 Y95.161 E15.31755
G1 X60.728 Y95.126 E15.32988
G1 X61.004 Y95.105 E15.33908
G1 X61.421 Y95.082 E15.35298
G1 X62.316 Y95.051 E15.38276
G1 X64.952 Y94.921 E15.47054
G1 X67.459 Y94.726 E15.55418
G1 X69.996 Y94.458 E15.63903
G1 X72.485 Y94.122 E15.72256
G1 X75.016 Y93.707 E15.80787
G1 X77.492 Y93.23 E15.89173
G1 X79.988 Y92.674 E15.97679
G1 X82.447 Y92.055 E16.06112
G1 X84.441 Y91.497 E16.12999
G1 X98.623 Y87.361 E16.62134
G1 X100.032 Y86.967 E16.67
G1 X100.61 Y86.813 E16.68989
G1 X101.574 Y86.571 E16.72295
G1 X101.797 Y86.518 E16.73058
G1 X102.342 Y86.394 E16.74917
G1 X102.76 Y86.303 E16.76339
G1 X104.127 Y86.029 E16.80976
G1 X104.421 Y85.974 E16.81971
G1 X105.011 Y85.874 E16.83962
G1 X105.211 Y85.843 E16.84635
G1 X106.632 Y85.631 E16.89413
G1 X106.928 Y85.591 E16.90407
G1 X107.525 Y85.521 E16.92406
G1 X109.107 Y85.363 E16.97694
G1 X109.432 Y85.336 E16.98779
G1 X109.867 Y85.308 E17.00228
G1 X111.611 Y85.219 E17.06037
G1 X111.898 Y85.209 E17.06992
G1 X112.531 Y85.195 E17.09098
G1 X113.876 Y85.179 E17.13571
G1 X148.604 Y85.179 E18.29077
G1 X151.21 Y85.142 E18.37746
G1 X153.778 Y85.033 E18.46295
G1 X156.28 Y84.856 E18.54637
G1 X158.792 Y84.607 E18.63033
G1 X161.355 Y84.279 E18.71627
G1 X163.84 Y83.888 E18.79994
G1 X166.323 Y83.427 E18.88393
G1 X168.884 Y82.876 E18.97106
G1 X171.26 Y82.291 E19.05245
G1 X173.769 Y81.601 E19.139
G1 X176.176 Y80.865 E19.22271
G1 X177.776 Y80.334 E19.27878
G1 X178.14 Y80.209 E19.29158
G1 X179.144 Y79.922 E19.32631
G1 X179.317 Y79.882 E19.33222
G1 X179.908 Y79.764 E19.35227
G1 X180.291 Y79.699 E19.36519
G1 X181.188 Y79.587 E19.39525
G1 X181.718 Y79.559 E19.4129
G1 X181.9 Y79.554 E19.41896
G1 X182.344 Y79.551 E19.43373
G1 X182.717 Y79.557 E19.44614
G1 X183.619 Y79.612 E19.47619
G1 X184.099 Y79.674 E19.49229
G1 X184.262 Y79.699 E19.49777
G1 X184.716 Y79.779 E19.51311
G1 X185.101 Y79.856 E19.52617
G1 X185.978 Y80.072 E19.55621
G1 X186.536 Y80.254 E19.57573
G1 X186.687 Y80.308 E19.58106
G1 X187.087 Y80.461 E19.59531
G1 X187.363 Y80.573 E19.60521
G1 X187.928 Y80.822 E19.62575
G1 X188.524 Y81.107 E19.64772
G1 X188.875 Y81.283 E19.66078
G1 X190.142 Y81.95 E19.7084
G1 X190.542 Y82.172 E19.72362
G1 X190.771 Y82.306 E19.73245
G1 X191.159 Y82.545 E19.7476
G1 X191.326 Y82.653 E19.75422
G1 X191.537 Y82.793 E19.76264
G1 X191.937 Y83.066 E19.77875
G1 X192.207 Y83.256 E19.78973
G1 X192.479 Y83.457 E19.80098
G1 X192.654 Y83.591 E19.80831
G1 X192.838 Y83.736 E19.8161
G1 X193.198 Y84.025 E19.83145
G1 X193.524 Y84.298 E19.8456
G1 X193.619 Y84.381 E19.84979
G1 X193.973 Y84.705 E19.86575
G1 X195.183 Y85.867 E19.92155
G1 X195.33 Y86.012 E19.92842
G1 X197.915 Y88.597 E20.05001
G1 X198.559 Y89.26 E20.08075
G1 X198.849 Y89.568 E20.09482
G1 X199.05 Y89.788 E20.10473
G1 X199.473 Y90.267 E20.12599
G1 X199.859 Y90.732 E20.14609
G1 X200.349 Y91.358 E20.17253
G1 X200.542 Y91.613 E20.18316
G1 X200.762 Y91.913 E20.19554
G1 X201.11 Y92.418 E20.21594
G1 X201.56 Y93.116 E20.24356
G1 X201.745 Y93.414 E20.25522
G1 X201.945 Y93.749 E20.2682
G1 X202.231 Y94.262 E20.28774
G1 X202.608 Y94.985 E20.31486
G1 X202.761 Y95.291 E20.32623
G1 X202.925 Y95.633 E20.33885
G1 X203.168 Y96.18 E20.35876
G1 X203.47 Y96.918 E20.38528
G1 X203.588 Y97.22 E20.39606
G1 X203.724 Y97.585 E20.40902
G1 X203.93 Y98.195 E20.43043
G1 X204.176 Y99.009 E20.45872
G1 X204.266 Y99.326 E20.46968
G1 X204.355 Y99.659 E20.48114
G1 X204.49 Y100.23 E20.50066
G1 X204.666 Y101.082 E20.52959
G1 X204.729 Y101.412 E20.54077
G1 X204.789 Y101.76 E20.55251
G1 X204.874 Y102.365 E20.57283
G1 X204.965 Y103.183 E20.60021
G1 X204.998 Y103.529 E20.61177
G1 X205.025 Y103.88 E20.62347
G1 X205.053 Y104.47 E20.64312
G1 X205.069 Y105.32 E20.6714
G1 X205.07 Y105.68 E20.68337
G1 X205.064 Y106.045 E20.69551
G1 X205.037 Y106.633 E20.71509
G1 X204.976 Y107.454 E20.74247
G1 X204.947 Y107.776 E20.75322
G1 X204.908 Y108.143 E20.7655
G1 X204.823 Y108.76 E20.78621
G1 X204.684 Y109.585 E20.81404
G1 X204.625 Y109.905 E20.82486
G1 X204.548 Y110.287 E20.83782
G1 X204.408 Y110.887 E20.85832
G1 X204.16 Y111.822 E20.89049
G1 X204.11 Y112.005 E20.8968
G1 X204.056 Y112.193 E20.90331
G1 X204.034 Y112.292 E20.90668
G1 X203.581 Y113.892 E20.96199
G1 X202.975 Y116.286 E21.04412
G1 X202.403 Y118.859 E21.13179
G1 X201.929 Y121.311 E21.21485
G1 X201.516 Y123.831 E21.29979
G1 X201.176 Y126.345 E21.38416
G1 X200.905 Y128.889 E21.46926
G1 X200.71 Y131.403 E21.55312
G1 X200.601 Y133.478 E21.62223
G1 X200.583 Y133.918 E21.63688
G1 X200.511 Y136.525 E21.72362
G1 X200.513 Y139.045 E21.80744
G1 X200.561 Y140.48 E21.85519
G1 X200.613 Y143.108 E21.94262
G1 X200.615 Y143.292 E21.94874
G1 X200.615 Y144.036 E21.97348
G1 X200.6 Y145.09 E22.00854
G1 X200.6 Y147.751 E22.09705
