;FLAVOR:Marlin
;TIME:4109
;Filament used: 1.80348m
;Layer height: 0.2
;MINX:69.184
;MINY:96.136
;MINZ:0.2
;MAXX:166.401
;MAXY:139.791
;MAXZ:16.2
;Generated with Cura_SteamEngine 4.7.0
M140 S55
M105
M190 S55
M104 S210
M105
M109 S210
M82 ;absolute extrusion mode
; Ender 3 Custom Start G-code
G92 E0 ; Reset Extruder
G28 ; Home all axes
G1 Z2.0 F3000 ; Move Z Axis up little to prevent scratching of Heat Bed
G1 X0.1 Y20 Z0.3 F5000.0 ; Move to start position
G1 X0.1 Y200.0 Z0.3 F1500.0 E15 ; Draw the first line
G1 X0.4 Y200.0 Z0.3 F5000.0 ; Move to side a little
G1 X0.4 Y20 Z0.3 F1500.0 E30 ; Draw the second line
G92 E0 ; Reset Extruder
G1 Z2.0 F3000 ; Move Z Axis up little to prevent scratching of Heat Bed
G1 X5 Y20 Z0.3 F5000.0 ; Move over to prevent blob squish
G92 E0
G92 E0
G1 F2700 E-5
;LAYER_COUNT:81
;LAYER:0
M107
G0 F6000 X77.289 Y102.914 Z0.2
;TYPE:SKIRT
G1 F2700 E0
G1 F1200 X78.044 Y102.358 E0.03119
G1 X78.843 Y101.867 E0.06238
G1 X79.682 Y101.447 E0.09358
G1 X80.553 Y101.099 E0.12478
G1 X81.45 Y100.827 E0.15596
G1 X82.368 Y100.633 E0.18716
G1 X83.239 Y100.522 E0.21637
G1 X83.666 Y100.485 E0.23062
G1 X85.54 Y100.351 E0.29311
G1 X88.084 Y100.097 E0.37815
G1 X90.55 Y99.78 E0.46084
G1 X93.076 Y99.383 E0.54589
G1 X95.519 Y98.927 E0.62854
G1 X98.032 Y98.384 E0.71406
G1 X100.402 Y97.801 E0.79523
G1 X103.56 Y96.917 E0.90431
G1 X104.599 Y96.607 E0.94037
G1 X105.509 Y96.377 E0.97159
G1 X106.434 Y96.226 E1.00276
G1 X107.382 Y96.153 E1.03438
G1 X107.532 Y96.148 E1.03938
G1 X107.768 Y96.143 E1.04723
G1 X108.309 Y96.137 E1.06522
G1 X109.366 Y96.137 E1.10038
G1 X110.05 Y96.147 E1.12313
G1 X110.671 Y96.174 E1.1438
G1 X111.126 Y96.206 E1.15897
G1 X113.673 Y96.351 E1.24382
G1 X116.223 Y96.422 E1.32867
G1 X118.746 Y96.422 E1.41259
G1 X121.258 Y96.35 E1.49617
G1 X123.209 Y96.246 E1.56115
G1 X124.401 Y96.169 E1.60088
G1 X124.768 Y96.151 E1.6131
G1 X124.929 Y96.146 E1.61846
G1 X125.545 Y96.137 E1.63895
G1 X126.872 Y96.136 E1.68309
G1 X127.029 Y96.137 E1.68831
G1 X127.731 Y96.147 E1.71166
G1 X128.667 Y96.2 E1.74284
G1 X129.482 Y96.313 E1.77021
G1 X130.219 Y96.467 E1.79525
G1 X131.254 Y96.721 E1.8307
G1 X132.008 Y96.916 E1.8566
G1 X134.493 Y97.485 E1.94139
G1 X136.905 Y97.968 E2.02321
G1 X139.425 Y98.396 E2.10822
G1 X141.925 Y98.749 E2.1922
G1 X144.413 Y99.029 E2.27547
G1 X146.959 Y99.242 E2.36045
G1 X149.438 Y99.379 E2.44302
G1 X151.926 Y99.448 E2.52581
G1 X153.251 Y99.468 E2.56988
G1 X154.187 Y99.522 E2.60106
G1 X155.115 Y99.656 E2.63225
G1 X156.029 Y99.868 E2.66346
G1 X156.921 Y100.157 E2.69464
G1 X157.785 Y100.522 E2.72584
G1 X158.615 Y100.958 E2.75702
G1 X159.405 Y101.464 E2.78823
G1 X160.149 Y102.035 E2.81942
G1 X160.842 Y102.667 E2.85061
G1 X161.478 Y103.356 E2.8818
G1 X162.053 Y104.097 E2.913
G1 X162.563 Y104.884 E2.94419
G1 X163.004 Y105.712 E2.97539
G1 X163.274 Y106.322 E2.99758
G1 X163.423 Y106.703 E3.01118
G1 X164.312 Y109.102 E3.09628
G1 X165.247 Y111.423 E3.1795
G1 X165.532 Y112.103 E3.20402
G1 X165.964 Y113.336 E3.24748
G1 X166.183 Y114.248 E3.27867
G1 X166.323 Y115.175 E3.30986
G1 X166.382 Y116.036 E3.33856
G1 X166.392 Y116.378 E3.34994
G1 X166.397 Y116.693 E3.36042
G1 X166.398 Y118.309 E3.41417
G1 X166.401 Y119.512 E3.45418
G1 X166.397 Y119.611 E3.45747
G1 X166.396 Y127.107 E3.70679
G1 X166.386 Y127.809 E3.73014
G1 X166.333 Y128.745 E3.76132
G1 X166.2 Y129.673 E3.79251
G1 X165.988 Y130.587 E3.82371
G1 X165.7 Y131.48 E3.85492
G1 X165.336 Y132.344 E3.8861
G1 X164.9 Y133.175 E3.91732
G1 X164.395 Y133.965 E3.9485
G1 X163.825 Y134.709 E3.97967
G1 X163.165 Y135.43 E4.01218
G1 X163.053 Y135.542 E4.01745
G1 X162.362 Y136.176 E4.04864
G1 X161.62 Y136.75 E4.07984
G1 X160.831 Y137.257 E4.11104
G1 X160.003 Y137.696 E4.14221
G1 X159.139 Y138.063 E4.17343
G1 X158.248 Y138.355 E4.20462
G1 X157.335 Y138.569 E4.23581
G1 X156.407 Y138.706 E4.26701
G1 X155.646 Y138.758 E4.29238
G1 X155.498 Y138.763 E4.2973
G1 X155.261 Y138.768 E4.30518
G1 X154.718 Y138.774 E4.32325
G1 X153.765 Y138.773 E4.35494
G1 X153.059 Y138.763 E4.37843
G1 X152.764 Y138.755 E4.38824
G1 X152.496 Y138.744 E4.39716
G1 X152.319 Y138.735 E4.40306
G1 X150.202 Y138.614 E4.47358
G1 X147.659 Y138.542 E4.5582
G1 X145.17 Y138.542 E4.64098
G1 X142.623 Y138.614 E4.72573
G1 X140.614 Y138.721 E4.79265
G1 X140.3 Y138.741 E4.80311
G1 X139.981 Y138.757 E4.81373
G1 X138.673 Y138.803 E4.85726
G1 X137.948 Y138.82 E4.88139
G1 X135.428 Y138.952 E4.96532
G1 X132.943 Y139.153 E5.04824
G1 X131.565 Y139.303 E5.09434
G1 X130.905 Y139.365 E5.11639
G1 X130.232 Y139.407 E5.13882
G1 X130.071 Y139.412 E5.14417
G1 X129.455 Y139.421 E5.16466
G1 X128.524 Y139.422 E5.19563
G1 X128.366 Y139.421 E5.20088
G1 X127.668 Y139.411 E5.2241
G1 X127.146 Y139.391 E5.24148
G1 X126.697 Y139.355 E5.25646
G1 X126.388 Y139.324 E5.26679
G1 X123.833 Y139.107 E5.35207
G1 X121.296 Y138.964 E5.43659
G1 X118.763 Y138.892 E5.52087
G1 X116.275 Y138.892 E5.60362
G1 X113.726 Y138.964 E5.68844
G1 X111.233 Y139.106 E5.77149
G1 X109.213 Y139.271 E5.8389
G1 X108.186 Y139.366 E5.8732
G1 X107.879 Y139.39 E5.88344
G1 X106.704 Y139.465 E5.9226
G1 X105.943 Y139.504 E5.94795
G1 X103.485 Y139.697 E6.02995
G1 X103.085 Y139.734 E6.04331
G1 X102.42 Y139.775 E6.06547
G1 X102.047 Y139.785 E6.07788
G1 X101.504 Y139.791 E6.09594
G1 X100.551 Y139.79 E6.12764
G1 X99.845 Y139.78 E6.15113
G1 X99.55 Y139.772 E6.16094
G1 X99.282 Y139.761 E6.16986
G1 X99.105 Y139.752 E6.17576
G1 X96.988 Y139.631 E6.24628
G1 X94.445 Y139.559 E6.3309
G1 X91.956 Y139.559 E6.41368
G1 X89.409 Y139.631 E6.49843
G1 X87.4 Y139.738 E6.56534
G1 X87.086 Y139.758 E6.57581
G1 X86.716 Y139.776 E6.58813
G1 X86.555 Y139.781 E6.59349
G1 X85.939 Y139.79 E6.61398
G1 X85.007 Y139.791 E6.64498
G1 X84.85 Y139.79 E6.6502
G1 X84.148 Y139.78 E6.67355
G1 X83.212 Y139.727 E6.70473
G1 X82.284 Y139.594 E6.73591
G1 X81.37 Y139.382 E6.76712
G1 X80.477 Y139.094 E6.79833
G1 X79.613 Y138.73 E6.82951
G1 X78.782 Y138.294 E6.86072
G1 X77.992 Y137.789 E6.89191
G1 X77.248 Y137.219 E6.92308
G1 X76.555 Y136.587 E6.95427
G1 X75.918 Y135.898 E6.98548
G1 X75.19 Y134.939 E7.02553
G1 X75.013 Y134.677 E7.03605
G1 X74.522 Y133.878 E7.06724
G1 X74.075 Y132.984 E7.10048
G1 X72.989 Y130.539 E7.18946
G1 X71.901 Y128.267 E7.27325
G1 X70.741 Y126.005 E7.3578
G1 X70.478 Y125.51 E7.37644
G1 X70.074 Y124.663 E7.40765
G1 X69.744 Y123.786 E7.43882
G1 X69.489 Y122.883 E7.47003
G1 X69.312 Y121.962 E7.50122
G1 X69.2 Y120.718 E7.54276
G1 X69.195 Y120.568 E7.54776
G1 X69.19 Y120.336 E7.55547
G1 X69.184 Y119.793 E7.57354
G1 X69.185 Y115.139 E7.72833
G1 X69.195 Y114.437 E7.75168
G1 X69.248 Y113.501 E7.78286
G1 X69.381 Y112.573 E7.81404
G1 X69.593 Y111.659 E7.84525
G1 X69.881 Y110.766 E7.87646
G1 X70.245 Y109.902 E7.90764
G1 X70.681 Y109.071 E7.93885
G1 X71.186 Y108.281 E7.97004
G1 X71.756 Y107.537 E8.00121
G1 X72.479 Y106.753 E8.03668
G1 X72.603 Y106.631 E8.04247
G1 X73.582 Y105.776 E8.0857
G1 X73.998 Y105.455 E8.10317
G1 X75.614 Y104.242 E8.17038
G1 X77.068 Y103.092 E8.23204
G1 X77.289 Y102.914 E8.24148
G0 F6000 X77.54 Y103.226
G1 F1200 X78.281 Y102.68 E8.27209
G1 X79.067 Y102.2 E8.30272
G1 X79.892 Y101.791 E8.33335
G1 X80.749 Y101.455 E8.36396
G1 X81.632 Y101.194 E8.39459
G1 X82.534 Y101.011 E8.4252
G1 X83.274 Y100.921 E8.44999
G1 X83.865 Y100.871 E8.46972
G1 X85.572 Y100.75 E8.52664
G1 X88.138 Y100.493 E8.61241
G1 X90.627 Y100.173 E8.69588
G1 X93.106 Y99.784 E8.77934
G1 X95.605 Y99.317 E8.86389
G1 X98.106 Y98.777 E8.94899
G1 X100.508 Y98.187 E9.03126
G1 X103.741 Y97.282 E9.14292
G1 X104.714 Y96.991 E9.1767
G1 X105.607 Y96.766 E9.20733
G1 X106.515 Y96.619 E9.23793
G1 X107.395 Y96.553 E9.26728
G1 X107.545 Y96.548 E9.27227
G1 X107.773 Y96.543 E9.27985
G1 X108.309 Y96.537 E9.29768
G1 X109.36 Y96.537 E9.33264
G1 X110.044 Y96.547 E9.35539
G1 X110.643 Y96.573 E9.37533
G1 X111.075 Y96.604 E9.38974
G1 X113.675 Y96.751 E9.47635
G1 X116.212 Y96.822 E9.56077
G1 X118.723 Y96.822 E9.64428
G1 X121.291 Y96.748 E9.72973
G1 X123.254 Y96.644 E9.79511
G1 X124.427 Y96.568 E9.83421
G1 X124.78 Y96.551 E9.84596
G1 X125.14 Y96.542 E9.85794
G1 X125.679 Y96.536 E9.87587
G1 X126.872 Y96.536 E9.91555
G1 X127.725 Y96.547 E9.94392
G1 X128.644 Y96.6 E9.97454
G1 X129.413 Y96.707 E10.00036
G1 X130.123 Y96.855 E10.02448
G1 X131.158 Y97.109 E10.05993
G1 X131.924 Y97.307 E10.08624
G1 X134.404 Y97.875 E10.17086
G1 X136.824 Y98.36 E10.25295
G1 X139.374 Y98.793 E10.33898
G1 X141.861 Y99.144 E10.42252
G1 X144.403 Y99.429 E10.5076
G1 X146.905 Y99.639 E10.59111
G1 X149.441 Y99.779 E10.67558
G1 X151.909 Y99.848 E10.7577
G1 X153.245 Y99.868 E10.80214
G1 X154.164 Y99.922 E10.83276
G1 X155.075 Y100.055 E10.86338
G1 X155.971 Y100.267 E10.894
G1 X156.845 Y100.556 E10.92462
G1 X157.69 Y100.92 E10.95522
G1 X158.502 Y101.355 E10.98586
G1 X159.272 Y101.86 E11.01649
G1 X159.995 Y102.429 E11.04709
G1 X160.667 Y103.059 E11.07773
G1 X161.281 Y103.745 E11.10835
G1 X161.833 Y104.481 E11.13895
G1 X162.32 Y105.263 E11.16959
G1 X162.904 Y106.473 E11.21427
G1 X163.048 Y106.842 E11.22745
G1 X163.942 Y109.254 E11.31301
G1 X164.879 Y111.579 E11.39638
G1 X165.163 Y112.258 E11.42086
G1 X165.579 Y113.446 E11.46272
G1 X165.793 Y114.341 E11.49333
G1 X165.929 Y115.252 E11.52397
G1 X165.982 Y116.048 E11.5505
G1 X165.992 Y116.39 E11.56188
G1 X165.997 Y116.694 E11.57199
G1 X165.998 Y118.31 E11.62574
G1 X166.001 Y119.513 E11.66575
G1 X165.997 Y119.61 E11.66898
G1 X165.996 Y127.101 E11.91813
G1 X165.986 Y127.803 E11.94148
G1 X165.933 Y128.722 E11.9721
G1 X165.8 Y129.633 E12.00272
G1 X165.589 Y130.529 E12.03334
G1 X165.301 Y131.404 E12.06398
G1 X164.938 Y132.25 E12.0946
G1 X164.503 Y133.061 E12.12521
G1 X163.999 Y133.832 E12.15584
G1 X163.431 Y134.556 E12.18645
G1 X162.882 Y135.147 E12.21328
G1 X162.77 Y135.259 E12.21855
G1 X162.092 Y135.881 E12.24915
G1 X161.362 Y136.442 E12.27977
G1 X160.586 Y136.938 E12.3104
G1 X159.77 Y137.364 E12.34102
G1 X158.92 Y137.718 E12.37164
G1 X158.042 Y137.996 E12.40227
G1 X157.144 Y138.198 E12.43289
G1 X156.231 Y138.321 E12.46353
G1 X155.633 Y138.358 E12.48346
G1 X155.485 Y138.363 E12.48838
G1 X155.257 Y138.368 E12.49597
G1 X154.718 Y138.374 E12.51389
G1 X153.771 Y138.373 E12.54539
G1 X153.065 Y138.363 E12.56888
G1 X152.78 Y138.355 E12.57836
G1 X152.342 Y138.336 E12.59294
G1 X150.202 Y138.214 E12.66423
G1 X147.67 Y138.142 E12.74848
G1 X145.159 Y138.142 E12.832
G1 X142.59 Y138.215 E12.91748
G1 X140.651 Y138.318 E12.98206
G1 X140.274 Y138.342 E12.99462
G1 X139.967 Y138.357 E13.00485
G1 X138.664 Y138.403 E13.04821
G1 X137.917 Y138.421 E13.07306
G1 X135.411 Y138.552 E13.15653
G1 X132.904 Y138.755 E13.24018
G1 X131.522 Y138.905 E13.28642
G1 X131.354 Y138.922 E13.29204
G1 X130.868 Y138.967 E13.30827
G1 X130.22 Y139.007 E13.32986
G1 X129.86 Y139.016 E13.34184
G1 X129.321 Y139.022 E13.35977
G1 X128.372 Y139.021 E13.39133
G1 X127.674 Y139.011 E13.41455
G1 X127.17 Y138.992 E13.43133
G1 X126.737 Y138.957 E13.44577
G1 X126.468 Y138.93 E13.45477
G1 X123.819 Y138.704 E13.54319
G1 X121.329 Y138.564 E13.62614
G1 X118.774 Y138.492 E13.71115
G1 X116.264 Y138.492 E13.79464
G1 X113.728 Y138.564 E13.87902
G1 X111.175 Y138.709 E13.96407
G1 X109.236 Y138.867 E14.02877
G1 X108.149 Y138.968 E14.06508
G1 X107.853 Y138.991 E14.07496
G1 X106.83 Y139.057 E14.10905
G1 X105.928 Y139.103 E14.13909
G1 X103.486 Y139.295 E14.22057
G1 X103.048 Y139.336 E14.2352
G1 X102.407 Y139.376 E14.25656
G1 X102.25 Y139.381 E14.26178
G1 X101.634 Y139.39 E14.28227
G1 X100.707 Y139.391 E14.31311
G1 X99.851 Y139.38 E14.34158
G1 X99.566 Y139.372 E14.35106
G1 X99.128 Y139.353 E14.36564
G1 X96.988 Y139.231 E14.43694
G1 X94.456 Y139.159 E14.52118
G1 X91.945 Y139.159 E14.6047
G1 X89.376 Y139.232 E14.69018
G1 X87.437 Y139.335 E14.75476
G1 X87.06 Y139.359 E14.76733
G1 X86.704 Y139.376 E14.77918
G1 X86.344 Y139.385 E14.79116
G1 X85.805 Y139.391 E14.80909
G1 X84.856 Y139.39 E14.84065
G1 X84.154 Y139.38 E14.864
G1 X83.235 Y139.327 E14.89462
G1 X82.324 Y139.194 E14.92524
G1 X81.428 Y138.983 E14.95586
G1 X80.553 Y138.695 E14.98649
G1 X79.707 Y138.332 E15.01711
G1 X78.896 Y137.897 E15.04772
G1 X78.125 Y137.393 E15.07836
G1 X77.401 Y136.825 E15.10897
G1 X76.729 Y136.195 E15.1396
G1 X76.115 Y135.51 E15.1702
G1 X75.522 Y134.715 E15.20319
G1 X75.345 Y134.453 E15.2137
G1 X74.863 Y133.668 E15.24434
G1 X74.44 Y132.821 E15.27583
G1 X73.358 Y130.384 E15.36451
G1 X72.245 Y128.061 E15.45019
G1 X71.115 Y125.857 E15.53257
G1 X70.831 Y125.322 E15.55271
G1 X70.435 Y124.491 E15.58333
G1 X70.113 Y123.629 E15.61394
G1 X69.867 Y122.741 E15.64458
G1 X69.698 Y121.836 E15.6752
G1 X69.6 Y120.705 E15.71296
G1 X69.59 Y120.332 E15.72537
G1 X69.584 Y119.793 E15.7433
G1 X69.585 Y115.145 E15.89789
G1 X69.595 Y114.443 E15.92124
G1 X69.648 Y113.524 E15.95186
G1 X69.781 Y112.613 E15.98248
G1 X69.992 Y111.717 E16.0131
G1 X70.28 Y110.842 E16.04374
G1 X70.643 Y109.996 E16.07436
G1 X71.078 Y109.185 E16.10497
G1 X71.582 Y108.414 E16.1356
G1 X72.15 Y107.69 E16.16621
G1 X72.76 Y107.038 E16.1959
G1 X72.884 Y106.916 E16.20169
G1 X73.827 Y106.092 E16.24334
G1 X74.238 Y105.775 E16.26061
G1 X75.837 Y104.575 E16.3271
G1 X77.395 Y103.343 E16.39316
G1 X77.54 Y103.226 E16.39936
G0 F6000 X77.791 Y103.537
G1 F1200 X78.519 Y103.002 E16.42941
G1 X79.291 Y102.534 E16.45943
G1 X80.101 Y102.136 E16.48945
G1 X80.944 Y101.811 E16.5195
G1 X81.812 Y101.562 E16.54954
G1 X82.699 Y101.39 E16.57959
G1 X83.308 Y101.319 E16.59998
G1 X83.735 Y101.282 E16.61423
G1 X85.603 Y101.148 E16.67652
G1 X88.161 Y100.893 E16.76203
G1 X90.703 Y100.566 E16.84727
G1 X93.176 Y100.177 E16.93053
G1 X95.692 Y99.708 E17.01566
G1 X98.215 Y99.163 E17.10151
G1 X100.614 Y98.573 E17.18368
G1 X103.785 Y97.686 E17.29319
G1 X104.828 Y97.374 E17.3294
G1 X105.704 Y97.154 E17.35944
G1 X106.596 Y97.012 E17.38948
G1 X107.408 Y96.953 E17.41656
G1 X107.777 Y96.943 E17.42884
G1 X108.309 Y96.937 E17.44654
G1 X109.354 Y96.937 E17.48129
G1 X110.038 Y96.947 E17.50404
G1 X110.614 Y96.972 E17.52322
G1 X111.023 Y97.001 E17.53686
G1 X113.675 Y97.151 E17.62521
G1 X116.201 Y97.222 E17.70925
G1 X118.734 Y97.222 E17.7935
G1 X121.324 Y97.148 E17.87968
G1 X123.214 Y97.047 E17.94263
G1 X124.453 Y96.967 E17.98393
G1 X124.792 Y96.951 E17.99521
G1 X125.145 Y96.942 E18.00696
G1 X125.679 Y96.936 E18.02472
G1 X126.872 Y96.936 E18.0644
G1 X127.719 Y96.947 E18.09257
G1 X128.621 Y97 E18.12263
G1 X129.345 Y97.101 E18.14694
G1 X130.028 Y97.244 E18.17015
G1 X131.194 Y97.531 E18.21009
G1 X131.839 Y97.698 E18.23225
G1 X134.314 Y98.265 E18.3167
G1 X136.744 Y98.751 E18.39912
G1 X139.322 Y99.19 E18.4861
G1 X141.832 Y99.543 E18.57041
G1 X144.361 Y99.828 E18.65505
G1 X146.883 Y100.039 E18.73923
G1 X149.408 Y100.178 E18.82334
G1 X151.893 Y100.248 E18.90602
G1 X153.239 Y100.268 E18.95079
G1 X154.14 Y100.322 E18.98082
G1 X155.033 Y100.455 E19.01084
G1 X155.911 Y100.666 E19.04088
G1 X156.767 Y100.955 E19.07093
G1 X157.594 Y101.318 E19.10097
G1 X158.386 Y101.752 E19.13101
G1 X159.136 Y102.255 E19.16104
G1 X159.838 Y102.823 E19.19108
G1 X160.488 Y103.45 E19.22111
G1 X161.08 Y104.132 E19.25115
G1 X161.609 Y104.864 E19.28119
G1 X162.071 Y105.64 E19.31123
G1 X162.533 Y106.624 E19.34738
G1 X162.673 Y106.981 E19.36014
G1 X163.567 Y109.394 E19.44572
G1 X164.51 Y111.734 E19.52964
G1 X164.794 Y112.412 E19.55408
G1 X165.195 Y113.556 E19.5944
G1 X165.404 Y114.434 E19.62442
G1 X165.535 Y115.328 E19.65447
G1 X165.583 Y116.06 E19.67887
G1 X165.593 Y116.402 E19.69025
G1 X165.597 Y116.694 E19.69997
G1 X165.598 Y118.311 E19.75375
G1 X165.601 Y119.514 E19.79376
G1 X165.597 Y119.609 E19.79692
G1 X165.596 Y127.095 E20.04591
G1 X165.586 Y127.797 E20.06926
G1 X165.533 Y128.699 E20.09931
G1 X165.401 Y129.592 E20.12933
G1 X165.19 Y130.47 E20.15937
G1 X164.902 Y131.326 E20.18941
G1 X164.54 Y132.154 E20.21946
G1 X164.106 Y132.946 E20.2495
G1 X163.603 Y133.696 E20.27954
G1 X163.037 Y134.399 E20.30956
G1 X162.599 Y134.864 E20.3308
G1 X162.487 Y134.976 E20.33607
G1 X161.821 Y135.586 E20.36611
G1 X161.104 Y136.135 E20.39614
G1 X160.34 Y136.617 E20.42619
G1 X159.537 Y137.031 E20.45624
G1 X158.701 Y137.371 E20.48625
G1 X157.838 Y137.637 E20.51629
G1 X156.955 Y137.825 E20.54632
G1 X155.619 Y137.958 E20.59097
G1 X155.252 Y137.968 E20.60318
G1 X154.718 Y137.974 E20.62095
