;FLAVOR:Marlin
;TIME:19916
;Filament used: 18.9452m
;Layer height: 0.28
;MINX:2.157
;MINY:12.319
;MINZ:0.28
;MAXX:231.551
;MAXY:223.473
;MAXZ:5.88
;Generated with Cura_SteamEngine 4.7.0
M140 S55
M105
M190 S55
M104 S210
M105
M109 S210
M82 ;absolute extrusion mode
; Ender 3 Custom Start G-code
G92 E0 ; Reset Extruder
G28 ; Home all axes
G1 Z2.0 F3000 ; Move Z Axis up little to prevent scratching of Heat Bed
G1 X0.1 Y20 Z0.3 F5000.0 ; Move to start position
G1 X0.1 Y200.0 Z0.3 F1500.0 E15 ; Draw the first line
G1 X0.4 Y200.0 Z0.3 F5000.0 ; Move to side a little
G1 X0.4 Y20 Z0.3 F1500.0 E30 ; Draw the second line
G92 E0 ; Reset Extruder
G1 Z2.0 F3000 ; Move Z Axis up little to prevent scratching of Heat Bed
G1 X5 Y20 Z0.3 F5000.0 ; Move over to prevent blob squish
G92 E0
G92 E0
G1 F2700 E-5
;LAYER_COUNT:21
;LAYER:0
M107
G0 F6000 X10.097 Y14.477 Z0.28
;TYPE:SKIRT
G1 F2700 E0
G1 F1200 X10.914 Y14.017 E0.04366
G1 X11.453 Y13.761 E0.07144
G1 X11.944 Y13.544 E0.09644
G1 X12.262 Y13.409 E0.11253
G1 X12.583 Y13.279 E0.12865
G1 X13.466 Y12.965 E0.17229
G1 X14.374 Y12.726 E0.21601
G1 X15.023 Y12.605 E0.24675
G1 X15.731 Y12.495 E0.28012
G1 X16.04 Y12.452 E0.29464
G1 X16.301 Y12.419 E0.30689
G1 X17.511 Y12.333 E0.36338
G1 X18.351 Y12.32 E0.4025
G1 X111.883 Y12.319 E4.75774
G1 X112.041 Y12.32 E4.76509
G1 X112.739 Y12.33 E4.7976
G1 X113.586 Y12.375 E4.8371
G1 X113.815 Y12.396 E4.8478
G1 X114.174 Y12.435 E4.86462
G1 X114.556 Y12.484 E4.88255
G1 X114.932 Y12.539 E4.90025
G1 X115.29 Y12.597 E4.91713
G1 X116.209 Y12.786 E4.96082
G1 X117.418 Y13.165 E5.01982
G1 X117.705 Y13.277 E5.03416
G1 X118.063 Y13.422 E5.05215
G1 X118.363 Y13.548 E5.0673
G1 X118.795 Y13.738 E5.08928
G1 X119.636 Y14.152 E5.13292
G1 X120.44 Y14.636 E5.17662
G1 X120.94 Y14.987 E5.20507
G1 X121.368 Y15.306 E5.22992
G1 X121.652 Y15.525 E5.24662
G1 X121.953 Y15.765 E5.26455
G1 X122.66 Y16.381 E5.30821
G1 X123.313 Y17.054 E5.35188
G1 X123.698 Y17.511 E5.3797
G1 X124.004 Y17.895 E5.40257
G1 X124.208 Y18.159 E5.4181
G1 X124.449 Y18.481 E5.43683
G1 X124.622 Y18.719 E5.45053
G1 X124.838 Y19.025 E5.46797
G1 X126.357 Y21.11 E5.58809
G1 X127.909 Y23.122 E5.70641
G1 X129.494 Y25.059 E5.82295
G1 X131.134 Y26.949 E5.93947
G1 X132.843 Y28.813 E6.05723
G1 X134.595 Y30.619 E6.17439
G1 X136.405 Y32.38 E6.29198
G1 X138.255 Y34.083 E6.40907
G1 X140.156 Y35.733 E6.52628
G1 X142.098 Y37.327 E6.64327
G1 X144.084 Y38.864 E6.7602
G1 X146.147 Y40.369 E6.87911
G1 X148.203 Y41.782 E6.99528
G1 X150.283 Y43.128 E7.11064
G1 X152.467 Y44.452 E7.22956
G1 X154.645 Y45.691 E7.34624
G1 X156.904 Y46.894 E7.46542
G1 X159.135 Y48.002 E7.58141
G1 X161.412 Y49.053 E7.69818
G1 X163.707 Y50.034 E7.8144
G1 X166.098 Y50.978 E7.9341
G1 X168.416 Y51.818 E8.0489
G1 X170.843 Y52.621 E8.16794
G1 X173.234 Y53.336 E8.28415
G1 X175.674 Y53.993 E8.40181
G1 X178.081 Y54.569 E8.51706
G1 X180.577 Y55.091 E8.63579
G1 X183.062 Y55.537 E8.75335
G1 X185.563 Y55.915 E8.87113
G1 X188.05 Y56.217 E8.98779
G1 X190.542 Y56.45 E9.10433
G1 X193.059 Y56.613 E9.22178
G1 X195.623 Y56.707 E9.34125
G1 X197.603 Y56.729 E9.43346
G1 X214.454 Y56.73 E10.21811
G1 X215.152 Y56.741 E10.25061
G1 X216.089 Y56.796 E10.29432
G1 X217.017 Y56.93 E10.33798
G1 X217.93 Y57.143 E10.38163
G1 X218.822 Y57.433 E10.42531
G1 X219.686 Y57.798 E10.46898
G1 X220.516 Y58.235 E10.51266
G1 X221.305 Y58.741 E10.55631
G1 X222.049 Y59.313 E10.60001
G1 X222.741 Y59.946 E10.64368
G1 X223.377 Y60.635 E10.68734
G1 X223.952 Y61.377 E10.73105
G1 X224.461 Y62.164 E10.77469
G1 X224.902 Y62.992 E10.81837
G1 X225.27 Y63.854 E10.86202
G1 X225.563 Y64.745 E10.90569
G1 X225.78 Y65.658 E10.94939
G1 X225.918 Y66.585 E10.99303
G1 X225.975 Y67.43 E11.03247
G1 X225.984 Y67.749 E11.04732
G1 X225.988 Y68.059 E11.06176
G1 X225.988 Y79.692 E11.60344
G1 X226.025 Y82.3 E11.72489
G1 X226.132 Y84.821 E11.84239
G1 X226.309 Y87.316 E11.95886
G1 X226.557 Y89.816 E12.07584
G1 X226.876 Y92.309 E12.19287
G1 X227.267 Y94.802 E12.31037
G1 X227.73 Y97.292 E12.42831
G1 X228.26 Y99.756 E12.54566
G1 X228.849 Y102.158 E12.66083
G1 X229.525 Y104.614 E12.77944
G1 X230.265 Y107.033 E12.89723
G1 X230.816 Y108.667 E12.97753
G1 X231.009 Y109.265 E13.00679
G1 X231.259 Y110.169 E13.05046
G1 X231.431 Y111.091 E13.09413
G1 X231.536 Y112.307 E13.15097
G1 X231.546 Y112.633 E13.16615
G1 X231.551 Y112.97 E13.18185
G1 X231.55 Y169.475 E15.81296
G1 X231.54 Y170.172 E15.84541
G1 X231.498 Y170.981 E15.88314
G1 X231.483 Y171.151 E15.89108
G1 X231.442 Y171.542 E15.90939
G1 X231.417 Y171.743 E15.91882
G1 X231.382 Y172 E15.9309
G1 X231.302 Y172.539 E15.95627
G1 X231.125 Y173.46 E15.99994
G1 X230.87 Y174.363 E16.04363
G1 X230.635 Y175.007 E16.07555
G1 X230.374 Y175.66 E16.1083
G1 X230.261 Y175.932 E16.12202
G1 X230.164 Y176.157 E16.13342
G1 X229.757 Y177.001 E16.17706
G1 X229.278 Y177.808 E16.22075
G1 X228.868 Y178.395 E16.25409
G1 X228.549 Y178.821 E16.27888
G1 X228.345 Y179.086 E16.29445
G1 X228.105 Y179.387 E16.31237
G1 X227.489 Y180.094 E16.35604
G1 X226.816 Y180.747 E16.3997
G1 X226.359 Y181.132 E16.42753
G1 X225.975 Y181.438 E16.45039
G1 X225.716 Y181.638 E16.46563
G1 X225.393 Y181.88 E16.48442
G1 X224.619 Y182.41 E16.5281
G1 X223.803 Y182.872 E16.57176
G1 X223.23 Y183.144 E16.6013
G1 X222.744 Y183.358 E16.62603
G1 X222.449 Y183.483 E16.64095
G1 X222.114 Y183.619 E16.65778
G1 X221.23 Y183.935 E16.70149
G1 X220.324 Y184.174 E16.74512
G1 X219.663 Y184.297 E16.77643
G1 X218.935 Y184.41 E16.81074
G1 X218.553 Y184.462 E16.82869
G1 X218.302 Y184.492 E16.84046
G1 X217.363 Y184.564 E16.88431
G1 X217.183 Y184.57 E16.8927
G1 X216.935 Y184.575 E16.90425
G1 X216.445 Y184.58 E16.92707
G1 X195.349 Y184.58 E17.90938
G1 X192.741 Y184.617 E18.03084
G1 X190.22 Y184.724 E18.14833
G1 X187.725 Y184.901 E18.2648
G1 X185.225 Y185.149 E18.38178
G1 X182.732 Y185.468 E18.49881
G1 X180.239 Y185.859 E18.61632
G1 X177.749 Y186.322 E18.73425
G1 X175.285 Y186.852 E18.85161
G1 X172.883 Y187.441 E18.96677
G1 X170.427 Y188.117 E19.08538
G1 X168.017 Y188.855 E19.20274
G1 X165.625 Y189.662 E19.32029
G1 X163.285 Y190.525 E19.43643
G1 X160.929 Y191.471 E19.55465
G1 X158.631 Y192.471 E19.67134
G1 X156.35 Y193.54 E19.78864
G1 X154.08 Y194.683 E19.90699
G1 X151.887 Y195.868 E20.02306
G1 X149.704 Y197.126 E20.14038
G1 X147.559 Y198.446 E20.25765
G1 X145.462 Y199.819 E20.37437
G1 X143.399 Y201.256 E20.49144
G1 X141.363 Y202.761 E20.60933
G1 X139.38 Y204.314 E20.72661
G1 X137.44 Y205.925 E20.84403
G1 X135.561 Y207.578 E20.96057
G1 X133.715 Y209.295 E21.07796
G1 X131.919 Y211.064 E21.19534
G1 X130.187 Y212.869 E21.31182
G1 X128.486 Y214.747 E21.42981
G1 X126.87 Y216.632 E21.54542
G1 X125.161 Y218.749 E21.67211
G1 X124.775 Y219.242 E21.70127
G1 X124.166 Y219.955 E21.74493
G1 X123.498 Y220.614 E21.78862
G1 X122.777 Y221.214 E21.8323
G1 X122.008 Y221.75 E21.87595
G1 X121.195 Y222.219 E21.91965
G1 X120.346 Y222.616 E21.96329
G1 X119.465 Y222.94 E22.007
G1 X118.561 Y223.188 E22.05065
G1 X117.639 Y223.357 E22.0943
G1 X116.415 Y223.46 E22.1515
G1 X116.09 Y223.469 E22.16664
G1 X115.786 Y223.473 E22.18079
G1 X14.873 Y223.473 E26.87972
G1 X14.033 Y223.463 E26.91884
G1 X13.097 Y223.411 E26.96249
G1 X12.168 Y223.279 E27.00619
G1 X11.254 Y223.069 E27.04985
G1 X10.361 Y222.782 E27.09353
G1 X9.496 Y222.419 E27.13721
G1 X8.665 Y221.985 E27.18087
G1 X7.874 Y221.481 E27.22454
G1 X7.129 Y220.911 E27.26822
G1 X6.435 Y220.28 E27.31189
G1 X5.798 Y219.593 E27.35552
G1 X5.221 Y218.853 E27.39921
G1 X4.709 Y218.067 E27.44289
G1 X4.266 Y217.24 E27.48658
G1 X3.895 Y216.379 E27.53023
G1 X3.599 Y215.489 E27.57391
G1 X3.38 Y214.577 E27.61758
G1 X3.239 Y213.65 E27.66124
G1 X3.179 Y212.761 E27.70273
G1 X3.17 Y212.428 E27.71824
G1 X3.166 Y212.131 E27.73208
G1 X3.166 Y165.958 E29.88208
G1 X3.129 Y163.35 E30.00353
G1 X3.022 Y160.828 E30.12108
G1 X2.845 Y158.333 E30.23755
G1 X2.595 Y155.809 E30.35565
G1 X2.374 Y154.026 E30.43931
G1 X2.333 Y153.713 E30.45401
G1 X2.245 Y152.978 E30.48848
G1 X2.173 Y152.029 E30.53279
G1 X2.167 Y151.845 E30.54136
G1 X2.162 Y151.612 E30.55222
G1 X2.157 Y151.136 E30.57438
G1 X2.158 Y140.733 E31.05879
G1 X2.169 Y140.026 E31.09171
G1 X2.236 Y138.973 E31.14085
G1 X2.379 Y138.046 E31.18452
G1 X2.568 Y137.252 E31.22253
G1 X2.805 Y136.4 E31.26371
G1 X3.114 Y135.339 E31.31516
G1 X3.753 Y132.884 E31.43329
G1 X4.309 Y130.477 E31.54832
G1 X4.815 Y127.963 E31.66773
G1 X5.238 Y125.501 E31.78405
G1 X5.594 Y122.998 E31.90177
G1 X5.881 Y120.487 E32.01946
G1 X6.094 Y117.995 E32.13592
G1 X6.238 Y115.464 E32.25396
G1 X6.309 Y112.97 E32.37014
G1 X6.311 Y110.451 E32.48743
G1 X6.24 Y107.93 E32.60487
G1 X6.099 Y105.414 E32.72221
G1 X5.884 Y102.884 E32.84044
G1 X5.606 Y100.429 E32.95549
G1 X5.246 Y97.891 E33.07485
G1 X4.824 Y95.421 E33.19153
G1 X4.335 Y92.984 E33.30727
G1 X3.68 Y90.153 E33.44257
G1 X3.64 Y89.995 E33.45016
G1 X3.439 Y88.994 E33.4977
G1 X3.322 Y88.231 E33.53365
G1 X3.283 Y87.952 E33.54677
G1 X3.247 Y87.669 E33.56005
G1 X3.16 Y86.459 E33.61654
G1 X3.147 Y85.655 E33.65398
G1 X3.146 Y27.582 E36.3581
G1 X3.147 Y27.424 E36.36546
G1 X3.157 Y26.726 E36.39796
G1 X3.202 Y25.879 E36.43746
G1 X3.223 Y25.65 E36.44817
G1 X3.267 Y25.253 E36.46677
G1 X3.308 Y24.934 E36.48174
G1 X3.359 Y24.579 E36.49844
G1 X3.425 Y24.171 E36.51769
G1 X3.614 Y23.253 E36.56133
G1 X3.881 Y22.354 E36.605
G1 X4.086 Y21.805 E36.63229
G1 X4.257 Y21.382 E36.65353
G1 X4.378 Y21.095 E36.66804
G1 X4.557 Y20.686 E36.68882
G1 X4.969 Y19.843 E36.73252
G1 X5.452 Y19.039 E36.77619
G1 X5.834 Y18.496 E36.8071
G1 X6.161 Y18.06 E36.83248
G1 X6.36 Y17.803 E36.84762
G1 X6.592 Y17.512 E36.86495
G1 X7.207 Y16.804 E36.90861
G1 X7.881 Y16.151 E36.95231
G1 X8.338 Y15.766 E36.98014
G1 X8.722 Y15.46 E37.003
G1 X8.999 Y15.247 E37.01927
G1 X9.322 Y15.006 E37.03804
G1 X10.097 Y14.477 E37.08173
G0 F6000 X10.322 Y14.808
G1 F1200 X11.125 Y14.358 E37.12459
G1 X11.615 Y14.127 E37.14982
G1 X12.106 Y13.91 E37.17481
G1 X12.412 Y13.78 E37.19029
G1 X12.733 Y13.65 E37.20642
G1 X13.601 Y13.342 E37.24931
G1 X14.492 Y13.11 E37.29218
G1 X15.085 Y13.001 E37.32025
G1 X15.793 Y12.891 E37.35362
G1 X16.09 Y12.849 E37.36758
G1 X16.351 Y12.816 E37.37983
G1 X17.517 Y12.733 E37.43426
G1 X18.357 Y12.72 E37.47338
G1 X111.883 Y12.719 E41.82835
G1 X112.733 Y12.73 E41.86793
G1 X113.549 Y12.773 E41.90598
G1 X113.778 Y12.794 E41.91669
G1 X114.125 Y12.832 E41.93294
G1 X114.501 Y12.88 E41.95059
G1 X114.868 Y12.933 E41.96786
G1 X115.226 Y12.991 E41.98474
G1 X116.128 Y13.178 E42.02764
G1 X117.277 Y13.539 E42.08372
G1 X117.555 Y13.647 E42.09761
G1 X117.913 Y13.792 E42.11559
G1 X118.202 Y13.914 E42.1302
G1 X118.634 Y14.104 E42.15217
G1 X119.459 Y14.511 E42.19501
G1 X120.247 Y14.988 E42.2379
G1 X120.701 Y15.308 E42.26376
G1 X121.129 Y15.627 E42.28862
G1 X121.402 Y15.838 E42.30469
G1 X121.703 Y16.078 E42.32261
G1 X122.398 Y16.683 E42.36552
G1 X123.037 Y17.345 E42.40836
G1 X123.385 Y17.76 E42.43358
G1 X123.691 Y18.144 E42.45645
G1 X123.887 Y18.398 E42.47138
G1 X124.128 Y18.72 E42.49011
G1 X124.295 Y18.95 E42.50335
G1 X124.466 Y19.192 E42.51715
G1 X126.049 Y21.367 E42.64241
G1 X127.582 Y23.353 E42.75923
G1 X129.199 Y25.329 E42.87812
G1 X130.854 Y27.237 E42.99573
G1 X132.561 Y29.099 E43.11335
G1 X134.294 Y30.884 E43.2292
G1 X136.119 Y32.66 E43.34778
G1 X138.005 Y34.395 E43.4671
G1 X139.885 Y36.028 E43.58306
G1 X141.867 Y37.654 E43.70243
G1 X143.849 Y39.189 E43.81916
G1 X145.872 Y40.665 E43.93577
G1 X147.982 Y42.114 E44.05496
G1 X150.089 Y43.478 E44.17183
G1 X152.284 Y44.809 E44.29136
G1 X154.465 Y46.05 E44.40821
G1 X156.689 Y47.234 E44.52553
G1 X158.968 Y48.365 E44.644
G1 X161.253 Y49.42 E44.76119
G1 X163.551 Y50.402 E44.87756
G1 X165.951 Y51.35 E44.99771
G1 X168.302 Y52.202 E45.11415
G1 X170.708 Y52.998 E45.23216
G1 X173.12 Y53.72 E45.34939
G1 X175.582 Y54.382 E45.46811
G1 X178.011 Y54.963 E45.5844
G1 X180.489 Y55.482 E45.70229
G1 X183.009 Y55.934 E45.82151
G1 X185.487 Y56.308 E45.9382
G1 X188.001 Y56.614 E46.05613
G1 X190.515 Y56.849 E46.1737
G1 X193.054 Y57.014 E46.29217
G1 X195.603 Y57.107 E46.41094
G1 X197.599 Y57.129 E46.50389
G1 X214.448 Y57.13 E47.28845
G1 X215.146 Y57.141 E47.32096
G1 X216.065 Y57.196 E47.36383
G1 X216.976 Y57.33 E47.4067
G1 X217.872 Y57.542 E47.44958
G1 X218.746 Y57.832 E47.49246
G1 X219.591 Y58.196 E47.5353
G1 X220.402 Y58.632 E47.57817
G1 X221.172 Y59.137 E47.62105
G1 X221.895 Y59.707 E47.66392
G1 X222.566 Y60.337 E47.70678
G1 X223.18 Y61.024 E47.74968
G1 X223.731 Y61.761 E47.79253
G1 X224.217 Y62.543 E47.8354
G1 X224.633 Y63.364 E47.87826
G1 X224.977 Y64.218 E47.92113
G1 X225.245 Y65.099 E47.96401
G1 X225.435 Y66 E48.00689
G1 X225.547 Y66.913 E48.04972
G1 X225.575 Y67.441 E48.07434
G1 X225.584 Y67.76 E48.0892
G1 X225.588 Y68.059 E48.10312
G1 X225.588 Y79.698 E48.64508
G1 X225.625 Y82.323 E48.76733
G1 X225.732 Y84.831 E48.88422
G1 X225.91 Y87.351 E49.00185
G1 X226.159 Y89.866 E49.11953
G1 X226.478 Y92.355 E49.23638
G1 X226.879 Y94.907 E49.35667
G1 X227.331 Y97.338 E49.47181
G1 X227.867 Y99.83 E49.5905
G1 X228.469 Y102.287 E49.70829
G1 X229.142 Y104.732 E49.82637
G1 X229.88 Y107.141 E49.94369
G1 X230.436 Y108.79 E50.02472
G1 X230.629 Y109.388 E50.05398
G1 X230.873 Y110.276 E50.09686
G1 X231.04 Y111.181 E50.13972
G1 X231.136 Y112.319 E50.1929
G1 X231.146 Y112.645 E50.20808
G1 X231.151 Y112.97 E50.22322
G1 X231.15 Y169.469 E52.85405
G1 X231.14 Y170.166 E52.88651
G1 X231.1 Y170.946 E52.92287
G1 X231.085 Y171.116 E52.93082
G1 X231.045 Y171.492 E52.94843
G1 X231.02 Y171.693 E52.95786
G1 X230.986 Y171.941 E52.96951
G1 X230.906 Y172.48 E52.99489
G1 X230.732 Y173.384 E53.03775
G1 X230.479 Y174.27 E53.08066
G1 X230.264 Y174.858 E53.10981
G1 X230.003 Y175.511 E53.14256
G1 X229.894 Y175.773 E53.15577
G1 X229.797 Y175.998 E53.16718
G1 X229.396 Y176.827 E53.21006
G1 X228.925 Y177.618 E53.25293
G1 X228.548 Y178.156 E53.28352
G1 X228.229 Y178.582 E53.3083
G1 X228.032 Y178.836 E53.32327
G1 X227.792 Y179.137 E53.34119
G1 X227.187 Y179.832 E53.3841
G1 X226.525 Y180.471 E53.42694
G1 X226.11 Y180.819 E53.45216
G1 X225.726 Y181.125 E53.47502
G1 X225.476 Y181.318 E53.48973
G1 X225.153 Y181.56 E53.50852
G1 X224.393 Y182.08 E53.5514
G1 X223.59 Y182.531 E53.59429
G1 X223.069 Y182.778 E53.62114
G1 X222.583 Y182.992 E53.64586
G1 X222.298 Y183.113 E53.66028
G1 X221.963 Y183.249 E53.67712
G1 X221.096 Y183.557 E53.71996
G1 X220.205 Y183.79 E53.76284
G1 X219.602 Y183.902 E53.7914
G1 X218.874 Y184.015 E53.82571
G1 X218.506 Y184.065 E53.843
G1 X218.255 Y184.095 E53.85477
G1 X217.35 Y184.164 E53.89703
G1 X217.17 Y184.17 E53.90542
G1 X216.931 Y184.175 E53.91655
G1 X216.445 Y184.18 E53.93918
G1 X195.343 Y184.18 E54.92178
G1 X192.718 Y184.217 E55.04402
G1 X190.21 Y184.324 E55.16091
G1 X187.69 Y184.502 E55.27855
G1 X185.175 Y184.751 E55.39623
G1 X182.686 Y185.07 E55.51307
G1 X180.134 Y185.471 E55.63336
G1 X177.703 Y185.923 E55.7485
G1 X175.211 Y186.459 E55.86719
G1 X172.754 Y187.061 E55.98499
G1 X170.309 Y187.734 E56.10307
G1 X167.909 Y188.469 E56.21995
G1 X165.495 Y189.283 E56.33857
G1 X163.145 Y190.15 E56.45521
G1 X160.757 Y191.109 E56.57503
G1 X158.48 Y192.1 E56.69067
G1 X156.151 Y193.192 E56.81044
G1 X153.916 Y194.317 E56.92695
G1 X151.703 Y195.512 E57.04407
G1 X149.516 Y196.773 E57.16162
G1 X147.336 Y198.115 E57.28082
G1 X145.237 Y199.489 E57.39764
G1 X143.138 Y200.951 E57.51675
G1 X141.124 Y202.439 E57.63334
G1 X139.123 Y204.007 E57.75172
G1 X137.204 Y205.601 E57.86788
G1 X135.288 Y207.285 E57.98666
G1 X133.427 Y209.016 E58.10501
G1 X131.632 Y210.785 E58.22236
G1 X129.885 Y212.606 E58.33986
G1 X128.202 Y214.463 E58.45656
G1 X126.557 Y216.383 E58.57429
G1 X124.872 Y218.469 E58.69915
G1 X124.46 Y218.996 E58.7303
G1 X123.861 Y219.695 E58.77317
G1 X123.205 Y220.341 E58.81604
G1 X122.494 Y220.926 E58.85891
G1 X121.736 Y221.448 E58.90177
G1 X120.935 Y221.903 E58.94466
G1 X120.098 Y222.286 E58.98752
G1 X119.231 Y222.595 E59.03038
G1 X118.34 Y222.827 E59.07325
G1 X117.432 Y222.981 E59.11614
G1 X116.404 Y223.06 E59.16415
G1 X116.079 Y223.069 E59.17929
G1 X115.786 Y223.073 E59.19293
G1 X14.873 Y223.073 E63.89186
G1 X14.038 Y223.063 E63.93075
G1 X13.119 Y223.011 E63.97361
G1 X12.208 Y222.88 E64.01646
G1 X11.312 Y222.67 E64.05932
G1 X10.437 Y222.383 E64.10219
