;FLAVOR:Marlin
;TIME:3484
;Filament used: 2.49833m
;Layer height: 0.2
;MINX:76.02
;MINY:87.109
;MINZ:0.2
;MAXX:158.979
;MAXY:147.89
;MAXZ:12.6
;Generated with Cura_SteamEngine 4.9.1
M140 S55
M105
M190 S55
M104 S220
M105
M109 S220
M82 ;absolute extrusion mode
; Ender 3 Custom Start G-code
G92 E0 ; Reset Extruder
G28 ; Home all axes
G1 Z2.0 F3000 ; Move Z Axis up little to prevent scratching of Heat Bed
G1 X0.1 Y20 Z0.3 F5000.0 ; Move to start position
G1 X0.1 Y200.0 Z0.3 F1500.0 E15 ; Draw the first line
G1 X0.4 Y200.0 Z0.3 F5000.0 ; Move to side a little
G1 X0.4 Y20 Z0.3 F1500.0 E30 ; Draw the second line
G92 E0 ; Reset Extruder
G1 Z2.0 F3000 ; Move Z Axis up little to prevent scratching of Heat Bed
G1 X5 Y20 Z0.3 F5000.0 ; Move over to prevent blob squish
G92 E0
G92 E0
G1 F2700 E-5
;LAYER_COUNT:63
;LAYER:0
M107
G0 F6000 X80.574 Y90.878 Z0.2
;TYPE:SKIRT
G1 F2700 E0
G1 F1200 X81.097 Y90.436 E0.02278
G1 X81.528 Y90.094 E0.04108
G1 X81.813 Y89.875 E0.05303
G1 X82.018 Y89.723 E0.06152
G1 X82.795 Y89.197 E0.09273
G1 X83.613 Y88.739 E0.12391
G1 X84.165 Y88.48 E0.14419
G1 X84.737 Y88.23 E0.16495
G1 X85.103 Y88.077 E0.17814
G1 X85.293 Y88.002 E0.18494
G1 X86.179 Y87.695 E0.21612
G1 X87.089 Y87.465 E0.24734
G1 X87.7 Y87.356 E0.26799
G1 X88.22 Y87.278 E0.28547
G1 X88.589 Y87.229 E0.29786
G1 X88.909 Y87.192 E0.30857
G1 X89.786 Y87.126 E0.33782
G1 X90.014 Y87.118 E0.34541
G1 X90.308 Y87.111 E0.35519
G1 X90.547 Y87.109 E0.36314
G1 X96.526 Y87.109 E0.562
G1 X97.382 Y87.12 E0.59048
G1 X98.319 Y87.174 E0.62169
G1 X99.247 Y87.306 E0.65287
G1 X100.161 Y87.518 E0.68407
G1 X101.002 Y87.788 E0.71345
G1 X101.453 Y87.953 E0.72943
G1 X103.986 Y88.846 E0.81876
G1 X106.37 Y89.612 E0.90204
G1 X108.802 Y90.319 E0.98628
G1 X111.21 Y90.945 E1.06903
G1 X113.697 Y91.517 E1.15391
G1 X116.154 Y92.011 E1.23726
G1 X118.612 Y92.43 E1.3202
G1 X121.132 Y92.788 E1.40485
G1 X123.612 Y93.069 E1.48787
G1 X126.158 Y93.285 E1.57285
G1 X128.581 Y93.423 E1.65357
G1 X132.539 Y93.506 E1.78524
G1 X144.33 Y93.507 E2.17741
G1 X145.028 Y93.517 E2.20063
G1 X145.909 Y93.565 E2.22998
G1 X146.162 Y93.589 E2.23843
G1 X146.73 Y93.658 E2.25746
G1 X147.265 Y93.737 E2.27545
G1 X148.186 Y93.913 E2.30663
G1 X149.089 Y94.168 E2.33784
G1 X149.671 Y94.377 E2.35841
G1 X150.184 Y94.578 E2.37674
G1 X150.509 Y94.712 E2.38843
G1 X150.742 Y94.812 E2.39686
G1 X151.588 Y95.218 E2.42807
G1 X152.395 Y95.695 E2.45925
G1 X152.946 Y96.077 E2.48155
G1 X153.411 Y96.421 E2.50079
G1 X153.676 Y96.623 E2.51187
G1 X153.855 Y96.764 E2.51945
G1 X154.566 Y97.375 E2.55063
G1 X155.223 Y98.045 E2.58184
G1 X155.664 Y98.566 E2.60454
G1 X155.995 Y98.983 E2.62225
G1 X156.198 Y99.248 E2.63335
G1 X156.362 Y99.468 E2.64248
G1 X156.89 Y100.243 E2.67367
G1 X157.35 Y101.06 E2.70486
G1 X157.628 Y101.649 E2.72652
G1 X157.848 Y102.154 E2.74484
G1 X157.982 Y102.477 E2.75647
G1 X158.072 Y102.703 E2.76456
G1 X158.382 Y103.589 E2.79578
G1 X158.615 Y104.497 E2.82696
G1 X158.732 Y105.147 E2.84893
G1 X158.819 Y105.729 E2.8685
G1 X158.862 Y106.05 E2.87927
G1 X158.892 Y106.301 E2.88768
G1 X158.964 Y107.245 E2.91917
G1 X158.973 Y107.519 E2.92829
G1 X158.979 Y107.88 E2.94029
G1 X158.979 Y133.241 E3.7838
G1 X158.969 Y133.938 E3.80699
G1 X158.921 Y134.815 E3.8362
G1 X158.897 Y135.069 E3.84469
G1 X158.83 Y135.627 E3.86338
G1 X158.752 Y136.16 E3.8813
G1 X158.577 Y137.081 E3.91248
G1 X158.324 Y137.984 E3.94367
G1 X158.111 Y138.576 E3.96459
G1 X157.911 Y139.087 E3.98284
G1 X157.772 Y139.427 E3.99506
G1 X157.67 Y139.664 E4.00364
G1 X157.263 Y140.508 E4.03481
G1 X156.785 Y141.316 E4.06603
G1 X156.409 Y141.857 E4.08795
G1 X156.065 Y142.322 E4.10718
G1 X155.878 Y142.567 E4.11743
G1 X155.74 Y142.743 E4.12487
G1 X155.131 Y143.456 E4.15606
G1 X154.463 Y144.114 E4.18725
G1 X153.923 Y144.572 E4.2108
G1 X153.472 Y144.93 E4.22995
G1 X153.158 Y145.17 E4.24309
G1 X152.968 Y145.31 E4.25094
G1 X152.19 Y145.833 E4.28212
G1 X151.37 Y146.289 E4.31333
G1 X150.849 Y146.533 E4.33247
G1 X150.38 Y146.738 E4.34949
G1 X150.053 Y146.875 E4.36128
G1 X149.79 Y146.98 E4.3707
G1 X148.905 Y147.29 E4.40189
G1 X147.996 Y147.524 E4.43311
G1 X147.341 Y147.643 E4.45525
G1 X146.747 Y147.732 E4.47523
G1 X146.402 Y147.778 E4.4868
G1 X146.181 Y147.804 E4.4942
G1 X145.246 Y147.873 E4.52539
G1 X144.308 Y147.863 E4.55659
G1 X143.809 Y147.825 E4.57323
G1 X141.349 Y147.581 E4.65545
G1 X138.814 Y147.402 E4.73998
G1 X136.314 Y147.296 E4.8232
G1 X133.791 Y147.26 E4.90713
G1 X131.268 Y147.296 E4.99105
G1 X128.746 Y147.403 E5.07501
G1 X126.265 Y147.579 E5.15773
G1 X124.193 Y147.788 E5.227
G1 X123.602 Y147.84 E5.24673
G1 X122.997 Y147.876 E5.26689
G1 X122.752 Y147.884 E5.27504
G1 X122.393 Y147.89 E5.28698
G1 X90.65 Y147.889 E6.34276
G1 X89.941 Y147.878 E6.36635
G1 X88.993 Y147.822 E6.39793
G1 X88.729 Y147.795 E6.40676
G1 X88.256 Y147.736 E6.42261
G1 X87.757 Y147.663 E6.43938
G1 X86.835 Y147.488 E6.4706
G1 X85.932 Y147.235 E6.50179
G1 X85.297 Y147.006 E6.52424
G1 X84.719 Y146.777 E6.54492
G1 X84.389 Y146.639 E6.55682
G1 X84.191 Y146.553 E6.564
G1 X83.347 Y146.143 E6.5952
G1 X82.542 Y145.663 E6.62638
G1 X82.02 Y145.299 E6.64754
G1 X81.656 Y145.029 E6.66262
G1 X81.413 Y144.844 E6.67277
G1 X81.161 Y144.646 E6.68343
G1 X80.449 Y144.035 E6.71464
G1 X79.791 Y143.366 E6.74585
G1 X79.346 Y142.84 E6.76876
G1 X78.978 Y142.377 E6.78844
G1 X78.753 Y142.084 E6.80072
G1 X78.624 Y141.91 E6.80793
G1 X78.098 Y141.134 E6.83911
G1 X77.64 Y140.315 E6.87032
G1 X77.37 Y139.741 E6.89142
G1 X77.132 Y139.193 E6.91129
G1 X77.001 Y138.878 E6.92263
G1 X76.925 Y138.687 E6.92947
G1 X76.616 Y137.801 E6.96068
G1 X76.383 Y136.893 E6.99186
G1 X76.267 Y136.249 E7.01362
G1 X76.18 Y135.668 E7.03316
G1 X76.127 Y135.263 E7.04675
G1 X76.097 Y134.995 E7.05572
G1 X76.035 Y134.121 E7.08486
G1 X76.022 Y133.63 E7.1012
G1 X76.02 Y133.352 E7.11044
G1 X76.021 Y101.802 E8.1598
G1 X76.031 Y101.105 E8.18298
G1 X76.08 Y100.216 E8.2126
G1 X76.104 Y99.965 E8.22098
G1 X76.169 Y99.425 E8.23907
G1 X76.248 Y98.883 E8.25729
G1 X76.423 Y97.962 E8.28847
G1 X76.675 Y97.059 E8.31965
G1 X76.891 Y96.458 E8.34089
G1 X77.108 Y95.904 E8.36068
G1 X77.234 Y95.595 E8.37178
G1 X77.322 Y95.389 E8.37923
G1 X77.727 Y94.543 E8.41043
G1 X78.203 Y93.734 E8.44165
G1 X78.607 Y93.151 E8.46524
G1 X78.962 Y92.673 E8.48504
G1 X79.152 Y92.425 E8.49544
G1 X79.293 Y92.246 E8.50301
G1 X79.904 Y91.535 E8.53419
G1 X80.574 Y90.878 E8.5654
G0 F6000 X80.867 Y91.153
G1 F1200 X81.345 Y90.75 E8.5862
G1 X81.776 Y90.408 E8.6045
G1 X82.052 Y90.196 E8.61607
G1 X82.257 Y90.044 E8.62456
G1 X83.019 Y89.529 E8.65515
G1 X83.824 Y89.081 E8.68579
G1 X84.325 Y88.846 E8.7042
G1 X84.897 Y88.596 E8.72496
G1 X85.25 Y88.449 E8.73768
G1 X85.44 Y88.374 E8.74447
G1 X86.31 Y88.074 E8.77508
G1 X87.203 Y87.85 E8.8057
G1 X87.76 Y87.751 E8.82452
G1 X88.28 Y87.673 E8.84201
G1 X88.634 Y87.626 E8.85389
G1 X88.954 Y87.589 E8.8646
G1 X89.8 Y87.526 E8.89282
G1 X90.311 Y87.511 E8.90982
G1 X90.55 Y87.509 E8.91777
G1 X96.526 Y87.509 E9.11653
G1 X97.377 Y87.52 E9.14484
G1 X98.296 Y87.573 E9.17546
G1 X99.207 Y87.706 E9.20608
G1 X100.103 Y87.917 E9.23669
G1 X100.864 Y88.163 E9.26329
G1 X101.422 Y88.367 E9.28305
G1 X103.836 Y89.218 E9.36819
G1 X106.251 Y89.994 E9.45255
G1 X108.686 Y90.702 E9.5369
G1 X111.133 Y91.338 E9.62099
G1 X113.6 Y91.906 E9.70519
G1 X116.107 Y92.409 E9.79023
G1 X118.525 Y92.821 E9.87182
G1 X121.102 Y93.188 E9.95839
G1 X123.569 Y93.468 E10.04097
G1 X126.1 Y93.682 E10.12545
G1 X128.58 Y93.823 E10.20807
G1 X132.53 Y93.906 E10.33948
G1 X144.324 Y93.907 E10.73175
G1 X145.022 Y93.917 E10.75497
G1 X145.871 Y93.963 E10.78324
G1 X146.124 Y93.987 E10.7917
G1 X146.671 Y94.054 E10.81003
G1 X147.206 Y94.133 E10.82801
G1 X148.111 Y94.307 E10.85867
G1 X148.996 Y94.558 E10.88926
G1 X149.525 Y94.75 E10.90798
G1 X150.038 Y94.951 E10.9263
G1 X150.352 Y95.079 E10.93758
G1 X150.585 Y95.179 E10.94602
G1 X151.414 Y95.579 E10.97663
G1 X152.206 Y96.049 E11.00726
G1 X152.708 Y96.398 E11.0276
G1 X153.173 Y96.742 E11.04683
G1 X153.428 Y96.937 E11.05751
G1 X153.607 Y97.078 E11.06509
G1 X154.305 Y97.679 E11.09573
G1 X154.948 Y98.338 E11.12635
G1 X155.35 Y98.815 E11.1471
G1 X155.681 Y99.232 E11.16481
G1 X155.878 Y99.487 E11.17552
G1 X156.042 Y99.707 E11.18465
G1 X156.559 Y100.468 E11.21525
G1 X157.009 Y101.271 E11.24586
G1 X157.261 Y101.808 E11.26559
G1 X157.481 Y102.313 E11.28392
G1 X157.611 Y102.625 E11.29516
G1 X157.701 Y102.851 E11.30325
G1 X158.004 Y103.721 E11.33389
G1 X158.231 Y104.613 E11.3645
G1 X158.337 Y105.206 E11.38454
G1 X158.424 Y105.788 E11.40411
G1 X158.465 Y106.097 E11.41448
G1 X158.495 Y106.348 E11.42289
G1 X158.564 Y107.258 E11.45324
G1 X158.573 Y107.532 E11.46236
G1 X158.579 Y107.88 E11.47393
G1 X158.579 Y133.235 E12.31724
G1 X158.569 Y133.932 E12.34043
G1 X158.523 Y134.777 E12.36858
G1 X158.499 Y135.031 E12.37706
G1 X158.434 Y135.569 E12.39509
G1 X158.356 Y136.102 E12.413
G1 X158.184 Y137.006 E12.44361
G1 X157.933 Y137.892 E12.47424
G1 X157.739 Y138.43 E12.49326
G1 X157.539 Y138.941 E12.51151
G1 X157.405 Y139.268 E12.52326
G1 X157.303 Y139.505 E12.53185
G1 X156.902 Y140.334 E12.56247
G1 X156.431 Y141.126 E12.59312
G1 X156.088 Y141.619 E12.6131
G1 X155.744 Y142.084 E12.63234
G1 X155.564 Y142.321 E12.64223
G1 X155.426 Y142.497 E12.64967
G1 X154.827 Y143.196 E12.68029
G1 X154.169 Y143.84 E12.71091
G1 X153.674 Y144.258 E12.73246
G1 X153.223 Y144.616 E12.75161
G1 X152.921 Y144.848 E12.76428
G1 X152.731 Y144.988 E12.77213
G1 X151.967 Y145.501 E12.80274
G1 X151.161 Y145.946 E12.83336
G1 X150.688 Y146.167 E12.85072
G1 X150.219 Y146.372 E12.86775
G1 X149.904 Y146.503 E12.8791
G1 X149.641 Y146.608 E12.88851
G1 X148.772 Y146.912 E12.91913
G1 X147.88 Y147.14 E12.94976
G1 X147.282 Y147.247 E12.96996
G1 X146.688 Y147.336 E12.98994
G1 X146.356 Y147.38 E13.00108
G1 X146.135 Y147.406 E13.00848
G1 X145.216 Y147.474 E13.03913
G1 X143.849 Y147.427 E13.08462
G1 X141.384 Y147.182 E13.16701
G1 X138.823 Y147.002 E13.2524
G1 X136.337 Y146.896 E13.33516
G1 X133.791 Y146.86 E13.41985
G1 X131.245 Y146.896 E13.50454
G1 X128.737 Y147.003 E13.58803
G1 X126.23 Y147.18 E13.67162
G1 X124.158 Y147.389 E13.74089
G1 X123.567 Y147.441 E13.76062
G1 X122.984 Y147.476 E13.78004
G1 X122.739 Y147.484 E13.7882
G1 X122.393 Y147.49 E13.79971
G1 X90.657 Y147.489 E14.85525
G1 X89.948 Y147.478 E14.87884
G1 X89.034 Y147.424 E14.90929
G1 X88.77 Y147.397 E14.91811
G1 X88.314 Y147.34 E14.9334
G1 X87.815 Y147.267 E14.95017
G1 X86.91 Y147.095 E14.98081
G1 X86.024 Y146.844 E15.01144
G1 X85.445 Y146.634 E15.03193
G1 X84.867 Y146.405 E15.0526
G1 X84.548 Y146.273 E15.06409
G1 X84.35 Y146.187 E15.07127
G1 X83.522 Y145.783 E15.10191
G1 X82.733 Y145.31 E15.13251
G1 X82.258 Y144.978 E15.15178
G1 X81.894 Y144.708 E15.16685
G1 X81.66 Y144.529 E15.17665
G1 X81.408 Y144.331 E15.18731
G1 X80.71 Y143.731 E15.21793
G1 X80.066 Y143.073 E15.24855
G1 X79.659 Y142.592 E15.26951
G1 X79.291 Y142.129 E15.28918
G1 X79.074 Y141.846 E15.30104
G1 X78.945 Y141.672 E15.30824
G1 X78.429 Y140.909 E15.33888
G1 X77.982 Y140.105 E15.36947
G1 X77.737 Y139.582 E15.38868
G1 X77.499 Y139.034 E15.40855
G1 X77.373 Y138.73 E15.4195
G1 X77.297 Y138.539 E15.42634
G1 X76.994 Y137.67 E15.45695
G1 X76.768 Y136.777 E15.48758
G1 X76.663 Y136.19 E15.50742
G1 X76.576 Y135.609 E15.52696
G1 X76.525 Y135.218 E15.54007
G1 X76.495 Y134.95 E15.54904
G1 X76.434 Y134.108 E15.57712
G1 X76.427 Y133.888 E15.58444
G1 X76.422 Y133.627 E15.59312
G1 X76.42 Y133.349 E15.60237
G1 X76.421 Y101.808 E16.65143
G1 X76.431 Y101.111 E16.67461
G1 X76.478 Y100.254 E16.70316
G1 X76.502 Y100.003 E16.71155
G1 X76.565 Y99.483 E16.72897
G1 X76.644 Y98.941 E16.74719
G1 X76.816 Y98.037 E16.77779
G1 X77.066 Y97.151 E16.80841
G1 X77.263 Y96.604 E16.82775
G1 X77.48 Y96.05 E16.84754
G1 X77.602 Y95.752 E16.85825
G1 X77.69 Y95.546 E16.8657
G1 X78.088 Y94.716 E16.89631
G1 X78.557 Y93.923 E16.92696
G1 X78.928 Y93.39 E16.94856
G1 X79.283 Y92.912 E16.96836
G1 X79.466 Y92.673 E16.97837
G1 X79.607 Y92.494 E16.98595
G1 X80.208 Y91.796 E17.01659
G1 X80.867 Y91.153 E17.04721
G0 F6000 X81.159 Y91.428
G1 F1200 X81.594 Y91.063 E17.0661
G1 X82.025 Y90.721 E17.0844
G1 X82.29 Y90.518 E17.0955
G1 X82.495 Y90.366 E17.10399
G1 X83.243 Y89.86 E17.13402
G1 X84.034 Y89.423 E17.16408
G1 X84.485 Y89.213 E17.18063
G1 X85.057 Y88.963 E17.20139
G1 X85.397 Y88.821 E17.21364
G1 X85.587 Y88.746 E17.22044
G1 X86.441 Y88.452 E17.25048
G1 X87.317 Y88.235 E17.28049
G1 X87.819 Y88.147 E17.29745
G1 X88.339 Y88.069 E17.31493
G1 X88.68 Y88.024 E17.32637
G1 X89 Y87.987 E17.33709
G1 X89.814 Y87.925 E17.36424
G1 X90.042 Y87.917 E17.37183
G1 X90.315 Y87.911 E17.38091
G1 X90.554 Y87.909 E17.38886
G1 X96.526 Y87.909 E17.58749
G1 X97.371 Y87.92 E17.6156
G1 X98.272 Y87.973 E17.64562
G1 X99.166 Y88.105 E17.67567
G1 X100.044 Y88.316 E17.70571
G1 X100.727 Y88.539 E17.7296
G1 X101.253 Y88.731 E17.74823
G1 X103.728 Y89.604 E17.83552
G1 X106.122 Y90.373 E17.91915
G1 X108.579 Y91.087 E18.00425
G1 X111.04 Y91.727 E18.08883
G1 X113.51 Y92.295 E18.17312
G1 X116.026 Y92.801 E18.25848
G1 X118.514 Y93.225 E18.34242
G1 X120.997 Y93.578 E18.42584
G1 X123.526 Y93.865 E18.51049
G1 X126.079 Y94.081 E18.59571
G1 X128.576 Y94.223 E18.6789
G1 X132.522 Y94.306 E18.81017
G1 X144.318 Y94.307 E19.20251
G1 X145.016 Y94.317 E19.22572
G1 X145.833 Y94.362 E19.25294
G1 X146.086 Y94.386 E19.26139
G1 X146.613 Y94.449 E19.27904
G1 X147.148 Y94.528 E19.29703
G1 X148.035 Y94.7 E19.32708
G1 X148.903 Y94.949 E19.35712
G1 X149.379 Y95.122 E19.37396
G1 X149.892 Y95.323 E19.39229
G1 X150.194 Y95.447 E19.40315
G1 X150.427 Y95.547 E19.41158
G1 X151.24 Y95.939 E19.4416
G1 X152.016 Y96.402 E19.47165
G1 X152.47 Y96.72 E19.49009
G1 X152.935 Y97.064 E19.50933
G1 X153.181 Y97.251 E19.5196
G1 X153.36 Y97.392 E19.52718
G1 X154.044 Y97.982 E19.55723
G1 X154.673 Y98.63 E19.58726
G1 X155.037 Y99.064 E19.6061
G1 X155.368 Y99.481 E19.62381
G1 X155.557 Y99.726 E19.6341
G1 X155.721 Y99.946 E19.64323
G1 X156.228 Y100.693 E19.67326
G1 X156.667 Y101.482 E19.70329
G1 X156.894 Y101.968 E19.72113
G1 X157.114 Y102.473 E19.73945
G1 X157.239 Y102.773 E19.75026
G1 X157.329 Y102.999 E19.75835
G1 X157.626 Y103.852 E19.78839
G1 X157.846 Y104.728 E19.81843
G1 X157.941 Y105.265 E19.83657
G1 X158.028 Y105.847 E19.85614
G1 X158.068 Y106.144 E19.86611
G1 X158.098 Y106.395 E19.87452
G1 X158.165 Y107.271 E19.90374
G1 X158.174 Y107.545 E19.91286
G1 X158.179 Y107.88 E19.924
G1 X158.179 Y133.229 E20.76711
G1 X158.169 Y133.926 E20.7903
G1 X158.125 Y134.74 E20.81741
G1 X158.101 Y134.994 E20.8259
G1 X158.039 Y135.511 E20.84321
G1 X157.961 Y136.044 E20.86113
G1 X157.79 Y136.931 E20.89118
G1 X157.542 Y137.799 E20.9212
G1 X157.366 Y138.285 E20.93839
G1 X157.166 Y138.796 E20.95664
G1 X157.037 Y139.11 E20.96793
G1 X156.935 Y139.347 E20.97652
G1 X156.542 Y140.16 E21.00655
G1 X156.078 Y140.935 E21.03659
G1 X155.766 Y141.381 E21.0547
G1 X155.422 Y141.846 E21.07393
G1 X155.249 Y142.074 E21.08345
G1 X155.111 Y142.25 E21.09089
G1 X154.523 Y142.935 E21.12092
G1 X153.876 Y143.566 E21.15098
G1 X153.426 Y143.945 E21.17055
G1 X152.975 Y144.303 E21.1897
G1 X152.684 Y144.526 E21.20189
G1 X152.494 Y144.666 E21.20974
G1 X151.744 Y145.169 E21.23978
G1 X150.952 Y145.603 E21.26981
G1 X150.528 Y145.8 E21.28536
G1 X150.059 Y146.005 E21.30239
G1 X149.756 Y146.132 E21.31332
G1 X149.493 Y146.237 E21.32273
G1 X148.64 Y146.534 E21.35278
G1 X147.765 Y146.755 E21.38279
G1 X147.222 Y146.851 E21.40113
G1 X146.628 Y146.94 E21.42111
G1 X146.309 Y146.983 E21.43182
G1 X146.088 Y147.009 E21.43922
G1 X145.187 Y147.075 E21.46926
G1 X143.888 Y147.029 E21.5125
G1 X141.415 Y146.783 E21.59515
G1 X138.868 Y146.604 E21.68008
G1 X136.324 Y146.496 E21.76477
G1 X133.791 Y146.46 E21.84902
G1 X131.258 Y146.496 E21.93328
G1 X128.69 Y146.605 E22.01877
G1 X126.197 Y146.782 E22.1019
G1 X124.123 Y146.991 E22.17123
G1 X123.532 Y147.043 E22.19096
G1 X122.971 Y147.077 E22.20965
G1 X122.726 Y147.085 E22.21781
G1 X122.393 Y147.09 E22.22888
G1 X90.663 Y147.089 E23.28423
G1 X89.954 Y147.078 E23.30781
G1 X89.074 Y147.026 E23.33713
G1 X88.81 Y146.999 E23.34596
G1 X88.372 Y146.945 E23.36064
G1 X87.873 Y146.872 E23.37741
G1 X86.986 Y146.701 E23.40745
G1 X86.117 Y146.453 E23.43751
G1 X85.592 Y146.262 E23.45609
