;FLAVOR:Marlin
;TIME:7335
;Filament used: 6.29899m
;Layer height: 0.28
;MINX:5.622
;MINY:59.441
;MINZ:0.28
;MAXX:228.539
;MAXY:189.379
;MAXZ:9.8
;Generated with Cura_SteamEngine 4.9.1
M140 S55
M105
M190 S55
M104 S220
M105
M109 S220
M82 ;absolute extrusion mode
; Ender 3 Custom Start G-code
G92 E0 ; Reset Extruder
G28 ; Home all axes
G1 Z2.0 F3000 ; Move Z Axis up little to prevent scratching of Heat Bed
G1 X0.1 Y20 Z0.3 F5000.0 ; Move to start position
G1 X0.1 Y200.0 Z0.3 F1500.0 E15 ; Draw the first line
G1 X0.4 Y200.0 Z0.3 F5000.0 ; Move to side a little
G1 X0.4 Y20 Z0.3 F1500.0 E30 ; Draw the second line
G92 E0 ; Reset Extruder
G1 Z2.0 F3000 ; Move Z Axis up little to prevent scratching of Heat Bed
G1 X5 Y20 Z0.3 F5000.0 ; Move over to prevent blob squish
G92 E0
G92 E0
G1 F2700 E-5
;LAYER_COUNT:35
;LAYER:0
M107
G0 F6000 X42.507 Y83.205 Z0.28
;TYPE:SKIRT
G1 F2700 E0
G1 F1200 X43.374 Y82.846 E0.0437
G1 X44.268 Y82.563 E0.08736
G1 X44.974 Y82.396 E0.12114
G1 X46.066 Y82.176 E0.17301
G1 X48.607 Y81.626 E0.29407
G1 X50.99 Y81.041 E0.40833
G1 X53.498 Y80.347 E0.5295
G1 X55.867 Y79.618 E0.64491
G1 X58.257 Y78.81 E0.76239
G1 X60.613 Y77.938 E0.87937
G1 X62.944 Y76.999 E0.99639
G1 X65.279 Y75.98 E1.11502
G1 X67.529 Y74.923 E1.23077
G1 X69.795 Y73.778 E1.34899
G1 X71.997 Y72.587 E1.46556
G1 X74.183 Y71.322 E1.58317
G1 X76.301 Y70.015 E1.69905
G1 X78.438 Y68.612 E1.81809
G1 X80.482 Y67.188 E1.93409
G1 X82.492 Y65.698 E2.05059
G1 X85.367 Y63.415 E2.22154
G1 X86.25 Y62.782 E2.27213
G1 X87.054 Y62.264 E2.31667
G1 X87.391 Y62.056 E2.33511
G1 X87.756 Y61.839 E2.35488
G1 X88.876 Y61.257 E2.41365
G1 X89.128 Y61.144 E2.42651
G1 X89.382 Y61.034 E2.4394
G1 X89.83 Y60.848 E2.46199
G1 X90.365 Y60.635 E2.4888
G1 X91.642 Y60.215 E2.5514
G1 X92.572 Y59.971 E2.59617
G1 X92.911 Y59.888 E2.61242
G1 X93.287 Y59.802 E2.63038
G1 X94.521 Y59.593 E2.68866
G1 X94.799 Y59.562 E2.70168
G1 X95.116 Y59.531 E2.71651
G1 X95.64 Y59.49 E2.74099
G1 X96.304 Y59.448 E2.77197
G1 X97.564 Y59.441 E2.83064
G1 X97.952 Y59.461 E2.84873
G1 X98.259 Y59.481 E2.86306
G1 X98.604 Y59.509 E2.87917
G1 X99.261 Y59.57 E2.9099
G1 X100.185 Y59.696 E2.95332
G1 X101.491 Y59.931 E3.01511
G1 X101.843 Y59.999 E3.0318
G1 X104.35 Y60.41 E3.1501
G1 X106.844 Y60.747 E3.26729
G1 X109.346 Y61.014 E3.38445
G1 X111.838 Y61.208 E3.50084
G1 X114.369 Y61.333 E3.61884
G1 X116.897 Y61.387 E3.73658
G1 X119.417 Y61.37 E3.85392
G1 X121.903 Y61.282 E3.96975
G1 X124.455 Y61.119 E4.08883
G1 X126.912 Y60.892 E4.20372
G1 X129.451 Y60.586 E4.32281
G1 X131.931 Y60.215 E4.43957
G1 X134.814 Y59.697 E4.57596
G1 X135.531 Y59.592 E4.60971
G1 X135.789 Y59.563 E4.6218
G1 X136.116 Y59.531 E4.6371
G1 X136.639 Y59.49 E4.66152
G1 X137.302 Y59.448 E4.69246
G1 X138.562 Y59.441 E4.75113
G1 X138.951 Y59.461 E4.76927
G1 X139.259 Y59.481 E4.78364
G1 X139.609 Y59.51 E4.79999
G1 X140.263 Y59.571 E4.83058
G1 X141.478 Y59.753 E4.88778
G1 X141.98 Y59.859 E4.91167
G1 X142.194 Y59.908 E4.9219
G1 X142.477 Y59.977 E4.93546
G1 X143.119 Y60.142 E4.96633
G1 X144.366 Y60.543 E5.02732
G1 X145.233 Y60.88 E5.07063
G1 X145.606 Y61.033 E5.08941
G1 X145.993 Y61.2 E5.10903
G1 X147.093 Y61.749 E5.16628
G1 X147.317 Y61.877 E5.17829
G1 X147.568 Y62.025 E5.19186
G1 X147.993 Y62.285 E5.21506
G1 X148.494 Y62.602 E5.24267
G1 X149.573 Y63.381 E5.30463
G1 X150.449 Y64.097 E5.35732
G1 X150.732 Y64.335 E5.37453
G1 X150.906 Y64.474 E5.3849
G1 X151.643 Y65.107 E5.43014
G1 X153.606 Y66.699 E5.54783
G1 X155.581 Y68.208 E5.66356
G1 X157.624 Y69.681 E5.78084
G1 X159.702 Y71.091 E5.89778
G1 X161.856 Y72.465 E6.01674
G1 X163.986 Y73.741 E6.13236
G1 X166.206 Y74.987 E6.2509
G1 X168.416 Y76.146 E6.3671
G1 X170.694 Y77.26 E6.48518
G1 X172.973 Y78.296 E6.60175
G1 X175.296 Y79.273 E6.7191
G1 X177.659 Y80.192 E6.83715
G1 X180.018 Y81.028 E6.95369
G1 X182.398 Y81.799 E7.07019
G1 X185.214 Y82.621 E7.20678
G1 X186.102 Y82.922 E7.25044
G1 X186.962 Y83.297 E7.29413
G1 X187.786 Y83.745 E7.3378
G1 X188.569 Y84.261 E7.38147
G1 X189.305 Y84.842 E7.42513
G1 X189.99 Y85.483 E7.46881
G1 X190.617 Y86.181 E7.5125
G1 X191.182 Y86.929 E7.55615
G1 X191.682 Y87.723 E7.59984
G1 X192.112 Y88.556 E7.6435
G1 X192.496 Y89.497 E7.69082
G1 X192.699 Y90.067 E7.719
G1 X193.601 Y92.505 E7.84004
G1 X194.54 Y94.837 E7.9571
G1 X195.542 Y97.134 E8.07379
G1 X196.625 Y99.437 E8.19229
G1 X197.744 Y101.653 E8.30789
G1 X198.954 Y103.892 E8.4264
G1 X200.203 Y106.049 E8.54246
G1 X201.535 Y108.209 E8.66062
G1 X202.926 Y110.327 E8.77861
G1 X204.343 Y112.359 E8.89397
G1 X205.859 Y114.407 E9.01261
G1 X207.41 Y116.383 E9.12958
G1 X209.002 Y118.295 E9.24544
G1 X210.698 Y120.219 E9.36486
G1 X212.386 Y122.03 E9.48014
G1 X214.156 Y123.821 E9.59739
G1 X215.981 Y125.572 E9.71516
G1 X217.855 Y127.266 E9.83279
G1 X219.761 Y128.896 E9.94957
G1 X221.726 Y130.482 E10.06715
G1 X223.776 Y132.04 E10.18705
G1 X224.085 Y132.27 E10.20499
G1 X224.813 Y132.861 E10.24865
G1 X225.489 Y133.511 E10.29232
G1 X226.107 Y134.217 E10.33601
G1 X226.662 Y134.972 E10.37964
G1 X227.151 Y135.773 E10.42334
G1 X227.57 Y136.612 E10.46701
G1 X227.916 Y137.484 E10.51069
G1 X228.187 Y138.381 E10.55432
G1 X228.38 Y139.299 E10.598
G1 X228.494 Y140.23 E10.64168
G1 X228.526 Y140.831 E10.6697
G1 X228.536 Y141.236 E10.68857
G1 X228.539 Y141.508 E10.70124
G1 X228.538 Y148.667 E11.03459
G1 X228.528 Y149.373 E11.06747
G1 X228.519 Y149.683 E11.08191
G1 X228.473 Y150.766 E11.13238
G1 X228.4 Y153.317 E11.25122
G1 X228.4 Y155.842 E11.36879
G1 X228.472 Y158.421 E11.48893
G1 X228.51 Y159.175 E11.52408
G1 X228.52 Y159.443 E11.53657
G1 X228.535 Y160.024 E11.56363
G1 X228.539 Y160.308 E11.57686
G1 X228.538 Y167.48 E11.91081
G1 X228.527 Y168.198 E11.94425
G1 X228.488 Y168.96 E11.97978
G1 X228.263 Y171.607 E12.10348
G1 X228.12 Y174.141 E12.22166
G1 X228.055 Y177.2 E12.36413
G1 X228.045 Y177.366 E12.37188
G1 X228.028 Y178.527 E12.42594
G1 X227.975 Y179.463 E12.4696
G1 X227.842 Y180.391 E12.51325
G1 X227.63 Y181.305 E12.55694
G1 X227.342 Y182.197 E12.60059
G1 X226.978 Y183.062 E12.64429
G1 X226.542 Y183.892 E12.68794
G1 X226.037 Y184.683 E12.73164
G1 X225.467 Y185.427 E12.77528
G1 X224.835 Y186.12 E12.81896
G1 X224.146 Y186.757 E12.86265
G1 X223.406 Y187.333 E12.90631
G1 X222.619 Y187.843 E12.94998
G1 X221.792 Y188.285 E12.99365
G1 X220.93 Y188.655 E13.03733
G1 X220.04 Y188.95 E13.08098
G1 X219.128 Y189.168 E13.12465
G1 X218.2 Y189.307 E13.16834
G1 X217.338 Y189.366 E13.20857
G1 X217.018 Y189.375 E13.22348
G1 X216.709 Y189.379 E13.23787
G1 X17.604 Y189.378 E22.50903
G1 X16.906 Y189.369 E22.54154
G1 X15.97 Y189.317 E22.58519
G1 X15.041 Y189.185 E22.62888
G1 X14.127 Y188.975 E22.67255
G1 X13.234 Y188.688 E22.71623
G1 X12.369 Y188.325 E22.75991
G1 X11.538 Y187.891 E22.80356
G1 X10.747 Y187.387 E22.84723
G1 X10.002 Y186.817 E22.89091
G1 X9.308 Y186.186 E22.93459
G1 X8.671 Y185.499 E22.97821
G1 X8.094 Y184.759 E23.02191
G1 X7.582 Y183.973 E23.06559
G1 X7.139 Y183.146 E23.10927
G1 X6.768 Y182.285 E23.15293
G1 X6.472 Y181.395 E23.1966
G1 X6.253 Y180.483 E23.24028
G1 X6.112 Y179.556 E23.28394
G1 X6.052 Y178.667 E23.32543
G1 X6.043 Y178.334 E23.34094
G1 X6.039 Y178.037 E23.35477
G1 X6.04 Y170.792 E23.69213
G1 X6.06 Y169.365 E23.75858
G1 X6.06 Y166.76 E23.87988
G1 X5.988 Y164.265 E23.99611
G1 X5.844 Y161.721 E24.11476
G1 X5.741 Y160.408 E24.17608
G1 X5.671 Y159.593 E24.21417
G1 X5.635 Y158.962 E24.2436
G1 X5.626 Y158.643 E24.25846
G1 X5.622 Y158.333 E24.2729
G1 X5.623 Y151.081 E24.61058
G1 X5.634 Y150.363 E24.64402
G1 X5.722 Y149.138 E24.70121
G1 X5.874 Y147.954 E24.75679
G1 X5.943 Y147.472 E24.77946
G1 X6.223 Y145.033 E24.89378
G1 X6.442 Y142.482 E25.013
G1 X6.519 Y141.136 E25.07578
G1 X6.574 Y140.342 E25.11284
G1 X6.679 Y139.41 E25.15651
G1 X6.863 Y138.49 E25.2002
G1 X7.124 Y137.589 E25.24388
G1 X7.461 Y136.714 E25.28754
G1 X7.871 Y135.871 E25.33119
G1 X8.352 Y135.066 E25.37486
G1 X8.9 Y134.304 E25.41856
G1 X9.51 Y133.592 E25.46222
G1 X10.182 Y132.932 E25.50608
G1 X10.436 Y132.703 E25.522
G1 X12.32 Y130.947 E25.64193
G1 X14.104 Y129.186 E25.75865
G1 X15.856 Y127.356 E25.87662
G1 X17.566 Y125.467 E25.99527
G1 X19.156 Y123.606 E26.10924
G1 X20.767 Y121.611 E26.22864
G1 X22.274 Y119.629 E26.34458
G1 X23.74 Y117.586 E26.46167
G1 X25.162 Y115.482 E26.57992
G1 X26.492 Y113.388 E26.69543
G1 X27.8 Y111.194 E26.81437
G1 X29.035 Y108.982 E26.93234
G1 X30.19 Y106.768 E27.04861
G1 X31.284 Y104.52 E27.16503
G1 X32.333 Y102.197 E27.28371
G1 X33.298 Y99.894 E27.39998
G1 X34.208 Y97.527 E27.51807
G1 X35.03 Y95.198 E27.63307
G1 X35.816 Y92.757 E27.75248
G1 X36.583 Y90.113 E27.88067
G1 X36.883 Y89.224 E27.92436
G1 X37.257 Y88.364 E27.96803
G1 X37.703 Y87.539 E28.0117
G1 X38.218 Y86.755 E28.05538
G1 X38.797 Y86.018 E28.09902
G1 X39.438 Y85.332 E28.14274
G1 X40.134 Y84.704 E28.18639
G1 X40.882 Y84.138 E28.23007
G1 X41.675 Y83.637 E28.27374
G1 X42.507 Y83.205 E28.3174
G0 F6000 X42.83 Y83.498
G1 F1200 X43.686 Y83.16 E28.36025
G1 X44.569 Y82.897 E28.40315
G1 X45.053 Y82.788 E28.42625
G1 X46.165 Y82.564 E28.47907
G1 X48.674 Y82.021 E28.59861
G1 X51.127 Y81.418 E28.71623
G1 X53.575 Y80.741 E28.8345
G1 X56.007 Y79.993 E28.95298
G1 X58.376 Y79.192 E29.06942
G1 X60.764 Y78.308 E29.18799
G1 X63.117 Y77.36 E29.30611
G1 X65.43 Y76.351 E29.42362
G1 X67.701 Y75.284 E29.54046
G1 X69.986 Y74.129 E29.65968
G1 X72.196 Y72.934 E29.77666
G1 X74.381 Y71.669 E29.89423
G1 X76.55 Y70.331 E30.0129
G1 X78.64 Y68.959 E30.12931
G1 X80.726 Y67.505 E30.24771
G1 X82.729 Y66.021 E30.36379
G1 X85.615 Y63.729 E30.5354
G1 X86.467 Y63.118 E30.58422
G1 X87.271 Y62.6 E30.62875
G1 X87.595 Y62.4 E30.64648
G1 X87.96 Y62.183 E30.66625
G1 X89.04 Y61.622 E30.72292
G1 X89.292 Y61.509 E30.73578
G1 X89.537 Y61.403 E30.74821
G1 X89.978 Y61.22 E30.77045
G1 X90.513 Y61.007 E30.79726
G1 X91.744 Y60.602 E30.8576
G1 X92.674 Y60.358 E30.90237
G1 X93.001 Y60.278 E30.91805
G1 X93.377 Y60.192 E30.93601
G1 X94.565 Y59.99 E30.99212
G1 X94.843 Y59.959 E31.00515
G1 X95.149 Y59.93 E31.01946
G1 X95.665 Y59.889 E31.04356
G1 X96.329 Y59.847 E31.07454
G1 X97.544 Y59.84 E31.13112
G1 X97.932 Y59.86 E31.14921
G1 X98.227 Y59.879 E31.16297
G1 X98.567 Y59.907 E31.17886
G1 X99.224 Y59.968 E31.20958
G1 X100.114 Y60.089 E31.25141
G1 X101.416 Y60.323 E31.313
G1 X101.816 Y60.4 E31.33197
G1 X104.298 Y60.807 E31.44909
G1 X106.785 Y61.144 E31.56595
G1 X109.309 Y61.413 E31.68414
G1 X111.822 Y61.608 E31.80151
G1 X114.341 Y61.733 E31.91895
G1 X116.891 Y61.787 E32.03772
G1 X119.434 Y61.77 E32.15613
G1 X121.906 Y61.682 E32.27131
G1 X124.481 Y61.518 E32.39146
G1 X126.964 Y61.289 E32.50757
G1 X129.486 Y60.984 E32.62586
G1 X131.995 Y60.61 E32.74398
G1 X134.885 Y60.09 E32.88071
G1 X135.576 Y59.989 E32.91323
G1 X135.834 Y59.96 E32.92532
G1 X136.149 Y59.93 E32.94005
G1 X136.664 Y59.889 E32.96411
G1 X137.327 Y59.847 E32.99504
G1 X138.541 Y59.84 E33.05157
G1 X138.93 Y59.86 E33.06971
G1 X139.227 Y59.879 E33.08357
G1 X139.571 Y59.908 E33.09964
G1 X140.225 Y59.969 E33.13023
G1 X141.397 Y60.145 E33.18541
G1 X141.891 Y60.249 E33.20892
G1 X142.105 Y60.298 E33.21914
G1 X142.378 Y60.365 E33.23223
G1 X143.02 Y60.53 E33.2631
G1 X144.221 Y60.916 E33.32184
G1 X145.088 Y61.253 E33.36515
G1 X145.448 Y61.4 E33.38326
G1 X145.835 Y61.567 E33.40288
G1 X146.894 Y62.097 E33.45803
G1 X147.118 Y62.225 E33.47004
G1 X147.36 Y62.367 E33.48311
G1 X147.779 Y62.623 E33.50597
G1 X148.28 Y62.94 E33.53358
G1 X149.32 Y63.691 E33.59331
G1 X150.196 Y64.407 E33.64599
G1 X150.482 Y64.647 E33.66338
G1 X150.645 Y64.778 E33.67311
G1 X151.376 Y65.406 E33.71799
G1 X153.335 Y66.994 E33.83541
G1 X155.35 Y68.534 E33.9535
G1 X157.412 Y70.02 E34.07185
G1 X159.492 Y71.433 E34.18894
G1 X161.615 Y72.787 E34.30619
G1 X163.807 Y74.099 E34.42515
G1 X165.989 Y75.325 E34.54169
G1 X168.248 Y76.509 E34.66045
G1 X170.531 Y77.626 E34.7788
G1 X172.788 Y78.651 E34.89422
G1 X175.145 Y79.643 E35.0133
G1 X177.547 Y80.576 E35.13329
G1 X179.866 Y81.398 E35.24785
G1 X182.294 Y82.185 E35.3667
G1 X185.102 Y83.005 E35.50292
G1 X185.974 Y83.301 E35.5458
G1 X186.816 Y83.672 E35.58864
G1 X187.624 Y84.114 E35.63152
G1 X188.39 Y84.625 E35.6744
G1 X189.108 Y85.2 E35.71723
G1 X189.774 Y85.836 E35.76011
G1 X190.383 Y86.527 E35.803
G1 X190.929 Y87.268 E35.84586
G1 X191.409 Y88.054 E35.88875
G1 X191.819 Y88.878 E35.9316
G1 X192.119 Y89.631 E35.96935
G1 X192.298 Y90.136 E35.99429
G1 X193.231 Y92.656 E36.11942
G1 X194.178 Y95.009 E36.23753
G1 X195.171 Y97.285 E36.35315
G1 X196.264 Y99.609 E36.47274
G1 X197.393 Y101.845 E36.58938
G1 X198.607 Y104.092 E36.7083
G1 X199.865 Y106.264 E36.82518
G1 X201.193 Y108.416 E36.94293
G1 X202.59 Y110.546 E37.06154
G1 X204.026 Y112.603 E37.17835
G1 X205.538 Y114.646 E37.2967
G1 X207.087 Y116.619 E37.4135
G1 X208.711 Y118.57 E37.53171
G1 X210.372 Y120.454 E37.64866
G1 X212.126 Y122.336 E37.76845
G1 X213.877 Y124.109 E37.88448
G1 X215.718 Y125.874 E38.00324
G1 X217.572 Y127.551 E38.11965
G1 X219.512 Y129.209 E38.23848
G1 X221.482 Y130.8 E38.35639
G1 X223.521 Y132.35 E38.47565
G1 X223.846 Y132.591 E38.49449
G1 X224.561 Y133.172 E38.53739
G1 X225.223 Y133.812 E38.58027
G1 X225.827 Y134.507 E38.62314
G1 X226.368 Y135.252 E38.66602
G1 X226.842 Y136.041 E38.70888
G1 X227.246 Y136.868 E38.75173
G1 X227.577 Y137.727 E38.7946
G1 X227.832 Y138.612 E38.83748
G1 X228.009 Y139.515 E38.88033
G1 X228.126 Y140.841 E38.94232
G1 X228.136 Y141.246 E38.96118
G1 X228.139 Y141.508 E38.97338
G1 X228.138 Y148.661 E39.30645
G1 X228.128 Y149.367 E39.33933
G1 X228.119 Y149.666 E39.35326
G1 X228.077 Y150.652 E39.39921
G1 X228 Y153.34 E39.52443
G1 X228 Y155.853 E39.64145
G1 X228.071 Y158.408 E39.76046
G1 X228.111 Y159.195 E39.79716
G1 X228.12 Y159.453 E39.80918
G1 X228.135 Y160.034 E39.83624
G1 X228.139 Y160.308 E39.849
G1 X228.138 Y167.473 E40.18263
G1 X228.127 Y168.191 E40.21607
G1 X228.09 Y168.927 E40.25038
G1 X227.861 Y171.624 E40.37642
G1 X227.722 Y174.081 E40.49101
G1 X227.656 Y177.191 E40.63586
G1 X227.644 Y177.369 E40.64417
G1 X227.628 Y178.521 E40.69781
G1 X227.575 Y179.44 E40.74068
G1 X227.442 Y180.351 E40.78355
G1 X227.231 Y181.247 E40.82641
G1 X226.943 Y182.122 E40.8693
G1 X226.58 Y182.968 E40.91217
G1 X226.145 Y183.779 E40.95502
G1 X225.641 Y184.55 E40.99791
G1 X225.073 Y185.274 E41.04076
G1 X224.443 Y185.946 E41.08365
G1 X223.758 Y186.56 E41.12649
G1 X223.022 Y187.113 E41.16936
G1 X222.241 Y187.6 E41.21221
G1 X221.42 Y188.018 E41.25511
G1 X220.566 Y188.362 E41.29798
G1 X219.686 Y188.632 E41.34084
G1 X218.785 Y188.823 E41.38373
G1 X217.872 Y188.936 E41.42657
G1 X217.327 Y188.966 E41.45198
G1 X217.007 Y188.975 E41.46689
G1 X216.709 Y188.979 E41.48077
G1 X17.609 Y188.978 E50.7517
G1 X16.911 Y188.969 E50.7842
G1 X15.992 Y188.917 E50.82706
G1 X15.081 Y188.786 E50.86992
G1 X14.185 Y188.576 E50.91277
G1 X13.31 Y188.289 E50.95565
G1 X12.463 Y187.927 E50.99854
G1 X11.651 Y187.493 E51.04141
G1 X10.88 Y186.991 E51.08426
G1 X10.155 Y186.423 E51.12714
G1 X9.482 Y185.794 E51.17003
G1 X8.867 Y185.11 E51.21287
G1 X8.313 Y184.375 E51.25572
G1 X7.825 Y183.594 E51.29861
G1 X7.406 Y182.774 E51.34148
G1 X7.06 Y181.921 E51.38435
G1 X6.79 Y181.041 E51.42721
G1 X6.597 Y180.14 E51.47011
G1 X6.483 Y179.227 E51.51296
G1 X6.452 Y178.656 E51.53959
G1 X6.443 Y178.323 E51.5551
G1 X6.439 Y178.037 E51.56842
G1 X6.44 Y170.797 E51.90554
G1 X6.46 Y169.37 E51.97199
G1 X6.46 Y166.784 E52.09241
G1 X6.387 Y164.232 E52.21129
G1 X6.241 Y161.663 E52.33111
G1 X6.14 Y160.374 E52.39131
G1 X6.07 Y159.559 E52.4294
G1 X6.035 Y158.951 E52.45776
G1 X6.026 Y158.632 E52.47262
G1 X6.022 Y158.333 E52.48654
G1 X6.023 Y151.088 E52.8239
G1 X6.034 Y150.37 E52.85734
G1 X6.118 Y149.189 E52.91247
G1 X6.27 Y148.011 E52.96778
G1 X6.338 Y147.541 E52.98989
G1 X6.624 Y145.042 E53.10701
G1 X6.839 Y142.538 E53.22404
G1 X6.918 Y141.163 E53.28817
G1 X6.973 Y140.369 E53.32523
G1 X7.077 Y139.455 E53.36806
G1 X7.259 Y138.552 E53.41096
G1 X7.519 Y137.669 E53.45382
G1 X7.855 Y136.812 E53.49668
G1 X8.264 Y135.987 E53.53956
G1 X8.743 Y135.201 E53.58242
G1 X9.288 Y134.459 E53.62529
G1 X9.896 Y133.767 E53.66818
G1 X10.45 Y133.229 E53.70414
G1 X10.726 Y132.98 E53.72145
G1 X12.591 Y131.241 E53.84019
G1 X14.391 Y129.464 E53.95796
G1 X16.141 Y127.638 E54.07573
G1 X17.839 Y125.762 E54.19356
