;FLAVOR:Marlin
;TIME:4225
;Filament used: 2.75323m
;Layer height: 0.2
;MINX:73.944
;MINY:16.08
;MINZ:0.2
;MAXX:161.937
;MAXY:218.892
;MAXZ:10
;Generated with Cura_SteamEngine 4.7.0
M140 S55
M105
M190 S55
M104 S210
M105
M109 S210
M82 ;absolute extrusion mode
; Ender 3 Custom Start G-code
G92 E0 ; Reset Extruder
G28 ; Home all axes
G1 Z2.0 F3000 ; Move Z Axis up little to prevent scratching of Heat Bed
G1 X0.1 Y20 Z0.3 F5000.0 ; Move to start position
G1 X0.1 Y200.0 Z0.3 F1500.0 E15 ; Draw the first line
G1 X0.4 Y200.0 Z0.3 F5000.0 ; Move to side a little
G1 X0.4 Y20 Z0.3 F1500.0 E30 ; Draw the second line
G92 E0 ; Reset Extruder
G1 Z2.0 F3000 ; Move Z Axis up little to prevent scratching of Heat Bed
G1 X5 Y20 Z0.3 F5000.0 ; Move over to prevent blob squish
G92 E0
G92 E0
G1 F2700 E-5
;LAYER_COUNT:50
;LAYER:0
M107
G0 F6000 X74.355 Y24.241 Z0.2
;TYPE:SKIRT
G1 F2700 E0
G1 F1200 X74.644 Y23.349 E0.03119
G1 X75.008 Y22.485 E0.06237
G1 X75.445 Y21.655 E0.09357
G1 X75.95 Y20.865 E0.12475
G1 X76.521 Y20.121 E0.15595
G1 X77.217 Y19.365 E0.19012
G1 X77.312 Y19.271 E0.19457
G1 X78.006 Y18.64 E0.22577
G1 X78.752 Y18.071 E0.25697
G1 X79.543 Y17.567 E0.28817
G1 X80.374 Y17.133 E0.31935
G1 X81.239 Y16.771 E0.35054
G1 X82.132 Y16.484 E0.38173
G1 X83.046 Y16.274 E0.41293
G1 X83.975 Y16.143 E0.44413
G1 X84.678 Y16.096 E0.46756
G1 X84.826 Y16.091 E0.47249
G1 X85.063 Y16.086 E0.48037
G1 X85.606 Y16.08 E0.49844
G1 X100.91 Y16.081 E1.00745
G1 X101.611 Y16.091 E1.03077
G1 X102.547 Y16.144 E1.06195
G1 X103.476 Y16.277 E1.09316
G1 X104.389 Y16.489 E1.12434
G1 X105.282 Y16.777 E1.15554
G1 X106.146 Y17.141 E1.18673
G1 X106.977 Y17.577 E1.21794
G1 X107.767 Y18.082 E1.24912
G1 X108.511 Y18.652 E1.2803
G1 X108.908 Y19.001 E1.29788
G1 X109.061 Y19.142 E1.3048
G1 X109.289 Y19.357 E1.31522
G1 X109.453 Y19.517 E1.32284
G1 X109.852 Y19.917 E1.34163
G1 X110.339 Y20.418 E1.36487
G1 X110.963 Y21.118 E1.39606
G1 X111.526 Y21.868 E1.42725
G1 X112.022 Y22.664 E1.45845
G1 X112.449 Y23.499 E1.48964
G1 X112.804 Y24.367 E1.52083
G1 X113.083 Y25.262 E1.55201
G1 X113.284 Y26.178 E1.5832
G1 X113.408 Y27.108 E1.61441
G1 X113.446 Y27.741 E1.6355
G1 X113.454 Y28.071 E1.64648
G1 X113.46 Y28.599 E1.66404
G1 X113.46 Y111.248 E4.41296
G1 X113.497 Y113.883 E4.50061
G1 X113.604 Y116.404 E4.58453
G1 X113.781 Y118.899 E4.66772
G1 X114.029 Y121.397 E4.75122
G1 X114.347 Y123.886 E4.83467
G1 X114.741 Y126.395 E4.91915
G1 X115.2 Y128.861 E5.00258
G1 X115.743 Y131.383 E5.08838
G1 X116.326 Y133.759 E5.16975
G1 X117 Y136.206 E5.25417
G1 X117.728 Y138.585 E5.33692
G1 X118.539 Y140.988 E5.42127
G1 X119.413 Y143.358 E5.50528
G1 X120.349 Y145.691 E5.58889
G1 X121.346 Y147.983 E5.67202
G1 X122.432 Y150.297 E5.75704
G1 X123.548 Y152.514 E5.8396
G1 X124.747 Y154.736 E5.92357
G1 X126.003 Y156.912 E6.00714
G1 X127.339 Y159.084 E6.09195
G1 X128.699 Y161.16 E6.1745
G1 X130.144 Y163.235 E6.2586
G1 X131.646 Y165.268 E6.34267
G1 X133.179 Y167.226 E6.42538
G1 X134.807 Y169.185 E6.5101
G1 X136.452 Y171.055 E6.59293
G1 X138.193 Y172.927 E6.67796
G1 X139.918 Y174.68 E6.75976
G1 X141.749 Y176.436 E6.84414
G1 X143.637 Y178.147 E6.92889
G1 X145.532 Y179.77 E7.01187
G1 X147.508 Y181.367 E7.09637
G1 X149.492 Y182.88 E7.17936
G1 X151.54 Y184.352 E7.26325
G1 X152.906 Y185.287 E7.3183
G1 X153.958 Y185.994 E7.36046
G1 X154.175 Y186.143 E7.36922
G1 X154.769 Y186.563 E7.39341
G1 X155.511 Y187.137 E7.42461
G1 X155.887 Y187.47 E7.44132
G1 X156.087 Y187.655 E7.45038
G1 X156.327 Y187.883 E7.46139
G1 X156.554 Y188.106 E7.47197
G1 X156.735 Y188.288 E7.48051
G1 X157.211 Y188.778 E7.50323
G1 X158.102 Y189.817 E7.54876
G1 X158.225 Y189.98 E7.55555
G1 X158.457 Y190.3 E7.56869
G1 X158.683 Y190.623 E7.58181
G1 X158.82 Y190.824 E7.5899
G1 X159.203 Y191.398 E7.61285
G1 X159.649 Y192.126 E7.64124
G1 X159.981 Y192.763 E7.66513
G1 X160.133 Y193.08 E7.67683
G1 X160.252 Y193.338 E7.68628
G1 X160.409 Y193.692 E7.69916
G1 X160.685 Y194.337 E7.72249
G1 X160.911 Y194.907 E7.74289
G1 X161.193 Y195.789 E7.77368
G1 X161.265 Y196.052 E7.78275
G1 X161.341 Y196.349 E7.79295
G1 X161.444 Y196.777 E7.80759
G1 X161.601 Y197.469 E7.83119
G1 X161.732 Y198.142 E7.854
G1 X161.738 Y198.179 E7.85524
G1 X161.842 Y199.03 E7.88376
G1 X161.861 Y199.259 E7.8914
G1 X161.878 Y199.493 E7.8992
G1 X161.895 Y199.769 E7.9084
G1 X161.908 Y200.023 E7.91686
G1 X161.937 Y200.778 E7.94199
G1 X161.918 Y201.966 E7.98151
G1 X161.888 Y202.333 E7.99376
G1 X161.863 Y202.584 E8.00215
G1 X161.831 Y202.87 E8.01172
G1 X161.776 Y203.293 E8.02591
G1 X161.699 Y203.83 E8.04395
G1 X161.57 Y204.555 E8.06844
G1 X161.505 Y204.861 E8.07885
G1 X161.266 Y205.787 E8.11065
G1 X161.099 Y206.334 E8.12968
G1 X160.998 Y206.648 E8.14065
G1 X160.82 Y207.174 E8.15912
G1 X160.287 Y208.47 E8.20572
G1 X160.188 Y208.673 E8.21324
G1 X160.038 Y208.969 E8.22427
G1 X159.874 Y209.281 E8.236
G1 X159.719 Y209.565 E8.24676
G1 X159.352 Y210.216 E8.27161
G1 X158.857 Y211.013 E8.30282
G1 X158.553 Y211.437 E8.32017
G1 X158.369 Y211.681 E8.33034
G1 X158.158 Y211.951 E8.34173
G1 X157.849 Y212.333 E8.35807
G1 X157.443 Y212.821 E8.37919
G1 X156.911 Y213.416 E8.40573
G1 X156.885 Y213.443 E8.40698
G1 X156.385 Y213.93 E8.4302
G1 X156.221 Y214.08 E8.43759
G1 X156.056 Y214.228 E8.44496
G1 X155.9 Y214.365 E8.45187
G1 X155.682 Y214.552 E8.46142
G1 X155.071 Y215.061 E8.48787
G1 X154.378 Y215.592 E8.51691
G1 X154.303 Y215.645 E8.51996
G1 X153.586 Y216.111 E8.5484
G1 X153.096 Y216.403 E8.56737
G1 X152.849 Y216.546 E8.57687
G1 X152.286 Y216.862 E8.59834
G1 X151.038 Y217.463 E8.64441
G1 X150.9 Y217.519 E8.64936
G1 X150.54 Y217.658 E8.6622
G1 X150.135 Y217.806 E8.67654
G1 X149.889 Y217.892 E8.68521
G1 X149.278 Y218.099 E8.70667
G1 X148.377 Y218.362 E8.73788
G1 X147.694 Y218.508 E8.76111
G1 X146.826 Y218.664 E8.79045
G1 X146.448 Y218.725 E8.80318
G1 X146.066 Y218.78 E8.81602
G1 X145.132 Y218.874 E8.84724
G1 X144.462 Y218.892 E8.86953
G1 X143.541 Y218.889 E8.90016
G1 X143.147 Y218.881 E8.91327
G1 X142.815 Y218.868 E8.92432
G1 X141.88 Y218.791 E8.95553
G1 X141.224 Y218.689 E8.97761
G1 X140.309 Y218.518 E9.00857
G1 X139.888 Y218.43 E9.02287
G1 X139.462 Y218.333 E9.0374
G1 X138.557 Y218.086 E9.0686
G1 X138.03 Y217.903 E9.08716
G1 X137.65 Y217.76 E9.10066
G1 X137.314 Y217.627 E9.11268
G1 X137.055 Y217.519 E9.12202
G1 X136.464 Y217.266 E9.1434
G1 X135.618 Y216.861 E9.17459
G1 X135.022 Y216.519 E9.19745
G1 X133.26 Y215.433 E9.26629
G1 X131.074 Y214.129 E9.35095
G1 X128.831 Y212.876 E9.4364
G1 X126.646 Y211.734 E9.51841
G1 X124.343 Y210.612 E9.60361
G1 X122.077 Y209.587 E9.68633
G1 X120.151 Y208.776 E9.75584
G1 X119.936 Y208.683 E9.76363
G1 X118.774 Y208.164 E9.80596
G1 X118.579 Y208.074 E9.8131
G1 X116.907 Y207.287 E9.87456
G1 X116.499 Y207.088 E9.88966
G1 X116.169 Y206.92 E9.90198
G1 X115.088 Y206.347 E9.94267
G1 X114.899 Y206.244 E9.94983
G1 X113.261 Y205.333 E10.01217
G1 X112.886 Y205.117 E10.02656
G1 X112.581 Y204.935 E10.03837
G1 X111.521 Y204.278 E10.07985
G1 X111.342 Y204.164 E10.08691
G1 X109.807 Y203.17 E10.14774
G1 X109.439 Y202.924 E10.16246
G1 X109.146 Y202.721 E10.17431
G1 X108.099 Y201.971 E10.21715
G1 X107.918 Y201.839 E10.2246
G1 X106.483 Y200.765 E10.28422
G1 X106.141 Y200.503 E10.29855
G1 X105.831 Y200.257 E10.31171
G1 X104.883 Y199.475 E10.35258
G1 X104.722 Y199.339 E10.35959
G1 X103.423 Y198.225 E10.41651
G1 X102.992 Y197.845 E10.43562
G1 X102.739 Y197.614 E10.44701
G1 X101.791 Y196.72 E10.49035
G1 X101.63 Y196.564 E10.49781
G1 X100.338 Y195.294 E10.55807
G1 X100.033 Y194.986 E10.57248
G1 X99.778 Y194.72 E10.58474
G1 X98.951 Y193.827 E10.62522
G1 X98.808 Y193.669 E10.63231
G1 X97.643 Y192.361 E10.69057
G1 X97.511 Y192.211 E10.69721
G1 X97.262 Y191.921 E10.70993
G1 X97.06 Y191.678 E10.72044
G1 X96.268 Y190.7 E10.76229
G1 X96.126 Y190.521 E10.76989
G1 X95.097 Y189.195 E10.82572
G1 X94.735 Y188.716 E10.84569
G1 X94.747 Y188.707 E10.84619
G1 X94.52 Y188.423 E10.85828
G1 X93.803 Y187.401 E10.8998
G1 X93.685 Y187.229 E10.90674
G1 X92.658 Y185.703 E10.96792
G1 X92.435 Y185.363 E10.98144
G1 X92.224 Y185.028 E10.99461
G1 X91.57 Y183.948 E11.0366
G1 X91.46 Y183.763 E11.04376
G1 X90.601 Y182.28 E11.10076
G1 X90.329 Y181.796 E11.11923
G1 X90.154 Y181.472 E11.13148
G1 X89.583 Y180.368 E11.17282
G1 X89.489 Y180.181 E11.17978
G1 X88.718 Y178.618 E11.23774
G1 X88.479 Y178.117 E11.25621
G1 X88.332 Y177.793 E11.26804
G1 X87.848 Y176.68 E11.30841
G1 X87.765 Y176.484 E11.31549
G1 X87.038 Y174.717 E11.37904
G1 X86.783 Y174.073 E11.40207
G1 X86.682 Y173.808 E11.41151
G1 X86.564 Y173.486 E11.42291
G1 X86.461 Y173.192 E11.43327
G1 X85.682 Y170.863 E11.51496
G1 X85.445 Y170.12 E11.54089
G1 X85.365 Y169.857 E11.55004
G1 X85.309 Y169.665 E11.55669
G1 X85.243 Y169.429 E11.56484
G1 X85.151 Y169.085 E11.57668
G1 X84.638 Y167.124 E11.6441
G1 X84.474 Y166.46 E11.66685
G1 X84.395 Y166.117 E11.67856
G1 X84.145 Y164.94 E11.71858
G1 X84.1 Y164.718 E11.72611
G1 X83.781 Y163.047 E11.78269
G1 X83.678 Y162.469 E11.80222
G1 X83.621 Y162.111 E11.81428
G1 X83.448 Y160.901 E11.85493
G1 X83.418 Y160.68 E11.86235
G1 X83.206 Y158.947 E11.92042
G1 X83.128 Y158.237 E11.94418
G1 X83.065 Y157.244 E11.97727
G1 X83.046 Y156.202 E12.01193
G1 X83.044 Y156.001 E12.01862
G1 X83.044 Y123.721 E13.09225
G1 X83.007 Y121.112 E13.17904
G1 X82.9 Y118.59 E13.263
G1 X82.723 Y116.096 E13.34616
G1 X82.476 Y113.601 E13.42955
G1 X82.156 Y111.1 E13.51341
G1 X81.765 Y108.611 E13.59721
G1 X81.303 Y106.128 E13.68121
G1 X80.761 Y103.612 E13.76681
G1 X80.175 Y101.225 E13.84856
G1 X79.51 Y98.807 E13.93197
G1 X78.769 Y96.389 E14.01608
G1 X77.962 Y93.997 E14.10005
G1 X77.099 Y91.657 E14.183
G1 X76.164 Y89.328 E14.26647
G1 X75.018 Y86.719 E14.36125
G1 X74.829 Y86.275 E14.3773
G1 X74.499 Y85.396 E14.40853
G1 X74.246 Y84.493 E14.43972
G1 X74.07 Y83.572 E14.47091
G1 X73.961 Y82.359 E14.51141
G1 X73.955 Y82.187 E14.51714
G1 X73.949 Y81.918 E14.52609
G1 X73.944 Y81.418 E14.54272
G1 X73.945 Y27.689 E16.32975
G1 X73.955 Y27.02 E16.35201
G1 X74.009 Y26.083 E16.38322
G1 X74.143 Y25.155 E16.41441
G1 X74.355 Y24.241 E16.44561
G0 F6000 X74.754 Y24.3
G1 F1200 X75.043 Y23.425 E16.47626
G1 X75.406 Y22.58 E16.50685
G1 X75.842 Y21.768 E16.53751
G1 X76.346 Y20.998 E16.56811
G1 X76.915 Y20.275 E16.59872
G1 X77.498 Y19.649 E16.62717
G1 X77.593 Y19.555 E16.63161
G1 X78.275 Y18.937 E16.66222
G1 X79.008 Y18.38 E16.69284
G1 X79.787 Y17.888 E16.72349
G1 X80.605 Y17.466 E16.7541
G1 X81.457 Y17.117 E16.78472
G1 X82.336 Y16.843 E16.81535
G1 X83.235 Y16.646 E16.84596
G1 X84.148 Y16.528 E16.87658
G1 X84.691 Y16.496 E16.89467
G1 X84.839 Y16.491 E16.89959
G1 X85.067 Y16.486 E16.90718
G1 X85.606 Y16.48 E16.92511
G1 X100.753 Y16.48 E17.4289
G1 X101.605 Y16.491 E17.45724
G1 X102.524 Y16.544 E17.48786
G1 X103.435 Y16.677 E17.51848
G1 X104.331 Y16.888 E17.54909
G1 X105.206 Y17.176 E17.57973
G1 X106.052 Y17.539 E17.61035
G1 X106.863 Y17.974 E17.64096
G1 X107.634 Y18.478 E17.6716
G1 X108.637 Y19.295 E17.71462
G1 X108.79 Y19.436 E17.72154
G1 X109.009 Y19.644 E17.73159
G1 X109.266 Y19.896 E17.74356
G1 X109.565 Y20.196 E17.75765
G1 X110.052 Y20.697 E17.78089
G1 X110.664 Y21.384 E17.81149
G1 X111.215 Y22.122 E17.84212
G1 X111.699 Y22.905 E17.87274
G1 X112.114 Y23.727 E17.90336
G1 X112.455 Y24.582 E17.93398
G1 X112.722 Y25.463 E17.9646
G1 X112.91 Y26.364 E17.99521
G1 X113.02 Y27.278 E18.02583
G1 X113.046 Y27.754 E18.04168
G1 X113.054 Y28.076 E18.0524
G1 X113.06 Y28.599 E18.06979
G1 X113.06 Y111.281 E20.81981
G1 X113.097 Y113.906 E20.90712
G1 X113.204 Y116.414 E20.99062
G1 X113.382 Y118.93 E21.07451
G1 X113.632 Y121.454 E21.15887
G1 X113.953 Y123.962 E21.24296
G1 X114.34 Y126.424 E21.32586
G1 X114.809 Y128.946 E21.41118
G1 X115.349 Y131.458 E21.49664
G1 X115.947 Y133.889 E21.5799
G1 X116.608 Y136.291 E21.66276
G1 X117.353 Y138.725 E21.74742
G1 X118.171 Y141.15 E21.83254
G1 X119.026 Y143.467 E21.91469
G1 X119.988 Y145.864 E22.00059
G1 X120.988 Y148.163 E22.08398
G1 X122.056 Y150.439 E22.1676
G1 X123.189 Y152.69 E22.25142
G1 X124.4 Y154.934 E22.33623
G1 X125.674 Y157.142 E22.42101
G1 X126.981 Y159.266 E22.50396
G1 X128.369 Y161.385 E22.58821
G1 X129.823 Y163.472 E22.67281
G1 X131.329 Y165.512 E22.75715
G1 X132.886 Y167.499 E22.84111
G1 X134.483 Y169.422 E22.92425
G1 X136.16 Y171.328 E23.00869
G1 X137.897 Y173.196 E23.09353
G1 X139.656 Y174.984 E23.17695
G1 X141.486 Y176.738 E23.26126
G1 X143.354 Y178.431 E23.34511
G1 X145.266 Y180.069 E23.42885
G1 X147.26 Y181.681 E23.51413
G1 X149.239 Y183.189 E23.59688
G1 X151.342 Y184.702 E23.68305
G1 X152.644 Y185.593 E23.73553
G1 X153.735 Y186.326 E23.77924
G1 X153.944 Y186.47 E23.78768
G1 X154.538 Y186.89 E23.81188
G1 X155.266 Y187.454 E23.84251
G1 X155.616 Y187.764 E23.85806
G1 X155.816 Y187.949 E23.86712
G1 X156.046 Y188.168 E23.87768
G1 X156.273 Y188.391 E23.88827
G1 X156.448 Y188.567 E23.89652
G1 X156.924 Y189.057 E23.91924
G1 X157.782 Y190.058 E23.96309
G1 X157.905 Y190.221 E23.96989
G1 X158.129 Y190.529 E23.98255
G1 X158.355 Y190.852 E23.99566
G1 X158.487 Y191.046 E24.00347
G1 X158.87 Y191.62 E24.02642
G1 X159.301 Y192.322 E24.05382
G1 X159.62 Y192.936 E24.07683
G1 X159.772 Y193.253 E24.08852
G1 X159.887 Y193.502 E24.09765
G1 X160.041 Y193.849 E24.11027
G1 X160.317 Y194.494 E24.13361
G1 X160.535 Y195.045 E24.15332
G1 X160.807 Y195.895 E24.183
G1 X160.879 Y196.158 E24.19207
G1 X160.953 Y196.443 E24.20186
G1 X161.015 Y196.697 E24.21056
G1 X161.211 Y197.558 E24.23993
G1 X161.337 Y198.206 E24.26188
G1 X161.343 Y198.243 E24.26313
G1 X161.444 Y199.064 E24.29064
G1 X161.463 Y199.293 E24.29829
G1 X161.479 Y199.517 E24.30576
G1 X161.496 Y199.793 E24.31495
G1 X161.508 Y200.038 E24.32311
G1 X161.537 Y200.793 E24.34824
G1 X161.519 Y201.938 E24.38633
G1 X161.49 Y202.294 E24.39821
G1 X161.465 Y202.545 E24.4066
G1 X161.434 Y202.82 E24.4158
G1 X161.38 Y203.237 E24.42979
G1 X161.303 Y203.774 E24.44783
G1 X161.179 Y204.471 E24.47138
G1 X161.114 Y204.777 E24.48178
G1 X160.883 Y205.67 E24.51246
G1 X160.716 Y206.217 E24.53148
G1 X160.619 Y206.52 E24.54207
G1 X160.441 Y207.046 E24.56054
G1 X159.927 Y208.294 E24.60543
G1 X159.828 Y208.497 E24.61294
G1 X159.684 Y208.783 E24.62359
G1 X159.52 Y209.095 E24.63531
G1 X159.371 Y209.369 E24.64569
G1 X159.004 Y210.02 E24.67054
G1 X158.517 Y210.801 E24.70115
G1 X158.233 Y211.196 E24.71733
G1 X158.049 Y211.44 E24.7275
G1 X157.846 Y211.701 E24.7385
G1 X157.542 Y212.077 E24.75458
G1 X157.136 Y212.565 E24.77569
G1 X156.622 Y213.139 E24.80132
G1 X156.596 Y213.166 E24.80257
G1 X156.115 Y213.635 E24.82491
G1 X155.792 Y213.928 E24.83942
G1 X155.636 Y214.065 E24.84632
G1 X155.426 Y214.244 E24.8555
G1 X154.815 Y214.753 E24.88195
G1 X154.147 Y215.266 E24.90996
G1 X154.072 Y215.319 E24.91302
G1 X153.381 Y215.768 E24.94042
G1 X152.891 Y216.06 E24.9594
G1 X152.653 Y216.198 E24.96855
G1 X152.09 Y216.514 E24.99002
G1 X150.888 Y217.092 E25.03438
G1 X150.75 Y217.148 E25.03933
G1 X150.402 Y217.282 E25.05174
G1 X149.997 Y217.43 E25.06608
G1 X149.76 Y217.513 E25.07443
G1 X149.149 Y217.72 E25.09589
G1 X148.265 Y217.978 E25.12652
G1 X147.623 Y218.114 E25.14834
G1 X146.755 Y218.27 E25.17767
G1 X146.391 Y218.329 E25.18994
G1 X146.009 Y218.384 E25.20278
G1 X145.093 Y218.475 E25.23339
G1 X144.463 Y218.492 E25.25435
G1 X143.542 Y218.489 E25.28499
G1 X143.162 Y218.481 E25.29763
G1 X142.83 Y218.468 E25.30868
G1 X141.913 Y218.392 E25.33928
G1 X141.298 Y218.296 E25.35999
G1 X140.383 Y218.125 E25.39095
G1 X139.977 Y218.04 E25.40474
G1 X139.551 Y217.943 E25.41927
G1 X138.663 Y217.7 E25.44989
G1 X138.171 Y217.529 E25.46722
G1 X137.791 Y217.386 E25.48072
G1 X137.467 Y217.258 E25.49231
G1 X137.212 Y217.152 E25.50149
G1 X136.621 Y216.899 E25.52288
G1 X135.792 Y216.5 E25.55348
G1 X135.232 Y216.178 E25.57496
G1 X133.469 Y215.092 E25.64383
G1 X131.253 Y213.77 E25.72966
G1 X129.075 Y212.553 E25.81264
G1 X126.799 Y211.363 E25.89806
G1 X124.546 Y210.265 E25.98142
G1 X122.201 Y209.206 E26.067
G1 X120.306 Y208.407 E26.1354
G1 X120.099 Y208.317 E26.14291
G1 X118.937 Y207.798 E26.18524
G1 X118.749 Y207.712 E26.19211
G1 X117.082 Y206.927 E26.2534
G1 X116.674 Y206.728 E26.2685
G1 X116.357 Y206.567 E26.28032
G1 X115.276 Y205.994 E26.32101
G1 X115.093 Y205.895 E26.32793
G1 X113.604 Y205.068 E26.38458
