;FLAVOR:Marlin
;TIME:6318
;Filament used: 3.48224m
;Layer height: 0.2
;MINX:60.141
;MINY:86.907
;MINZ:0.2
;MAXX:178.163
;MAXY:148.081
;MAXZ:35.8
;Generated with Cura_SteamEngine 4.7.0
M140 S65
M105
M190 S65
M104 S225
M105
M109 S225
M82 ;absolute extrusion mode
; Ender 3 Custom Start G-code
G92 E0 ; Reset Extruder
G28 ; Home all axes
G1 Z2.0 F3000 ; Move Z Axis up little to prevent scratching of Heat Bed
G1 X0.1 Y20 Z0.3 F5000.0 ; Move to start position
G1 X0.1 Y200.0 Z0.3 F1500.0 E15 ; Draw the first line
G1 X0.4 Y200.0 Z0.3 F5000.0 ; Move to side a little
G1 X0.4 Y20 Z0.3 F1500.0 E30 ; Draw the second line
G92 E0 ; Reset Extruder
G1 Z2.0 F3000 ; Move Z Axis up little to prevent scratching of Heat Bed
G1 X5 Y20 Z0.3 F5000.0 ; Move over to prevent blob squish
G92 E0
G92 E0
G1 F2700 E-5
;LAYER_COUNT:179
;LAYER:0
M107
G0 F6000 X72.172 Y93.179 Z0.2
;TYPE:SKIRT
G1 F2700 E0
G1 F1200 X72.432 Y92.984 E0.01081
G1 X73.023 Y92.554 E0.03512
G1 X73.274 Y92.376 E0.04535
G1 X73.676 Y92.101 E0.06155
G1 X73.954 Y91.917 E0.07264
G1 X74.566 Y91.526 E0.0968
G1 X74.829 Y91.364 E0.10707
G1 X75.225 Y91.127 E0.12242
G1 X75.494 Y90.971 E0.13276
G1 X76.091 Y90.637 E0.15551
G1 X76.378 Y90.482 E0.16636
G1 X76.836 Y90.244 E0.18353
G1 X77.102 Y90.111 E0.19342
G1 X77.746 Y89.799 E0.21722
G1 X78.055 Y89.655 E0.22856
G1 X78.486 Y89.463 E0.24425
G1 X78.77 Y89.342 E0.25452
G1 X79.444 Y89.065 E0.27876
G1 X79.756 Y88.942 E0.28991
G1 X80.17 Y88.787 E0.30462
G1 X80.453 Y88.686 E0.31461
G1 X81.186 Y88.435 E0.34038
G1 X81.484 Y88.338 E0.3508
G1 X81.936 Y88.198 E0.36654
G1 X82.252 Y88.105 E0.3775
G1 X82.926 Y87.919 E0.40075
G1 X83.209 Y87.845 E0.41048
G1 X83.643 Y87.738 E0.42535
G1 X83.968 Y87.663 E0.43644
G1 X84.699 Y87.507 E0.4613
G1 X85.021 Y87.444 E0.47222
G1 X85.468 Y87.363 E0.48733
G1 X85.773 Y87.312 E0.49761
G1 X86.54 Y87.196 E0.52341
G1 X86.848 Y87.154 E0.53375
G1 X87.293 Y87.1 E0.54866
G1 X87.605 Y87.067 E0.55909
G1 X88.294 Y87.004 E0.58211
G1 X88.616 Y86.979 E0.59285
G1 X89.11 Y86.949 E0.60931
G1 X89.42 Y86.935 E0.61963
G1 X90.152 Y86.912 E0.64399
G1 X90.485 Y86.907 E0.65507
G1 X90.943 Y86.907 E0.6703
G1 X91.254 Y86.912 E0.68064
G1 X91.969 Y86.933 E0.70443
G1 X92.274 Y86.946 E0.71459
G1 X92.772 Y86.975 E0.73118
G1 X93.099 Y86.999 E0.74209
G1 X93.827 Y87.064 E0.7664
G1 X94.149 Y87.098 E0.77716
G1 X94.509 Y87.141 E0.78922
G1 X97.129 Y87.417 E0.87685
G1 X99.633 Y87.609 E0.96037
G1 X102.176 Y87.731 E1.04505
G1 X104.687 Y87.781 E1.12859
G1 X107.231 Y87.76 E1.2132
G1 X109.739 Y87.668 E1.29667
G1 X112.266 Y87.503 E1.3809
G1 X115.909 Y87.142 E1.50266
G1 X116.211 Y87.11 E1.51276
G1 X116.939 Y87.058 E1.53704
G1 X117.211 Y87.048 E1.54609
G1 X117.999 Y87.049 E1.5723
G1 X118.238 Y87.058 E1.58025
G1 X118.852 Y87.099 E1.60072
G1 X119.102 Y87.123 E1.60908
G1 X119.599 Y87.182 E1.62572
G1 X119.731 Y87.201 E1.63016
G1 X120.216 Y87.282 E1.64651
G1 X120.43 Y87.323 E1.65376
G1 X120.797 Y87.4 E1.66623
G1 X120.867 Y87.416 E1.66862
G1 X121.294 Y87.524 E1.68327
G1 X121.503 Y87.581 E1.69047
G1 X122.135 Y87.774 E1.71245
G1 X122.396 Y87.863 E1.72162
G1 X122.833 Y88.023 E1.7371
G1 X123.402 Y88.246 E1.75743
G1 X125.812 Y89.148 E1.84302
G1 X128.247 Y89.982 E1.92862
G1 X130.601 Y90.718 E2.01066
G1 X133.084 Y91.414 E2.09642
G1 X135.486 Y92.017 E2.17879
G1 X137.987 Y92.569 E2.26398
G1 X140.543 Y93.057 E2.35053
G1 X165.411 Y97.445 E3.19042
G1 X165.584 Y97.477 E3.19627
G1 X166.4 Y97.635 E3.22391
G1 X166.917 Y97.749 E3.24152
G1 X167.169 Y97.811 E3.25015
G1 X167.677 Y97.949 E3.26766
G1 X167.834 Y97.996 E3.27311
G1 X168.414 Y98.188 E3.29343
G1 X168.692 Y98.289 E3.30327
G1 X169.277 Y98.522 E3.32421
G1 X169.395 Y98.573 E3.32849
G1 X169.843 Y98.779 E3.34489
G1 X170.105 Y98.907 E3.35459
G1 X170.696 Y99.219 E3.37682
G1 X170.826 Y99.293 E3.38179
G1 X171.275 Y99.564 E3.39924
G1 X171.52 Y99.72 E3.4089
G1 X171.932 Y99.996 E3.42539
G1 X172.02 Y100.058 E3.42897
G1 X172.509 Y100.423 E3.44927
G1 X172.762 Y100.624 E3.46001
G1 X173.186 Y100.98 E3.47843
G1 X173.289 Y101.071 E3.483
G1 X173.766 Y101.52 E3.50479
G1 X173.983 Y101.737 E3.51499
G1 X174.383 Y102.159 E3.53433
G1 X174.469 Y102.255 E3.53862
G1 X174.795 Y102.637 E3.55532
G1 X174.97 Y102.852 E3.56454
G1 X175.375 Y103.382 E3.58673
G1 X175.455 Y103.494 E3.59131
G1 X175.717 Y103.878 E3.60677
G1 X175.873 Y104.118 E3.61629
G1 X176.147 Y104.564 E3.6337
G1 X176.211 Y104.674 E3.63793
G1 X176.508 Y105.222 E3.65866
G1 X176.642 Y105.487 E3.66854
G1 X176.888 Y106.006 E3.68764
G1 X176.946 Y106.138 E3.69244
G1 X177.142 Y106.615 E3.70959
G1 X177.251 Y106.9 E3.71974
G1 X177.455 Y107.485 E3.74034
G1 X177.487 Y107.586 E3.74387
G1 X177.648 Y108.146 E3.76325
G1 X177.727 Y108.453 E3.77379
G1 X177.849 Y108.985 E3.79194
G1 X177.875 Y109.113 E3.79629
G1 X177.975 Y109.688 E3.8157
G1 X178.017 Y109.975 E3.82535
G1 X178.087 Y110.565 E3.84511
G1 X178.099 Y110.699 E3.84958
G1 X178.132 Y111.204 E3.86642
G1 X178.147 Y111.565 E3.87843
G1 X178.155 Y111.874 E3.88871
G1 X178.163 Y112.571 E3.9119
G1 X178.162 Y115.758 E4.0179
G1 X178.151 Y116.465 E4.04142
G1 X178.096 Y117.384 E4.07204
G1 X177.963 Y118.295 E4.10266
G1 X177.75 Y119.191 E4.13329
G1 X177.461 Y120.065 E4.16391
G1 X177.097 Y120.91 E4.19451
G1 X176.581 Y121.853 E4.23026
G1 X176.062 Y122.695 E4.26316
G1 X175.219 Y124.026 E4.31556
G1 X174.809 Y124.697 E4.34171
G1 X174.295 Y125.462 E4.37237
G1 X173.717 Y126.178 E4.40297
G1 X172.957 Y126.957 E4.43917
G1 X172.825 Y127.079 E4.44515
G1 X172.122 Y127.674 E4.47578
G1 X171.37 Y128.206 E4.50642
G1 X170.576 Y128.671 E4.53702
G1 X169.743 Y129.064 E4.56766
G1 X168.63 Y129.462 E4.60697
G1 X167.328 Y129.846 E4.65212
G1 X164.881 Y130.604 E4.73732
G1 X162.481 Y131.424 E4.82168
G1 X160.107 Y132.31 E4.90596
G1 X157.775 Y133.256 E4.98966
G1 X155.457 Y134.275 E5.07388
G1 X153.186 Y135.35 E5.15745
G1 X150.915 Y136.505 E5.24219
G1 X148.702 Y137.709 E5.32598
G1 X146.496 Y138.993 E5.41088
G1 X144.918 Y139.962 E5.47247
G1 X144.554 Y140.19 E5.48675
G1 X143.507 Y140.766 E5.5265
G1 X143.206 Y140.91 E5.53759
G1 X142.403 Y141.254 E5.56665
G1 X141.82 Y141.476 E5.5874
G1 X140.775 Y141.813 E5.62392
G1 X140.452 Y141.899 E5.63504
G1 X139.468 Y142.112 E5.66852
G1 X138.922 Y142.203 E5.68693
G1 X137.922 Y142.321 E5.72042
G1 X137.296 Y142.365 E5.7413
G1 X136.938 Y142.384 E5.75322
G1 X136.773 Y142.39 E5.75871
G1 X136.485 Y142.397 E5.76829
G1 X136.158 Y142.4 E5.77917
G1 X132.131 Y142.399 E5.91311
G1 X131.113 Y142.384 E5.94697
G1 X128.464 Y142.319 E6.0351
G1 X125.946 Y142.327 E6.11885
G1 X123.408 Y142.407 E6.20331
G1 X120.902 Y142.558 E6.28681
G1 X118.352 Y142.785 E6.37196
G1 X115.855 Y143.077 E6.45557
G1 X113.362 Y143.44 E6.53937
G1 X110.885 Y143.874 E6.62301
G1 X108.393 Y144.382 E6.7076
G1 X105.936 Y144.957 E6.79152
G1 X103.469 Y145.609 E6.87639
G1 X101.076 Y146.312 E6.95935
G1 X99.444 Y146.816 E7.01616
G1 X99.151 Y146.902 E7.02632
G1 X98.69 Y147.03 E7.04223
G1 X98.371 Y147.113 E7.05319
G1 X97.651 Y147.289 E7.07784
G1 X97.355 Y147.357 E7.08795
G1 X96.865 Y147.462 E7.10461
G1 X96.539 Y147.526 E7.11566
G1 X95.862 Y147.649 E7.13855
G1 X95.565 Y147.699 E7.14857
G1 X95.106 Y147.769 E7.16401
G1 X94.774 Y147.814 E7.17515
G1 X94.034 Y147.903 E7.19994
G1 X93.728 Y147.935 E7.21017
G1 X93.255 Y147.978 E7.22597
G1 X92.941 Y148.002 E7.23645
G1 X92.237 Y148.045 E7.2599
G1 X91.912 Y148.06 E7.27073
G1 X91.417 Y148.075 E7.2872
G1 X91.111 Y148.08 E7.29738
G1 X90.396 Y148.081 E7.32116
G1 X90.083 Y148.077 E7.33157
G1 X89.62 Y148.064 E7.34697
G1 X89.287 Y148.049 E7.35806
G1 X88.549 Y148.005 E7.38265
G1 X88.241 Y147.982 E7.39292
G1 X87.746 Y147.938 E7.40945
G1 X87.422 Y147.904 E7.42029
G1 X86.772 Y147.826 E7.44206
G1 X86.469 Y147.786 E7.45223
G1 X85.967 Y147.711 E7.46911
G1 X85.646 Y147.658 E7.47993
G1 X84.933 Y147.529 E7.50403
G1 X84.624 Y147.468 E7.5145
G1 X84.166 Y147.371 E7.53008
G1 X83.863 Y147.302 E7.54041
G1 X83.154 Y147.13 E7.56468
G1 X82.856 Y147.053 E7.57491
G1 X82.421 Y146.934 E7.58991
G1 X82.1 Y146.841 E7.60103
G1 X81.382 Y146.62 E7.62602
G1 X81.078 Y146.522 E7.63664
G1 X80.647 Y146.375 E7.65179
G1 X80.36 Y146.272 E7.66193
G1 X79.672 Y146.015 E7.68635
G1 X79.343 Y145.886 E7.69811
G1 X78.877 Y145.694 E7.71487
G1 X78.614 Y145.581 E7.72439
G1 X77.999 Y145.308 E7.74677
G1 X77.724 Y145.181 E7.75685
G1 X77.279 Y144.968 E7.77326
G1 X76.973 Y144.816 E7.78462
G1 X76.339 Y144.487 E7.80838
G1 X76.075 Y144.345 E7.81835
G1 X75.677 Y144.124 E7.83349
G1 X75.387 Y143.957 E7.84462
G1 X74.719 Y143.558 E7.8705
G1 X74.45 Y143.392 E7.88101
G1 X74.082 Y143.157 E7.89553
G1 X73.819 Y142.983 E7.90602
G1 X73.223 Y142.577 E7.93001
G1 X72.978 Y142.405 E7.93996
G1 X72.591 Y142.125 E7.95585
G1 X72.325 Y141.927 E7.96688
G1 X71.741 Y141.476 E7.99142
G1 X71.509 Y141.291 E8.00129
G1 X71.163 Y141.008 E8.01616
G1 X70.891 Y140.778 E8.02801
G1 X70.352 Y140.306 E8.05184
G1 X70.149 Y140.124 E8.0609
G1 X69.764 Y139.769 E8.07832
G1 X69.511 Y139.527 E8.08997
G1 X69.037 Y139.06 E8.1121
G1 X68.82 Y138.841 E8.12235
G1 X68.458 Y138.463 E8.13976
G1 X68.246 Y138.234 E8.15014
G1 X67.772 Y137.709 E8.17366
G1 X67.547 Y137.452 E8.18503
G1 X67.267 Y137.121 E8.19945
G1 X67.077 Y136.89 E8.20939
G1 X66.605 Y136.299 E8.23455
G1 X66.416 Y136.055 E8.24481
G1 X66.14 Y135.688 E8.26009
G1 X65.951 Y135.428 E8.27078
G1 X65.51 Y134.803 E8.29622
G1 X65.329 Y134.539 E8.30687
G1 X65.083 Y134.167 E8.3217
G1 X64.915 Y133.905 E8.33205
G1 X64.553 Y133.321 E8.3549
G1 X64.384 Y133.037 E8.3659
G1 X64.127 Y132.592 E8.38299
G1 X63.981 Y132.332 E8.39291
G1 X63.628 Y131.679 E8.4176
G1 X63.467 Y131.369 E8.42921
G1 X63.274 Y130.982 E8.4436
G1 X63.145 Y130.714 E8.45349
G1 X62.834 Y130.044 E8.47806
G1 X62.705 Y129.754 E8.48861
G1 X62.514 Y129.308 E8.50475
G1 X62.396 Y129.021 E8.51507
G1 X62.143 Y128.379 E8.53802
G1 X62.035 Y128.092 E8.54822
G1 X61.865 Y127.621 E8.56488
G1 X61.753 Y127.294 E8.57637
G1 X61.533 Y126.616 E8.60008
G1 X61.443 Y126.327 E8.61015
G1 X61.309 Y125.87 E8.62599
G1 X61.223 Y125.557 E8.63679
G1 X61.046 Y124.877 E8.66016
G1 X60.973 Y124.581 E8.6703
G1 X60.859 Y124.085 E8.68722
G1 X60.794 Y123.778 E8.69766
G1 X60.656 Y123.084 E8.72119
G1 X60.594 Y122.748 E8.73256
G1 X60.524 Y122.325 E8.74682
G1 X60.479 Y122.022 E8.75701
G1 X60.372 Y121.235 E8.78342
G1 X60.332 Y120.904 E8.79451
G1 X60.278 Y120.385 E8.81187
G1 X60.251 Y120.08 E8.82205
G1 X60.204 Y119.453 E8.84296
G1 X60.185 Y119.151 E8.85303
G1 X60.163 Y118.676 E8.86884
G1 X60.153 Y118.358 E8.87943
G1 X60.141 Y117.618 E8.90404
G1 X60.141 Y117.287 E8.91505
G1 X60.148 Y116.821 E8.93055
G1 X60.157 Y116.515 E8.94073
G1 X60.189 Y115.786 E8.965
G1 X60.208 Y115.47 E8.97553
G1 X60.243 Y114.996 E8.99134
G1 X60.272 Y114.668 E9.00229
G1 X60.347 Y113.955 E9.02614
G1 X60.384 Y113.651 E9.03632
G1 X60.446 Y113.19 E9.0518
G1 X60.493 Y112.876 E9.06236
G1 X60.619 Y112.113 E9.08808
G1 X60.672 Y111.816 E9.09811
G1 X60.75 Y111.415 E9.1117
G1 X60.819 Y111.086 E9.12288
G1 X60.982 Y110.37 E9.1473
G1 X61.059 Y110.055 E9.15809
G1 X61.194 Y109.536 E9.17592
G1 X61.279 Y109.228 E9.18655
G1 X61.47 Y108.575 E9.20918
G1 X61.557 Y108.294 E9.21896
G1 X61.68 Y107.913 E9.23228
G1 X61.785 Y107.604 E9.24314
G1 X62.059 Y106.837 E9.27022
G1 X62.169 Y106.543 E9.28067
G1 X62.334 Y106.121 E9.29574
G1 X62.461 Y105.811 E9.30688
G1 X62.74 Y105.159 E9.33047
G1 X62.863 Y104.882 E9.34055
G1 X63.071 Y104.432 E9.35703
G1 X63.206 Y104.151 E9.3674
G1 X63.515 Y103.531 E9.39044
G1 X63.667 Y103.237 E9.40145
G1 X63.901 Y102.802 E9.41788
G1 X64.053 Y102.53 E9.42824
G1 X64.426 Y101.883 E9.45308
G1 X64.586 Y101.613 E9.46352
G1 X64.816 Y101.24 E9.4781
G1 X64.988 Y100.971 E9.48872
G1 X65.392 Y100.358 E9.51313
G1 X65.578 Y100.086 E9.52409
G1 X65.826 Y99.734 E9.53842
G1 X66.001 Y99.492 E9.54835
G1 X66.46 Y98.878 E9.57385
G1 X66.665 Y98.614 E9.58496
G1 X66.977 Y98.223 E9.6016
G1 X67.167 Y97.991 E9.61157
G1 X67.599 Y97.48 E9.63383
G1 X67.819 Y97.227 E9.64498
G1 X68.156 Y96.853 E9.66173
G1 X68.357 Y96.637 E9.67154
G1 X68.842 Y96.128 E9.69492
G1 X69.074 Y95.891 E9.70595
G1 X69.426 Y95.544 E9.72239
G1 X69.639 Y95.341 E9.73218
G1 X70.158 Y94.857 E9.75578
G1 X70.419 Y94.621 E9.76749
G1 X70.748 Y94.334 E9.78201
G1 X70.982 Y94.136 E9.7922
G1 X71.591 Y93.635 E9.81843
G1 X71.829 Y93.445 E9.82856
G1 X72.172 Y93.179 E9.843
G0 F6000 X72.417 Y93.495
G1 F1200 X72.667 Y93.307 E9.8534
G1 X73.258 Y92.877 E9.87771
G1 X73.5 Y92.706 E9.88757
G1 X73.902 Y92.431 E9.90377
G1 X74.169 Y92.254 E9.91442
G1 X74.781 Y91.863 E9.93858
G1 X75.035 Y91.707 E9.94849
G1 X75.431 Y91.47 E9.96384
G1 X75.689 Y91.32 E9.97377
G1 X76.286 Y90.986 E9.99652
G1 X76.563 Y90.837 E10.00698
G1 X77.021 Y90.599 E10.02415
G1 X77.277 Y90.471 E10.03367
G1 X77.921 Y90.159 E10.05747
G1 X78.217 Y90.021 E10.06833
G1 X78.648 Y89.829 E10.08402
G1 X78.922 Y89.712 E10.09393
G1 X79.596 Y89.435 E10.11817
G1 X79.897 Y89.317 E10.12892
G1 X80.311 Y89.162 E10.14362
G1 X80.583 Y89.064 E10.15324
G1 X81.316 Y88.813 E10.17901
G1 X81.602 Y88.72 E10.18901
G1 X82.054 Y88.58 E10.20475
G1 X82.359 Y88.491 E10.21532
G1 X83.033 Y88.305 E10.23857
G1 X83.304 Y88.234 E10.24789
G1 X83.738 Y88.127 E10.26276
G1 X84.051 Y88.055 E10.27344
G1 X84.782 Y87.899 E10.2983
G1 X85.092 Y87.837 E10.30882
G1 X85.539 Y87.756 E10.32393
G1 X85.833 Y87.708 E10.33383
G1 X86.6 Y87.592 E10.35963
G1 X86.896 Y87.551 E10.36957
G1 X87.341 Y87.497 E10.38448
G1 X87.641 Y87.465 E10.39452
G1 X88.33 Y87.402 E10.41753
G1 X88.641 Y87.379 E10.4279
G1 X89.135 Y87.349 E10.44436
G1 X89.433 Y87.335 E10.45428
G1 X90.165 Y87.312 E10.47864
G1 X90.485 Y87.307 E10.48929
G1 X90.943 Y87.307 E10.50452
G1 X91.242 Y87.311 E10.51447
G1 X91.957 Y87.332 E10.53826
G1 X92.251 Y87.345 E10.54805
G1 X92.749 Y87.374 E10.56464
G1 X93.063 Y87.397 E10.57511
G1 X93.791 Y87.462 E10.59942
G1 X94.101 Y87.495 E10.60979
G1 X94.486 Y87.541 E10.62268
G1 X97.092 Y87.816 E10.70984
G1 X99.618 Y88.009 E10.7941
G1 X102.147 Y88.131 E10.87831
G1 X104.683 Y88.181 E10.96268
G1 X107.249 Y88.16 E11.04803
G1 X109.78 Y88.067 E11.13226
G1 X112.274 Y87.904 E11.21539
G1 X115.974 Y87.538 E11.33906
G1 X116.253 Y87.508 E11.34839
G1 X116.953 Y87.458 E11.37173
G1 X117.225 Y87.448 E11.38078
G1 X117.984 Y87.448 E11.40603
G1 X118.223 Y87.457 E11.41398
G1 X118.814 Y87.497 E11.43368
G1 X119.064 Y87.521 E11.44204
G1 X119.542 Y87.578 E11.45805
G1 X119.674 Y87.597 E11.46248
G1 X120.14 Y87.675 E11.4782
G1 X120.354 Y87.716 E11.48545
G1 X120.708 Y87.79 E11.49747
G1 X120.778 Y87.806 E11.49986
G1 X121.189 Y87.909 E11.51395
G1 X121.398 Y87.966 E11.52116
G1 X122.006 Y88.153 E11.54232
G1 X122.267 Y88.242 E11.55149
G1 X122.687 Y88.396 E11.56637
G1 X123.202 Y88.597 E11.58475
G1 X125.699 Y89.533 E11.67345
G1 X128.114 Y90.36 E11.75835
G1 X130.511 Y91.109 E11.84188
G1 X132.95 Y91.792 E11.92612
G1 X135.407 Y92.409 E12.01038
G1 X137.898 Y92.959 E12.09522
G1 X140.464 Y93.449 E12.18211
G1 X165.342 Y97.839 E13.02234
G1 X166.324 Y98.028 E13.0556
G1 X166.822 Y98.137 E13.07256
G1 X167.074 Y98.199 E13.08119
G1 X167.562 Y98.332 E13.09801
G1 X167.719 Y98.379 E13.10346
G1 X168.277 Y98.564 E13.12301
G1 X168.555 Y98.665 E13.13285
G1 X169.119 Y98.889 E13.15304
G1 X169.237 Y98.94 E13.15731
G1 X169.667 Y99.138 E13.17306
G1 X169.929 Y99.266 E13.18276
G1 X170.498 Y99.567 E13.20417
G1 X170.628 Y99.641 E13.20914
G1 X171.06 Y99.901 E13.22591
G1 X171.305 Y100.057 E13.23557
G1 X171.702 Y100.323 E13.25147
G1 X171.79 Y100.385 E13.25505
G1 X172.26 Y100.737 E13.27458
G1 X172.513 Y100.938 E13.28532
G1 X172.921 Y101.28 E13.30303
G1 X173.024 Y101.371 E13.3076
G1 X173.483 Y101.803 E13.32857
G1 X173.7 Y102.02 E13.33877
G1 X174.085 Y102.426 E13.35738
G1 X174.171 Y102.522 E13.36167
G1 X174.485 Y102.889 E13.37773
G1 X174.66 Y103.104 E13.38695
G1 X175.049 Y103.614 E13.40829
G1 X175.129 Y103.726 E13.41287
G1 X175.381 Y104.096 E13.42776
G1 X175.537 Y104.336 E13.43728
G1 X175.801 Y104.765 E13.45403
G1 X175.865 Y104.875 E13.45826
G1 X176.151 Y105.402 E13.47821
G1 X176.285 Y105.667 E13.48808
G1 X176.521 Y106.167 E13.50647
G1 X176.579 Y106.299 E13.51127
G1 X176.768 Y106.758 E13.52778
G1 X176.877 Y107.043 E13.53793
G1 X177.074 Y107.606 E13.55776
G1 X177.106 Y107.707 E13.56129
G1 X177.26 Y108.246 E13.57993
G1 X177.339 Y108.553 E13.59048
G1 X177.457 Y109.065 E13.60795
G1 X177.483 Y109.193 E13.6123
