;FLAVOR:Marlin
;TIME:19541
;Filament used: 17.9269m
;Layer height: 0.28
;MINX:70.44
;MINY:17.6
;MINZ:0.28
;MAXX:163.611
;MAXY:217.4
;MAXZ:25.2
;Generated with Cura_SteamEngine 4.6.1
M140 S50
M105
M190 S50
M104 S200
M105
M109 S200
M82 ;absolute extrusion mode
; Ender 3 Custom Start G-code
G92 E0 ; Reset Extruder
G28 ; Home all axes
G1 Z2.0 F3000 ; Move Z Axis up little to prevent scratching of Heat Bed
G1 X0.1 Y20 Z0.3 F5000.0 ; Move to start position
G1 X0.1 Y200.0 Z0.3 F1500.0 E15 ; Draw the first line
G1 X0.4 Y200.0 Z0.3 F5000.0 ; Move to side a little
G1 X0.4 Y20 Z0.3 F1500.0 E30 ; Draw the second line
G92 E0 ; Reset Extruder
G1 Z2.0 F3000 ; Move Z Axis up little to prevent scratching of Heat Bed
G1 X5 Y20 Z0.3 F5000.0 ; Move over to prevent blob squish
G92 E0
G92 E0
G1 F2700 E-5
;LAYER_COUNT:90
;LAYER:0
M107
G0 F6000 X152.748 Y18.411 Z0.28
;TYPE:SKIRT
G1 F2700 E0
G1 F1200 X153.65 Y18.464 E0.04207
G1 X154.543 Y18.596 E0.08411
G1 X155.421 Y18.807 E0.12615
G1 X156.277 Y19.095 E0.16821
G1 X157.104 Y19.457 E0.21025
G1 X157.896 Y19.892 E0.25232
G1 X158.647 Y20.394 E0.29438
G1 X159.35 Y20.961 E0.33644
G1 X160 Y21.588 E0.37849
G1 X160.592 Y22.27 E0.42054
G1 X161.122 Y23.001 E0.46259
G1 X161.584 Y23.777 E0.50464
G1 X161.977 Y24.59 E0.54669
G1 X162.295 Y25.435 E0.58873
G1 X162.538 Y26.305 E0.63079
G1 X162.703 Y27.193 E0.67285
G1 X162.798 Y28.326 E0.72579
G1 X162.811 Y28.928 E0.75383
G1 X162.811 Y31.244 E0.86167
G1 X162.802 Y31.906 E0.8925
G1 X162.75 Y32.807 E0.93452
G1 X162.618 Y33.701 E0.9766
G1 X162.408 Y34.579 E1.01864
G1 X162.121 Y35.435 E1.06068
G1 X161.759 Y36.263 E1.10276
G1 X161.151 Y37.333 E1.16006
G1 X160.286 Y38.651 E1.23347
G1 X158.936 Y40.778 E1.35078
G1 X157.622 Y42.985 E1.47038
G1 X156.395 Y45.182 E1.58755
G1 X155.217 Y47.441 E1.70619
G1 X154.095 Y49.749 E1.82568
G1 X153.067 Y52.027 E1.94206
G1 X152.074 Y54.4 E2.06184
G1 X151.166 Y56.759 E2.17954
G1 X150.318 Y59.162 E2.2982
G1 X149.544 Y61.571 E2.41602
G1 X148.834 Y64.015 E2.53452
G1 X148.198 Y66.457 E2.65203
G1 X147.619 Y68.97 E2.77211
G1 X147.128 Y71.427 E2.88878
G1 X146.699 Y73.934 E3.00721
G1 X146.344 Y76.432 E3.1247
G1 X146.054 Y78.981 E3.24416
G1 X145.84 Y81.493 E3.36155
G1 X145.699 Y83.997 E3.47833
G1 X145.615 Y87.963 E3.66305
G1 X145.615 Y147.103 E6.41685
G1 X145.652 Y149.709 E6.53821
G1 X145.761 Y152.274 E6.65775
G1 X145.939 Y154.781 E6.77478
G1 X146.19 Y157.322 E6.89368
G1 X146.511 Y159.83 E7.01142
G1 X146.905 Y162.335 E7.12949
G1 X147.367 Y164.822 E7.24728
G1 X147.91 Y167.343 E7.36736
G1 X148.505 Y169.768 E7.48363
G1 X149.182 Y172.234 E7.6027
G1 X149.925 Y174.661 E7.72089
G1 X150.736 Y177.063 E7.83894
G1 X151.626 Y179.476 E7.9587
G1 X152.552 Y181.783 E8.07445
G1 X153.584 Y184.154 E8.19486
G1 X154.652 Y186.433 E8.31206
G1 X155.813 Y188.74 E8.43232
G1 X157.007 Y190.949 E8.54924
G1 X158.264 Y193.128 E8.66638
G1 X159.596 Y195.294 E8.78478
G1 X161.128 Y197.631 E8.9149
G1 X161.589 Y198.408 E8.95697
G1 X161.979 Y199.222 E8.999
G1 X162.297 Y200.067 E9.04104
G1 X162.538 Y200.938 E9.08312
G1 X162.701 Y201.826 E9.12516
G1 X162.788 Y202.798 E9.1706
G1 X162.802 Y203.134 E9.18626
G1 X162.811 Y203.554 E9.20582
G1 X162.811 Y205.807 E9.31073
G1 X162.803 Y206.507 E9.34333
G1 X162.753 Y207.408 E9.38535
G1 X162.623 Y208.302 E9.42741
G1 X162.415 Y209.181 E9.46947
G1 X162.13 Y210.038 E9.51153
G1 X161.77 Y210.866 E9.55357
G1 X161.338 Y211.659 E9.59562
G1 X160.837 Y212.411 E9.63769
G1 X160.273 Y213.116 E9.67973
G1 X159.648 Y213.767 E9.72176
G1 X158.967 Y214.362 E9.76386
G1 X158.237 Y214.893 E9.8059
G1 X157.463 Y215.358 E9.84794
G1 X156.651 Y215.753 E9.88999
G1 X155.807 Y216.074 E9.93203
G1 X154.938 Y216.319 E9.97408
G1 X154.05 Y216.487 E10.01616
G1 X152.919 Y216.585 E10.06902
G1 X152.28 Y216.6 E10.09878
G1 X126.866 Y216.599 E11.28217
G1 X126.161 Y216.589 E11.315
G1 X125.507 Y216.559 E11.34548
G1 X125.278 Y216.541 E11.35618
G1 X124.381 Y216.43 E11.39826
G1 X123.498 Y216.241 E11.44031
G1 X122.896 Y216.063 E11.46954
G1 X122.372 Y215.891 E11.49522
G1 X121.527 Y215.572 E11.53728
G1 X120.714 Y215.179 E11.57933
G1 X120.08 Y214.807 E11.61356
G1 X118.898 Y214.056 E11.67877
G1 X116.639 Y212.662 E11.80237
G1 X114.452 Y211.396 E11.92004
G1 X112.218 Y210.186 E12.03834
G1 X109.941 Y209.035 E12.15714
G1 X107.658 Y207.962 E12.2746
G1 X105.313 Y206.939 E12.39374
G1 X102.937 Y205.979 E12.51306
G1 X100.609 Y205.12 E12.62861
G1 X98.151 Y204.288 E12.74944
G1 X95.762 Y203.553 E12.86583
G1 X93.303 Y202.872 E12.98464
G1 X90.827 Y202.262 E13.10338
G1 X88.34 Y201.722 E13.22188
G1 X85.873 Y201.262 E13.33874
G1 X83.34 Y200.861 E13.45815
G1 X81.645 Y200.638 E13.53776
G1 X80.998 Y200.535 E13.56827
G1 X80.115 Y200.345 E13.61032
G1 X79.236 Y200.073 E13.65317
G1 X78.823 Y199.924 E13.67361
G1 X77.988 Y199.58 E13.71566
G1 X76.901 Y198.992 E13.77321
G1 X76.724 Y198.882 E13.78291
G1 X75.979 Y198.372 E13.82495
G1 X75.49 Y197.981 E13.85411
G1 X75.3 Y197.819 E13.86573
G1 X74.64 Y197.203 E13.90777
G1 X74.226 Y196.756 E13.93614
G1 X74.064 Y196.57 E13.94763
G1 X73.502 Y195.864 E13.98965
G1 X73.064 Y195.208 E14.02638
G1 X72.932 Y194.993 E14.03812
G1 X72.494 Y194.203 E14.08018
G1 X72.127 Y193.378 E14.12223
G1 X71.894 Y192.717 E14.15486
G1 X71.737 Y192.218 E14.17922
G1 X71.505 Y191.346 E14.22124
G1 X71.35 Y190.456 E14.26331
G1 X71.294 Y189.904 E14.28914
G1 X71.278 Y189.686 E14.29932
G1 X71.252 Y189.103 E14.32649
G1 X71.241 Y188.316 E14.36314
G1 X71.24 Y43.694 E21.09735
G1 X71.251 Y42.761 E21.1408
G1 X71.28 Y42.103 E21.17147
G1 X71.299 Y41.857 E21.18295
G1 X71.409 Y40.96 E21.22504
G1 X71.597 Y40.077 E21.26707
G1 X71.798 Y39.399 E21.3
G1 X71.965 Y38.901 E21.32446
G1 X72.29 Y38.058 E21.36653
G1 X72.688 Y37.248 E21.40855
G1 X72.978 Y36.751 E21.43535
G1 X73.092 Y36.568 E21.44539
G1 X73.603 Y35.823 E21.48745
G1 X73.997 Y35.333 E21.51673
G1 X74.156 Y35.147 E21.52813
G1 X74.772 Y34.487 E21.57016
G1 X75.288 Y34.016 E21.6027
G1 X75.472 Y33.859 E21.61396
G1 X76.185 Y33.304 E21.65603
G1 X76.694 Y32.964 E21.68453
G1 X76.904 Y32.833 E21.69606
G1 X77.691 Y32.389 E21.73813
G1 X78.514 Y32.017 E21.78019
G1 X79.222 Y31.763 E21.81521
G1 X79.727 Y31.603 E21.83988
G1 X80.599 Y31.369 E21.88192
G1 X81.489 Y31.213 E21.924
G1 X82.101 Y31.152 E21.95263
G1 X82.585 Y31.118 E21.97523
G1 X85.229 Y30.905 E22.09874
G1 X87.759 Y30.629 E22.21725
G1 X90.304 Y30.279 E22.33687
G1 X92.786 Y29.865 E22.45404
G1 X95.288 Y29.375 E22.57275
G1 X97.739 Y28.823 E22.68974
G1 X100.208 Y28.192 E22.8084
G1 X102.672 Y27.489 E22.92772
G1 X105.081 Y26.727 E23.04537
G1 X107.485 Y25.889 E23.16391
G1 X109.811 Y25.005 E23.27978
G1 X112.209 Y24.015 E23.40058
G1 X114.525 Y22.982 E23.51867
G1 X116.81 Y21.884 E23.63671
G1 X119.063 Y20.722 E23.75475
G1 X120.895 Y19.718 E23.85203
G1 X121.445 Y19.438 E23.88077
G1 X122.274 Y19.079 E23.92283
G1 X123.131 Y18.795 E23.96487
G1 X124.01 Y18.587 E24.00693
G1 X124.904 Y18.459 E24.04899
G1 X125.583 Y18.414 E24.08067
G1 X126.269 Y18.4 E24.11262
G1 X152.05 Y18.401 E25.31309
G1 X152.748 Y18.411 E25.3456
G0 F6000 X152.754 Y18.011
G1 F1200 X153.673 Y18.064 E25.38846
G1 X154.584 Y18.197 E25.43133
G1 X155.48 Y18.408 E25.47419
G1 X156.354 Y18.696 E25.51704
G1 X157.201 Y19.059 E25.55995
G1 X158.012 Y19.494 E25.60281
G1 X158.782 Y19.998 E25.64566
G1 X159.506 Y20.567 E25.68854
G1 X160.178 Y21.197 E25.73143
G1 X160.793 Y21.882 E25.77429
G1 X161.346 Y22.618 E25.81716
G1 X161.833 Y23.399 E25.86002
G1 X162.25 Y24.22 E25.9029
G1 X162.595 Y25.074 E25.94578
G1 X162.864 Y25.954 E25.98863
G1 X163.056 Y26.855 E26.03153
G1 X163.169 Y27.768 E26.07437
G1 X163.198 Y28.315 E26.09987
G1 X163.211 Y28.928 E26.12842
G1 X163.211 Y31.249 E26.2365
G1 X163.202 Y31.911 E26.26733
G1 X163.15 Y32.83 E26.31019
G1 X163.017 Y33.741 E26.35306
G1 X162.807 Y34.638 E26.39595
G1 X162.519 Y35.512 E26.4388
G1 X162.157 Y36.359 E26.4817
G1 X161.486 Y37.551 E26.54539
G1 X160.627 Y38.86 E26.61829
G1 X159.275 Y40.991 E26.73581
G1 X157.965 Y43.189 E26.85496
G1 X156.756 Y45.355 E26.97046
G1 X155.574 Y47.622 E27.08951
G1 X154.462 Y49.91 E27.20796
G1 X153.423 Y52.21 E27.32548
G1 X152.44 Y54.561 E27.44414
G1 X151.545 Y56.887 E27.56019
G1 X150.701 Y59.28 E27.67834
G1 X149.926 Y61.689 E27.79618
G1 X149.229 Y64.09 E27.9126
G1 X148.582 Y66.577 E28.03226
G1 X148.014 Y69.041 E28.15
G1 X147.523 Y71.495 E28.26653
G1 X147.089 Y74.027 E28.38615
G1 X146.738 Y76.496 E28.50227
G1 X146.456 Y78.989 E28.6191
G1 X146.237 Y81.548 E28.73869
G1 X146.099 Y84.001 E28.8531
G1 X146.015 Y87.971 E29.038
G1 X146.015 Y147.097 E31.79115
G1 X146.052 Y149.722 E31.91339
G1 X146.159 Y152.23 E32.03028
G1 X146.337 Y154.75 E32.14792
G1 X146.586 Y157.265 E32.2656
G1 X146.905 Y159.754 E32.38245
G1 X147.306 Y162.306 E32.50273
G1 X147.758 Y164.737 E32.61787
G1 X148.296 Y167.236 E32.7369
G1 X148.893 Y169.672 E32.85369
G1 X149.571 Y172.138 E32.97278
G1 X150.304 Y174.531 E33.08932
G1 X151.118 Y176.945 E33.20794
G1 X151.985 Y179.295 E33.32458
G1 X152.944 Y181.683 E33.4444
G1 X153.935 Y183.96 E33.56004
G1 X155.021 Y186.277 E33.67919
G1 X156.157 Y188.535 E33.79689
G1 X157.347 Y190.737 E33.91344
G1 X158.608 Y192.924 E34.03099
G1 X159.954 Y195.111 E34.15056
G1 X161.462 Y197.412 E34.27867
G1 X161.933 Y198.203 E34.32154
G1 X162.333 Y199.032 E34.3644
G1 X162.66 Y199.893 E34.40728
G1 X162.911 Y200.779 E34.45016
G1 X163.084 Y201.683 E34.49302
G1 X163.188 Y202.782 E34.54442
G1 X163.202 Y203.118 E34.56008
G1 X163.211 Y203.554 E34.58039
G1 X163.211 Y205.811 E34.68548
G1 X163.203 Y206.511 E34.71808
G1 X163.153 Y207.43 E34.76094
G1 X163.023 Y208.342 E34.80383
G1 X162.814 Y209.239 E34.84672
G1 X162.528 Y210.114 E34.88958
G1 X162.168 Y210.961 E34.93244
G1 X161.735 Y211.773 E34.97529
G1 X161.234 Y212.545 E35.01814
G1 X160.667 Y213.271 E35.06104
G1 X160.039 Y213.945 E35.10393
G1 X159.356 Y214.561 E35.14676
G1 X158.621 Y215.117 E35.18967
G1 X157.841 Y215.606 E35.23254
G1 X157.022 Y216.025 E35.27538
G1 X156.169 Y216.372 E35.31826
G1 X155.29 Y216.644 E35.3611
G1 X154.39 Y216.839 E35.40398
G1 X153.476 Y216.954 E35.44688
G1 X152.931 Y216.985 E35.4723
G1 X152.607 Y216.995 E35.48739
G1 X152.28 Y217 E35.50262
G1 X126.861 Y216.999 E36.68623
G1 X126.156 Y216.989 E36.71906
G1 X125.475 Y216.957 E36.75081
G1 X125.246 Y216.939 E36.76151
G1 X124.333 Y216.827 E36.80434
G1 X123.432 Y216.637 E36.84721
G1 X122.771 Y216.443 E36.87929
G1 X122.247 Y216.271 E36.90497
G1 X121.386 Y215.946 E36.94783
G1 X120.556 Y215.548 E36.99069
G1 X119.865 Y215.145 E37.02794
G1 X118.627 Y214.358 E37.09624
G1 X116.45 Y213.015 E37.21535
G1 X114.24 Y211.736 E37.33425
G1 X112.054 Y210.552 E37.45001
G1 X109.755 Y209.39 E37.56996
G1 X107.477 Y208.319 E37.68717
G1 X105.183 Y207.318 E37.80371
G1 X102.786 Y206.35 E37.92409
G1 X100.479 Y205.498 E38.0386
G1 X98.053 Y204.677 E38.15786
G1 X95.634 Y203.933 E38.27571
G1 X93.182 Y203.254 E38.39418
G1 X90.752 Y202.655 E38.51072
G1 X88.248 Y202.111 E38.63003
G1 X85.815 Y201.657 E38.74528
G1 X83.26 Y201.253 E38.86573
G1 X81.593 Y201.034 E38.94402
G1 X81.209 Y200.977 E38.96209
G1 X80.931 Y200.93 E38.97522
G1 X80.031 Y200.737 E39.01808
G1 X79.101 Y200.449 E39.06342
G1 X78.688 Y200.3 E39.08386
G1 X77.836 Y199.95 E39.12675
G1 X76.69 Y199.332 E39.18738
G1 X76.513 Y199.222 E39.19708
G1 X75.753 Y198.703 E39.23994
G1 X75.231 Y198.285 E39.27108
G1 X75.041 Y198.123 E39.2827
G1 X74.367 Y197.496 E39.32557
G1 X73.925 Y197.019 E39.35585
G1 X73.763 Y196.833 E39.36733
G1 X73.189 Y196.113 E39.41021
G1 X72.723 Y195.417 E39.44921
G1 X72.591 Y195.202 E39.46096
G1 X72.143 Y194.397 E39.50386
G1 X71.768 Y193.557 E39.54669
G1 X71.513 Y192.837 E39.58226
G1 X71.356 Y192.338 E39.60662
G1 X71.118 Y191.449 E39.64947
G1 X70.958 Y190.542 E39.69236
G1 X70.895 Y189.933 E39.72086
G1 X70.879 Y189.715 E39.73104
G1 X70.852 Y189.109 E39.75929
G1 X70.841 Y188.316 E39.79622
G1 X70.84 Y43.694 E46.53042
G1 X70.851 Y42.756 E46.5741
G1 X70.881 Y42.072 E46.60598
G1 X70.9 Y41.826 E46.61747
G1 X71.011 Y40.912 E46.66035
G1 X71.201 Y40.011 E46.70322
G1 X71.419 Y39.272 E46.7391
G1 X71.586 Y38.774 E46.76356
G1 X71.916 Y37.914 E46.80645
G1 X72.32 Y37.087 E46.84931
G1 X72.639 Y36.539 E46.87883
G1 X72.753 Y36.356 E46.88887
G1 X73.273 Y35.597 E46.93171
G1 X73.693 Y35.073 E46.96298
G1 X73.852 Y34.887 E46.97438
G1 X74.48 Y34.214 E47.01724
G1 X75.029 Y33.711 E47.05191
G1 X75.213 Y33.554 E47.06317
G1 X75.938 Y32.988 E47.106
G1 X76.483 Y32.624 E47.13652
G1 X76.693 Y32.493 E47.14804
G1 X77.494 Y32.041 E47.19087
G1 X78.332 Y31.659 E47.23376
G1 X79.101 Y31.382 E47.27182
G1 X79.606 Y31.222 E47.29648
G1 X80.495 Y30.982 E47.33936
G1 X81.402 Y30.821 E47.38225
G1 X82.074 Y30.752 E47.41371
G1 X82.612 Y30.715 E47.43882
G1 X85.225 Y30.504 E47.56089
G1 X87.693 Y30.235 E47.67649
G1 X90.22 Y29.887 E47.79527
G1 X92.715 Y29.471 E47.91305
G1 X95.228 Y28.979 E48.03229
G1 X97.657 Y28.431 E48.14823
G1 X100.071 Y27.815 E48.26424
G1 X102.547 Y27.108 E48.38414
G1 X104.965 Y26.343 E48.50224
G1 X107.359 Y25.508 E48.6203
G1 X109.683 Y24.626 E48.73604
G1 X112.043 Y23.652 E48.85493
G1 X114.338 Y22.628 E48.97194
G1 X116.646 Y21.519 E49.09118
G1 X118.898 Y20.357 E49.20918
G1 X120.703 Y19.368 E49.30501
G1 X121.27 Y19.078 E49.33467
G1 X122.115 Y18.711 E49.37757
G1 X122.988 Y18.419 E49.42043
G1 X123.883 Y18.204 E49.46329
G1 X124.793 Y18.068 E49.50614
G1 X125.57 Y18.014 E49.5424
G1 X126.266 Y18 E49.57482
G1 X152.056 Y18.001 E50.77571
G1 X152.754 Y18.011 E50.80821
G0 F6000 X152.76 Y17.611
G1 F1200 X153.696 Y17.665 E50.85187
G1 X154.624 Y17.797 E50.89552
G1 X155.538 Y18.009 E50.93921
G1 X156.43 Y18.298 E50.98287
G1 X157.295 Y18.661 E51.02655
G1 X158.125 Y19.097 E51.0702
G1 X158.916 Y19.602 E51.1139
G1 X159.66 Y20.173 E51.15757
G1 X160.353 Y20.805 E51.20125
G1 X160.99 Y21.493 E51.24491
G1 X161.565 Y22.234 E51.28858
G1 X162.076 Y23.02 E51.33223
G1 X162.518 Y23.848 E51.37594
G1 X162.887 Y24.71 E51.4196
G1 X163.182 Y25.6 E51.46326
G1 X163.4 Y26.512 E51.50692
G1 X163.54 Y27.44 E51.55062
G1 X163.598 Y28.304 E51.59094
G1 X163.611 Y28.928 E51.62001
G1 X163.611 Y31.255 E51.72836
G1 X163.602 Y31.917 E51.75919
G1 X163.549 Y32.853 E51.80284
G1 X163.417 Y33.781 E51.84649
G1 X163.206 Y34.695 E51.89017
G1 X162.918 Y35.588 E51.93386
G1 X162.555 Y36.453 E51.97754
G1 X162.12 Y37.283 E52.02118
G1 X161.821 Y37.769 E52.04775
G1 X160.954 Y39.093 E52.12144
G1 X159.597 Y41.23 E52.23931
G1 X158.331 Y43.356 E52.35453
G1 X157.088 Y45.583 E52.47329
G1 X155.93 Y47.803 E52.58988
G1 X154.828 Y50.071 E52.70729
G1 X153.799 Y52.35 E52.82373
G1 X152.806 Y54.723 E52.94351
G1 X151.919 Y57.027 E53.05847
G1 X151.083 Y59.398 E53.17554
G1 X150.308 Y61.808 E53.29342
G1 X149.611 Y64.206 E53.4097
G1 X148.973 Y66.661 E53.52781
G1 X148.402 Y69.136 E53.64608
G1 X147.916 Y71.569 E53.76161
G1 X147.487 Y74.074 E53.87995
G1 X147.137 Y76.531 E53.99552
G1 X146.85 Y79.067 E54.11436
G1 X146.639 Y81.537 E54.22979
G1 X146.499 Y84.031 E54.3461
G1 X146.415 Y87.98 E54.53003
G1 X146.415 Y147.091 E57.28248
G1 X146.452 Y149.699 E57.40394
G1 X146.559 Y152.22 E57.52143
G1 X146.736 Y154.715 E57.6379
G1 X146.984 Y157.215 E57.75488
G1 X147.303 Y159.708 E57.87191
G1 X147.694 Y162.201 E57.98942
G1 X148.157 Y164.691 E58.10735
G1 X148.687 Y167.154 E58.22466
G1 X149.275 Y169.55 E58.33954
G1 X149.954 Y172.02 E58.45882
G1 X150.69 Y174.423 E58.57584
G1 X151.497 Y176.815 E58.69339
G1 X152.36 Y179.155 E58.80953
G1 X153.306 Y181.511 E58.92775
G1 X154.306 Y183.809 E59.04444
G1 X155.382 Y186.106 E59.16255
G1 X156.494 Y188.316 E59.27775
G1 X157.712 Y190.569 E59.39701
G1 X158.961 Y192.736 E59.51348
G1 X160.27 Y194.864 E59.62981
G1 X161.797 Y197.193 E59.75949
G1 X162.277 Y197.998 E59.80313
G1 X162.687 Y198.842 E59.84682
G1 X163.023 Y199.717 E59.89047
G1 X163.284 Y200.618 E59.93415
G1 X163.467 Y201.538 E59.97783
G1 X163.587 Y202.765 E60.03523
G1 X163.601 Y203.101 E60.05089
G1 X163.611 Y203.554 E60.07199
G1 X163.611 Y205.816 E60.17732
G1 X163.603 Y206.516 E60.20992
G1 X163.553 Y207.452 E60.25356
G1 X163.422 Y208.381 E60.29725
G1 X163.213 Y209.295 E60.34091
G1 X162.927 Y210.188 E60.38457
G1 X162.566 Y211.054 E60.42826
G1 X162.133 Y211.886 E60.47193
G1 X161.63 Y212.677 E60.51558
G1 X161.062 Y213.423 E60.55924
G1 X160.432 Y214.118 E60.60292
G1 X159.745 Y214.757 E60.64661
G1 X159.006 Y215.335 E60.69029
