;FLAVOR:Marlin
;TIME:871
;Filament used: 0.512071m
;Layer height: 0.2
;MINX:92.55
;MINY:97.5
;MINZ:0.2
;MAXX:142.438
;MAXY:137.5
;MAXZ:10
;Generated with Cura_SteamEngine 4.7.0
M140 S55
M105
M190 S55
M104 S210
M105
M109 S210
M82 ;absolute extrusion mode
; Ender 3 Custom Start G-code
G92 E0 ; Reset Extruder
G28 ; Home all axes
G1 Z2.0 F3000 ; Move Z Axis up little to prevent scratching of Heat Bed
G1 X0.1 Y20 Z0.3 F5000.0 ; Move to start position
G1 X0.1 Y200.0 Z0.3 F1500.0 E15 ; Draw the first line
G1 X0.4 Y200.0 Z0.3 F5000.0 ; Move to side a little
G1 X0.4 Y20 Z0.3 F1500.0 E30 ; Draw the second line
G92 E0 ; Reset Extruder
G1 Z2.0 F3000 ; Move Z Axis up little to prevent scratching of Heat Bed
G1 X5 Y20 Z0.3 F5000.0 ; Move over to prevent blob squish
G92 E0
G92 E0
G1 F2700 E-5
;LAYER_COUNT:50
;LAYER:0
M107
G0 F6000 X96.36 Y100.752 Z0.2
;TYPE:SKIRT
G1 F2700 E0
G1 F1200 X97.024 Y100.18 E0.02915
G1 X97.209 Y100.033 E0.03701
G1 X97.967 Y99.481 E0.0682
G1 X98.977 Y98.886 E0.10718
G1 X99.027 Y98.86 E0.10906
G1 X100.25 Y98.316 E0.15358
G1 X100.472 Y98.233 E0.16146
G1 X101.363 Y97.942 E0.19264
G1 X102.277 Y97.728 E0.22386
G1 X103.429 Y97.572 E0.26252
G1 X103.723 Y97.548 E0.27234
G1 X104.439 Y97.513 E0.29618
G1 X105.175 Y97.501 E0.32066
G1 X105.356 Y97.5 E0.32668
G1 X112.069 Y97.502 E0.54996
G1 X112.759 Y97.512 E0.57291
G1 X113.696 Y97.566 E0.60412
G1 X114.308 Y97.644 E0.62464
G1 X114.518 Y97.677 E0.63171
G1 X115.437 Y97.862 E0.66289
G1 X116.337 Y98.125 E0.69408
G1 X117.001 Y98.374 E0.71767
G1 X117.217 Y98.463 E0.72544
G1 X118.127 Y98.887 E0.75883
G1 X118.466 Y99.068 E0.77161
G1 X120.593 Y100.247 E0.85249
G1 X122.816 Y101.398 E0.93575
G1 X125.07 Y102.485 E1.01899
G1 X127.399 Y103.528 E1.10386
G1 X129.654 Y104.464 E1.18507
G1 X131.656 Y105.235 E1.25642
G1 X131.888 Y105.327 E1.26472
G1 X132.187 Y105.45 E1.27548
G1 X133.038 Y105.844 E1.30667
G1 X133.853 Y106.308 E1.33786
G1 X134.643 Y106.854 E1.3698
G1 X134.882 Y107.035 E1.37977
G1 X135.605 Y107.632 E1.41096
G1 X136.188 Y108.198 E1.43798
G1 X136.255 Y108.268 E1.4412
G1 X136.874 Y108.973 E1.47241
G1 X137.358 Y109.621 E1.49931
G1 X137.481 Y109.799 E1.50651
G1 X137.98 Y110.592 E1.53767
G1 X138.411 Y111.426 E1.56889
G1 X138.712 Y112.14 E1.59466
G1 X138.755 Y112.253 E1.59869
G1 X138.999 Y112.969 E1.62384
G1 X139.391 Y114.261 E1.66875
G1 X140.187 Y116.755 E1.75582
G1 X140.99 Y119.051 E1.83673
G1 X141.604 Y120.74 E1.8965
G1 X141.823 Y121.367 E1.91859
G1 X142.094 Y122.265 E1.94979
G1 X142.288 Y123.182 E1.98096
G1 X142.403 Y124.113 E2.01216
G1 X142.438 Y125.05 E2.04335
G1 X142.393 Y125.987 E2.07455
G1 X142.269 Y126.917 E2.10575
G1 X142.066 Y127.832 E2.13693
G1 X141.785 Y128.727 E2.16813
G1 X141.43 Y129.595 E2.19932
G1 X141.001 Y130.429 E2.23051
G1 X140.504 Y131.224 E2.2617
G1 X139.94 Y131.974 E2.29291
G1 X139.314 Y132.673 E2.32412
G1 X138.632 Y133.316 E2.35529
G1 X137.897 Y133.898 E2.38647
G1 X137.115 Y134.416 E2.41767
G1 X136.291 Y134.865 E2.44888
G1 X135.503 Y135.215 E2.47756
G1 X134.278 Y135.702 E2.52141
G1 X132.995 Y136.222 E2.56745
G1 X132.305 Y136.508 E2.59229
G1 X131.967 Y136.641 E2.60437
G1 X131.664 Y136.755 E2.61514
G1 X130.772 Y137.048 E2.64637
G1 X129.86 Y137.264 E2.67754
G1 X129.04 Y137.389 E2.70513
G1 X128.804 Y137.416 E2.71303
G1 X127.732 Y137.486 E2.74876
G1 X126.93 Y137.499 E2.77544
G1 X115.342 Y137.5 E3.16086
G1 X115.169 Y137.499 E3.16661
G1 X113.962 Y137.48 E3.20676
G1 X113.598 Y137.468 E3.21888
G1 X113.414 Y137.459 E3.225
G1 X113.115 Y137.44 E3.23497
G1 X112.577 Y137.399 E3.25291
G1 X111.882 Y137.324 E3.27616
G1 X111.135 Y137.219 E3.30125
G1 X110.712 Y137.151 E3.3155
G1 X110.399 Y137.093 E3.32609
G1 X109.891 Y136.99 E3.34333
G1 X109.186 Y136.822 E3.36744
G1 X108.404 Y136.609 E3.39439
G1 X107.743 Y136.407 E3.41738
G1 X107.148 Y136.204 E3.43829
G1 X106.497 Y135.958 E3.46144
G1 X105.844 Y135.688 E3.48494
G1 X105.493 Y135.536 E3.49766
G1 X105.182 Y135.39 E3.50909
G1 X104.633 Y135.122 E3.52941
G1 X104.331 Y134.969 E3.54067
G1 X104.219 Y134.91 E3.54488
G1 X103.906 Y134.739 E3.55674
G1 X103.428 Y134.467 E3.57503
G1 X102.862 Y134.122 E3.59708
G1 X102.239 Y133.716 E3.62181
G1 X101.675 Y133.323 E3.64468
G1 X101.162 Y132.941 E3.66595
G1 X100.792 Y132.652 E3.68157
G1 X100.56 Y132.46 E3.69158
G1 X100.045 Y132.022 E3.71407
G1 X99.694 Y131.711 E3.72967
G1 X99.488 Y131.517 E3.73908
G1 X99.05 Y131.094 E3.75933
G1 X98.735 Y130.777 E3.77419
G1 X98.532 Y130.56 E3.78408
G1 X98.116 Y130.105 E3.80458
G1 X97.681 Y129.6 E3.82675
G1 X97.237 Y129.051 E3.85023
G1 X96.92 Y128.639 E3.86752
G1 X96.754 Y128.41 E3.87693
G1 X96.37 Y127.865 E3.89911
G1 X95.986 Y127.281 E3.92235
G1 X95.659 Y126.748 E3.94315
G1 X95.491 Y126.465 E3.9541
G1 X95.294 Y126.111 E3.96757
G1 X94.985 Y125.53 E3.98946
G1 X94.797 Y125.16 E4.00326
G1 X94.647 Y124.843 E4.01493
G1 X94.409 Y124.318 E4.0341
G1 X94.245 Y123.937 E4.04789
G1 X94.112 Y123.603 E4.05985
G1 X93.895 Y123.034 E4.08011
G1 X93.757 Y122.65 E4.09368
G1 X93.72 Y122.541 E4.09751
G1 X93.63 Y122.264 E4.10719
G1 X93.465 Y121.732 E4.12572
G1 X93.288 Y121.093 E4.14777
G1 X93.106 Y120.351 E4.17318
G1 X92.95 Y119.609 E4.1984
G1 X92.836 Y118.951 E4.22061
G1 X92.742 Y118.286 E4.24295
G1 X92.672 Y117.655 E4.26407
G1 X92.626 Y117.164 E4.28047
G1 X92.601 Y116.834 E4.29148
G1 X92.591 Y116.667 E4.29704
G1 X92.572 Y116.186 E4.31305
G1 X92.551 Y114.884 E4.35636
G1 X92.55 Y109.955 E4.5203
G1 X92.556 Y109.469 E4.53647
G1 X92.565 Y109.152 E4.54701
G1 X92.676 Y107.875 E4.58965
G1 X92.709 Y107.649 E4.59724
G1 X92.884 Y106.727 E4.62846
G1 X93.137 Y105.824 E4.65965
G1 X93.426 Y105.042 E4.68738
G1 X93.504 Y104.853 E4.69418
G1 X93.898 Y104.002 E4.72537
G1 X94.364 Y103.188 E4.75656
G1 X94.909 Y102.4 E4.78843
G1 X95.104 Y102.143 E4.79916
G1 X95.702 Y101.421 E4.83034
G1 X96.36 Y100.752 E4.86155
G0 F6000 X96.658 Y101.021
G1 F1200 X97.273 Y100.493 E4.88851
G1 X97.458 Y100.346 E4.89637
G1 X98.203 Y99.805 E4.92699
G1 X99.162 Y99.241 E4.964
G1 X99.212 Y99.215 E4.96587
G1 X100.39 Y98.69 E5.00877
G1 X100.612 Y98.607 E5.01665
G1 X101.487 Y98.323 E5.04725
G1 X102.384 Y98.115 E5.07787
G1 X103.462 Y97.971 E5.11405
G1 X103.756 Y97.947 E5.12386
G1 X104.445 Y97.913 E5.1468
G1 X105.181 Y97.901 E5.17128
G1 X111.912 Y97.901 E5.39516
G1 X112.754 Y97.912 E5.42317
G1 X113.673 Y97.965 E5.45378
G1 X114.246 Y98.04 E5.473
G1 X114.456 Y98.073 E5.48007
G1 X115.358 Y98.255 E5.51068
G1 X116.241 Y98.515 E5.54129
G1 X116.848 Y98.743 E5.56286
G1 X117.064 Y98.832 E5.57063
G1 X117.941 Y99.241 E5.60282
G1 X118.048 Y99.297 E5.60683
G1 X118.272 Y99.418 E5.6153
G1 X120.394 Y100.594 E5.69599
G1 X122.623 Y101.748 E5.77947
G1 X124.925 Y102.859 E5.86449
G1 X127.23 Y103.891 E5.94849
G1 X129.505 Y104.835 E6.03041
G1 X131.512 Y105.608 E6.10194
G1 X131.736 Y105.697 E6.10996
G1 X132.035 Y105.82 E6.12071
G1 X132.87 Y106.207 E6.15132
G1 X133.669 Y106.665 E6.18195
G1 X134.402 Y107.173 E6.21162
G1 X134.641 Y107.354 E6.22159
G1 X135.35 Y107.941 E6.2522
G1 X135.899 Y108.475 E6.27768
G1 X135.966 Y108.545 E6.2809
G1 X136.573 Y109.237 E6.31151
G1 X137.029 Y109.848 E6.33687
G1 X137.152 Y110.026 E6.34407
G1 X137.642 Y110.805 E6.37468
G1 X138.062 Y111.624 E6.40529
G1 X138.338 Y112.282 E6.42902
G1 X138.381 Y112.395 E6.43304
G1 X138.617 Y113.085 E6.4573
G1 X139.021 Y114.416 E6.50356
G1 X139.815 Y116.904 E6.59043
G1 X140.607 Y119.17 E6.67026
G1 X141.226 Y120.872 E6.7305
G1 X141.445 Y121.499 E6.75259
G1 X141.711 Y122.38 E6.7832
G1 X141.899 Y123.281 E6.81381
G1 X142.008 Y124.196 E6.84446
G1 X142.037 Y125.116 E6.87507
G1 X141.987 Y126.035 E6.90569
G1 X141.857 Y126.946 E6.93629
G1 X141.648 Y127.843 E6.96693
G1 X141.362 Y128.718 E6.99754
G1 X141.002 Y129.565 E7.02815
G1 X140.569 Y130.378 E7.05879
G1 X140.067 Y131.15 E7.08942
G1 X139.5 Y131.876 E7.12006
G1 X138.873 Y132.549 E7.15065
G1 X138.189 Y133.166 E7.18129
G1 X137.455 Y133.721 E7.21189
G1 X136.675 Y134.21 E7.24251
G1 X135.855 Y134.63 E7.27316
G1 X135.355 Y134.844 E7.29125
G1 X134.065 Y135.357 E7.33742
G1 X132.842 Y135.852 E7.3813
G1 X132.152 Y136.138 E7.40615
G1 X131.826 Y136.267 E7.41781
G1 X131.523 Y136.381 E7.42857
G1 X130.648 Y136.668 E7.4592
G1 X129.751 Y136.877 E7.48984
G1 X128.995 Y136.991 E7.51526
G1 X128.759 Y137.018 E7.52316
G1 X127.726 Y137.086 E7.5576
G1 X126.924 Y137.099 E7.58427
G1 X115.342 Y137.1 E7.96949
G1 X115.175 Y137.099 E7.97505
G1 X113.968 Y137.08 E8.0152
G1 X113.617 Y137.068 E8.02688
G1 X113.433 Y137.059 E8.03301
G1 X113.146 Y137.041 E8.04257
G1 X112.608 Y137 E8.06052
G1 X111.938 Y136.928 E8.08293
G1 X111.191 Y136.823 E8.10802
G1 X110.78 Y136.757 E8.12186
G1 X110.479 Y136.701 E8.13205
G1 X109.971 Y136.598 E8.14929
G1 X109.291 Y136.436 E8.17254
G1 X108.509 Y136.223 E8.19949
G1 X107.872 Y136.028 E8.22165
G1 X107.277 Y135.825 E8.24256
G1 X106.65 Y135.589 E8.26484
G1 X105.997 Y135.319 E8.28835
G1 X105.657 Y135.171 E8.30068
G1 X105.357 Y135.031 E8.31169
G1 X104.808 Y134.763 E8.33201
G1 X104.518 Y134.615 E8.34284
G1 X104.406 Y134.556 E8.34705
G1 X104.104 Y134.391 E8.35849
G1 X103.626 Y134.119 E8.37679
G1 X103.081 Y133.787 E8.39801
G1 X102.458 Y133.381 E8.42274
G1 X101.914 Y133.002 E8.4448
G1 X101.401 Y132.62 E8.46607
G1 X101.042 Y132.341 E8.48119
G1 X100.819 Y132.156 E8.49083
G1 X100.304 Y131.718 E8.51332
G1 X99.965 Y131.417 E8.52839
G1 X99.766 Y131.23 E8.53748
G1 X99.328 Y130.807 E8.55773
G1 X99.024 Y130.501 E8.57207
G1 X98.827 Y130.291 E8.58165
G1 X98.411 Y129.836 E8.60216
G1 X97.992 Y129.349 E8.62352
G1 X97.548 Y128.8 E8.64701
G1 X97.242 Y128.402 E8.66371
G1 X97.081 Y128.179 E8.67285
G1 X96.697 Y127.634 E8.69503
G1 X96.327 Y127.072 E8.71741
G1 X96 Y126.539 E8.73821
G1 X95.837 Y126.264 E8.74884
G1 X95.647 Y125.923 E8.76182
G1 X95.338 Y125.342 E8.78371
G1 X95.157 Y124.986 E8.79699
G1 X95.012 Y124.678 E8.80832
G1 X94.774 Y124.153 E8.82749
G1 X94.616 Y123.785 E8.84081
G1 X94.486 Y123.46 E8.85245
G1 X94.269 Y122.891 E8.8727
G1 X94.136 Y122.521 E8.88578
G1 X94.099 Y122.412 E8.88961
G1 X94.012 Y122.145 E8.89895
G1 X93.847 Y121.613 E8.91748
G1 X93.676 Y120.998 E8.93871
G1 X93.494 Y120.256 E8.96412
G1 X93.345 Y119.541 E8.98841
G1 X93.231 Y118.883 E9.01062
G1 X93.14 Y118.242 E9.03215
G1 X93.07 Y117.611 E9.05327
G1 X93.048 Y117.395 E9.06049
G1 X93.024 Y117.129 E9.06937
G1 X93 Y116.81 E9.08001
G1 X92.99 Y116.643 E9.08558
G1 X92.972 Y116.18 E9.10099
G1 X92.951 Y114.878 E9.1443
G1 X92.95 Y109.955 E9.30804
G1 X92.956 Y109.48 E9.32384
G1 X92.965 Y109.163 E9.33439
G1 X93.072 Y107.932 E9.37548
G1 X93.105 Y107.706 E9.38308
G1 X93.278 Y106.802 E9.41369
G1 X93.528 Y105.916 E9.44431
G1 X93.796 Y105.194 E9.46993
G1 X93.874 Y105.005 E9.47673
G1 X94.261 Y104.17 E9.50734
G1 X94.72 Y103.372 E9.53796
G1 X95.228 Y102.642 E9.56754
G1 X95.423 Y102.385 E9.57827
G1 X96.01 Y101.676 E9.60888
G1 X96.658 Y101.021 E9.63953
G0 F6000 X96.955 Y101.291
G1 F1200 X97.521 Y100.806 E9.66432
G1 X97.706 Y100.659 E9.67218
G1 X98.438 Y100.129 E9.70224
G1 X99.346 Y99.595 E9.73727
G1 X99.396 Y99.569 E9.73915
G1 X100.53 Y99.065 E9.78042
G1 X100.752 Y98.982 E9.7883
G1 X101.611 Y98.703 E9.81834
G1 X102.491 Y98.502 E9.84837
G1 X103.494 Y98.37 E9.88201
G1 X103.788 Y98.346 E9.89182
G1 X104.452 Y98.313 E9.91394
G1 X105.188 Y98.301 E9.93842
G1 X105.356 Y98.3 E9.94401
G1 X112.058 Y98.302 E10.16692
G1 X112.748 Y98.312 E10.18987
G1 X113.649 Y98.365 E10.21989
G1 X114.183 Y98.435 E10.2378
G1 X114.393 Y98.468 E10.24487
G1 X115.279 Y98.647 E10.27493
G1 X116.144 Y98.904 E10.30495
G1 X116.696 Y99.113 E10.32458
G1 X116.912 Y99.202 E10.33235
G1 X117.756 Y99.596 E10.36333
G1 X117.863 Y99.652 E10.36735
G1 X118.078 Y99.768 E10.37547
G1 X120.195 Y100.942 E10.45598
G1 X122.473 Y102.12 E10.54128
G1 X124.724 Y103.207 E10.62442
G1 X127.093 Y104.268 E10.71076
G1 X129.332 Y105.197 E10.79138
G1 X131.368 Y105.981 E10.86395
G1 X131.583 Y106.067 E10.87165
G1 X131.882 Y106.19 E10.8824
G1 X132.702 Y106.57 E10.91246
G1 X133.484 Y107.021 E10.94249
G1 X134.16 Y107.492 E10.96989
G1 X134.399 Y107.673 E10.97986
G1 X135.094 Y108.249 E11.00988
G1 X135.61 Y108.751 E11.03383
G1 X135.677 Y108.821 E11.03705
G1 X136.272 Y109.501 E11.0671
G1 X136.699 Y110.075 E11.0909
G1 X136.822 Y110.253 E11.0981
G1 X137.302 Y111.018 E11.12813
G1 X137.713 Y111.823 E11.1582
G1 X137.964 Y112.424 E11.17986
G1 X138.007 Y112.537 E11.18388
G1 X138.234 Y113.201 E11.20722
G1 X138.636 Y114.526 E11.25327
G1 X139.429 Y117.009 E11.33997
G1 X140.217 Y119.264 E11.41942
G1 X140.849 Y121.004 E11.48099
G1 X141.068 Y121.631 E11.50308
G1 X141.327 Y122.496 E11.53311
G1 X141.51 Y123.38 E11.56313
G1 X141.613 Y124.277 E11.59316
G1 X141.636 Y125.18 E11.62321
G1 X141.58 Y126.081 E11.65323
G1 X141.444 Y126.974 E11.68328
G1 X141.23 Y127.851 E11.7133
G1 X140.938 Y128.706 E11.74335
G1 X140.573 Y129.532 E11.77339
G1 X140.136 Y130.322 E11.80342
G1 X139.63 Y131.071 E11.83348
G1 X139.061 Y131.772 E11.86351
G1 X138.431 Y132.419 E11.89354
G1 X137.747 Y133.009 E11.92359
G1 X137.013 Y133.535 E11.95362
G1 X136.236 Y133.995 E11.98366
G1 X135.207 Y134.472 E12.02138
G1 X133.978 Y134.961 E12.06537
G1 X132.667 Y135.492 E12.11242
G1 X131.999 Y135.769 E12.13647
G1 X131.685 Y135.893 E12.1477
G1 X131.382 Y136.007 E12.15847
G1 X130.523 Y136.287 E12.18852
G1 X129.643 Y136.49 E12.21855
G1 X128.949 Y136.594 E12.24189
G1 X128.713 Y136.621 E12.24979
G1 X127.719 Y136.686 E12.28292
G1 X126.917 Y136.699 E12.3096
G1 X115.342 Y136.7 E12.69459
G1 X115.181 Y136.699 E12.69994
G1 X113.974 Y136.68 E12.74009
G1 X113.637 Y136.669 E12.75131
G1 X113.453 Y136.66 E12.75744
G1 X113.176 Y136.643 E12.76667
G1 X112.638 Y136.602 E12.78461
G1 X111.993 Y136.532 E12.80619
G1 X111.246 Y136.427 E12.83128
G1 X110.848 Y136.363 E12.84469
G1 X110.558 Y136.309 E12.8545
G1 X110.05 Y136.206 E12.87174
G1 X109.396 Y136.05 E12.8941
G1 X108.614 Y135.837 E12.92106
G1 X108.001 Y135.65 E12.94237
G1 X107.406 Y135.447 E12.96328
G1 X106.803 Y135.219 E12.98473
G1 X106.15 Y134.949 E13.00823
G1 X105.821 Y134.807 E13.02015
G1 X105.532 Y134.671 E13.03077
G1 X104.983 Y134.403 E13.05109
G1 X104.704 Y134.261 E13.0615
G1 X104.592 Y134.202 E13.06571
G1 X104.301 Y134.043 E13.07674
G1 X103.823 Y133.771 E13.09503
G1 X103.299 Y133.452 E13.11544
G1 X102.676 Y133.046 E13.14017
G1 X102.153 Y132.681 E13.16138
G1 X101.64 Y132.299 E13.18266
G1 X101.293 Y132.029 E13.19728
G1 X101.078 Y131.851 E13.20656
G1 X100.563 Y131.413 E13.22905
G1 X100.237 Y131.124 E13.24354
G1 X100.044 Y130.942 E13.25236
G1 X99.606 Y130.519 E13.27261
G1 X99.314 Y130.225 E13.2864
G1 X99.122 Y130.021 E13.29571
G1 X98.706 Y129.566 E13.31622
G1 X98.303 Y129.097 E13.33679
G1 X97.859 Y128.548 E13.36027
G1 X97.565 Y128.166 E13.3763
G1 X97.408 Y127.949 E13.38521
G1 X97.024 Y127.404 E13.40739
G1 X96.668 Y126.863 E13.42893
G1 X96.341 Y126.33 E13.44972
G1 X96.183 Y126.064 E13.46001
G1 X96 Y125.736 E13.47251
G1 X95.691 Y125.155 E13.49439
G1 X95.517 Y124.811 E13.50721
G1 X95.376 Y124.512 E13.51821
G1 X95.138 Y123.987 E13.53738
G1 X94.986 Y123.634 E13.55017
G1 X94.86 Y123.318 E13.56148
G1 X94.643 Y122.749 E13.58173
G1 X94.514 Y122.393 E13.59433
G1 X94.477 Y122.284 E13.59816
G1 X94.394 Y122.027 E13.60714
G1 X94.229 Y121.495 E13.62567
G1 X94.065 Y120.903 E13.6461
G1 X93.883 Y120.161 E13.67151
G1 X93.739 Y119.472 E13.69492
G1 X93.625 Y118.814 E13.71713
G1 X93.537 Y118.198 E13.73783
G1 X93.467 Y117.567 E13.75894
G1 X93.446 Y117.359 E13.7659
G1 X93.422 Y117.093 E13.77478
G1 X93.399 Y116.786 E13.78502
G1 X93.389 Y116.619 E13.79058
G1 X93.372 Y116.173 E13.80543
G1 X93.351 Y114.871 E13.84874
G1 X93.35 Y109.955 E14.01224
G1 X93.356 Y109.492 E14.02765
G1 X93.365 Y109.175 E14.03819
G1 X93.468 Y107.99 E14.07776
G1 X93.501 Y107.764 E14.08535
G1 X93.671 Y106.877 E14.11539
G1 X93.919 Y106.009 E14.14542
G1 X94.165 Y105.347 E14.1689
G1 X94.243 Y105.158 E14.1757
G1 X94.625 Y104.339 E14.20576
G1 X95.077 Y103.557 E14.2358
G1 X95.546 Y102.884 E14.26309
G1 X95.741 Y102.627 E14.27382
G1 X96.318 Y101.932 E14.30386
G1 X96.955 Y101.291 E14.33392
G1 F2700 E9.33392
;MESH:samla_clips.stl
G0 F6000 X104.138 Y107.887
G0 X104.563 Y108.919
G0 X112.661 Y109.3
G0 X112.777 Y109.476
G0 X113.122 Y114.072
G0 X110.978 Y114.072
G0 X110.978 Y111.072
G0 X106.122 Y111.072
G0 X106.127 Y116.035
G0 X106.376 Y117.604
G0 X106.915 Y119.097
G0 X107.725 Y120.465
