;FLAVOR:Marlin
;TIME:26312
;Filament used: 24.6288m
;Layer height: 0.2
;MINX:51.418
;MINY:26.389
;MINZ:0.2
;MAXX:183.857
;MAXY:205.47
;MAXZ:13.6
;Generated with Cura_SteamEngine 4.10.0
M140 S60
M105
M190 S60
M104 S220
M105
M109 S220
M82 ;absolute extrusion mode
; Ender 3 Custom Start G-code
G92 E0 ; Reset Extruder
G28 ; Home all axes
G1 Z2.0 F3000 ; Move Z Axis up little to prevent scratching of Heat Bed
G1 X0.1 Y20 Z0.3 F5000.0 ; Move to start position
G1 X0.1 Y200.0 Z0.3 F1500.0 E15 ; Draw the first line
G1 X0.4 Y200.0 Z0.3 F5000.0 ; Move to side a little
G1 X0.4 Y20 Z0.3 F1500.0 E30 ; Draw the second line
G92 E0 ; Reset Extruder
G1 Z2.0 F3000 ; Move Z Axis up little to prevent scratching of Heat Bed
G1 X5 Y20 Z0.3 F5000.0 ; Move over to prevent blob squish
G92 E0
G92 E0
G1 F2700 E-5
;LAYER_COUNT:68
;LAYER:0
M107
G0 F6000 X58.46 Y36.873 Z0.2
;TYPE:SKIRT
G1 F2700 E0
G1 F1200 X59.472 Y35.315 E0.06179
G1 X59.836 Y34.77 E0.08359
G1 X60.389 Y34.013 E0.11477
G1 X61.005 Y33.305 E0.14598
G1 X61.723 Y32.615 E0.1791
G1 X62.63 Y31.82 E0.21922
G1 X63.749 Y30.874 E0.26795
G1 X64.284 Y30.435 E0.29097
G1 X65.034 Y29.872 E0.32216
G1 X65.829 Y29.374 E0.35337
G1 X66.69 Y28.934 E0.38553
G1 X67.607 Y28.515 E0.41906
G1 X67.807 Y28.426 E0.42634
G1 X69.18 Y27.833 E0.47608
G1 X69.763 Y27.59 E0.49709
G1 X70.643 Y27.266 E0.52828
G1 X71.548 Y27.019 E0.55948
G1 X72.515 Y26.843 E0.59217
G1 X73.502 Y26.709 E0.6253
G1 X73.717 Y26.682 E0.63251
G1 X75.217 Y26.509 E0.68273
G1 X75.856 Y26.444 E0.70409
G1 X77.129 Y26.389 E0.74647
G1 X78.142 Y26.405 E0.78017
G1 X162.779 Y29.07 E3.5966
G1 X163.441 Y29.1 E3.61864
G1 X164.292 Y29.172 E3.64705
G1 X164.551 Y29.204 E3.65573
G1 X165.493 Y29.362 E3.6875
G1 X166.639 Y29.606 E3.72647
G1 X166.853 Y29.654 E3.73376
G1 X168.484 Y30.037 E3.78948
G1 X169.188 Y30.214 E3.81363
G1 X169.729 Y30.365 E3.83231
G1 X169.853 Y30.403 E3.83662
G1 X170.374 Y30.577 E3.85489
G1 X170.642 Y30.674 E3.86437
G1 X171.509 Y31.03 E3.89554
G1 X172.623 Y31.624 E3.93753
G1 X172.833 Y31.752 E3.94571
G1 X173.099 Y31.919 E3.95616
G1 X174.939 Y33.115 E4.02915
G1 X175.526 Y33.508 E4.05265
G1 X176.282 Y34.063 E4.08384
G1 X176.988 Y34.68 E4.11502
G1 X177.639 Y35.354 E4.14619
G1 X177.849 Y35.591 E4.15672
G1 X178.025 Y35.795 E4.16568
G1 X179.385 Y37.409 E4.23588
G1 X179.831 Y37.951 E4.25923
G1 X180.395 Y38.699 E4.29039
G1 X180.894 Y39.494 E4.32161
G1 X181.347 Y40.379 E4.35467
G1 X181.547 Y40.823 E4.37087
G1 X182.348 Y42.676 E4.43801
G1 X182.684 Y43.484 E4.46712
G1 X183.006 Y44.365 E4.49832
G1 X183.252 Y45.27 E4.52951
G1 X183.416 Y46.164 E4.55974
G1 X183.444 Y46.363 E4.56642
G1 X183.478 Y46.633 E4.57547
G1 X183.734 Y48.855 E4.64987
G1 X183.802 Y49.526 E4.6723
G1 X183.857 Y50.794 E4.71451
G1 X183.841 Y51.81 E4.74831
G1 X180.466 Y159.016 E8.31576
G1 X180.437 Y159.65 E8.33687
G1 X180.39 Y160.277 E8.35778
G1 X180.28 Y161.337 E8.39323
G1 X180.119 Y162.743 E8.4403
G1 X180.005 Y163.625 E8.46988
G1 X179.845 Y164.549 E8.50107
G1 X179.691 Y165.168 E8.52228
G1 X179.406 Y166.186 E8.55744
G1 X178.973 Y167.681 E8.60921
G1 X178.773 Y168.34 E8.63212
G1 X178.463 Y169.225 E8.66331
G1 X178.235 Y169.755 E8.68249
G1 X178.181 Y169.872 E8.68678
G1 X178.028 Y170.189 E8.69849
G1 X177.75 Y170.744 E8.71913
G1 X176.558 Y173.086 E8.80654
G1 X176.241 Y173.689 E8.8292
G1 X175.769 Y174.499 E8.86038
G1 X175.247 Y175.246 E8.89069
G1 X174.935 Y175.65 E8.90767
G1 X174.691 Y175.953 E8.9206
G1 X174.447 Y176.251 E8.93341
G1 X172.945 Y178.101 E9.01267
G1 X172.494 Y178.639 E9.03602
G1 X171.861 Y179.331 E9.06721
G1 X171.188 Y179.953 E9.09769
G1 X170.988 Y180.123 E9.10643
G1 X170.76 Y180.312 E9.11628
G1 X168.411 Y182.201 E9.21653
G1 X167.838 Y182.649 E9.24072
G1 X167.076 Y183.194 E9.27188
G1 X166.625 Y183.472 E9.2895
G1 X164.492 Y184.744 E9.3721
G1 X164.233 Y184.895 E9.38208
G1 X163.32 Y185.372 E9.41634
G1 X162.289 Y185.85 E9.45413
G1 X162.084 Y185.942 E9.46161
G1 X122.835 Y203.174 E10.88731
G1 X122.187 Y203.448 E10.91071
G1 X121.278 Y203.785 E10.94296
G1 X120.394 Y204.07 E10.97385
G1 X119.815 Y204.247 E10.99398
G1 X118.945 Y204.498 E11.0241
G1 X118.081 Y204.709 E11.05368
G1 X117.56 Y204.814 E11.07136
G1 X117.235 Y204.875 E11.08236
G1 X116.619 Y204.98 E11.10314
G1 X116.321 Y205.026 E11.11317
G1 X114.044 Y205.35 E11.18967
G1 X112.799 Y205.456 E11.23123
G1 X112.438 Y205.466 E11.24324
G1 X112.133 Y205.47 E11.25338
G1 X81.185 Y205.469 E12.28272
G1 X80.566 Y205.46 E12.30331
G1 X79.91 Y205.431 E12.32515
G1 X78.955 Y205.36 E12.357
G1 X78.168 Y205.289 E12.38328
G1 X77.306 Y205.198 E12.41211
G1 X76.702 Y205.116 E12.43238
G1 X76.247 Y205.038 E12.44774
G1 X75.931 Y204.978 E12.45844
G1 X75.661 Y204.923 E12.4676
G1 X75.059 Y204.793 E12.48808
G1 X74.118 Y204.546 E12.52044
G1 X73.178 Y204.254 E12.55318
G1 X72.974 Y204.188 E12.56031
G1 X69.607 Y203.069 E12.67832
G1 X68.969 Y202.846 E12.7008
G1 X68.098 Y202.499 E12.73198
G1 X67.26 Y202.079 E12.76316
G1 X66.76 Y201.784 E12.78247
G1 X66.358 Y201.529 E12.7983
G1 X66.045 Y201.322 E12.81078
G1 X62.781 Y199.118 E12.94178
G1 X62.196 Y198.71 E12.9655
G1 X61.451 Y198.142 E12.99666
G1 X60.756 Y197.511 E13.02788
G1 X60.327 Y197.063 E13.04851
G1 X60.024 Y196.723 E13.06366
G1 X59.791 Y196.453 E13.07552
G1 X57.281 Y193.5 E13.20442
G1 X56.803 Y192.922 E13.22937
G1 X56.237 Y192.175 E13.26054
G1 X55.736 Y191.382 E13.29174
G1 X55.451 Y190.851 E13.31178
G1 X55.348 Y190.646 E13.31941
G1 X55.224 Y190.391 E13.32884
G1 X55.084 Y190.092 E13.33983
G1 X53.442 Y186.528 E13.47034
G1 X53.145 Y185.858 E13.49472
G1 X52.802 Y184.985 E13.52591
G1 X52.526 Y184.055 E13.55818
G1 X52.423 Y183.629 E13.57276
G1 X52.336 Y183.245 E13.58585
G1 X51.962 Y181.522 E13.64449
G1 X51.789 Y180.673 E13.67331
G1 X51.611 Y179.448 E13.71448
G1 X51.574 Y178.997 E13.72953
G1 X51.548 Y178.565 E13.74393
G1 X51.449 Y176.592 E13.80963
G1 X51.422 Y175.801 E13.83596
G1 X51.418 Y175.214 E13.85548
G1 X51.431 Y174.562 E13.87717
G1 X54.748 Y69.136 E17.38539
G1 X54.765 Y68.57 E17.40422
G1 X55.3 Y47.594 E18.10211
G1 X55.328 Y46.883 E18.12578
G1 X55.404 Y45.948 E18.15698
G1 X55.561 Y45.024 E18.18815
G1 X55.708 Y44.416 E18.20896
G1 X55.869 Y43.827 E18.22927
G1 X56.341 Y42.017 E18.29148
G1 X56.542 Y41.213 E18.31905
G1 X56.72 Y40.583 E18.34082
G1 X56.885 Y40.058 E18.35912
G1 X57.204 Y39.176 E18.39032
G1 X57.597 Y38.324 E18.42153
G1 X57.961 Y37.673 E18.44633
G1 X58.188 Y37.301 E18.46083
G1 X58.46 Y36.873 E18.47769
G0 F6000 X58.796 Y37.09
G1 F1200 X59.804 Y35.537 E18.53927
G1 X60.168 Y34.992 E18.56107
G1 X60.712 Y34.249 E18.5917
G1 X61.319 Y33.556 E18.62234
G1 X61.987 Y32.915 E18.65313
G1 X62.744 Y32.25 E18.68665
G1 X63.876 Y31.29 E18.73601
G1 X64.538 Y30.745 E18.76453
G1 X65.274 Y30.192 E18.79515
G1 X66.056 Y29.706 E18.82578
G1 X66.857 Y29.298 E18.85567
G1 X67.966 Y28.793 E18.8962
G1 X69.334 Y28.202 E18.94577
G1 X69.917 Y27.959 E18.96678
G1 X70.781 Y27.642 E18.99738
G1 X71.67 Y27.401 E19.02802
G1 X72.569 Y27.239 E19.0584
G1 X73.556 Y27.105 E19.09153
G1 X73.763 Y27.079 E19.09847
G1 X75.257 Y26.907 E19.14849
G1 X75.896 Y26.842 E19.16985
G1 X77.123 Y26.789 E19.2107
G1 X78.129 Y26.805 E19.24416
G1 X162.761 Y29.47 E22.06043
G1 X163.423 Y29.5 E22.08247
G1 X164.243 Y29.569 E22.10984
G1 X164.502 Y29.601 E22.11852
G1 X165.409 Y29.753 E22.14911
G1 X166.555 Y29.997 E22.18808
G1 X166.762 Y30.043 E22.19513
G1 X168.216 Y30.383 E22.2448
G1 X169.091 Y30.602 E22.2748
G1 X169.612 Y30.747 E22.29279
G1 X169.736 Y30.785 E22.2971
G1 X170.238 Y30.953 E22.31471
G1 X170.506 Y31.05 E22.32419
G1 X171.357 Y31.4 E22.35479
G1 X172.415 Y31.966 E22.3947
G1 X172.625 Y32.094 E22.40288
G1 X172.881 Y32.255 E22.41294
G1 X174.716 Y33.448 E22.48573
G1 X175.303 Y33.841 E22.50923
G1 X176.045 Y34.386 E22.53985
G1 X176.737 Y34.993 E22.57047
G1 X177.34 Y35.619 E22.59937
G1 X177.55 Y35.856 E22.60991
G1 X177.719 Y36.053 E22.61854
G1 X179.076 Y37.663 E22.68857
G1 X179.522 Y38.205 E22.71192
G1 X180.076 Y38.94 E22.74253
G1 X180.563 Y39.721 E22.77314
G1 X180.983 Y40.545 E22.8039
G1 X181.18 Y40.982 E22.81985
G1 X182.043 Y42.981 E22.89227
G1 X182.315 Y43.637 E22.91589
G1 X182.63 Y44.502 E22.9465
G1 X182.869 Y45.391 E22.97712
G1 X183.02 Y46.22 E23.00515
G1 X183.048 Y46.419 E23.01183
G1 X183.081 Y46.679 E23.02055
G1 X183.336 Y48.895 E23.09474
G1 X183.404 Y49.566 E23.11717
G1 X183.457 Y50.788 E23.15785
G1 X183.441 Y51.797 E23.19142
G1 X180.066 Y158.997 E26.75867
G1 X180.037 Y159.631 E26.77978
G1 X179.992 Y160.236 E26.79996
G1 X179.882 Y161.292 E26.83527
G1 X179.702 Y162.857 E26.88767
G1 X179.609 Y163.573 E26.91168
G1 X179.451 Y164.48 E26.9423
G1 X179.306 Y165.06 E26.96219
G1 X179.022 Y166.075 E26.99724
G1 X178.59 Y167.564 E27.04881
G1 X178.39 Y168.223 E27.07171
G1 X178.085 Y169.092 E27.10235
G1 X177.871 Y169.587 E27.12028
G1 X177.817 Y169.704 E27.12457
G1 X177.67 Y170.01 E27.13586
G1 X177.393 Y170.562 E27.1564
G1 X176.203 Y172.899 E27.24363
G1 X175.886 Y173.502 E27.26628
G1 X175.423 Y174.298 E27.29691
G1 X174.929 Y175.003 E27.32554
G1 X174.774 Y175.206 E27.33404
G1 X174.453 Y175.611 E27.35123
G1 X172.638 Y177.844 E27.44694
G1 X172.187 Y178.382 E27.47029
G1 X171.566 Y179.061 E27.50089
G1 X170.929 Y179.649 E27.52972
G1 X170.729 Y179.819 E27.53845
G1 X170.51 Y180 E27.5479
G1 X168.165 Y181.886 E27.64799
G1 X167.592 Y182.334 E27.67219
G1 X166.843 Y182.869 E27.7028
G1 X166.42 Y183.128 E27.7193
G1 X164.291 Y184.398 E27.80175
G1 X164.032 Y184.549 E27.81172
G1 X163.152 Y185.009 E27.84475
G1 X162.121 Y185.487 E27.88255
G1 X161.923 Y185.576 E27.88977
G1 X122.679 Y202.805 E29.31528
G1 X122.031 Y203.079 E29.33868
G1 X121.156 Y203.405 E29.36973
G1 X120.272 Y203.69 E29.40062
G1 X119.559 Y203.906 E29.4254
G1 X118.835 Y204.114 E29.45046
G1 X118.002 Y204.317 E29.47897
G1 X117.481 Y204.422 E29.49665
G1 X117.168 Y204.48 E29.50724
G1 X116.552 Y204.585 E29.52802
G1 X116.264 Y204.63 E29.53772
G1 X113.987 Y204.954 E29.61421
G1 X112.788 Y205.056 E29.65424
G1 X112.427 Y205.066 E29.66625
G1 X112.133 Y205.07 E29.67603
G1 X81.191 Y205.069 E30.70516
G1 X80.572 Y205.06 E30.72575
G1 X79.94 Y205.032 E30.74679
G1 X78.805 Y204.946 E30.78465
G1 X78.036 Y204.874 E30.81034
G1 X77.348 Y204.8 E30.83336
G1 X76.767 Y204.721 E30.85286
G1 X76.322 Y204.645 E30.86787
G1 X76.006 Y204.585 E30.87857
G1 X75.746 Y204.532 E30.8874
G1 X75.144 Y204.402 E30.90788
G1 X74.236 Y204.164 E30.9391
G1 X73.296 Y203.872 E30.97184
G1 X73.1 Y203.809 E30.97869
G1 X69.896 Y202.745 E31.09098
G1 X69.101 Y202.468 E31.11898
G1 X68.246 Y202.127 E31.14959
G1 X67.424 Y201.713 E31.1802
G1 X66.973 Y201.445 E31.19765
G1 X66.578 Y201.195 E31.2132
G1 X66.269 Y200.991 E31.22552
G1 X63.145 Y198.883 E31.35086
G1 X62.425 Y198.382 E31.38004
G1 X61.694 Y197.823 E31.41064
G1 X61.013 Y197.203 E31.44128
G1 X60.624 Y196.795 E31.46002
G1 X60.326 Y196.461 E31.47491
G1 X60.095 Y196.194 E31.48666
G1 X57.589 Y193.245 E31.61537
G1 X57.111 Y192.667 E31.64032
G1 X56.556 Y191.933 E31.67092
G1 X56.067 Y191.153 E31.70154
G1 X55.808 Y190.671 E31.71974
G1 X55.705 Y190.466 E31.72737
G1 X55.482 Y189.999 E31.74459
G1 X53.807 Y186.366 E31.87764
G1 X53.51 Y185.696 E31.90202
G1 X53.174 Y184.839 E31.93264
G1 X52.914 Y183.959 E31.96316
G1 X52.813 Y183.54 E31.97749
G1 X52.727 Y183.161 E31.99042
G1 X52.325 Y181.302 E32.05368
G1 X52.181 Y180.594 E32.07771
G1 X52.009 Y179.413 E32.1174
G1 X51.994 Y179.243 E32.12308
G1 X51.974 Y178.972 E32.13212
G1 X51.948 Y178.545 E32.14634
G1 X51.849 Y176.579 E32.21182
G1 X51.822 Y175.788 E32.23814
G1 X51.818 Y175.221 E32.257
G1 X51.831 Y174.575 E32.27849
G1 X55.148 Y69.149 E35.78671
G1 X55.164 Y68.582 E35.80557
G1 X55.699 Y47.61 E36.50333
G1 X55.727 Y46.899 E36.527
G1 X55.803 Y45.981 E36.55764
G1 X55.959 Y45.074 E36.58825
G1 X56.094 Y44.521 E36.60718
G1 X56.255 Y43.932 E36.62749
G1 X56.729 Y42.114 E36.68998
G1 X56.93 Y41.31 E36.71754
G1 X57.102 Y40.703 E36.73852
G1 X57.267 Y40.178 E36.75683
G1 X57.581 Y39.312 E36.78747
G1 X57.968 Y38.477 E36.81808
G1 X58.303 Y37.879 E36.84087
G1 X58.526 Y37.514 E36.8551
G1 X58.796 Y37.09 E36.87182
G0 F6000 X59.131 Y37.308
G1 F1200 X60.137 Y35.759 E36.93325
G1 X60.501 Y35.214 E36.95505
G1 X61.035 Y34.486 E36.98508
G1 X61.632 Y33.808 E37.01512
G1 X62.251 Y33.216 E37.04361
G1 X63.008 Y32.551 E37.07713
G1 X64.135 Y31.595 E37.12628
G1 X64.792 Y31.054 E37.15459
G1 X65.515 Y30.512 E37.18464
G1 X66.282 Y30.037 E37.21465
G1 X67.023 Y29.662 E37.24227
G1 X68.125 Y29.16 E37.28254
G1 X69.488 Y28.571 E37.33193
G1 X70.071 Y28.328 E37.35294
G1 X70.919 Y28.018 E37.38297
G1 X71.791 Y27.784 E37.413
G1 X72.623 Y27.636 E37.4411
G1 X73.61 Y27.502 E37.47423
G1 X73.809 Y27.477 E37.4809
G1 X75.298 Y27.305 E37.53076
G1 X75.937 Y27.24 E37.55212
G1 X77.117 Y27.189 E37.5914
G1 X78.117 Y27.205 E37.62467
G1 X162.743 Y29.869 E40.44073
G1 X163.405 Y29.899 E40.46278
G1 X164.194 Y29.966 E40.48911
G1 X164.453 Y29.998 E40.49779
G1 X165.326 Y30.145 E40.52724
G1 X166.472 Y30.389 E40.56621
G1 X166.67 Y30.433 E40.57295
G1 X168.289 Y30.813 E40.62826
G1 X168.993 Y30.99 E40.65241
G1 X169.495 Y31.13 E40.66974
G1 X169.619 Y31.168 E40.67406
G1 X170.101 Y31.329 E40.69096
G1 X170.369 Y31.426 E40.70044
G1 X171.204 Y31.771 E40.73049
G1 X172.207 Y32.307 E40.76831
G1 X172.417 Y32.435 E40.77649
G1 X172.663 Y32.59 E40.78616
G1 X174.494 Y33.78 E40.85879
G1 X175.081 Y34.173 E40.88229
G1 X175.808 Y34.708 E40.91231
G1 X176.485 Y35.306 E40.94235
G1 X177.04 Y35.884 E40.96901
G1 X177.25 Y36.121 E40.97954
G1 X177.414 Y36.311 E40.98789
G1 X178.767 Y37.917 E41.05773
G1 X179.213 Y38.459 E41.08108
G1 X179.756 Y39.181 E41.11112
G1 X180.232 Y39.948 E41.14115
G1 X180.619 Y40.711 E41.1696
G1 X180.813 Y41.141 E41.18529
G1 X181.673 Y43.134 E41.25749
G1 X181.945 Y43.79 E41.28111
G1 X182.254 Y44.639 E41.31116
G1 X182.486 Y45.512 E41.3412
G1 X182.624 Y46.276 E41.36702
G1 X182.684 Y46.725 E41.38209
G1 X182.923 Y48.793 E41.45133
G1 X183.006 Y49.607 E41.47854
G1 X183.057 Y50.783 E41.5177
G1 X183.041 Y51.785 E41.55103
G1 X179.672 Y158.834 E45.11325
G1 X179.637 Y159.613 E45.13919
G1 X179.594 Y160.195 E45.1586
G1 X179.485 Y161.246 E45.19374
G1 X179.305 Y162.806 E45.24597
G1 X179.212 Y163.522 E45.26999
G1 X179.056 Y164.411 E45.30001
G1 X178.921 Y164.952 E45.31855
G1 X178.638 Y165.963 E45.35347
G1 X178.207 Y167.448 E45.4049
G1 X178.007 Y168.107 E45.42781
G1 X177.707 Y168.959 E45.45785
G1 X177.508 Y169.419 E45.47452
G1 X177.454 Y169.536 E45.47881
G1 X177.312 Y169.831 E45.48969
G1 X177.037 Y170.381 E45.51015
G1 X175.913 Y172.591 E45.59261
G1 X175.532 Y173.316 E45.61985
G1 X175.077 Y174.096 E45.64989
G1 X174.611 Y174.76 E45.67687
G1 X174.456 Y174.963 E45.68536
G1 X174.141 Y175.36 E45.70222
G1 X172.332 Y177.587 E45.79765
G1 X171.881 Y178.125 E45.821
G1 X171.271 Y178.79 E45.85101
G1 X170.67 Y179.344 E45.8782
G1 X170.47 Y179.514 E45.88693
G1 X170.259 Y179.688 E45.89602
G1 X167.919 Y181.571 E45.99592
G1 X167.346 Y182.019 E46.02011
G1 X166.61 Y182.543 E46.05016
G1 X166.215 Y182.785 E46.06557
G1 X164.089 Y184.053 E46.1479
G1 X163.83 Y184.204 E46.15787
G1 X162.983 Y184.646 E46.18965
G1 X161.952 Y185.124 E46.22745
G1 X161.763 Y185.209 E46.23434
G1 X122.523 Y202.437 E47.65972
G1 X121.875 Y202.711 E47.68312
G1 X121.033 Y203.024 E47.71299
G1 X119.971 Y203.365 E47.75009
G1 X119.584 Y203.482 E47.76354
G1 X118.724 Y203.729 E47.7933
G1 X117.923 Y203.925 E47.82073
G1 X117.402 Y204.03 E47.8384
G1 X117.101 Y204.086 E47.84859
G1 X116.485 Y204.191 E47.86937
G1 X116.208 Y204.234 E47.87869
G1 X113.931 Y204.558 E47.95519
G1 X112.776 Y204.656 E47.99374
G1 X112.415 Y204.666 E48.00576
G1 X112.133 Y204.67 E48.01514
G1 X81.197 Y204.669 E49.04407
G1 X80.578 Y204.66 E49.06466
G1 X79.97 Y204.633 E49.0849
G1 X78.841 Y204.548 E49.12256
G1 X78.079 Y204.477 E49.14801
G1 X77.391 Y204.403 E49.17103
G1 X76.832 Y204.327 E49.18979
G1 X76.649 Y204.297 E49.19596
G1 X76.396 Y204.252 E49.20451
G1 X76.08 Y204.192 E49.21521
G1 X75.83 Y204.141 E49.22369
G1 X75.228 Y204.011 E49.24418
G1 X74.355 Y203.782 E49.27419
G1 X73.415 Y203.49 E49.30693
G1 X73.226 Y203.429 E49.31354
G1 X69.871 Y202.314 E49.43113
G1 X69.233 Y202.091 E49.45361
G1 X68.395 Y201.755 E49.48363
G1 X67.589 Y201.347 E49.51368
G1 X67.185 Y201.106 E49.52933
G1 X66.798 Y200.861 E49.54456
G1 X66.493 Y200.659 E49.55673
G1 X63.239 Y198.462 E49.68732
G1 X62.654 Y198.054 E49.71104
