;FLAVOR:Marlin
;TIME:1438
;Filament used: 1.41899m
;Layer height: 0.28
;MINX:96.9
;MINY:96.9
;MINZ:0.28
;MAXX:138.1
;MAXY:138.1
;MAXZ:19.88
;Generated with Cura_SteamEngine 4.7.0
M140 S65
M105
M190 S65
M104 S225
M105
M109 S225
M82 ;absolute extrusion mode
; Ender 3 Custom Start G-code
G92 E0 ; Reset Extruder
G28 ; Home all axes
G1 Z2.0 F3000 ; Move Z Axis up little to prevent scratching of Heat Bed
G1 X0.1 Y20 Z0.3 F5000.0 ; Move to start position
G1 X0.1 Y200.0 Z0.3 F1500.0 E15 ; Draw the first line
G1 X0.4 Y200.0 Z0.3 F5000.0 ; Move to side a little
G1 X0.4 Y20 Z0.3 F1500.0 E30 ; Draw the second line
G92 E0 ; Reset Extruder
G1 Z2.0 F3000 ; Move Z Axis up little to prevent scratching of Heat Bed
G1 X5 Y20 Z0.3 F5000.0 ; Move over to prevent blob squish
G92 E0
G92 E0
G1 F2700 E-5
;LAYER_COUNT:71
;LAYER:0
M107
G0 F6000 X100.089 Y99.939 Z0.28
;TYPE:SKIRT
G1 F2700 E0
G1 F1200 X100.774 Y99.323 E0.0429
G1 X101.51 Y98.77 E0.08576
G1 X102.291 Y98.282 E0.12865
G1 X103.111 Y97.864 E0.1715
G1 X103.965 Y97.519 E0.21439
G1 X104.845 Y97.249 E0.25725
G1 X105.745 Y97.057 E0.3001
G1 X106.659 Y96.943 E0.34299
G1 X107.212 Y96.913 E0.36878
G1 X107.533 Y96.904 E0.38373
G1 X107.83 Y96.9 E0.39757
G1 X126.793 Y96.9 E1.28056
G1 X127.643 Y96.911 E1.32014
G1 X128.562 Y96.964 E1.36301
G1 X129.473 Y97.097 E1.40588
G1 X130.369 Y97.308 E1.44874
G1 X131.243 Y97.596 E1.49159
G1 X132.09 Y97.959 E1.5345
G1 X132.901 Y98.394 E1.57735
G1 X133.671 Y98.898 E1.6202
G1 X134.395 Y99.467 E1.66308
G1 X135.067 Y100.097 E1.70597
G1 X135.682 Y100.782 E1.74884
G1 X136.235 Y101.518 E1.79171
G1 X136.722 Y102.299 E1.83456
G1 X137.139 Y103.12 E1.87744
G1 X137.484 Y103.974 E1.92033
G1 X137.753 Y104.854 E1.96318
G1 X137.945 Y105.755 E2.00607
G1 X138.058 Y106.668 E2.04891
G1 X138.087 Y107.212 E2.07428
G1 X138.096 Y107.532 E2.08919
G1 X138.1 Y107.83 E2.10306
G1 X138.099 Y126.895 E2.99081
G1 X138.09 Y127.622 E3.02466
G1 X138.039 Y128.541 E3.06752
G1 X137.908 Y129.453 E3.11042
G1 X137.698 Y130.349 E3.15328
G1 X137.412 Y131.224 E3.19614
G1 X137.051 Y132.071 E3.23901
G1 X136.617 Y132.883 E3.28189
G1 X136.115 Y133.655 E3.32477
G1 X135.547 Y134.38 E3.36765
G1 X134.919 Y135.053 E3.41051
G1 X134.235 Y135.669 E3.45338
G1 X133.5 Y136.223 E3.49623
G1 X132.72 Y136.712 E3.5391
G1 X131.9 Y137.131 E3.58198
G1 X131.047 Y137.477 E3.62484
G1 X130.167 Y137.748 E3.66772
G1 X129.267 Y137.941 E3.71058
G1 X128.353 Y138.056 E3.75347
G1 X127.788 Y138.087 E3.77982
G1 X127.467 Y138.096 E3.79477
G1 X127.17 Y138.1 E3.80861
G1 X108.07 Y138.099 E4.69798
G1 X107.372 Y138.09 E4.73049
G1 X106.453 Y138.038 E4.77335
G1 X105.542 Y137.907 E4.8162
G1 X104.646 Y137.697 E4.85906
G1 X103.771 Y137.41 E4.90193
G1 X102.924 Y137.048 E4.94483
G1 X102.112 Y136.614 E4.9877
G1 X101.341 Y136.112 E5.03054
G1 X100.616 Y135.544 E5.07342
G1 X99.943 Y134.915 E5.11632
G1 X99.328 Y134.231 E5.15915
G1 X98.774 Y133.496 E5.20201
G1 X98.286 Y132.715 E5.24489
G1 X97.867 Y131.895 E5.28777
G1 X97.521 Y131.042 E5.33063
G1 X97.251 Y130.162 E5.37349
G1 X97.058 Y129.261 E5.4164
G1 X96.944 Y128.348 E5.45924
G1 X96.913 Y127.777 E5.48587
G1 X96.904 Y127.444 E5.50138
G1 X96.9 Y127.158 E5.5147
G1 X96.901 Y108.031 E6.40533
G1 X96.91 Y107.366 E6.4363
G1 X96.962 Y106.446 E6.47921
G1 X97.094 Y105.535 E6.52207
G1 X97.305 Y104.639 E6.56493
G1 X97.592 Y103.764 E6.60781
G1 X97.955 Y102.918 E6.65068
G1 X98.389 Y102.106 E6.69355
G1 X98.892 Y101.335 E6.73642
G1 X99.461 Y100.611 E6.77929
G1 X100.089 Y99.939 E6.82212
G0 F6000 X100.481 Y100.117
G1 F1200 X101.162 Y99.524 E6.86417
G1 X101.894 Y98.994 E6.90625
G1 X102.669 Y98.531 E6.94829
G1 X103.482 Y98.138 E6.99034
G1 X104.327 Y97.818 E7.03241
G1 X105.196 Y97.575 E7.07443
G1 X106.084 Y97.409 E7.11649
G1 X107.223 Y97.313 E7.16972
G1 X107.544 Y97.304 E7.18467
G1 X107.83 Y97.3 E7.19799
G1 X126.793 Y97.3 E8.08098
G1 X127.637 Y97.311 E8.12029
G1 X128.539 Y97.364 E8.16236
G1 X129.432 Y97.496 E8.20439
G1 X130.31 Y97.707 E8.24644
G1 X131.166 Y97.995 E8.2885
G1 X131.993 Y98.357 E8.33053
G1 X132.785 Y98.792 E8.37261
G1 X133.536 Y99.294 E8.41467
G1 X134.239 Y99.861 E8.45673
G1 X134.889 Y100.488 E8.49878
G1 X135.481 Y101.17 E8.54083
G1 X136.011 Y101.901 E8.58287
G1 X136.473 Y102.677 E8.62493
G1 X136.866 Y103.49 E8.66697
G1 X137.184 Y104.335 E8.70902
G1 X137.427 Y105.205 E8.75108
G1 X137.592 Y106.093 E8.79313
G1 X137.687 Y107.223 E8.84594
G1 X137.696 Y107.543 E8.86084
G1 X137.7 Y107.83 E8.87421
G1 X137.699 Y126.89 E9.76172
G1 X137.69 Y127.617 E9.79558
G1 X137.639 Y128.519 E9.83764
G1 X137.508 Y129.413 E9.87972
G1 X137.299 Y130.291 E9.92174
G1 X137.013 Y131.148 E9.96381
G1 X136.652 Y131.976 E10.00587
G1 X136.22 Y132.768 E10.04788
G1 X135.719 Y133.52 E10.08996
G1 X135.153 Y134.224 E10.13202
G1 X134.528 Y134.875 E10.17404
G1 X133.847 Y135.469 E10.21612
G1 X133.116 Y136 E10.25819
G1 X132.342 Y136.464 E10.30021
G1 X131.529 Y136.858 E10.34228
G1 X130.685 Y137.178 E10.38431
G1 X129.815 Y137.423 E10.4264
G1 X128.928 Y137.589 E10.46841
G1 X127.777 Y137.687 E10.5222
G1 X127.456 Y137.696 E10.53716
G1 X127.17 Y137.7 E10.55048
G1 X108.075 Y137.699 E11.43962
G1 X107.377 Y137.69 E11.47212
G1 X106.476 Y137.639 E11.51414
G1 X105.582 Y137.507 E11.55622
G1 X104.704 Y137.298 E11.59825
G1 X103.847 Y137.011 E11.64033
G1 X103.02 Y136.65 E11.68235
G1 X102.227 Y136.217 E11.72442
G1 X101.476 Y135.716 E11.76646
G1 X100.772 Y135.15 E11.80852
G1 X100.121 Y134.524 E11.85058
G1 X99.528 Y133.843 E11.89262
G1 X98.998 Y133.112 E11.93467
G1 X98.534 Y132.337 E11.97673
G1 X98.14 Y131.524 E12.0188
G1 X97.82 Y130.68 E12.06083
G1 X97.576 Y129.81 E12.1029
G1 X97.41 Y128.922 E12.14497
G1 X97.313 Y127.767 E12.19894
G1 X97.304 Y127.434 E12.21445
G1 X97.3 Y127.158 E12.2273
G1 X97.301 Y108.036 E13.1177
G1 X97.31 Y107.371 E13.14867
G1 X97.362 Y106.469 E13.19074
G1 X97.494 Y105.576 E13.23277
G1 X97.704 Y104.698 E13.27481
G1 X97.991 Y103.841 E13.31689
G1 X98.353 Y103.014 E13.35893
G1 X98.786 Y102.222 E13.40096
G1 X99.288 Y101.471 E13.44302
G1 X99.855 Y100.767 E13.48511
G1 X100.481 Y100.117 E13.52714
G1 F2700 E8.52714
;MESH:xyzCalibration_cube.stl
G0 F6000 X107.914 Y106.835
G0 X107.914 Y107.914
G0 X126.718 Y108.282
G0 X126.9 Y126.9
;TYPE:WALL-INNER
G1 F2700 E13.52714
G1 F1200 X108.1 Y126.9 E14.40254
G1 X108.1 Y108.1 E15.27795
G1 X126.9 Y108.1 E16.15336
G1 X126.9 Y126.9 E17.02876
G0 F6000 X127.3 Y127.3
;TYPE:WALL-OUTER
G1 F1200 X107.7 Y127.3 E17.94142
G1 X107.7 Y107.7 E18.85408
G1 X127.3 Y107.7 E19.76674
G1 X127.3 Y127.3 E20.67939
G0 F6000 X127.03 Y127.03
G0 X126.79 Y126.51
G0 X126.51 Y126.51
;TYPE:SKIN
G1 F1200 X108.49 Y126.51 E21.51848
G1 X108.49 Y108.49 E22.35757
G1 X126.51 Y108.49 E23.19665
G1 X126.51 Y126.51 E24.03574
G0 F6000 X126.79 Y126.51
G0 X126.79 Y108.813
G0 X126.349 Y108.813
G1 F1200 X126.186 Y108.65 E24.04648
G0 F6000 X125.621 Y108.65
G1 F1200 X126.349 Y109.378 E24.09442
G0 F6000 X126.349 Y109.944
G1 F1200 X125.055 Y108.65 E24.17963
G0 F6000 X124.489 Y108.65
G1 F1200 X126.349 Y110.51 E24.30211
G0 F6000 X126.349 Y111.075
G1 F1200 X123.923 Y108.65 E24.46184
G0 F6000 X123.358 Y108.65
G1 F1200 X126.349 Y111.641 E24.6588
G0 F6000 X126.349 Y112.207
G1 F1200 X122.792 Y108.65 E24.89303
G0 F6000 X122.226 Y108.65
G1 F1200 X126.349 Y112.772 E25.16451
G0 F6000 X126.349 Y113.338
G1 F1200 X121.661 Y108.65 E25.47322
G0 F6000 X121.095 Y108.65
G1 F1200 X126.349 Y113.904 E25.8192
G0 F6000 X126.349 Y114.469
G1 F1200 X120.529 Y108.65 E26.20243
G0 F6000 X119.964 Y108.65
G1 F1200 X126.349 Y115.035 E26.62289
G0 F6000 X126.349 Y115.601
G1 F1200 X119.398 Y108.65 E27.08063
G0 F6000 X118.832 Y108.65
G1 F1200 X126.349 Y116.167 E27.57563
G0 F6000 X126.349 Y116.732
G1 F1200 X118.267 Y108.65 E28.10785
G0 F6000 X117.701 Y108.65
G1 F1200 X126.349 Y117.298 E28.67733
G0 F6000 X126.349 Y117.864
G1 F1200 X117.135 Y108.65 E29.28409
G0 F6000 X116.57 Y108.65
G1 F1200 X126.349 Y118.429 E29.92805
G0 F6000 X126.349 Y118.995
G1 F1200 X116.004 Y108.65 E30.60929
G0 F6000 X115.438 Y108.65
G1 F1200 X126.349 Y119.561 E31.3278
G0 F6000 X126.349 Y120.126
G1 F1200 X114.873 Y108.65 E32.08351
G0 F6000 X114.307 Y108.65
G1 F1200 X126.349 Y120.692 E32.8765
G0 F6000 X126.349 Y121.258
G1 F1200 X113.741 Y108.65 E33.70676
G0 F6000 X113.175 Y108.65
G1 F1200 X126.349 Y121.823 E34.57425
G0 F6000 X126.349 Y122.389
G1 F1200 X112.61 Y108.65 E35.47899
G0 F6000 X112.044 Y108.65
G1 F1200 X126.349 Y122.955 E36.421
G0 F6000 X126.349 Y123.52
G1 F1200 X111.478 Y108.65 E37.40025
G0 F6000 X110.913 Y108.65
G1 F1200 X126.349 Y124.086 E38.41673
G0 F6000 X126.349 Y124.652
G1 F1200 X110.347 Y108.65 E39.47049
G0 F6000 X109.781 Y108.65
G1 F1200 X126.349 Y125.218 E40.56152
G0 F6000 X126.349 Y125.783
G1 F1200 X109.216 Y108.65 E41.68976
G0 F6000 X108.649 Y108.649
G1 F1200 X126.349 Y126.349 E42.85534
G0 F6000 X125.783 Y126.349
G1 F1200 X108.649 Y109.215 E43.98364
G0 F6000 X108.649 Y109.781
G1 F1200 X125.218 Y126.349 E45.0747
G0 F6000 X124.652 Y126.349
G1 F1200 X108.649 Y110.346 E46.12853
G0 F6000 X108.649 Y110.912
G1 F1200 X124.086 Y126.349 E47.14508
G0 F6000 X123.52 Y126.349
G1 F1200 X108.649 Y111.478 E48.12436
G0 F6000 X108.649 Y112.043
G1 F1200 X122.955 Y126.349 E49.06644
G0 F6000 X122.389 Y126.349
G1 F1200 X108.649 Y112.609 E49.97124
G0 F6000 X108.649 Y113.175
G1 F1200 X121.823 Y126.349 E50.83877
G0 F6000 X121.258 Y126.349
G1 F1200 X108.649 Y113.74 E51.66909
G0 F6000 X108.649 Y114.306
G1 F1200 X120.692 Y126.349 E52.46215
G0 F6000 X120.126 Y126.349
G1 F1200 X108.649 Y114.872 E53.21793
G0 F6000 X108.649 Y115.438
G1 F1200 X119.561 Y126.349 E53.93647
G0 F6000 X118.995 Y126.349
G1 F1200 X108.649 Y116.003 E54.61777
G0 F6000 X108.649 Y116.569
G1 F1200 X118.429 Y126.349 E55.2618
G0 F6000 X117.864 Y126.349
G1 F1200 X108.649 Y117.135 E55.86859
G0 F6000 X108.649 Y117.7
G1 F1200 X117.298 Y126.349 E56.43814
G0 F6000 X116.732 Y126.349
G1 F1200 X108.649 Y118.266 E56.97042
G0 F6000 X108.649 Y118.832
G1 F1200 X116.167 Y126.349 E57.46546
G0 F6000 X115.601 Y126.349
G1 F1200 X108.649 Y119.397 E57.92326
G0 F6000 X108.649 Y119.963
G1 F1200 X115.035 Y126.349 E58.34379
G0 F6000 X114.469 Y126.349
G1 F1200 X108.649 Y120.529 E58.72705
G0 F6000 X108.649 Y121.094
G1 F1200 X113.904 Y126.349 E59.0731
G0 F6000 X113.338 Y126.349
G1 F1200 X108.649 Y121.66 E59.38188
G0 F6000 X108.649 Y122.226
G1 F1200 X112.772 Y126.349 E59.65338
G0 F6000 X112.207 Y126.349
G1 F1200 X108.649 Y122.791 E59.88768
G0 F6000 X108.649 Y123.357
G1 F1200 X111.641 Y126.349 E60.08471
G0 F6000 X111.075 Y126.349
G1 F1200 X108.649 Y123.923 E60.24447
G0 F6000 X108.649 Y124.488
G1 F1200 X110.51 Y126.349 E60.36702
G0 F6000 X109.944 Y126.349
G1 F1200 X108.649 Y125.054 E60.4523
G0 F6000 X108.649 Y125.62
G1 F1200 X109.378 Y126.349 E60.5003
G0 F6000 X108.813 Y126.349
G1 F1200 X108.649 Y126.186 E60.51107
G0 F6000 X108.3 Y126.186
;MESH:NONMESH
G0 F300 X108.3 Y126.186 Z0.56
G0 F6000 X108.21 Y126.186
G0 X108.282 Y126.718
G0 X126.9 Y126.9
;TIME_ELAPSED:76.525423
;LAYER:1
M106 S85
;TYPE:WALL-INNER
;MESH:xyzCalibration_cube.stl
G1 F1350 X108.1 Y126.9 E61.38648
G1 X108.1 Y108.1 E62.26188
G1 X126.9 Y108.1 E63.13729
G1 X126.9 Y126.9 E64.0127
G0 F7500 X127.3 Y127.3
;TYPE:WALL-OUTER
G1 F1350 X107.7 Y127.3 E64.92535
G1 X107.7 Y107.7 E65.83801
G1 X127.3 Y107.7 E66.75067
G1 X127.3 Y127.3 E67.66333
G0 F7500 X127.03 Y127.03
G0 X126.79 Y126.51
G0 X126.51 Y126.51
;TYPE:SKIN
G1 F1350 X108.49 Y126.51 E68.50241
G1 X108.49 Y108.49 E69.3415
G1 X126.51 Y108.49 E70.18059
G1 X126.51 Y126.51 E71.01967
G0 F7500 X125.946 Y126.349
G1 F1350 X126.349 Y125.946 E71.04621
G0 F7500 X126.349 Y125.38
G1 F1350 X125.38 Y126.349 E71.11002
G0 F7500 X124.814 Y126.349
G1 F1350 X126.349 Y124.814 E71.21111
G0 F7500 X126.349 Y124.249
G1 F1350 X124.249 Y126.349 E71.34939
G0 F7500 X123.683 Y126.349
G1 F1350 X126.349 Y123.683 E71.52495
G0 F7500 X126.349 Y123.117
G1 F1350 X123.117 Y126.349 E71.73779
G0 F7500 X122.552 Y126.349
G1 F1350 X126.349 Y122.552 E71.98783
G0 F7500 X126.349 Y121.986
G1 F1350 X121.986 Y126.349 E72.27514
G0 F7500 X121.42 Y126.349
G1 F1350 X126.349 Y121.42 E72.59972
G0 F7500 X126.349 Y120.855
G1 F1350 X120.855 Y126.349 E72.96151
G0 F7500 X120.289 Y126.349
G1 F1350 X126.349 Y120.289 E73.36057
G0 F7500 X126.349 Y119.723
G1 F1350 X119.723 Y126.349 E73.7969
G0 F7500 X119.158 Y126.349
G1 F1350 X126.349 Y119.158 E74.27044
G0 F7500 X126.349 Y118.592
G1 F1350 X118.592 Y126.349 E74.78126
G0 F7500 X118.026 Y126.349
G1 F1350 X126.349 Y118.026 E75.32934
G0 F7500 X126.349 Y117.461
G1 F1350 X117.461 Y126.349 E75.91463
G0 F7500 X116.895 Y126.349
G1 F1350 X126.349 Y116.895 E76.53719
G0 F7500 X126.349 Y116.329
G1 F1350 X116.329 Y126.349 E77.19703
G0 F7500 X115.763 Y126.349
G1 F1350 X126.349 Y115.763 E77.89413
G0 F7500 X126.349 Y115.198
G1 F1350 X115.198 Y126.349 E78.62844
G0 F7500 X114.632 Y126.349
G1 F1350 X126.349 Y114.632 E79.40003
G0 F7500 X126.349 Y114.066
G1 F1350 X114.066 Y126.349 E80.20889
G0 F7500 X113.501 Y126.349
G1 F1350 X126.349 Y113.501 E81.05495
G0 F7500 X126.349 Y112.935
G1 F1350 X112.935 Y126.349 E81.93828
G0 F7500 X112.369 Y126.349
G1 F1350 X126.349 Y112.369 E82.85889
G0 F7500 X126.349 Y111.804
G1 F1350 X111.804 Y126.349 E83.8167
G0 F7500 X111.238 Y126.349
G1 F1350 X126.349 Y111.238 E84.81179
G0 F7500 X126.349 Y110.672
G1 F1350 X110.672 Y126.349 E85.84415
G0 F7500 X110.107 Y126.349
G1 F1350 X126.349 Y110.107 E86.91371
G0 F7500 X126.349 Y109.541
G1 F1350 X109.541 Y126.349 E88.02054
G0 F7500 X108.975 Y126.349
G1 F1350 X126.349 Y108.975 E89.16465
G0 F7500 X126.109 Y108.649
G1 F1350 X108.65 Y126.108 E90.31436
G0 F7500 X108.65 Y125.543
G1 F1350 X125.543 Y108.649 E91.42682
G0 F7500 X124.978 Y108.649
G1 F1350 X108.65 Y124.977 E92.50205
G0 F7500 X108.65 Y124.411
G1 F1350 X124.412 Y108.649 E93.54
G0 F7500 X123.846 Y108.649
G1 F1350 X108.65 Y123.846 E94.54072
G0 F7500 X108.65 Y123.28
G1 F1350 X123.281 Y108.649 E95.5042
G0 F7500 X122.715 Y108.649
G1 F1350 X108.65 Y122.714 E96.4304
G0 F7500 X108.65 Y122.149
G1 F1350 X122.149 Y108.649 E97.31937
G0 F7500 X121.584 Y108.649
G1 F1350 X108.65 Y121.583 E98.17109
G0 F7500 X108.65 Y121.017
G1 F1350 X121.018 Y108.649 E98.98554
G0 F7500 X120.452 Y108.649
G1 F1350 X108.65 Y120.452 E99.76276
G0 F7500 X108.65 Y119.886
G1 F1350 X119.887 Y108.649 E100.50274
G0 F7500 X119.321 Y108.649
G1 F1350 X108.65 Y119.32 E101.20544
G0 F7500 X108.65 Y118.755
G1 F1350 X118.755 Y108.649 E101.8709
G0 F7500 X118.19 Y108.649
G1 F1350 X108.65 Y118.189 E102.49913
G0 F7500 X108.65 Y117.623
G1 F1350 X117.624 Y108.649 E103.09008
G0 F7500 X117.058 Y108.649
G1 F1350 X108.65 Y117.057 E103.64376
G0 F7500 X108.65 Y116.492
G1 F1350 X116.493 Y108.649 E104.16024
G0 F7500 X115.927 Y108.649
G1 F1350 X108.65 Y115.926 E104.63944
G0 F7500 X108.65 Y115.36
G1 F1350 X115.361 Y108.649 E105.08137
G0 F7500 X114.795 Y108.649
G1 F1350 X108.65 Y114.795 E105.48606
G0 F7500 X108.65 Y114.229
G1 F1350 X114.23 Y108.649 E105.85352
G0 F7500 X113.664 Y108.649
G1 F1350 X108.65 Y113.663 E106.1837
G0 F7500 X108.65 Y113.098
G1 F1350 X113.098 Y108.649 E106.47664
G0 F7500 X112.533 Y108.649
G1 F1350 X108.65 Y112.532 E106.73234
G0 F7500 X108.65 Y111.966
G1 F1350 X111.967 Y108.649 E106.95077
G0 F7500 X111.401 Y108.649
G1 F1350 X108.65 Y111.401 E107.13196
G0 F7500 X108.65 Y110.835
G1 F1350 X110.836 Y108.649 E107.27591
G0 F7500 X110.27 Y108.649
G1 F1350 X108.65 Y110.269 E107.38259
G0 F7500 X108.65 Y109.704
G1 F1350 X109.704 Y108.649 E107.45203
G0 F7500 X109.139 Y108.649
G1 F1350 X108.65 Y109.138 E107.48423
G0 F7500 X108.3 Y109.138
G1 F2700 E102.48423
;MESH:NONMESH
G0 F300 X108.3 Y109.138 Z0.84
G0 F7500 X108.21 Y109.138
G0 X108.282 Y126.718
G0 X126.9 Y126.9
;TIME_ELAPSED:127.465361
;LAYER:2
M106 S170
;TYPE:WALL-INNER
;MESH:xyzCalibration_cube.stl
G1 F2700 E107.48423
G1 F1500 X108.1 Y126.9 E108.35964
G1 X108.1 Y108.1 E109.23505
G1 X126.9 Y108.1 E110.11045
G1 X126.9 Y126.9 E110.98586
G0 F9000 X127.3 Y127.3
;TYPE:WALL-OUTER
G1 F1500 X107.7 Y127.3 E111.89852
G1 X107.7 Y107.7 E112.81118
G1 X127.3 Y107.7 E113.72384
G1 X127.3 Y127.3 E114.63649
G0 F9000 X127.03 Y127.03
G0 X126.79 Y126.51
G0 X126.51 Y126.51
;TYPE:SKIN
G1 F1500 X108.49 Y126.51 E115.47558
G1 X108.49 Y108.49 E116.31467
G1 X126.51 Y108.49 E117.15375
G1 X126.51 Y126.51 E117.99284
G0 F9000 X126.79 Y126.51
