;FLAVOR:Marlin
;TIME:5966
;Filament used: 4.44544m
;Layer height: 0.28
;MINX:86.456
;MINY:86.456
;MINZ:0.28
;MAXX:148.544
;MAXY:148.544
;MAXZ:140
;Generated with Cura_SteamEngine 4.5.0
M140 S65
M105
M190 S65
M104 S215
M105
M109 S215
M82 ;absolute extrusion mode
; Ender 3 Custom Start G-code
G92 E0 ; Reset Extruder
G28 ; Home all axes
G1 Z2.0 F3000 ; Move Z Axis up little to prevent scratching of Heat Bed
G1 X0.1 Y20 Z0.3 F5000.0 ; Move to start position
G1 X0.1 Y200.0 Z0.3 F1500.0 E15 ; Draw the first line
G1 X0.4 Y200.0 Z0.3 F5000.0 ; Move to side a little
G1 X0.4 Y20 Z0.3 F1500.0 E30 ; Draw the second line
G92 E0 ; Reset Extruder
G1 Z2.0 F3000 ; Move Z Axis up little to prevent scratching of Heat Bed
G1 X5 Y20 Z0.3 F5000.0 ; Move over to prevent blob squish
G92 E0
G92 E0
G1 F2700 E-5
;LAYER_COUNT:500
;LAYER:0
M107
G0 F6000 X95.558 Y95.623 Z0.28
;TYPE:SKIRT
G1 F2700 E0
G1 F1200 X96.265 Y94.936 E0.0459
G1 X96.513 Y94.703 E0.06175
G1 X96.859 Y94.387 E0.08357
G1 X97.125 Y94.151 E0.10013
G1 X98.032 Y93.392 E0.1552
G1 X98.384 Y93.113 E0.17611
G1 X98.689 Y92.881 E0.19396
G1 X99.776 Y92.085 E0.25669
G1 X101.008 Y91.234 E0.32641
G1 X101.776 Y90.75 E0.36868
G1 X102.694 Y90.222 E0.418
G1 X103.092 Y90.003 E0.43915
G1 X103.714 Y89.682 E0.47174
G1 X104.053 Y89.515 E0.48934
G1 X104.443 Y89.332 E0.5094
G1 X105.354 Y88.932 E0.55573
G1 X106.11 Y88.621 E0.59379
G1 X106.457 Y88.485 E0.61115
G1 X106.868 Y88.332 E0.63157
G1 X107.182 Y88.221 E0.64707
G1 X108.277 Y87.856 E0.70082
G1 X109.108 Y87.608 E0.7412
G1 X109.501 Y87.5 E0.76018
G1 X109.85 Y87.411 E0.77695
G1 X110.371 Y87.286 E0.8019
G1 X110.751 Y87.201 E0.82003
G1 X111.925 Y86.963 E0.87581
G1 X112.599 Y86.848 E0.90765
G1 X113.824 Y86.678 E0.96523
G1 X114.414 Y86.613 E0.99287
G1 X115.436 Y86.527 E1.04063
G1 X115.829 Y86.501 E1.05897
G1 X116.203 Y86.483 E1.07641
G1 X116.536 Y86.472 E1.09192
G1 X117.711 Y86.456 E1.14664
G1 X118.276 Y86.463 E1.17295
G1 X119.257 Y86.504 E1.21867
G1 X120.106 Y86.564 E1.2583
G1 X120.485 Y86.598 E1.27602
G1 X121.265 Y86.684 E1.31256
G1 X122.049 Y86.789 E1.34939
G1 X122.51 Y86.861 E1.37112
G1 X123.293 Y87.003 E1.40817
G1 X123.988 Y87.142 E1.44117
G1 X124.379 Y87.227 E1.45981
G1 X125.148 Y87.414 E1.49666
G1 X125.836 Y87.596 E1.5298
G1 X126.16 Y87.687 E1.54547
G1 X126.787 Y87.878 E1.57599
G1 X127.644 Y88.16 E1.618
G1 X128.054 Y88.304 E1.63823
G1 X128.775 Y88.577 E1.67413
G1 X129.779 Y88.985 E1.72459
G1 X130.587 Y89.35 E1.76588
G1 X130.937 Y89.516 E1.78392
G1 X131.277 Y89.685 E1.8016
G1 X132.234 Y90.18 E1.85177
G1 X132.555 Y90.352 E1.86872
G1 X132.955 Y90.576 E1.89007
G1 X133.757 Y91.072 E1.93398
G1 X134.475 Y91.56 E1.9744
G1 X135.504 Y92.28 E2.03288
G1 X136.187 Y92.781 E2.07233
G1 X136.451 Y92.981 E2.08775
G1 X137.252 Y93.623 E2.13555
G1 X138.015 Y94.273 E2.18222
G1 X138.317 Y94.543 E2.20108
G1 X138.587 Y94.793 E2.21822
G1 X139.09 Y95.274 E2.25062
G1 X139.377 Y95.558 E2.26943
G1 X140.064 Y96.265 E2.31533
G1 X140.297 Y96.513 E2.33117
G1 X140.835 Y97.109 E2.36856
G1 X141.582 Y98 E2.4227
G1 X141.887 Y98.385 E2.44557
G1 X142.113 Y98.681 E2.46291
G1 X142.712 Y99.492 E2.50986
G1 X142.919 Y99.782 E2.52645
G1 X143.77 Y101.016 E2.59625
G1 X144.245 Y101.768 E2.63767
G1 X144.766 Y102.672 E2.68625
G1 X144.988 Y103.075 E2.70768
G1 X145.318 Y103.714 E2.74116
G1 X145.485 Y104.053 E2.75876
G1 X145.665 Y104.438 E2.77855
G1 X146.07 Y105.358 E2.82536
G1 X146.381 Y106.115 E2.86346
G1 X146.515 Y106.457 E2.88057
G1 X146.668 Y106.868 E2.90099
G1 X146.779 Y107.182 E2.9165
G1 X147.037 Y107.945 E2.954
G1 X147.142 Y108.273 E2.97004
G1 X147.393 Y109.112 E3.01082
G1 X147.575 Y109.794 E3.04368
G1 X147.709 Y110.347 E3.07018
G1 X147.799 Y110.751 E3.08945
G1 X148.037 Y111.925 E3.14523
G1 X148.151 Y112.595 E3.17688
G1 X148.321 Y113.817 E3.23433
G1 X148.387 Y114.413 E3.26225
G1 X148.473 Y115.438 E3.31014
G1 X148.498 Y115.81 E3.32751
G1 X148.516 Y116.171 E3.34434
G1 X148.528 Y116.526 E3.36088
G1 X148.544 Y117.717 E3.41634
G1 X148.529 Y118.569 E3.45602
G1 X148.514 Y118.934 E3.47303
G1 X148.495 Y119.261 E3.48828
G1 X148.436 Y120.092 E3.52707
G1 X148.407 Y120.428 E3.54278
G1 X148.359 Y120.899 E3.56482
G1 X148.318 Y121.25 E3.58128
G1 X148.21 Y122.053 E3.619
G1 X148.142 Y122.492 E3.63969
G1 X148.003 Y123.264 E3.67622
G1 X147.862 Y123.972 E3.70983
G1 X147.773 Y124.378 E3.72918
G1 X147.585 Y125.152 E3.76627
G1 X147.318 Y126.141 E3.81397
G1 X147.221 Y126.469 E3.8299
G1 X147.119 Y126.795 E3.84581
G1 X146.837 Y127.65 E3.88773
G1 X146.699 Y128.046 E3.90725
G1 X146.425 Y128.771 E3.94334
G1 X145.957 Y129.912 E4.00077
G1 X145.65 Y130.587 E4.0353
G1 X145.484 Y130.937 E4.05334
G1 X145.313 Y131.281 E4.07122
G1 X144.817 Y132.239 E4.12146
G1 X144.641 Y132.566 E4.13875
G1 X144.417 Y132.965 E4.16006
G1 X143.934 Y133.747 E4.20285
G1 X143.444 Y134.469 E4.24349
G1 X142.72 Y135.504 E4.3023
G1 X142.216 Y136.191 E4.34197
G1 X142.012 Y136.46 E4.3577
G1 X141.364 Y137.267 E4.40589
G1 X140.731 Y138.011 E4.45137
G1 X140.489 Y138.282 E4.46829
G1 X140.247 Y138.544 E4.4849
G1 X139.739 Y139.077 E4.51918
G1 X139.442 Y139.377 E4.53884
G1 X138.735 Y140.064 E4.58475
G1 X138.487 Y140.297 E4.60059
G1 X137.891 Y140.835 E4.63798
G1 X137.275 Y141.359 E4.67563
G1 X136.994 Y141.587 E4.69248
G1 X136.621 Y141.883 E4.71466
G1 X136.316 Y142.116 E4.73253
G1 X135.506 Y142.714 E4.77941
G1 X135.221 Y142.917 E4.7957
G1 X133.988 Y143.768 E4.86547
G1 X133.224 Y144.25 E4.90753
G1 X132.306 Y144.778 E4.95684
G1 X131.908 Y144.997 E4.97799
G1 X131.286 Y145.318 E5.01059
G1 X130.947 Y145.485 E5.02818
G1 X130.557 Y145.668 E5.04824
G1 X129.649 Y146.067 E5.09442
G1 X128.896 Y146.377 E5.13234
G1 X128.543 Y146.515 E5.14999
G1 X128.129 Y146.669 E5.17056
G1 X127.818 Y146.779 E5.18592
G1 X127.055 Y147.037 E5.22342
G1 X126.722 Y147.144 E5.23971
G1 X125.899 Y147.39 E5.27971
G1 X125.503 Y147.499 E5.29883
G1 X125.15 Y147.589 E5.3158
G1 X124.629 Y147.714 E5.34075
G1 X124.249 Y147.799 E5.35888
G1 X123.075 Y148.037 E5.41466
G1 X122.401 Y148.152 E5.44649
G1 X121.176 Y148.322 E5.50408
G1 X120.586 Y148.387 E5.53172
G1 X119.564 Y148.473 E5.57948
G1 X119.171 Y148.499 E5.59782
G1 X118.797 Y148.517 E5.61525
G1 X118.464 Y148.528 E5.63077
G1 X117.288 Y148.544 E5.68553
G1 X116.724 Y148.537 E5.71179
G1 X116.38 Y148.527 E5.72782
G1 X115.742 Y148.496 E5.75756
G1 X114.894 Y148.436 E5.79715
G1 X114.518 Y148.403 E5.81472
G1 X113.735 Y148.316 E5.85141
G1 X112.951 Y148.211 E5.88824
G1 X112.494 Y148.14 E5.90977
G1 X111.706 Y147.997 E5.94707
G1 X111.011 Y147.858 E5.98007
G1 X110.611 Y147.771 E5.99913
G1 X109.853 Y147.586 E6.03546
G1 X108.859 Y147.318 E6.0834
G1 X108.531 Y147.221 E6.09933
G1 X108.205 Y147.119 E6.11523
G1 X107.35 Y146.837 E6.15715
G1 X106.954 Y146.699 E6.17668
G1 X106.225 Y146.423 E6.21298
G1 X105.245 Y146.025 E6.26223
G1 X104.768 Y145.814 E6.28652
G1 X104.116 Y145.509 E6.32004
G1 X103.719 Y145.313 E6.34065
G1 X102.761 Y144.817 E6.39088
G1 X102.436 Y144.642 E6.40807
G1 X102.035 Y144.417 E6.42948
G1 X101.258 Y143.937 E6.47201
G1 X100.528 Y143.443 E6.51305
G1 X99.47 Y142.703 E6.57317
G1 X98.796 Y142.207 E6.61214
G1 X98.54 Y142.012 E6.62712
G1 X97.711 Y141.346 E6.67664
G1 X97.213 Y140.925 E6.70701
G1 X96.976 Y140.718 E6.72166
G1 X96.669 Y140.443 E6.74085
G1 X96.406 Y140.2 E6.75752
G1 X95.903 Y139.719 E6.78993
G1 X95.621 Y139.44 E6.8084
G1 X94.939 Y138.739 E6.85394
G1 X94.689 Y138.473 E6.87094
G1 X94.156 Y137.881 E6.90803
G1 X93.659 Y137.296 E6.94378
G1 X93.39 Y136.965 E6.96364
G1 X93.108 Y136.609 E6.98478
G1 X92.881 Y136.312 E7.00219
G1 X92.286 Y135.506 E7.04884
G1 X92.083 Y135.221 E7.06513
G1 X91.232 Y133.988 E7.13489
G1 X90.75 Y133.224 E7.17696
G1 X90.222 Y132.306 E7.22627
G1 X90.003 Y131.908 E7.24742
G1 X89.677 Y131.276 E7.28054
G1 X89.507 Y130.93 E7.29849
G1 X89.33 Y130.551 E7.31796
G1 X88.932 Y129.646 E7.364
G1 X88.621 Y128.89 E7.40206
G1 X88.487 Y128.548 E7.41917
G1 X88.333 Y128.135 E7.43969
G1 X88.218 Y127.812 E7.45566
G1 X87.961 Y127.051 E7.49306
G1 X87.858 Y126.728 E7.50885
G1 X87.601 Y125.866 E7.55073
G1 X87.484 Y125.436 E7.57148
G1 X87.4 Y125.107 E7.58729
G1 X87.284 Y124.622 E7.61051
G1 X87.201 Y124.249 E7.62831
G1 X86.963 Y123.075 E7.68408
G1 X86.848 Y122.401 E7.71592
G1 X86.678 Y121.176 E7.77351
G1 X86.613 Y120.586 E7.80115
G1 X86.527 Y119.564 E7.84891
G1 X86.502 Y119.188 E7.86645
G1 X86.483 Y118.806 E7.88426
G1 X86.471 Y118.444 E7.90113
G1 X86.456 Y117.288 E7.95496
G1 X86.463 Y116.724 E7.98122
G1 X86.475 Y116.322 E7.99995
G1 X86.521 Y115.476 E8.0394
G1 X86.601 Y114.488 E8.08556
G1 X86.686 Y113.722 E8.12145
G1 X86.793 Y112.93 E8.15866
G1 X86.926 Y112.111 E8.1973
G1 X87.003 Y111.706 E8.21649
G1 X87.142 Y111.011 E8.24949
G1 X87.229 Y110.611 E8.26856
G1 X87.416 Y109.846 E8.30523
G1 X87.687 Y108.841 E8.35369
G1 X87.779 Y108.53 E8.3688
G1 X87.881 Y108.205 E8.38466
G1 X88.163 Y107.35 E8.42658
G1 X88.301 Y106.954 E8.44611
G1 X88.579 Y106.22 E8.48265
G1 X88.988 Y105.214 E8.53322
G1 X89.194 Y104.752 E8.55678
G1 X89.491 Y104.117 E8.58942
G1 X89.687 Y103.719 E8.61008
G1 X90.183 Y102.761 E8.66031
G1 X90.364 Y102.425 E8.67808
G1 X90.593 Y102.018 E8.69983
G1 X91.072 Y101.244 E8.74221
G1 X91.559 Y100.526 E8.78261
G1 X92.28 Y99.496 E8.84115
G1 X92.784 Y98.809 E8.88083
G1 X92.988 Y98.54 E8.89655
G1 X93.635 Y97.733 E8.94471
G1 X94.267 Y96.991 E8.99009
G1 X94.541 Y96.684 E9.00926
G1 X94.804 Y96.4 E9.02728
G1 X95.28 Y95.903 E9.05932
G1 X95.558 Y95.623 E9.0777
G0 F6000 X95.837 Y95.91
G1 F1200 X96.544 Y95.223 E9.1236
G1 X96.783 Y94.998 E9.13888
G1 X97.129 Y94.682 E9.1607
G1 X97.385 Y94.455 E9.17664
G1 X98.281 Y93.706 E9.23101
G1 X98.633 Y93.427 E9.25193
G1 X98.926 Y93.203 E9.2691
G1 X100.004 Y92.414 E9.33131
G1 X101.236 Y91.563 E9.40103
G1 X101.975 Y91.096 E9.44174
G1 X102.893 Y90.568 E9.49105
G1 X103.277 Y90.358 E9.51143
G1 X103.891 Y90.041 E9.5436
G1 X104.23 Y89.874 E9.5612
G1 X104.606 Y89.698 E9.58053
G1 X105.506 Y89.302 E9.62632
G1 X106.262 Y88.991 E9.66438
G1 X106.597 Y88.86 E9.68113
G1 X107.008 Y88.707 E9.70155
G1 X107.311 Y88.6 E9.71651
G1 X108.393 Y88.239 E9.76963
G1 X109.214 Y87.994 E9.80952
G1 X109.607 Y87.886 E9.8285
G1 X109.943 Y87.8 E9.84465
G1 X110.464 Y87.675 E9.8696
G1 X110.831 Y87.593 E9.88711
G1 X112.005 Y87.355 E9.94289
G1 X112.654 Y87.245 E9.97354
G1 X113.879 Y87.075 E10.03113
G1 X114.447 Y87.011 E10.05774
G1 X115.469 Y86.925 E10.1055
G1 X115.848 Y86.9 E10.12319
G1 X116.222 Y86.882 E10.14062
G1 X116.543 Y86.872 E10.15557
G1 X117.706 Y86.856 E10.20973
G1 X118.271 Y86.863 E10.23604
G1 X119.229 Y86.903 E10.28069
G1 X120.078 Y86.963 E10.32032
G1 X120.443 Y86.995 E10.33738
G1 X121.212 Y87.081 E10.37342
G1 X121.996 Y87.186 E10.41025
G1 X122.44 Y87.255 E10.43117
G1 X123.215 Y87.395 E10.46784
G1 X123.91 Y87.534 E10.50085
G1 X124.286 Y87.616 E10.51876
G1 X125.046 Y87.8 E10.55518
G1 X125.734 Y87.982 E10.58831
G1 X126.372 Y88.167 E10.61925
G1 X126.662 Y88.258 E10.6334
G1 X127.519 Y88.54 E10.67541
G1 X127.914 Y88.679 E10.69491
G1 X128.627 Y88.948 E10.73039
G1 X129.32 Y89.226 E10.76516
G1 X129.99 Y89.515 E10.79914
G1 X130.765 Y89.878 E10.83899
G1 X131.093 Y90.04 E10.85602
G1 X132.05 Y90.535 E10.90619
G1 X132.359 Y90.701 E10.92252
G1 X132.759 Y90.925 E10.94387
G1 X133.532 Y91.403 E10.98619
G1 X134.246 Y91.888 E11.02638
G1 X135.268 Y92.603 E11.08446
G1 X135.951 Y93.104 E11.1239
G1 X136.205 Y93.297 E11.13876
G1 X136.994 Y93.929 E11.18583
G1 X137.748 Y94.571 E11.23194
G1 X138.05 Y94.841 E11.25081
G1 X138.311 Y95.082 E11.26735
G1 X138.814 Y95.563 E11.29975
G1 X139.09 Y95.837 E11.31786
G1 X139.777 Y96.544 E11.36377
G1 X140.002 Y96.783 E11.37905
G1 X140.532 Y97.37 E11.41588
G1 X141.269 Y98.249 E11.46929
G1 X141.574 Y98.634 E11.49216
G1 X141.791 Y98.918 E11.50881
G1 X142.39 Y99.729 E11.55575
G1 X142.59 Y100.009 E11.57177
G1 X143.441 Y101.243 E11.64157
G1 X143.899 Y101.968 E11.6815
G1 X144.42 Y102.872 E11.73009
G1 X144.633 Y103.26 E11.7507
G1 X144.959 Y103.891 E11.78377
G1 X145.126 Y104.23 E11.80137
G1 X145.3 Y104.6 E11.82041
G1 X145.7 Y105.51 E11.86669
G1 X146.011 Y106.267 E11.9048
G1 X146.14 Y106.597 E11.9213
G1 X146.293 Y107.008 E11.94172
G1 X146.4 Y107.311 E11.95668
G1 X146.76 Y108.389 E12.0096
G1 X147.007 Y109.218 E12.04988
G1 X147.186 Y109.888 E12.08218
G1 X147.32 Y110.441 E12.10867
G1 X147.407 Y110.831 E12.12728
G1 X147.645 Y112.005 E12.18306
G1 X147.755 Y112.65 E12.21352
G1 X147.925 Y113.872 E12.27097
G1 X147.989 Y114.447 E12.29791
G1 X148.075 Y115.472 E12.34581
G1 X148.099 Y115.83 E12.36252
G1 X148.117 Y116.191 E12.37935
G1 X148.128 Y116.533 E12.39528
G1 X148.144 Y117.712 E12.45018
G1 X148.129 Y118.552 E12.4893
G1 X148.114 Y118.917 E12.50631
G1 X148.096 Y119.233 E12.52105
G1 X148.009 Y120.388 E12.57499
G1 X147.961 Y120.859 E12.59703
G1 X147.921 Y121.197 E12.61288
G1 X147.813 Y122 E12.65061
G1 X147.748 Y122.422 E12.67049
G1 X147.611 Y123.186 E12.70663
G1 X147.47 Y123.894 E12.74025
G1 X147.384 Y124.286 E12.75893
G1 X147.199 Y125.05 E12.79554
G1 X146.935 Y126.028 E12.84271
G1 X146.74 Y126.67 E12.87395
G1 X146.458 Y127.525 E12.91587
G1 X146.324 Y127.906 E12.93468
G1 X146.054 Y128.622 E12.97031
G1 X145.59 Y129.753 E13.02723
G1 X145.496 Y129.966 E13.03807
G1 X145.122 Y130.765 E13.07915
G1 X144.958 Y131.097 E13.0964
G1 X144.462 Y132.055 E13.14663
G1 X144.292 Y132.37 E13.1633
G1 X144.068 Y132.769 E13.1846
G1 X143.602 Y133.523 E13.22588
G1 X143.116 Y134.24 E13.26621
G1 X142.398 Y135.267 E13.32456
G1 X141.894 Y135.954 E13.36423
G1 X141.697 Y136.214 E13.37942
G1 X141.059 Y137.009 E13.42689
G1 X140.432 Y137.744 E13.47187
G1 X140.19 Y138.015 E13.48879
G1 X139.957 Y138.268 E13.50481
G1 X139.449 Y138.801 E13.53909
G1 X139.163 Y139.09 E13.55803
G1 X138.456 Y139.777 E13.60393
G1 X138.217 Y140.002 E13.61921
G1 X137.63 Y140.532 E13.65604
G1 X137.023 Y141.049 E13.69317
G1 X136.372 Y141.569 E13.73196
G1 X136.079 Y141.794 E13.74917
G1 X135.269 Y142.392 E13.79605
G1 X134.994 Y142.588 E13.81177
G1 X133.761 Y143.439 E13.88153
G1 X133.025 Y143.904 E13.92207
G1 X132.107 Y144.432 E13.97138
G1 X131.723 Y144.642 E13.99176
G1 X131.109 Y144.959 E14.02394
G1 X130.77 Y145.126 E14.04154
G1 X130.394 Y145.302 E14.06087
G1 X129.496 Y145.697 E14.10655
G1 X128.743 Y146.007 E14.14447
G1 X128.404 Y146.14 E14.16142
G1 X127.99 Y146.294 E14.18199
G1 X127.689 Y146.4 E14.19685
G1 X126.606 Y146.761 E14.25001
G1 X125.793 Y147.004 E14.28952
G1 X125.397 Y147.113 E14.30864
G1 X125.057 Y147.2 E14.32499
G1 X124.536 Y147.325 E14.34993
G1 X124.169 Y147.407 E14.36745
G1 X122.995 Y147.645 E14.42322
G1 X122.346 Y147.755 E14.45387
G1 X121.121 Y147.925 E14.51146
G1 X120.553 Y147.989 E14.53808
G1 X119.531 Y148.075 E14.58584
G1 X119.152 Y148.1 E14.60352
G1 X118.778 Y148.118 E14.62096
G1 X118.457 Y148.128 E14.63591
G1 X117.293 Y148.144 E14.69012
G1 X116.398 Y148.128 E14.7318
G1 X115.77 Y148.097 E14.76108
G1 X114.922 Y148.037 E14.80066
G1 X114.56 Y148.005 E14.81758
G1 X113.788 Y147.919 E14.85375
G1 X113.004 Y147.814 E14.89059
G1 X112.563 Y147.746 E14.91136
G1 X111.784 Y147.605 E14.94823
G1 X111.089 Y147.466 E14.98123
G1 X110.704 Y147.382 E14.99958
G1 X109.955 Y147.2 E15.03547
G1 X108.972 Y146.935 E15.08288
G1 X108.33 Y146.74 E15.11412
G1 X107.475 Y146.458 E15.15604
G1 X107.094 Y146.324 E15.17485
G1 X106.373 Y146.052 E15.21073
G1 X105.404 Y145.659 E15.25942
G1 X105.206 Y145.573 E15.26947
G1 X104.938 Y145.451 E15.28318
G1 X104.286 Y145.146 E15.3167
G1 X103.903 Y144.958 E15.33657
G1 X102.945 Y144.462 E15.3868
G1 X102.632 Y144.293 E15.40336
G1 X102.231 Y144.068 E15.42477
G1 X101.482 Y143.606 E15.46575
G1 X100.756 Y143.114 E15.50659
G1 X99.707 Y142.38 E15.5662
G1 X98.786 Y141.697 E15.6196
G1 X97.97 Y141.041 E15.66835
G1 X97.242 Y140.421 E15.71287
G1 X96.935 Y140.146 E15.73207
G1 X96.682 Y139.911 E15.74815
G1 X96.179 Y139.43 E15.78055
G1 X95.907 Y139.161 E15.79837
G1 X95.225 Y138.46 E15.84391
G1 X94.985 Y138.204 E15.86025
G1 X94.46 Y137.62 E15.89681
G1 X93.969 Y137.043 E15.93209
G1 X93.704 Y136.717 E15.95165
G1 X93.422 Y136.361 E15.9728
G1 X93.203 Y136.074 E15.98961
G1 X92.608 Y135.268 E16.03626
G1 X92.412 Y134.994 E16.05195
G1 X91.561 Y133.761 E16.12171
G1 X91.096 Y133.025 E16.16225
G1 X90.568 Y132.107 E16.21156
G1 X90.358 Y131.723 E16.23194
G1 X90.036 Y131.099 E16.26463
G1 X89.866 Y130.753 E16.28259
