;FLAVOR:Marlin
;TIME:15424
;Filament used: 18.4016m
;Layer height: 0.28
;MINX:68.95
;MINY:68.95
;MINZ:0.28
;MAXX:166.05
;MAXY:166.05
;MAXZ:35
;Generated with Cura_SteamEngine 4.9.1
M140 S55
M105
M190 S55
M104 S215
M105
M109 S215
M82 ;absolute extrusion mode
; Ender 3 Custom Start G-code
G92 E0 ; Reset Extruder
G28 ; Home all axes
G1 Z2.0 F3000 ; Move Z Axis up little to prevent scratching of Heat Bed
G1 X0.1 Y20 Z0.3 F5000.0 ; Move to start position
G1 X0.1 Y200.0 Z0.3 F1500.0 E15 ; Draw the first line
G1 X0.4 Y200.0 Z0.3 F5000.0 ; Move to side a little
G1 X0.4 Y20 Z0.3 F1500.0 E30 ; Draw the second line
G92 E0 ; Reset Extruder
G1 Z2.0 F3000 ; Move Z Axis up little to prevent scratching of Heat Bed
G1 X5 Y20 Z0.3 F5000.0 ; Move over to prevent blob squish
G92 E0
G92 E0
G1 F2700 E-5
;LAYER_COUNT:125
;LAYER:0
M107
;MESH:LegoToiletPaperHolder_scaleddown.stl
G0 F6000 X164.456 Y165.65 Z0.28
;TYPE:WALL-INNER
G1 F2700 E0
G1 F1200 X70.539 Y165.65 E4.37317
G1 X70.123 Y165.576 E4.39284
G1 X69.769 Y165.372 E4.41187
G1 X69.51 Y165.064 E4.43061
G1 X69.37 Y164.675 E4.44986
G1 X69.35 Y164.456 E4.4601
G1 X69.35 Y70.542 E8.83313
G1 X69.424 Y70.119 E8.85312
G1 X69.629 Y69.768 E8.87205
G1 X69.939 Y69.508 E8.89089
G1 X70.325 Y69.37 E8.90998
G1 X70.544 Y69.35 E8.92022
G1 X164.461 Y69.35 E13.29339
G1 X164.881 Y69.424 E13.31325
G1 X165.232 Y69.629 E13.33217
G1 X165.493 Y69.943 E13.35119
G1 X165.63 Y70.327 E13.37017
G1 X165.65 Y70.544 E13.38032
G1 X165.65 Y164.461 E17.75349
G1 X165.576 Y164.877 E17.77316
G1 X165.372 Y165.231 E17.79219
G1 X165.057 Y165.493 E17.81126
G1 X164.673 Y165.63 E17.83025
G1 X164.456 Y165.65 E17.8404
G0 F6000 X164.47 Y166.05
;TYPE:WALL-OUTER
G1 F1200 X70.525 Y166.05 E22.21487
G1 X70.246 Y166.025 E22.22791
G1 X69.983 Y165.953 E22.24061
G1 X69.733 Y165.835 E22.25348
G1 X69.508 Y165.677 E22.26628
G1 X69.315 Y165.483 E22.27903
G1 X69.161 Y165.263 E22.29153
G1 X69.042 Y165.003 E22.30485
G1 X68.975 Y164.746 E22.31721
G1 X68.95 Y164.47 E22.33012
G1 X68.95 Y70.53 E26.70436
G1 X68.975 Y70.246 E26.71763
G1 X69.047 Y69.981 E26.73042
G1 X69.163 Y69.734 E26.74313
G1 X69.322 Y69.509 E26.75595
G1 X69.517 Y69.315 E26.76876
G1 X69.737 Y69.161 E26.78127
G1 X69.993 Y69.043 E26.79439
G1 X70.254 Y68.975 E26.80695
G1 X70.53 Y68.95 E26.81986
G1 X164.475 Y68.95 E31.19433
G1 X164.754 Y68.975 E31.20737
G1 X165.019 Y69.047 E31.22016
G1 X165.266 Y69.163 E31.23287
G1 X165.491 Y69.322 E31.24569
G1 X165.685 Y69.517 E31.2585
G1 X165.841 Y69.742 E31.27125
G1 X165.955 Y69.989 E31.28392
G1 X166.025 Y70.254 E31.29668
G1 X166.05 Y70.53 E31.30959
G1 X166.05 Y164.475 E35.68406
G1 X166.025 Y164.754 E35.6971
G1 X165.953 Y165.017 E35.7098
G1 X165.835 Y165.267 E35.72267
G1 X165.677 Y165.492 E35.73547
G1 X165.483 Y165.685 E35.74822
G1 X165.258 Y165.841 E35.76096
G1 X165.011 Y165.955 E35.77363
G1 X164.746 Y166.025 E35.78639
G1 X164.47 Y166.05 E35.7993
G0 F6000 X164.451 Y165.611
G0 X164.442 Y165.26
;TYPE:SKIN
G1 F1200 X70.573 Y165.26 E40.17023
G1 X70.259 Y165.204 E40.18508
G1 X70.024 Y165.069 E40.1977
G1 X69.853 Y164.865 E40.2101
G1 X69.754 Y164.588 E40.2238
G1 X69.74 Y164.442 E40.23063
G1 X69.74 Y70.575 E44.60147
G1 X69.796 Y70.257 E44.6165
G1 X69.932 Y70.023 E44.6291
G1 X70.137 Y69.85 E44.6416
G1 X70.41 Y69.754 E44.65507
G1 X70.557 Y69.74 E44.66195
G1 X164.427 Y69.74 E49.03293
G1 X164.745 Y69.796 E49.04796
G1 X164.977 Y69.931 E49.06046
G1 X165.15 Y70.139 E49.07306
G1 X165.246 Y70.411 E49.08649
G1 X165.26 Y70.558 E49.09337
G1 X165.26 Y164.427 E53.4643
G1 X165.204 Y164.74 E53.47911
G1 X165.069 Y164.975 E53.49173
G1 X164.859 Y165.15 E53.50445
G1 X164.589 Y165.246 E53.5178
G1 X164.442 Y165.26 E53.52467
G1 F2700 E48.52467
G0 F6000 X164.442 Y165.54
G0 X70.629 Y165.54
G0 X70.629 Y165.098
G1 F2700 E53.52467
G1 F1200 X69.899 Y164.369 E53.57271
G0 F6000 X69.899 Y163.803
G1 F1200 X71.195 Y165.098 E53.65802
G0 F6000 X71.76 Y165.098
G1 F1200 X69.899 Y163.237 E53.78057
G0 F6000 X69.899 Y162.672
G1 F1200 X72.326 Y165.098 E53.94036
G0 F6000 X72.892 Y165.098
G1 F1200 X69.899 Y162.106 E54.13742
G0 F6000 X69.899 Y161.54
G1 F1200 X73.457 Y165.098 E54.37172
G0 F6000 X74.023 Y165.098
G1 F1200 X69.899 Y160.974 E54.6433
G0 F6000 X69.899 Y160.409
G1 F1200 X74.589 Y165.098 E54.95211
G0 F6000 X75.154 Y165.098
G1 F1200 X69.899 Y159.843 E55.29816
G0 F6000 X69.899 Y159.277
G1 F1200 X75.72 Y165.098 E55.68148
G0 F6000 X76.286 Y165.098
G1 F1200 X69.899 Y158.712 E56.10204
G0 F6000 X69.899 Y158.146
G1 F1200 X76.851 Y165.098 E56.55984
G0 F6000 X77.417 Y165.098
G1 F1200 X69.899 Y157.58 E57.05492
G0 F6000 X69.899 Y157.015
G1 F1200 X77.983 Y165.098 E57.58723
G0 F6000 X78.548 Y165.098
G1 F1200 X69.899 Y156.449 E58.15678
G0 F6000 X69.899 Y155.883
G1 F1200 X79.114 Y165.098 E58.7636
G0 F6000 X79.68 Y165.098
G1 F1200 X69.899 Y155.318 E59.40767
G0 F6000 X69.899 Y154.752
G1 F1200 X80.246 Y165.098 E60.089
G0 F6000 X80.811 Y165.098
G1 F1200 X69.899 Y154.186 E60.80758
G0 F6000 X69.899 Y153.621
G1 F1200 X81.377 Y165.098 E61.56339
G0 F6000 X81.943 Y165.098
G1 F1200 X69.899 Y153.055 E62.35647
G0 F6000 X69.899 Y152.489
G1 F1200 X82.508 Y165.098 E63.1868
G0 F6000 X83.074 Y165.098
G1 F1200 X69.899 Y151.924 E64.05436
G0 F6000 X69.899 Y151.358
G1 F1200 X83.64 Y165.098 E64.9592
G0 F6000 X84.205 Y165.098
G1 F1200 X69.899 Y150.792 E65.90127
G0 F6000 X69.899 Y150.226
G1 F1200 X84.771 Y165.098 E66.88062
G0 F6000 X85.337 Y165.098
G1 F1200 X69.899 Y149.661 E67.8972
G0 F6000 X69.899 Y149.095
G1 F1200 X85.902 Y165.098 E68.95103
G0 F6000 X86.468 Y165.098
G1 F1200 X69.899 Y148.529 E70.04213
G0 F6000 X69.899 Y147.964
G1 F1200 X87.034 Y165.098 E71.17046
G0 F6000 X87.599 Y165.098
G1 F1200 X69.899 Y147.398 E72.33604
G0 F6000 X69.899 Y146.832
G1 F1200 X88.165 Y165.098 E73.53888
G0 F6000 X88.731 Y165.098
G1 F1200 X69.899 Y146.267 E74.77897
G0 F6000 X69.899 Y145.701
G1 F1200 X89.296 Y165.098 E76.0563
G0 F6000 X89.862 Y165.098
G1 F1200 X69.899 Y145.135 E77.37089
G0 F6000 X69.899 Y144.57
G1 F1200 X90.428 Y165.098 E78.72273
G0 F6000 X90.994 Y165.098
G1 F1200 X69.899 Y144.004 E80.11184
G0 F6000 X69.899 Y143.438
G1 F1200 X91.559 Y165.098 E81.53819
G0 F6000 X92.125 Y165.098
G1 F1200 X69.899 Y142.873 E83.00177
G0 F6000 X69.899 Y142.307
G1 F1200 X92.691 Y165.098 E84.50263
G0 F6000 X93.256 Y165.098
G1 F1200 X69.899 Y141.741 E86.04073
G0 F6000 X69.899 Y141.175
G1 F1200 X93.822 Y165.098 E87.6161
G0 F6000 X94.388 Y165.098
G1 F1200 X69.899 Y140.61 E89.22871
G0 F6000 X69.899 Y140.044
G1 F1200 X94.953 Y165.098 E90.87856
G0 F6000 X95.519 Y165.098
G1 F1200 X69.899 Y139.478 E92.56568
G0 F6000 X69.899 Y138.913
G1 F1200 X96.085 Y165.098 E94.29004
G0 F6000 X96.65 Y165.098
G1 F1200 X69.899 Y138.347 E96.05164
G0 F6000 X69.899 Y137.781
G1 F1200 X97.216 Y165.098 E97.85051
G0 F6000 X97.782 Y165.098
G1 F1200 X69.899 Y137.216 E99.68662
G0 F6000 X69.899 Y136.65
G1 F1200 X98.347 Y165.098 E101.55997
G0 F6000 X98.913 Y165.098
G1 F1200 X69.899 Y136.084 E103.47059
G0 F6000 X69.899 Y135.519
G1 F1200 X99.479 Y165.098 E105.41845
G0 F6000 X100.045 Y165.098
G1 F1200 X69.899 Y134.953 E107.40359
G0 F6000 X69.899 Y134.387
G1 F1200 X100.61 Y165.098 E109.42596
G0 F6000 X101.176 Y165.098
G1 F1200 X69.899 Y133.822 E111.48557
G0 F6000 X69.899 Y133.256
G1 F1200 X101.742 Y165.098 E113.58245
G0 F6000 X102.307 Y165.098
G1 F1200 X69.899 Y132.69 E115.71657
G0 F6000 X69.899 Y132.125
G1 F1200 X102.873 Y165.098 E117.88793
G0 F6000 X103.439 Y165.098
G1 F1200 X69.899 Y131.559 E120.09657
G0 F6000 X69.899 Y130.993
G1 F1200 X104.004 Y165.098 E122.34244
G0 F6000 X104.57 Y165.098
G1 F1200 X69.899 Y130.427 E124.62559
G0 F6000 X69.899 Y129.862
G1 F1200 X105.136 Y165.098 E126.94597
G0 F6000 X105.701 Y165.098
G1 F1200 X69.899 Y129.296 E129.30359
G0 F6000 X69.899 Y128.73
G1 F1200 X106.267 Y165.098 E131.69849
G0 F6000 X106.833 Y165.098
G1 F1200 X69.899 Y128.165 E134.13062
G0 F6000 X69.899 Y127.599
G1 F1200 X107.398 Y165.098 E136.59999
G0 F6000 X107.964 Y165.098
G1 F1200 X69.899 Y127.033 E139.10664
G0 F6000 X69.899 Y126.468
G1 F1200 X108.53 Y165.098 E141.65052
G0 F6000 X109.095 Y165.098
G1 F1200 X69.899 Y125.902 E144.23165
G0 F6000 X69.899 Y125.336
G1 F1200 X109.661 Y165.098 E146.85004
G0 F6000 X110.227 Y165.098
G1 F1200 X69.899 Y124.771 E149.50568
G0 F6000 X69.899 Y124.205
G1 F1200 X110.793 Y165.098 E152.19858
G0 F6000 X111.358 Y165.098
G1 F1200 X69.899 Y123.639 E154.92873
G0 F6000 X69.899 Y123.074
G1 F1200 X111.924 Y165.098 E157.69612
G0 F6000 X112.49 Y165.098
G1 F1200 X69.899 Y122.508 E160.50077
G0 F6000 X69.899 Y121.942
G1 F1200 X113.055 Y165.098 E163.34267
G0 F6000 X113.621 Y165.098
G1 F1200 X69.899 Y121.377 E166.2218
G0 F6000 X69.899 Y120.811
G1 F1200 X114.187 Y165.098 E169.13821
G0 F6000 X114.752 Y165.098
G1 F1200 X69.899 Y120.245 E172.09186
G0 F6000 X69.899 Y119.679
G1 F1200 X115.318 Y165.098 E175.08278
G0 F6000 X115.884 Y165.098
G1 F1200 X69.899 Y119.114 E178.11093
G0 F6000 X69.899 Y118.548
G1 F1200 X116.449 Y165.098 E181.17633
G0 F6000 X117.015 Y165.098
G1 F1200 X69.899 Y117.982 E184.279
G0 F6000 X69.899 Y117.417
G1 F1200 X117.581 Y165.098 E187.41891
G0 F6000 X118.146 Y165.098
G1 F1200 X69.899 Y116.851 E190.59606
G0 F6000 X69.899 Y116.285
G1 F1200 X118.712 Y165.098 E193.81048
G0 F6000 X119.278 Y165.098
G1 F1200 X69.899 Y115.72 E197.06213
G0 F6000 X69.899 Y115.154
G1 F1200 X119.843 Y165.098 E200.35103
G0 F6000 X120.409 Y165.098
G1 F1200 X69.899 Y114.588 E203.6772
G0 F6000 X69.899 Y114.023
G1 F1200 X120.975 Y165.098 E207.04061
G0 F6000 X121.541 Y165.098
G1 F1200 X69.899 Y113.457 E210.44129
G0 F6000 X69.899 Y112.891
G1 F1200 X122.106 Y165.098 E213.87921
G0 F6000 X122.672 Y165.098
G1 F1200 X69.899 Y112.326 E217.35437
G0 F6000 X69.899 Y111.76
G1 F1200 X123.238 Y165.098 E220.8668
G0 F6000 X123.803 Y165.098
G1 F1200 X69.899 Y111.194 E224.41647
G0 F6000 X69.899 Y110.628
G1 F1200 X124.369 Y165.098 E228.00342
G0 F6000 X124.935 Y165.098
G1 F1200 X69.899 Y110.063 E231.6276
G0 F6000 X69.899 Y109.497
G1 F1200 X125.5 Y165.098 E235.28902
G0 F6000 X126.066 Y165.098
G1 F1200 X69.899 Y108.931 E238.98771
G0 F6000 X69.899 Y108.366
G1 F1200 X126.632 Y165.098 E242.72364
G0 F6000 X127.197 Y165.098
G1 F1200 X69.899 Y107.8 E246.49681
G0 F6000 X69.899 Y107.234
G1 F1200 X127.763 Y165.098 E250.30726
G0 F6000 X128.329 Y165.098
G1 F1200 X69.899 Y106.669 E254.15494
G0 F6000 X69.899 Y106.103
G1 F1200 X128.894 Y165.098 E258.03986
G0 F6000 X129.46 Y165.098
G1 F1200 X69.899 Y105.537 E261.96205
G0 F6000 X69.899 Y104.972
G1 F1200 X130.026 Y165.098 E265.92149
G0 F6000 X130.592 Y165.098
G1 F1200 X69.899 Y104.406 E269.91819
G0 F6000 X69.899 Y103.84
G1 F1200 X131.157 Y165.098 E273.95214
G0 F6000 X131.723 Y165.098
G1 F1200 X69.899 Y103.275 E278.02332
G0 F6000 X69.899 Y102.709
G1 F1200 X132.289 Y165.098 E282.13177
G0 F6000 X132.854 Y165.098
G1 F1200 X69.899 Y102.143 E286.27747
G0 F6000 X69.899 Y101.578
G1 F1200 X133.42 Y165.098 E290.4604
G0 F6000 X133.986 Y165.098
G1 F1200 X69.899 Y101.012 E294.68061
G0 F6000 X69.899 Y100.446
G1 F1200 X134.551 Y165.098 E298.93805
G0 F6000 X135.117 Y165.098
G1 F1200 X69.899 Y99.88 E303.23277
G0 F6000 X69.899 Y99.315
G1 F1200 X135.683 Y165.098 E307.56472
G0 F6000 X136.248 Y165.098
G1 F1200 X69.899 Y98.749 E311.93392
G0 F6000 X69.899 Y98.183
G1 F1200 X136.814 Y165.098 E316.34039
G0 F6000 X137.38 Y165.098
G1 F1200 X69.899 Y97.618 E320.78409
G0 F6000 X69.899 Y97.052
G1 F1200 X137.945 Y165.098 E325.26504
G0 F6000 X138.511 Y165.098
G1 F1200 X69.899 Y96.486 E329.78325
G0 F6000 X69.899 Y95.921
G1 F1200 X139.077 Y165.098 E334.33871
G0 F6000 X139.642 Y165.098
G1 F1200 X69.899 Y95.355 E338.93141
G0 F6000 X69.899 Y94.789
G1 F1200 X140.208 Y165.098 E343.56137
G0 F6000 X140.774 Y165.098
G1 F1200 X69.899 Y94.224 E348.22858
G0 F6000 X69.899 Y93.658
G1 F1200 X141.34 Y165.098 E352.93306
G0 F6000 X141.905 Y165.098
G1 F1200 X69.899 Y93.092 E357.67478
G0 F6000 X69.899 Y92.527
G1 F1200 X142.471 Y165.098 E362.45374
G0 F6000 X143.037 Y165.098
G1 F1200 X69.899 Y91.961 E367.26997
G0 F6000 X69.899 Y91.395
G1 F1200 X143.602 Y165.098 E372.12343
G0 F6000 X144.168 Y165.098
G1 F1200 X69.899 Y90.829 E377.01417
G0 F6000 X69.899 Y90.264
G1 F1200 X144.734 Y165.098 E381.94215
G0 F6000 X145.299 Y165.098
G1 F1200 X69.899 Y89.698 E386.90737
G0 F6000 X69.899 Y89.132
G1 F1200 X145.865 Y165.098 E391.90986
G0 F6000 X146.431 Y165.098
G1 F1200 X69.899 Y88.567 E396.94959
G0 F6000 X69.899 Y88.001
G1 F1200 X146.996 Y165.098 E402.02656
G0 F6000 X147.562 Y165.098
G1 F1200 X69.899 Y87.435 E407.1408
G0 F6000 X69.899 Y86.87
G1 F1200 X148.128 Y165.098 E412.29228
G0 F6000 X148.693 Y165.098
G1 F1200 X69.899 Y86.304 E417.481
G0 F6000 X69.899 Y85.738
G1 F1200 X149.259 Y165.098 E422.70699
G0 F6000 X149.825 Y165.098
G1 F1200 X69.899 Y85.173 E427.97023
G0 F6000 X69.899 Y84.607
G1 F1200 X150.391 Y165.098 E433.27073
G0 F6000 X150.956 Y165.098
G1 F1200 X69.899 Y84.041 E438.60847
G0 F6000 X69.899 Y83.476
G1 F1200 X151.522 Y165.098 E443.98345
G0 F6000 X152.088 Y165.098
G1 F1200 X69.899 Y82.91 E449.3957
G0 F6000 X69.899 Y82.344
G1 F1200 X152.653 Y165.098 E454.8452
G0 F6000 X153.219 Y165.098
G1 F1200 X69.899 Y81.779 E460.33193
G0 F6000 X69.899 Y81.213
G1 F1200 X153.785 Y165.098 E465.85593
G0 F6000 X154.35 Y165.098
G1 F1200 X69.899 Y80.647 E471.41717
G0 F6000 X69.899 Y80.081
G1 F1200 X154.916 Y165.098 E477.01569
G0 F6000 X155.482 Y165.098
G1 F1200 X69.899 Y79.516 E482.65144
G0 F6000 X69.899 Y78.95
G1 F1200 X156.047 Y165.098 E488.32443
G0 F6000 X156.613 Y165.098
G1 F1200 X69.899 Y78.384 E494.0347
G0 F6000 X69.899 Y77.819
G1 F1200 X157.179 Y165.098 E499.7822
G0 F6000 X157.744 Y165.098
G1 F1200 X69.899 Y77.253 E505.56695
G0 F6000 X69.899 Y76.687
G1 F1200 X158.31 Y165.098 E511.38896
G0 F6000 X158.876 Y165.098
G1 F1200 X69.899 Y76.122 E517.24822
G0 F6000 X69.899 Y75.556
G1 F1200 X159.441 Y165.098 E523.14471
G0 F6000 X160.007 Y165.098
G1 F1200 X69.899 Y74.99 E529.07848
G0 F6000 X69.899 Y74.425
G1 F1200 X160.573 Y165.098 E535.04948
G0 F6000 X161.139 Y165.098
G1 F1200 X69.899 Y73.859 E541.05776
G0 F6000 X69.899 Y73.293
G1 F1200 X161.704 Y165.098 E547.10327
G0 F6000 X162.27 Y165.098
G1 F1200 X69.899 Y72.728 E553.18603
G0 F6000 X69.899 Y72.162
G1 F1200 X162.836 Y165.098 E559.30606
G0 F6000 X163.401 Y165.098
G1 F1200 X69.899 Y71.596 E565.46332
G0 F6000 X69.899 Y71.03
G1 F1200 X163.967 Y165.098 E571.65786
G0 F6000 X164.524 Y165.09
G1 F1200 X69.918 Y70.483 E577.88786
G0 F6000 X70.095 Y70.095
G1 F1200 X164.902 Y164.902 E584.13106
G0 F6000 X165.081 Y164.515
G1 F1200 X70.475 Y69.909 E590.36103
G0 F6000 X71.031 Y69.9
G1 F1200 X165.099 Y163.968 E596.55557
G0 F6000 X165.099 Y163.402
G1 F1200 X71.597 Y69.9 E602.71284
G0 F6000 X72.163 Y69.9
G1 F1200 X165.099 Y162.836 E608.83283
G0 F6000 X165.099 Y162.271
G1 F1200 X72.728 Y69.9 E614.91562
G0 F6000 X73.294 Y69.9
G1 F1200 X165.099 Y161.705 E620.96113
G0 F6000 X165.099 Y161.139
G1 F1200 X73.86 Y69.9 E626.96938
G0 F6000 X74.425 Y69.9
G1 F1200 X165.099 Y160.574 E632.94042
G0 F6000 X165.099 Y160.008
G1 F1200 X74.991 Y69.9 E638.87418
G0 F6000 X75.557 Y69.9
G1 F1200 X165.099 Y159.442 E644.77067
G0 F6000 X165.099 Y158.876
G1 F1200 X76.122 Y69.9 E650.62993
G0 F6000 X76.688 Y69.9
G1 F1200 X165.099 Y158.311 E656.45194
G0 F6000 X165.099 Y157.745
G1 F1200 X77.254 Y69.9 E662.23669
G0 F6000 X77.819 Y69.9
G1 F1200 X165.099 Y157.179 E667.98419
G0 F6000 X165.099 Y156.614
G1 F1200 X78.385 Y69.9 E673.69446
G0 F6000 X78.951 Y69.9
G1 F1200 X165.099 Y156.048 E679.36745
G0 F6000 X165.099 Y155.482
G1 F1200 X79.516 Y69.9 E685.0032
G0 F6000 X80.082 Y69.9
G1 F1200 X165.099 Y154.917 E690.60172
G0 F6000 X165.099 Y154.351
G1 F1200 X80.648 Y69.9 E696.16296
G0 F6000 X81.214 Y69.9
G1 F1200 X165.099 Y153.785 E701.68693
G0 F6000 X165.099 Y153.22
G1 F1200 X81.779 Y69.9 E707.1737
G0 F6000 X82.345 Y69.9
G1 F1200 X165.099 Y152.654 E712.62319
G0 F6000 X165.099 Y152.088
G1 F1200 X82.911 Y69.9 E718.03541
G0 F6000 X83.476 Y69.9
G1 F1200 X165.099 Y151.523 E723.41042
G0 F6000 X165.099 Y150.957
G1 F1200 X84.042 Y69.9 E728.74816
G0 F6000 X84.608 Y69.9
G1 F1200 X165.099 Y150.391 E734.04863
G0 F6000 X165.099 Y149.826
G1 F1200 X85.173 Y69.9 E739.3119
G0 F6000 X85.739 Y69.9
G1 F1200 X165.099 Y149.26 E744.53789
G0 F6000 X165.099 Y148.694
G1 F1200 X86.305 Y69.9 E749.72661
