;FLAVOR:Marlin
;TIME:2492
;Filament used: 2.11285m
;Layer height: 0.28
;MINX:66.5
;MINY:81.5
;MINZ:0.28
;MAXX:168.5
;MAXY:153.5
;MAXZ:9.8
;Generated with Cura_SteamEngine 4.7.0
M140 S55
M105
M190 S55
M104 S210
M105
M109 S210
M82 ;absolute extrusion mode
; Ender 3 Custom Start G-code
G92 E0 ; Reset Extruder
G28 ; Home all axes
G1 Z2.0 F3000 ; Move Z Axis up little to prevent scratching of Heat Bed
G1 X0.1 Y20 Z0.3 F5000.0 ; Move to start position
G1 X0.1 Y200.0 Z0.3 F1500.0 E15 ; Draw the first line
G1 X0.4 Y200.0 Z0.3 F5000.0 ; Move to side a little
G1 X0.4 Y20 Z0.3 F1500.0 E30 ; Draw the second line
G92 E0 ; Reset Extruder
G1 Z2.0 F3000 ; Move Z Axis up little to prevent scratching of Heat Bed
G1 X5 Y20 Z0.3 F5000.0 ; Move over to prevent blob squish
G92 E0
G92 E0
G1 F2700 E-5
;LAYER_COUNT:35
;LAYER:0
M107
G0 F6000 X71.592 Y99.196 Z0.28
;TYPE:SKIRT
G1 F2700 E0
G1 F1200 X72.246 Y98.727 E0.03747
G1 X72.418 Y98.613 E0.04708
G1 X73.251 Y98.113 E0.09232
G1 X73.31 Y98.081 E0.09545
G1 X73.87 Y97.797 E0.12468
G1 X74.057 Y97.709 E0.13431
G1 X74.77 Y97.404 E0.17042
G1 X74.863 Y97.368 E0.17506
G1 X75.439 Y97.163 E0.20353
G1 X76.949 Y96.673 E0.27745
G1 X76.95 Y96.677 E0.27764
G1 X77.068 Y96.633 E0.28351
G1 X77.205 Y96.59 E0.29019
G1 X79.583 Y95.774 E0.40726
G1 X81.958 Y94.884 E0.52536
G1 X84.306 Y93.928 E0.64341
G1 X86.577 Y92.925 E0.75901
G1 X88.849 Y91.845 E0.87615
G1 X91.11 Y90.692 E0.99433
G1 X93.321 Y89.484 E1.11165
G1 X95.484 Y88.22 E1.2283
G1 X97.632 Y86.883 E1.34612
G1 X99.713 Y85.506 E1.46231
G1 X101.605 Y84.178 E1.56994
G1 X101.918 Y83.952 E1.58792
G1 X102.606 Y83.494 E1.62641
G1 X102.805 Y83.372 E1.63727
G1 X103.87 Y82.797 E1.69363
G1 X104.057 Y82.709 E1.70326
G1 X105.103 Y82.281 E1.75588
G1 X105.337 Y82.199 E1.76743
G1 X106.307 Y81.908 E1.81458
G1 X106.343 Y81.899 E1.81631
G1 X106.978 Y81.76 E1.84658
G1 X107.212 Y81.716 E1.85767
G1 X108.132 Y81.583 E1.90095
G1 X108.191 Y81.577 E1.90371
G1 X109.099 Y81.523 E1.94607
G1 X110.226 Y81.502 E1.99855
G1 X110.431 Y81.5 E2.0081
G1 X124.793 Y81.5 E2.67685
G1 X125.442 Y81.508 E2.70708
G1 X125.8 Y81.519 E2.72376
G1 X126.206 Y81.538 E2.74268
G1 X127.594 Y81.692 E2.80771
G1 X127.856 Y81.738 E2.82009
G1 X128.772 Y81.939 E2.86376
G1 X129.25 Y82.077 E2.88693
G1 X129.613 Y82.191 E2.90465
G1 X130.495 Y82.51 E2.94832
G1 X131.323 Y82.891 E2.99076
G1 X131.503 Y82.983 E3.00017
G1 X132.313 Y83.441 E3.0435
G1 X132.374 Y83.479 E3.04685
G1 X132.759 Y83.73 E3.06825
G1 X132.97 Y83.874 E3.08014
G1 X135.18 Y85.435 E3.20613
G1 X137.292 Y86.839 E3.32422
G1 X139.437 Y88.179 E3.44199
G1 X141.592 Y89.441 E3.55828
G1 X143.812 Y90.661 E3.67623
G1 X146.062 Y91.814 E3.79396
G1 X148.32 Y92.891 E3.91045
G1 X150.601 Y93.902 E4.02662
G1 X152.97 Y94.873 E4.14584
G1 X155.269 Y95.739 E4.26024
G1 X158.711 Y96.905 E4.42946
G1 X159.643 Y97.201 E4.47499
G1 X160.524 Y97.523 E4.51867
G1 X161.3 Y97.88 E4.55844
G1 X161.481 Y97.972 E4.5679
G1 X162.609 Y98.632 E4.62875
G1 X162.811 Y98.767 E4.64006
G1 X163.836 Y99.543 E4.69993
G1 X163.965 Y99.653 E4.70782
G1 X164.923 Y100.575 E4.76973
G1 X165.199 Y100.875 E4.78871
G1 X165.804 Y101.592 E4.8324
G1 X166.265 Y102.234 E4.8692
G1 X166.378 Y102.404 E4.87871
G1 X166.851 Y103.184 E4.92118
G1 X166.878 Y103.233 E4.92379
G1 X167.19 Y103.844 E4.95573
G1 X167.284 Y104.043 E4.96598
G1 X167.714 Y105.089 E5.01864
G1 X167.796 Y105.322 E5.03014
G1 X168.07 Y106.219 E5.07382
G1 X168.209 Y106.832 E5.10309
G1 X168.262 Y107.099 E5.11576
G1 X168.42 Y108.164 E5.1659
G1 X168.426 Y108.225 E5.16875
G1 X168.477 Y109.093 E5.20924
G1 X168.498 Y110.196 E5.26061
G1 X168.5 Y110.405 E5.27034
G1 X168.499 Y124.952 E5.94771
G1 X168.492 Y125.437 E5.97029
G1 X168.481 Y125.784 E5.98646
G1 X168.462 Y126.197 E6.00571
G1 X168.313 Y127.567 E6.06988
G1 X168.268 Y127.827 E6.08217
G1 X168.069 Y128.743 E6.12581
G1 X167.923 Y129.248 E6.15029
G1 X167.808 Y129.614 E6.16816
G1 X167.489 Y130.496 E6.21183
G1 X167.109 Y131.323 E6.25421
G1 X167.017 Y131.503 E6.26362
G1 X166.375 Y132.599 E6.32277
G1 X166.237 Y132.806 E6.33435
G1 X165.412 Y133.89 E6.39778
G1 X165.305 Y134.014 E6.40541
G1 X164.425 Y134.923 E6.46432
G1 X164.125 Y135.199 E6.4833
G1 X163.408 Y135.804 E6.52699
G1 X162.754 Y136.273 E6.56446
G1 X162.582 Y136.387 E6.57407
G1 X161.749 Y136.887 E6.61931
G1 X161.69 Y136.919 E6.62243
G1 X161.13 Y137.203 E6.65167
G1 X160.943 Y137.291 E6.6613
G1 X160.23 Y137.596 E6.69741
G1 X160.137 Y137.632 E6.70205
G1 X159.561 Y137.837 E6.73052
G1 X158.051 Y138.327 E6.80444
G1 X158.05 Y138.323 E6.80463
G1 X157.932 Y138.367 E6.8105
G1 X157.795 Y138.41 E6.81718
G1 X155.417 Y139.226 E6.93425
G1 X153.042 Y140.116 E7.05235
G1 X150.694 Y141.072 E7.1704
G1 X148.423 Y142.075 E7.286
G1 X146.151 Y143.155 E7.40314
G1 X143.89 Y144.308 E7.52132
G1 X141.679 Y145.516 E7.63863
G1 X139.516 Y146.78 E7.75529
G1 X137.368 Y148.117 E7.8731
G1 X135.287 Y149.494 E7.9893
G1 X133.395 Y150.822 E8.09693
G1 X133.082 Y151.048 E8.11491
G1 X132.394 Y151.506 E8.15339
G1 X132.195 Y151.628 E8.16426
G1 X131.13 Y152.203 E8.22062
G1 X130.943 Y152.291 E8.23024
G1 X129.897 Y152.719 E8.28287
G1 X129.663 Y152.801 E8.29441
G1 X128.693 Y153.092 E8.34157
G1 X128.657 Y153.101 E8.3433
G1 X128.022 Y153.24 E8.37357
G1 X127.788 Y153.284 E8.38465
G1 X126.868 Y153.417 E8.42794
G1 X126.809 Y153.423 E8.4307
G1 X125.901 Y153.477 E8.47305
G1 X124.774 Y153.498 E8.52554
G1 X124.569 Y153.5 E8.53509
G1 X110.051 Y153.499 E9.21111
G1 X109.559 Y153.492 E9.23402
G1 X109.202 Y153.481 E9.25065
G1 X108.795 Y153.462 E9.26962
G1 X107.406 Y153.308 E9.3347
G1 X107.144 Y153.262 E9.34708
G1 X106.228 Y153.061 E9.39075
G1 X105.75 Y152.923 E9.41392
G1 X105.387 Y152.809 E9.43163
G1 X104.505 Y152.49 E9.47531
G1 X103.678 Y152.109 E9.5177
G1 X103.496 Y152.016 E9.52722
G1 X102.657 Y151.54 E9.57214
G1 X102.598 Y151.503 E9.57538
G1 X102.226 Y151.259 E9.5961
G1 X101.876 Y151.018 E9.61588
G1 X99.814 Y149.561 E9.73345
G1 X97.708 Y148.161 E9.85121
G1 X95.563 Y146.821 E9.96897
G1 X93.408 Y145.559 E10.08526
G1 X91.188 Y144.339 E10.20321
G1 X88.938 Y143.186 E10.32094
G1 X86.68 Y142.109 E10.43743
G1 X84.399 Y141.098 E10.55361
G1 X82.03 Y140.127 E10.67282
G1 X79.731 Y139.261 E10.78722
G1 X76.289 Y138.095 E10.95644
G1 X75.357 Y137.799 E11.00197
G1 X74.476 Y137.477 E11.04565
G1 X73.7 Y137.12 E11.08542
G1 X73.517 Y137.027 E11.09498
G1 X72.389 Y136.367 E11.15584
G1 X72.184 Y136.23 E11.16732
G1 X71.104 Y135.408 E11.23052
G1 X70.979 Y135.3 E11.23821
G1 X70.075 Y134.422 E11.29689
G1 X69.8 Y134.123 E11.3158
G1 X69.195 Y133.407 E11.35945
G1 X68.712 Y132.731 E11.39814
G1 X68.594 Y132.552 E11.40812
G1 X68.136 Y131.792 E11.44944
G1 X68.108 Y131.741 E11.45215
G1 X67.799 Y131.136 E11.48378
G1 X67.709 Y130.945 E11.49361
G1 X67.255 Y129.826 E11.54984
G1 X67.173 Y129.587 E11.56161
G1 X66.906 Y128.685 E11.60541
G1 X66.76 Y128.022 E11.63702
G1 X66.716 Y127.788 E11.64811
G1 X66.587 Y126.907 E11.68957
G1 X66.581 Y126.85 E11.69224
G1 X66.523 Y125.903 E11.73642
G1 X66.502 Y124.774 E11.789
G1 X66.5 Y124.569 E11.79855
G1 X66.501 Y110.013 E12.47633
G1 X66.508 Y109.543 E12.49822
G1 X66.519 Y109.184 E12.51495
G1 X66.538 Y108.785 E12.53355
G1 X66.688 Y107.425 E12.59726
G1 X66.733 Y107.166 E12.6095
G1 X66.933 Y106.25 E12.65316
G1 X67.077 Y105.752 E12.67729
G1 X67.192 Y105.386 E12.69516
G1 X67.511 Y104.504 E12.73883
G1 X67.902 Y103.656 E12.78231
G1 X67.995 Y103.475 E12.79179
G1 X68.626 Y102.4 E12.84983
G1 X68.764 Y102.193 E12.86142
G1 X69.584 Y101.114 E12.92452
G1 X69.69 Y100.991 E12.93208
G1 X70.575 Y100.077 E12.99132
G1 X70.875 Y99.801 E13.01031
G1 X71.592 Y99.196 E13.05399
G0 F6000 X71.85 Y99.502
G1 F1200 X72.467 Y99.06 E13.08933
G1 X72.639 Y98.946 E13.09894
G1 X73.441 Y98.464 E13.14251
G1 X73.5 Y98.432 E13.14563
G1 X74.041 Y98.159 E13.17385
G1 X74.228 Y98.071 E13.18347
G1 X74.914 Y97.777 E13.21823
G1 X75.007 Y97.741 E13.22287
G1 X75.562 Y97.544 E13.25029
G1 X77.072 Y97.054 E13.32422
G1 X77.073 Y97.056 E13.32432
G1 X77.187 Y97.015 E13.32996
G1 X77.317 Y96.974 E13.33631
G1 X79.749 Y96.139 E13.45604
G1 X82.101 Y95.258 E13.57299
G1 X84.44 Y94.306 E13.69058
G1 X86.73 Y93.295 E13.80714
G1 X89.066 Y92.184 E13.92759
G1 X91.277 Y91.056 E14.04317
G1 X93.509 Y89.837 E14.16159
G1 X95.702 Y88.556 E14.27985
G1 X97.833 Y87.229 E14.39674
G1 X99.967 Y85.817 E14.5159
G1 X101.78 Y84.545 E14.61902
G1 X102.152 Y84.276 E14.6404
G1 X102.815 Y83.835 E14.67748
G1 X103.014 Y83.713 E14.68834
G1 X104.041 Y83.159 E14.74268
G1 X104.228 Y83.071 E14.7523
G1 X105.235 Y82.658 E14.80298
G1 X105.469 Y82.576 E14.81453
G1 X106.404 Y82.296 E14.85998
G1 X106.44 Y82.287 E14.86171
G1 X107.052 Y82.154 E14.89087
G1 X107.286 Y82.11 E14.90196
G1 X108.173 Y81.981 E14.94369
G1 X108.232 Y81.975 E14.94645
G1 X109.107 Y81.923 E14.98727
G1 X110.234 Y81.902 E15.03976
G1 X110.431 Y81.9 E15.04893
G1 X124.793 Y81.9 E15.71768
G1 X125.436 Y81.908 E15.74763
G1 X125.782 Y81.919 E15.76375
G1 X126.188 Y81.938 E15.78267
G1 X127.525 Y82.086 E15.84531
G1 X127.787 Y82.132 E15.8577
G1 X128.686 Y82.33 E15.90056
G1 X129.13 Y82.459 E15.92209
G1 X129.493 Y82.573 E15.93981
G1 X130.359 Y82.887 E15.9827
G1 X131.141 Y83.247 E16.02279
G1 X131.321 Y83.339 E16.0322
G1 X132.102 Y83.781 E16.07399
G1 X132.163 Y83.819 E16.07733
G1 X132.533 Y84.061 E16.09792
G1 X132.886 Y84.303 E16.11785
G1 X134.973 Y85.778 E16.23685
G1 X137.089 Y87.185 E16.35517
G1 X139.203 Y88.506 E16.47125
G1 X141.419 Y89.803 E16.59081
G1 X143.616 Y91.011 E16.70755
G1 X145.872 Y92.166 E16.82557
G1 X148.151 Y93.254 E16.94316
G1 X150.45 Y94.272 E17.06024
G1 X152.814 Y95.241 E17.1792
G1 X155.117 Y96.109 E17.29381
G1 X158.619 Y97.295 E17.46597
G1 X159.522 Y97.582 E17.51009
G1 X160.387 Y97.899 E17.55299
G1 X161.119 Y98.237 E17.59053
G1 X161.3 Y98.329 E17.59999
G1 X162.387 Y98.965 E17.65863
G1 X162.589 Y99.1 E17.66994
G1 X163.577 Y99.847 E17.72762
G1 X163.706 Y99.957 E17.73551
G1 X164.629 Y100.846 E17.79518
G1 X164.905 Y101.146 E17.81417
G1 X165.498 Y101.85 E17.85703
G1 X165.932 Y102.455 E17.8917
G1 X166.045 Y102.625 E17.9012
G1 X166.501 Y103.377 E17.94215
G1 X166.528 Y103.426 E17.94476
G1 X166.829 Y104.015 E17.97556
G1 X166.923 Y104.214 E17.98581
G1 X167.337 Y105.222 E18.03655
G1 X167.419 Y105.455 E18.04805
G1 X167.686 Y106.336 E18.09091
G1 X167.817 Y106.91 E18.11833
G1 X167.87 Y107.177 E18.131
G1 X168.022 Y108.203 E18.1793
G1 X168.028 Y108.264 E18.18216
G1 X168.077 Y109.1 E18.22115
G1 X168.098 Y110.203 E18.27252
G1 X168.1 Y110.405 E18.28193
G1 X168.099 Y124.946 E18.95902
G1 X168.092 Y125.431 E18.9816
G1 X168.082 Y125.765 E18.99716
G1 X168.063 Y126.178 E19.01641
G1 X167.919 Y127.499 E19.07829
G1 X167.874 Y127.759 E19.09057
G1 X167.677 Y128.658 E19.13343
G1 X167.542 Y129.128 E19.1562
G1 X167.427 Y129.494 E19.17406
G1 X167.113 Y130.36 E19.21696
G1 X166.753 Y131.141 E19.257
G1 X166.661 Y131.321 E19.26641
G1 X166.042 Y132.377 E19.32341
G1 X165.904 Y132.584 E19.33499
G1 X165.109 Y133.629 E19.39614
G1 X165.002 Y133.753 E19.40376
G1 X164.154 Y134.629 E19.46053
G1 X163.854 Y134.905 E19.47952
G1 X163.15 Y135.498 E19.52238
G1 X162.533 Y135.94 E19.55772
G1 X162.361 Y136.054 E19.56733
G1 X161.559 Y136.536 E19.6109
G1 X161.5 Y136.568 E19.61402
G1 X160.959 Y136.841 E19.64224
G1 X160.772 Y136.929 E19.65186
G1 X160.086 Y137.223 E19.68661
G1 X159.993 Y137.259 E19.69126
G1 X159.438 Y137.456 E19.71868
G1 X157.928 Y137.946 E19.7926
G1 X157.927 Y137.944 E19.79271
G1 X157.813 Y137.985 E19.79835
G1 X157.683 Y138.026 E19.80469
G1 X155.251 Y138.861 E19.92443
G1 X152.899 Y139.742 E20.04138
G1 X150.56 Y140.694 E20.15897
G1 X148.27 Y141.705 E20.27553
G1 X145.934 Y142.816 E20.39598
G1 X143.723 Y143.944 E20.51156
G1 X141.491 Y145.163 E20.62998
G1 X139.298 Y146.444 E20.74824
G1 X137.167 Y147.771 E20.86513
G1 X135.033 Y149.183 E20.98428
G1 X133.236 Y150.444 E21.0865
G1 X132.848 Y150.724 E21.10878
G1 X132.185 Y151.165 E21.14586
G1 X131.986 Y151.287 E21.15673
G1 X130.959 Y151.841 E21.21107
G1 X130.772 Y151.929 E21.22069
G1 X129.765 Y152.342 E21.27137
G1 X129.531 Y152.424 E21.28292
G1 X128.596 Y152.704 E21.32836
G1 X128.56 Y152.713 E21.33009
G1 X127.948 Y152.846 E21.35925
G1 X127.714 Y152.89 E21.37034
G1 X126.827 Y153.019 E21.41208
G1 X126.768 Y153.025 E21.41484
G1 X125.893 Y153.077 E21.45566
G1 X124.766 Y153.098 E21.50814
G1 X124.569 Y153.1 E21.51732
G1 X110.056 Y153.099 E22.1931
G1 X109.564 Y153.092 E22.21601
G1 X109.221 Y153.081 E22.23199
G1 X108.814 Y153.062 E22.25097
G1 X107.475 Y152.914 E22.3137
G1 X107.213 Y152.868 E22.32608
G1 X106.314 Y152.67 E22.36895
G1 X105.87 Y152.541 E22.39048
G1 X105.507 Y152.427 E22.40819
G1 X104.641 Y152.113 E22.45109
G1 X103.86 Y151.753 E22.49113
G1 X103.678 Y151.66 E22.50065
G1 X102.869 Y151.201 E22.54396
G1 X102.81 Y151.164 E22.5472
G1 X102.452 Y150.929 E22.56714
G1 X102.107 Y150.691 E22.58666
G1 X100.045 Y149.234 E22.70422
G1 X97.911 Y147.815 E22.82356
G1 X95.797 Y146.494 E22.93963
G1 X93.581 Y145.197 E23.05919
G1 X91.384 Y143.989 E23.17594
G1 X89.128 Y142.834 E23.29395
G1 X86.849 Y141.746 E23.41155
G1 X84.55 Y140.728 E23.52862
G1 X82.186 Y139.759 E23.64759
G1 X79.883 Y138.891 E23.76219
G1 X76.381 Y137.705 E23.93435
G1 X75.478 Y137.418 E23.97847
G1 X74.613 Y137.101 E24.02137
G1 X73.882 Y136.764 E24.05885
G1 X73.699 Y136.671 E24.06841
G1 X72.611 Y136.034 E24.12712
G1 X72.406 Y135.897 E24.1386
G1 X71.366 Y135.105 E24.19947
G1 X71.241 Y134.997 E24.20716
G1 X70.369 Y134.152 E24.2637
G1 X70.094 Y133.853 E24.28262
G1 X69.501 Y133.149 E24.32548
G1 X69.046 Y132.511 E24.36197
G1 X68.928 Y132.332 E24.37195
G1 X68.486 Y131.599 E24.41181
G1 X68.458 Y131.548 E24.41452
G1 X68.161 Y130.965 E24.44498
G1 X68.071 Y130.774 E24.45482
G1 X67.634 Y129.696 E24.50898
G1 X67.552 Y129.457 E24.52075
G1 X67.294 Y128.588 E24.56296
G1 X67.154 Y127.948 E24.59346
G1 X67.11 Y127.714 E24.60455
G1 X66.985 Y126.865 E24.64451
G1 X66.979 Y126.808 E24.64718
G1 X66.923 Y125.895 E24.68977
G1 X66.902 Y124.766 E24.74235
G1 X66.9 Y124.569 E24.75152
G1 X66.901 Y110.019 E25.42903
G1 X66.908 Y109.549 E25.45092
G1 X66.919 Y109.203 E25.46704
G1 X66.938 Y108.804 E25.48564
G1 X67.082 Y107.493 E25.54705
G1 X67.127 Y107.234 E25.55929
G1 X67.324 Y106.335 E25.60215
G1 X67.458 Y105.872 E25.62459
G1 X67.573 Y105.506 E25.64245
G1 X67.887 Y104.64 E25.68535
G1 X68.258 Y103.839 E25.72645
G1 X68.351 Y103.658 E25.73593
G1 X68.959 Y102.622 E25.79186
G1 X69.097 Y102.415 E25.80345
G1 X69.887 Y101.375 E25.86426
G1 X69.993 Y101.252 E25.87182
G1 X70.846 Y100.371 E25.92892
G1 X71.146 Y100.095 E25.9479
G1 X71.85 Y99.502 E25.99077
G0 F6000 X72.108 Y99.808
G1 F1200 X72.688 Y99.394 E26.02395
G1 X72.86 Y99.28 E26.03356
G1 X73.632 Y98.816 E26.0755
G1 X73.691 Y98.784 E26.07862
G1 X74.211 Y98.521 E26.10576
G1 X74.398 Y98.433 E26.11538
G1 X75.059 Y98.15 E26.14886
G1 X75.152 Y98.114 E26.1535
G1 X75.686 Y97.924 E26.1799
G1 X77.196 Y97.434 E26.25382
G1 X77.306 Y97.397 E26.25922
G1 X77.461 Y97.349 E26.26678
G1 X79.871 Y96.521 E26.38544
G1 X82.225 Y95.639 E26.50249
G1 X84.616 Y94.665 E26.62271
G1 X86.915 Y93.651 E26.73971
G1 X89.212 Y92.559 E26.85814
G1 X91.457 Y91.413 E26.97551
G1 X93.722 Y90.176 E27.09568
G1 X95.899 Y88.904 E27.21308
G1 X98.07 Y87.553 E27.33215
G1 X100.171 Y86.162 E27.44948
G1 X102.054 Y84.841 E27.55659
G1 X102.386 Y84.601 E27.57566
G1 X103.024 Y84.176 E27.61136
G1 X103.223 Y84.054 E27.62223
G1 X104.211 Y83.521 E27.6745
G1 X104.398 Y83.433 E27.68412
G1 X105.368 Y83.036 E27.73293
G1 X105.602 Y82.954 E27.74447
G1 X106.501 Y82.685 E27.78817
G1 X106.537 Y82.676 E27.78989
G1 X107.126 Y82.547 E27.81797
G1 X107.36 Y82.503 E27.82906
G1 X108.213 Y82.379 E27.86919
G1 X108.272 Y82.373 E27.87196
G1 X109.114 Y82.323 E27.91123
G1 X110.241 Y82.302 E27.96372
G1 X110.431 Y82.3 E27.97257
G1 X124.938 Y82.301 E28.64807
G1 X125.431 Y82.308 E28.67103
G1 X125.763 Y82.318 E28.6865
G1 X126.169 Y82.337 E28.70542
G1 X127.456 Y82.48 E28.76572
G1 X127.718 Y82.526 E28.77811
G1 X129.01 Y82.841 E28.84003
G1 X129.373 Y82.955 E28.85775
G1 X130.222 Y83.263 E28.8998
G1 X130.959 Y83.604 E28.93761
G1 X131.139 Y83.696 E28.94703
G1 X131.89 Y84.12 E28.98719
G1 X131.951 Y84.158 E28.99053
G1 X132.308 Y84.391 E29.01038
G1 X132.519 Y84.535 E29.02228
G1 X134.726 Y86.094 E29.1481
G1 X136.877 Y87.524 E29.26837
G1 X138.994 Y88.847 E29.38462
