;FLAVOR:Marlin
;TIME:9755
;Filament used: 6.77797m
;Layer height: 0.24
;MINX:90.32
;MINY:84.458
;MINZ:0.28
;MAXX:117.649
;MAXY:141.913
;MAXZ:59.08
;Generated with Cura_SteamEngine 4.5.0
M140 S65
M105
M190 S65
M104 S215
M105
M109 S215
M82 ;absolute extrusion mode
; Ender 3 Custom Start G-code
G92 E0 ; Reset Extruder
G28 ; Home all axes
G1 Z2.0 F3000 ; Move Z Axis up little to prevent scratching of Heat Bed
G1 X0.1 Y20 Z0.3 F5000.0 ; Move to start position
G1 X0.1 Y200.0 Z0.3 F1500.0 E15 ; Draw the first line
G1 X0.4 Y200.0 Z0.3 F5000.0 ; Move to side a little
G1 X0.4 Y20 Z0.3 F1500.0 E30 ; Draw the second line
G92 E0 ; Reset Extruder
G1 Z2.0 F3000 ; Move Z Axis up little to prevent scratching of Heat Bed
G1 X5 Y20 Z0.3 F5000.0 ; Move over to prevent blob squish
G92 E0
G92 E0
G1 F2700 E-5
;LAYER_COUNT:249
;LAYER:0
M107
G0 F6000 X103.758 Y88.142 Z0.28
;TYPE:SKIRT
G1 F2700 E0
G1 F1200 X103.873 Y88.058 E0.00663
G1 X104.007 Y88.058 E0.01287
G1 X104.122 Y88.142 E0.0195
G1 X104.164 Y88.272 E0.02586
G1 X104.122 Y88.402 E0.03222
G1 X103.94 Y88.535 E0.04272
G1 X103.758 Y88.402 E0.05322
G1 X103.716 Y88.272 E0.05958
G1 X103.758 Y88.142 E0.06594
G0 F6000 X103.417 Y87.895
G1 F1200 X103.743 Y87.658 E0.08471
G1 X104.137 Y87.658 E0.10305
G1 X104.463 Y87.895 E0.12182
G1 X104.586 Y88.272 E0.14029
G1 X104.463 Y88.649 E0.15875
G1 X104.05 Y88.949 E0.18252
G1 X103.846 Y88.961 E0.19204
G1 X103.417 Y88.649 E0.21674
G1 X103.294 Y88.272 E0.2352
G1 X103.417 Y87.895 E0.25367
G0 F6000 X103.077 Y87.648
G1 F1200 X103.612 Y87.258 E0.2845
G1 X104.268 Y87.258 E0.31504
G1 X104.803 Y87.648 E0.34587
G1 X105.006 Y88.272 E0.37643
G1 X104.803 Y88.896 E0.40698
G1 X104.191 Y89.342 E0.44224
G1 X103.725 Y89.368 E0.46398
G1 X103.077 Y88.896 E0.5013
G1 X102.874 Y88.272 E0.53186
G1 X103.077 Y87.648 E0.56241
G0 F6000 X102.736 Y87.401
G1 F1200 X103.482 Y86.858 E0.60538
G1 X104.398 Y86.858 E0.64803
G1 X105.144 Y87.401 E0.691
G1 X105.427 Y88.272 E0.73364
G1 X105.144 Y89.143 E0.77629
G1 X104.332 Y89.734 E0.82305
G1 X103.605 Y89.775 E0.85696
G1 X102.736 Y89.143 E0.90699
G1 X102.453 Y88.272 E0.94963
G1 X102.736 Y87.401 E0.99228
G0 F6000 X102.396 Y87.154
G1 F1200 X103.353 Y86.458 E1.04738
G1 X104.527 Y86.458 E1.10205
G1 X105.484 Y87.154 E1.15715
G1 X105.847 Y88.272 E1.21188
G1 X105.484 Y89.39 E1.26662
G1 X104.471 Y90.127 E1.32495
G1 X103.542 Y90.18 E1.36828
G1 X103.47 Y90.172 E1.37165
G1 X102.396 Y89.39 E1.43351
G1 X102.033 Y88.272 E1.48825
G1 X102.396 Y87.154 E1.54298
G0 F6000 X102.057 Y86.906
G1 F1200 X103.221 Y86.058 E1.61004
G1 X104.659 Y86.058 E1.677
G1 X105.823 Y86.906 E1.74406
G1 X106.268 Y88.272 E1.81095
G1 X105.823 Y89.638 E1.87785
G1 X104.613 Y90.519 E1.94754
G1 X103.528 Y90.582 E1.99815
G1 X103.317 Y90.556 E2.00805
G1 X102.057 Y89.638 E2.08064
G1 X101.612 Y88.272 E2.14754
G1 X102.057 Y86.906 E2.21444
G0 F6000 X101.715 Y86.66
G1 F1200 X103.092 Y85.658 E2.29373
G1 X104.788 Y85.658 E2.37271
G1 X106.165 Y86.66 E2.452
G1 X106.689 Y88.272 E2.53093
G1 X106.165 Y89.884 E2.60986
G1 X104.753 Y90.912 E2.69119
G1 X103.513 Y90.983 E2.74902
G1 X103.166 Y90.94 E2.7653
G1 X101.715 Y89.884 E2.84887
G1 X101.191 Y88.272 E2.92779
G1 X101.715 Y86.66 E3.00672
G0 F6000 X101.376 Y86.413
G1 F1200 X102.961 Y85.258 E3.09804
G1 X104.919 Y85.258 E3.18922
G1 X106.504 Y86.413 E3.28054
G1 X107.109 Y88.272 E3.37157
G1 X106.504 Y90.131 E3.4626
G1 X104.893 Y91.305 E3.55542
G1 X103.503 Y91.385 E3.62025
G1 X103.014 Y91.324 E3.6432
G1 X101.376 Y90.131 E3.73756
G1 X100.771 Y88.272 E3.82859
G1 X101.376 Y86.413 E3.91962
G0 F6000 X101.036 Y86.165
G1 F1200 X102.831 Y84.858 E4.02301
G1 X105.049 Y84.858 E4.12629
G1 X106.844 Y86.165 E4.22968
G1 X107.529 Y88.272 E4.33285
G1 X106.844 Y90.379 E4.43601
G1 X105.034 Y91.697 E4.54027
G1 X103.488 Y91.786 E4.61238
G1 X102.862 Y91.709 E4.64175
G1 X101.036 Y90.379 E4.74694
G1 X100.351 Y88.272 E4.8501
G1 X101.036 Y86.165 E4.95327
G0 F6000 X100.695 Y85.919
G1 F1200 X102.702 Y84.458 E5.06886
G1 X105.178 Y84.458 E5.18415
G1 X107.185 Y85.919 E5.29975
G1 X107.951 Y88.272 E5.41497
G1 X107.185 Y90.625 E5.5302
G1 X105.174 Y92.089 E5.64602
G1 X103.473 Y92.187 E5.72536
G1 X102.712 Y92.093 E5.76107
G1 X100.695 Y90.625 E5.87723
G1 X99.929 Y88.272 E5.99245
G1 X100.695 Y85.919 E6.10768
G1 F2700 E1.10768
G0 F6000 X92.607 Y99.175
G0 X91.349 Y101.538
G0 X90.575 Y104.104
G0 X90.32 Y106.711
G0 X90.323 Y141.407
G0 X90.827 Y141.911
G0 X92.37 Y141.913
G0 X102.979 Y134.64
G1 F2700 E6.10768
G1 F1200 X105.003 Y134.64 E6.20192
G1 X106.643 Y135.834 E6.29638
G1 X107.27 Y137.758 E6.39061
G1 X106.643 Y139.682 E6.48484
G1 X105.003 Y140.876 E6.5793
G1 X102.979 Y140.876 E6.67354
G1 X101.339 Y139.682 E6.768
G1 X100.712 Y137.758 E6.86223
G1 X101.339 Y135.834 E6.95646
G1 X102.979 Y134.64 E7.05092
G0 F6000 X103.108 Y135.04
G1 F1200 X104.874 Y135.04 E7.13315
G1 X106.302 Y136.08 E7.21541
G1 X106.848 Y137.758 E7.29758
G1 X106.302 Y139.436 E7.37974
G1 X104.874 Y140.476 E7.462
G1 X103.108 Y140.476 E7.54423
G1 X101.68 Y139.436 E7.62649
G1 X101.134 Y137.758 E7.70866
G1 X101.68 Y136.08 E7.79083
G1 X103.108 Y135.04 E7.87309
G0 F6000 X103.238 Y135.44
G1 F1200 X104.744 Y135.44 E7.94321
G1 X105.962 Y136.327 E8.01337
G1 X106.428 Y137.758 E8.08345
G1 X105.962 Y139.189 E8.15353
G1 X104.744 Y140.076 E8.22369
G1 X103.238 Y140.076 E8.29381
G1 X102.02 Y139.189 E8.36397
G1 X101.554 Y137.758 E8.43405
G1 X102.02 Y136.327 E8.50413
G1 X103.238 Y135.44 E8.57429
G0 F6000 X103.369 Y135.84
G1 F1200 X104.613 Y135.84 E8.63222
G1 X105.622 Y136.575 E8.69034
G1 X106.008 Y137.758 E8.74829
G1 X105.622 Y138.941 E8.80623
G1 X104.613 Y139.676 E8.86436
G1 X103.369 Y139.676 E8.92228
G1 X102.36 Y138.941 E8.98041
G1 X101.974 Y137.758 E9.03835
G1 X102.36 Y136.575 E9.0963
G1 X103.369 Y135.84 E9.15442
G0 F6000 X103.499 Y136.24
G1 F1200 X104.483 Y136.24 E9.20024
G1 X105.282 Y136.822 E9.24627
G1 X105.587 Y137.758 E9.29211
G1 X105.282 Y138.694 E9.33795
G1 X104.483 Y139.276 E9.38398
G1 X103.499 Y139.276 E9.4298
G1 X102.7 Y138.694 E9.47583
G1 X102.395 Y137.758 E9.52167
G1 X102.7 Y136.822 E9.56751
G1 X103.499 Y136.24 E9.61354
G0 F6000 X103.628 Y136.64
G1 F1200 X104.354 Y136.64 E9.64734
G1 X104.942 Y137.068 E9.68121
G1 X105.166 Y137.758 E9.71499
G1 X104.942 Y138.448 E9.74877
G1 X104.354 Y138.876 E9.78263
G1 X103.628 Y138.876 E9.81644
G1 X103.04 Y138.448 E9.8503
G1 X102.816 Y137.758 E9.88408
G1 X103.04 Y137.068 E9.91786
G1 X103.628 Y136.64 E9.95173
G0 F6000 X103.76 Y137.04
G1 F1200 X104.222 Y137.04 E9.97324
G1 X104.602 Y137.317 E9.99514
G1 X104.746 Y137.758 E10.01674
G1 X104.602 Y138.199 E10.03834
G1 X104.222 Y138.476 E10.06024
G1 X103.76 Y138.476 E10.08175
G1 X103.38 Y138.199 E10.10364
G1 X103.236 Y137.758 E10.12525
G1 X103.38 Y137.317 E10.14685
G1 X103.76 Y137.04 E10.16874
G0 F6000 X103.889 Y137.44
G1 F1200 X104.093 Y137.44 E10.17824
G1 X104.261 Y137.562 E10.18791
G1 X104.324 Y137.758 E10.1975
G1 X104.261 Y137.954 E10.20708
G1 X104.093 Y138.076 E10.21675
G1 X103.889 Y138.076 E10.22625
G1 X103.721 Y137.954 E10.23592
G1 X103.658 Y137.758 E10.24551
G1 X103.721 Y137.562 E10.25509
G1 X103.889 Y137.44 E10.26476
G1 F2700 E5.26476
;MESH:hammer_7_cram__jam.stl
G0 F6000 X114.23 Y139.716
G0 X115.159 Y139.149
G0 X116.384 Y140.65
;TYPE:WALL-INNER
G1 F2700 E10.26476
G1 F1200 X116.096 Y140.65 E10.27817
G1 X115.991 Y140.436 E10.28927
G1 X115.314 Y139.054 E10.36093
G1 X113.624 Y136.796 E10.49226
G1 X111.564 Y134.945 E10.62122
G1 X109.209 Y133.567 E10.74827
G1 X106.651 Y132.716 E10.8738
G1 X106.469 Y132.695 E10.88233
G1 X103.984 Y132.429 E10.9987
G1 X101.334 Y132.713 E11.1228
G1 X98.794 Y133.554 E11.24739
G1 X96.435 Y134.927 E11.37449
G1 X94.367 Y136.775 E11.50363
G1 X92.674 Y139.026 E11.63478
G1 X91.977 Y140.444 E11.70835
G1 X91.876 Y140.65 E11.71904
G1 X91.584 Y140.65 E11.73263
G1 X91.584 Y140.42 E11.74195
G1 X91.584 Y106.777 E13.30851
G1 X91.822 Y104.342 E13.42243
G1 X92.527 Y102.011 E13.53583
G1 X93.669 Y99.871 E13.64878
G1 X95.217 Y97.982 E13.7625
G1 X97.092 Y96.446 E13.87536
G1 X99.24 Y95.295 E13.98883
G1 X101.564 Y94.59 E14.10192
G1 X101.6 Y94.587 E14.1036
G1 X103.986 Y94.353 E14.21524
G1 X104.032 Y94.357 E14.21739
G1 X106.399 Y94.59 E14.32814
G1 X108.73 Y95.296 E14.44155
G1 X110.836 Y96.421 E14.55273
G1 X112.752 Y97.985 E14.66789
G1 X114.289 Y99.858 E14.78071
G1 X115.435 Y102 E14.89383
G1 X116.144 Y104.33 E15.00724
G1 X116.384 Y106.778 E15.12177
G1 X116.384 Y140.411 E16.68787
G1 X116.384 Y140.65 E16.69749
G0 F6000 X116.784 Y141.05
;TYPE:WALL-OUTER
G1 F1200 X115.847 Y141.05 E16.74112
G1 X114.971 Y139.264 E16.83375
G1 X113.327 Y137.067 E16.96152
G1 X111.327 Y135.27 E17.08672
G1 X109.043 Y133.933 E17.20995
G1 X106.564 Y133.109 E17.3316
G1 X106.425 Y133.093 E17.33811
G1 X103.984 Y132.831 E17.45243
G1 X101.419 Y133.106 E17.57255
G1 X98.959 Y133.921 E17.69322
G1 X96.671 Y135.252 E17.81647
G1 X94.663 Y137.047 E17.94189
G1 X93.016 Y139.236 E18.06945
G1 X92.125 Y141.05 E18.16355
G1 X91.184 Y141.05 E18.20737
G1 X91.184 Y106.758 E19.80415
G1 X91.428 Y104.262 E19.92093
G1 X92.155 Y101.859 E20.03783
G1 X93.335 Y99.648 E20.15453
G1 X94.933 Y97.698 E20.27192
G1 X96.87 Y96.11 E20.38855
G1 X99.085 Y94.924 E20.50555
G1 X101.485 Y94.196 E20.62233
G1 X101.562 Y94.189 E20.62593
G1 X103.984 Y93.951 E20.73925
G1 X104.071 Y93.959 E20.74332
G1 X106.479 Y94.196 E20.85599
G1 X108.883 Y94.924 E20.97295
G1 X111.06 Y96.087 E21.08788
G1 X113.035 Y97.7 E21.20661
G1 X114.624 Y99.636 E21.32324
G1 X115.806 Y101.845 E21.4399
G1 X116.538 Y104.25 E21.55696
G1 X116.784 Y106.759 E21.67435
G1 X116.784 Y141.05 E23.27108
G0 F6000 X116.514 Y140.78
G0 X116.274 Y139.554
G0 X115.994 Y139.554
;TYPE:SKIN
G1 F1200 X115.648 Y138.849 E23.30765
G1 X113.913 Y136.531 E23.44247
G1 X111.796 Y134.629 E23.57499
G1 X109.371 Y133.21 E23.70582
G1 X106.736 Y132.334 E23.83512
G1 X106.512 Y132.307 E23.84562
G1 X103.984 Y132.037 E23.96401
G1 X101.251 Y132.329 E24.09199
G1 X98.632 Y133.197 E24.22047
G1 X96.205 Y134.609 E24.35121
G1 X94.078 Y136.51 E24.48405
G1 X92.34 Y138.821 E24.61869
G1 X91.974 Y139.566 E24.65734
G1 X91.974 Y106.794 E26.18334
G1 X92.206 Y104.418 E26.29451
G1 X92.888 Y102.162 E26.40425
G1 X93.995 Y100.089 E26.51368
G1 X95.494 Y98.259 E26.62383
G1 X97.313 Y96.769 E26.73332
G1 X99.387 Y95.657 E26.8429
G1 X101.638 Y94.975 E26.95242
G1 X103.992 Y94.745 E27.06255
G1 X106.324 Y94.974 E27.17166
G1 X108.579 Y95.657 E27.28138
G1 X110.622 Y96.748 E27.38922
G1 X112.471 Y98.258 E27.50038
G1 X113.964 Y100.079 E27.61003
G1 X115.074 Y102.152 E27.71952
G1 X115.76 Y104.405 E27.82919
G1 X115.994 Y106.797 E27.9411
G1 X115.994 Y139.554 E29.46641
G1 F2700 E24.46641
G0 F6000 X116.274 Y139.554
G0 X116.183 Y140.37
G0 X113.504 Y136.905
G0 X111.469 Y135.076
G0 X109.142 Y133.714
G0 X106.451 Y132.855
G0 X103.984 Y132.59
G0 X101.368 Y132.87
G0 X98.86 Y133.702
G0 X96.53 Y135.057
G0 X94.691 Y136.701
G0 X92.617 Y138.917
G0 X92.266 Y138.652
G1 F2700 E29.46641
G1 F1200 X92.133 Y138.52 E29.47513
G0 F6000 X92.509 Y138.329
G1 F1200 X92.133 Y137.954 E29.49986
G0 F6000 X92.133 Y137.388
G1 F1200 X92.751 Y138.006 E29.54055
G0 F6000 X92.994 Y137.683
G1 F1200 X92.133 Y136.823 E29.59722
G0 F6000 X92.133 Y136.257
G1 F1200 X93.237 Y137.361 E29.66992
G0 F6000 X93.48 Y137.038
G1 F1200 X92.133 Y135.691 E29.75862
G0 F6000 X92.133 Y135.125
G1 F1200 X93.722 Y136.714 E29.86326
G0 F6000 X93.966 Y136.393
G1 F1200 X92.133 Y134.56 E29.98397
G0 F6000 X92.133 Y133.994
G1 F1200 X94.265 Y136.126 E30.12436
G0 F6000 X94.564 Y135.859
G1 F1200 X92.133 Y133.428 E30.28445
G0 F6000 X92.133 Y132.863
G1 F1200 X94.863 Y135.592 E30.46419
G0 F6000 X95.161 Y135.325
G1 F1200 X92.133 Y132.297 E30.66359
G0 F6000 X92.133 Y131.731
G1 F1200 X95.46 Y135.058 E30.88268
G0 F6000 X95.759 Y134.791
G1 F1200 X92.133 Y131.166 E31.12142
G0 F6000 X92.133 Y130.6
G1 F1200 X96.058 Y134.524 E31.37986
G0 F6000 X96.405 Y134.306
G1 F1200 X92.133 Y130.034 E31.66118
G0 F6000 X92.133 Y129.469
G1 F1200 X96.763 Y134.098 E31.96604
G0 F6000 X97.12 Y133.889
G1 F1200 X92.133 Y128.903 E32.29441
G0 F6000 X92.133 Y128.337
G1 F1200 X97.478 Y133.682 E32.64638
G0 F6000 X97.836 Y133.474
G1 F1200 X92.133 Y127.772 E33.0219
G0 F6000 X92.133 Y127.206
G1 F1200 X98.193 Y133.266 E33.42097
G0 F6000 X98.55 Y133.057
G1 F1200 X92.133 Y126.64 E33.84354
G0 F6000 X92.133 Y126.075
G1 F1200 X98.973 Y132.914 E34.29393
G0 F6000 X99.398 Y132.773
G1 F1200 X92.133 Y125.509 E34.77231
G0 F6000 X92.133 Y124.943
G1 F1200 X99.822 Y132.632 E35.27864
G0 F6000 X100.247 Y132.492
G1 F1200 X92.133 Y124.377 E35.813
G0 F6000 X92.133 Y123.812
G1 F1200 X100.672 Y132.351 E36.3753
G0 F6000 X101.097 Y132.21
G1 F1200 X92.133 Y123.246 E36.9656
G0 F6000 X92.133 Y122.68
G1 F1200 X101.585 Y132.132 E37.58803
G0 F6000 X102.095 Y132.076
G1 F1200 X92.133 Y122.115 E38.24401
G0 F6000 X92.133 Y121.549
G1 F1200 X102.606 Y132.022 E38.93368
G0 F6000 X103.118 Y131.968
G1 F1200 X92.133 Y120.983 E39.65706
G0 F6000 X92.133 Y120.418
G1 F1200 X103.628 Y131.912 E40.41399
G0 F6000 X104.177 Y131.895
G1 F1200 X92.133 Y119.852 E41.20707
G0 F6000 X92.133 Y119.286
G1 F1200 X104.81 Y131.963 E42.04188
G0 F6000 X105.443 Y132.03
G1 F1200 X92.133 Y118.721 E42.91833
G0 F6000 X92.133 Y118.155
G1 F1200 X106.076 Y132.098 E43.8365
G0 F6000 X106.713 Y132.169
G1 F1200 X92.133 Y117.589 E44.79662
G0 F6000 X92.133 Y117.024
G1 F1200 X107.543 Y132.433 E45.81136
G0 F6000 X108.39 Y132.714
G1 F1200 X92.133 Y116.458 E46.88188
G0 F6000 X92.133 Y115.892
G1 F1200 X109.238 Y132.996 E48.00824
G0 F6000 X109.099 Y133.413
G0 X110.256 Y134.052
G0 X110.479 Y133.672
G1 F1200 X92.133 Y115.326 E49.21635
G0 F6000 X92.133 Y114.761
G1 F1200 X111.843 Y134.47 E50.51426
G0 F6000 X111.62 Y134.85
G0 X115.46 Y138.964
G0 X116.183 Y140.37
G0 X116.274 Y134.502
G0 X115.834 Y134.502
G1 F1200 X92.133 Y110.801 E52.07501
G0 F6000 X92.133 Y111.367
G1 F1200 X115.834 Y135.068 E53.63576
G0 F6000 X115.834 Y135.633
G1 F1200 X92.133 Y111.932 E55.19651
G0 F6000 X92.133 Y112.498
G1 F1200 X115.834 Y136.199 E56.75726
G0 F6000 X115.834 Y136.765
G1 F1200 X92.133 Y113.064 E58.31801
G0 F6000 X92.133 Y113.629
G1 F1200 X115.834 Y137.33 E59.87877
G0 F6000 X115.834 Y137.896
G1 F1200 X92.133 Y114.195 E61.43952
G0 F6000 X91.694 Y114.195
G0 X91.694 Y110.235
G0 X92.133 Y110.235
G1 F1200 X115.834 Y133.936 E63.00027
G0 F6000 X115.834 Y133.37
G1 F1200 X92.133 Y109.67 E64.56099
G0 F6000 X92.133 Y109.104
G1 F1200 X115.834 Y132.805 E66.12174
G0 F6000 X115.834 Y132.239
G1 F1200 X92.133 Y108.538 E67.68249
G0 F6000 X92.133 Y107.973
G1 F1200 X115.834 Y131.673 E69.24321
G0 F6000 X115.834 Y131.108
G1 F1200 X92.133 Y107.407 E70.80396
G0 F6000 X92.133 Y106.841
G1 F1200 X115.834 Y130.542 E72.36471
G0 F6000 X115.834 Y129.976
G1 F1200 X92.18 Y106.322 E73.92237
G0 F6000 X92.23 Y105.807
G1 F1200 X115.834 Y129.411 E75.47673
G0 F6000 X115.834 Y128.845
G1 F1200 X92.28 Y105.291 E77.0278
G0 F6000 X92.331 Y104.776
G1 F1200 X115.834 Y128.279 E78.57551
G0 F6000 X115.834 Y127.714
G1 F1200 X92.411 Y104.29 E80.11799
G0 F6000 X92.542 Y103.856
G1 F1200 X115.834 Y127.148 E81.65181
G0 F6000 X115.834 Y126.582
G1 F1200 X92.673 Y103.421 E83.177
G0 F6000 X92.804 Y102.986
G1 F1200 X115.834 Y126.017 E84.6936
G0 F6000 X115.834 Y125.451
G1 F1200 X92.935 Y102.552 E86.20154
G0 F6000 X93.082 Y102.133
G1 F1200 X115.834 Y124.885 E87.6998
G0 F6000 X115.834 Y124.319
G1 F1200 X93.279 Y101.764 E89.18508
G0 F6000 X93.476 Y101.396
G1 F1200 X115.834 Y123.754 E90.65739
G0 F6000 X115.834 Y123.188
G1 F1200 X93.673 Y101.027 E92.11673
G0 F6000 X93.871 Y100.659
G1 F1200 X115.833 Y122.622 E93.563
G0 F6000 X115.833 Y122.056
G1 F1200 X94.068 Y100.291 E94.99626
G0 F6000 X94.305 Y99.962
G1 F1200 X115.833 Y121.49 E96.41392
G0 F6000 X115.833 Y120.925
G1 F1200 X94.56 Y99.651 E97.81481
G0 F6000 X94.815 Y99.34
G1 F1200 X115.833 Y120.359 E99.19892
G0 F6000 X115.833 Y119.793
G1 F1200 X95.069 Y99.029 E100.56626
G0 F6000 X95.324 Y98.718
G1 F1200 X115.833 Y119.228 E101.91685
G0 F6000 X115.833 Y118.662
G1 F1200 X95.578 Y98.407 E103.25068
G0 F6000 X95.884 Y98.147
G1 F1200 X115.833 Y118.096 E104.56435
G0 F6000 X115.833 Y117.531
G1 F1200 X96.195 Y97.892 E105.85758
G0 F6000 X96.506 Y97.638
G1 F1200 X115.833 Y116.965 E107.1303
G0 F6000 X115.833 Y116.399
G1 F1200 X96.817 Y97.382 E108.38257
G0 F6000 X97.128 Y97.128
