;FLAVOR:Marlin
;TIME:5704
;Filament used: 3.74189m
;Layer height: 0.2
;MINX:88.476
;MINY:95.103
;MINZ:0.2
;MAXX:146.514
;MAXY:140.162
;MAXZ:23.4
;Generated with Cura_SteamEngine 4.9.1
M140 S55
M105
M190 S55
M104 S215
M105
M109 S215
M82 ;absolute extrusion mode
; Ender 3 Custom Start G-code
G92 E0 ; Reset Extruder
G28 ; Home all axes
G1 Z2.0 F3000 ; Move Z Axis up little to prevent scratching of Heat Bed
G1 X0.1 Y20 Z0.3 F5000.0 ; Move to start position
G1 X0.1 Y200.0 Z0.3 F1500.0 E15 ; Draw the first line
G1 X0.4 Y200.0 Z0.3 F5000.0 ; Move to side a little
G1 X0.4 Y20 Z0.3 F1500.0 E30 ; Draw the second line
G92 E0 ; Reset Extruder
G1 Z2.0 F3000 ; Move Z Axis up little to prevent scratching of Heat Bed
G1 X5 Y20 Z0.3 F5000.0 ; Move over to prevent blob squish
G92 E0
G92 E0
G1 F2700 E-5
;LAYER_COUNT:117
;LAYER:0
M107
;MESH:Voxelab_Aquila_Filament_Guide_mount.stl
G0 F6000 X108.899 Y125.607 Z0.2
;TYPE:WALL-INNER
G1 F2700 E0
G1 F1200 X109.76 Y125.522 E0.02878
G1 X110.036 Y125.498 E0.03799
G1 X111.161 Y125.162 E0.07704
G1 X111.413 Y125.047 E0.08625
G1 X112.263 Y124.6 E0.1182
G1 X112.488 Y124.44 E0.12738
G1 X113.268 Y123.812 E0.16069
G1 X113.979 Y122.975 E0.19721
G1 X114.403 Y122.22 E0.22601
G1 X114.592 Y121.964 E0.2366
G1 X114.634 Y121.907 E0.23895
G1 X118.122 Y114.023 E0.52569
G1 X118.261 Y113.662 E0.53856
G1 X118.526 Y112.978 E0.56295
G1 X118.647 Y112.649 E0.57461
G1 X119.084 Y111.066 E0.62923
G1 X119.192 Y110.41 E0.65135
G1 X119.279 Y109.949 E0.66695
G1 X119.449 Y108.565 E0.71333
G1 X119.476 Y108.051 E0.73045
G1 X119.485 Y104.893 E0.83548
G1 X119.289 Y103.882 E0.86974
G1 X119.153 Y103.647 E0.87877
G1 X118.9 Y103.156 E0.89714
G1 X117.452 Y102.032 E0.9581
G1 X117.039 Y101.97 E0.972
G1 X116.515 Y101.866 E0.98976
G1 X116.464 Y101.855 E0.9915
G1 X115.808 Y101.894 E1.01336
G1 X115.191 Y102.095 E1.03494
G1 X114.857 Y102.228 E1.0469
G1 X114.638 Y102.37 E1.05558
G1 X114.296 Y102.591 E1.06912
G1 X94.979 Y120.487 E1.94495
G1 X94.645 Y120.861 E1.96163
G1 X94.411 Y121.322 E1.97882
G1 X94.226 Y121.598 E1.98988
G1 X94.06 Y122.808 E2.0305
G1 X94.142 Y123.132 E2.04161
G1 X94.261 Y123.734 E2.06202
G1 X94.721 Y124.47 E2.09089
G1 X94.978 Y124.816 E2.10523
G1 X96.036 Y125.404 E2.14548
G1 X96.46 Y125.559 E2.1605
G1 X96.945 Y125.607 E2.17671
G1 X108.899 Y125.607 E2.5743
G0 F6000 X108.879 Y125.207
G1 F1200 X109.721 Y125.124 E2.60244
G1 X109.961 Y125.103 E2.61045
G1 X111.02 Y124.787 E2.64721
G1 X111.237 Y124.688 E2.65514
G1 X112.053 Y124.259 E2.68581
G1 X112.246 Y124.121 E2.6937
G1 X112.988 Y123.524 E2.72537
G1 X113.649 Y122.746 E2.75933
G1 X114.064 Y122.006 E2.78755
G1 X114.286 Y121.705 E2.79999
G1 X117.752 Y113.87 E3.08494
G1 X118.152 Y112.837 E3.12178
G1 X118.266 Y112.527 E3.13277
G1 X118.693 Y110.98 E3.18615
G1 X118.799 Y110.335 E3.20789
G1 X118.884 Y109.887 E3.22305
G1 X119.05 Y108.53 E3.26852
G1 X119.076 Y108.04 E3.28484
G1 X119.085 Y104.931 E3.38825
G1 X118.909 Y104.024 E3.41898
G1 X118.807 Y103.848 E3.42575
G1 X118.585 Y103.418 E3.44184
G1 X117.289 Y102.412 E3.49641
G1 X116.98 Y102.366 E3.5068
G1 X116.487 Y102.268 E3.52352
G1 X116.436 Y102.257 E3.52525
G1 X115.883 Y102.29 E3.54368
G1 X115.327 Y102.471 E3.56313
G1 X115.041 Y102.585 E3.57337
G1 X114.542 Y102.908 E3.59314
G1 X95.265 Y120.768 E4.46718
G1 X94.978 Y121.089 E4.4815
G1 X94.757 Y121.524 E4.49773
G1 X94.61 Y121.744 E4.50653
G1 X94.467 Y122.785 E4.54148
G1 X94.53 Y123.034 E4.55002
G1 X94.639 Y123.584 E4.56867
G1 X95.052 Y124.244 E4.59456
G1 X95.248 Y124.508 E4.6055
G1 X96.203 Y125.039 E4.64184
G1 X96.55 Y125.166 E4.65413
G1 X96.965 Y125.207 E4.668
G1 X108.879 Y125.207 E5.06426
G0 F6000 X108.859 Y124.807
G1 F1200 X109.687 Y124.725 E5.09194
G1 X109.886 Y124.708 E5.09858
G1 X110.879 Y124.412 E5.13305
G1 X111.061 Y124.329 E5.1397
G1 X111.842 Y123.918 E5.16905
G1 X112.004 Y123.802 E5.17568
G1 X112.708 Y123.236 E5.20572
G1 X113.319 Y122.517 E5.23711
G1 X113.728 Y121.787 E5.26494
G1 X113.938 Y121.503 E5.27668
G1 X117.382 Y113.717 E5.55985
G1 X117.778 Y112.696 E5.59627
G1 X117.885 Y112.405 E5.60659
G1 X118.302 Y110.894 E5.65872
G1 X118.404 Y110.27 E5.67975
G1 X118.489 Y109.825 E5.69482
G1 X118.651 Y108.495 E5.73938
G1 X118.676 Y108.029 E5.7549
G1 X118.685 Y104.969 E5.85668
G1 X118.529 Y104.166 E5.88389
G1 X118.454 Y104.036 E5.88888
G1 X118.27 Y103.68 E5.90221
G1 X117.126 Y102.792 E5.95038
G1 X116.908 Y102.759 E5.95771
G1 X116.408 Y102.659 E5.97467
G1 X115.958 Y102.686 E5.98966
G1 X115.463 Y102.847 E6.00697
G1 X115.226 Y102.942 E6.01547
G1 X114.788 Y103.225 E6.03281
G1 X95.551 Y121.048 E6.90504
G1 X95.311 Y121.317 E6.91703
G1 X95.103 Y121.725 E6.93226
G1 X94.994 Y121.889 E6.93881
G1 X94.874 Y122.762 E6.96812
G1 X94.918 Y122.936 E6.97409
G1 X94.921 Y122.956 E6.97476
G1 X95.017 Y123.434 E6.99098
G1 X95.383 Y124.018 E7.0139
G1 X95.518 Y124.2 E7.02144
G1 X96.37 Y124.674 E7.05387
G1 X96.64 Y124.773 E7.06343
G1 X96.985 Y124.807 E7.07496
G1 X108.859 Y124.807 E7.46989
G0 F6000 X108.839 Y124.407
;TYPE:WALL-OUTER
G1 F1200 X109.654 Y124.326 E7.49713
G1 X109.812 Y124.313 E7.50241
G1 X110.738 Y124.037 E7.53454
G1 X110.884 Y123.97 E7.53989
G1 X111.632 Y123.576 E7.56801
G1 X111.763 Y123.483 E7.57335
G1 X112.428 Y122.948 E7.60174
G1 X112.989 Y122.288 E7.63055
G1 X113.392 Y121.569 E7.65796
G1 X113.59 Y121.301 E7.66904
G1 X117.012 Y113.564 E7.95042
G1 X117.404 Y112.555 E7.98643
G1 X117.504 Y112.283 E7.99607
G1 X117.911 Y110.808 E8.04696
G1 X118.011 Y110.195 E8.06762
G1 X118.094 Y109.763 E8.08225
G1 X118.252 Y108.46 E8.1259
G1 X118.276 Y108.018 E8.14062
G1 X118.285 Y105.007 E8.24077
G1 X118.149 Y104.308 E8.26446
G1 X118.101 Y104.225 E8.26765
G1 X117.954 Y103.941 E8.27828
G1 X117.798 Y103.818 E8.28489
G1 X116.963 Y103.172 E8.32
G1 X116.832 Y103.152 E8.32441
G1 X116.38 Y103.061 E8.33974
G1 X116.033 Y103.082 E8.35131
G1 X115.6 Y103.223 E8.36645
G1 X115.411 Y103.299 E8.37323
G1 X115.034 Y103.542 E8.38815
G1 X95.837 Y121.329 E9.25859
G1 X95.644 Y121.545 E9.26822
G1 X95.448 Y121.928 E9.28253
G1 X95.378 Y122.034 E9.28675
G1 X95.281 Y122.739 E9.31042
G1 X95.306 Y122.838 E9.31382
G1 X95.395 Y123.284 E9.32895
G1 X95.714 Y123.792 E9.3489
G1 X95.788 Y123.892 E9.35304
G1 X96.538 Y124.309 E9.38158
G1 X96.73 Y124.38 E9.38839
G1 X97.005 Y124.407 E9.39758
G1 X108.839 Y124.407 E9.79118
G0 F6000 X108.86 Y124.846
G0 X113.388 Y123.935
G0 X114.736 Y122.115
G0 X114.386 Y137.71
;TYPE:WALL-INNER
G1 F1200 X90.312 Y137.71 E10.59188
G1 X90.113 Y137.71 E10.5985
G1 X90.113 Y137.511 E10.60278
G1 X90.114 Y135.9 E10.65636
G1 X90.224 Y135.9 E10.66002
G1 X90.182 Y133.466 E10.74099
G1 X90.424 Y133.466 E10.74904
G1 X90.424 Y130.661 E10.84233
G1 X90.135 Y130.658 E10.85195
G1 X90.134 Y124.223 E11.06598
G1 X94.635 Y120.11 E11.26877
G1 X114.072 Y102.347 E12.06991
G1 X114.373 Y102.072 E12.08232
G1 X117.84 Y98.903 E12.23854
G1 X119.496 Y97.856 E12.30371
G1 X119.594 Y97.799 E12.30748
G1 X120.456 Y97.528 E12.33753
G1 X120.655 Y97.475 E12.34438
G1 X121.892 Y97.327 E12.38582
G1 X121.944 Y97.324 E12.38755
G1 X124.175 Y97.324 E12.46175
G1 X124.22 Y97.324 E12.46325
G1 X126.48 Y97.324 E12.53842
G1 X139.373 Y97.323 E12.96724
G1 X139.373 Y97.635 E12.97762
G1 X126.481 Y97.635 E13.31183
G1 X124.265 Y97.633 E13.38554
G1 X124.22 Y97.633 E13.38703
G1 X124.22 Y97.678 E13.38801
G1 X124.219 Y99.25 E13.44029
G1 X124.042 Y99.259 E13.44619
G1 X123.795 Y99.305 E13.45454
G1 X123.007 Y99.614 E13.4827
G1 X122.258 Y100.077 E13.51198
G1 X121.472 Y100.871 E13.54914
G1 X120.991 Y101.672 E13.58022
G1 X120.605 Y102.936 E13.62418
G1 X120.603 Y102.982 E13.62571
G1 X120.565 Y103.579 E13.6456
G1 X120.562 Y103.614 E13.64677
G1 X120.651 Y104.447 E13.67464
G1 X120.883 Y105.246 E13.70231
G1 X121.161 Y105.815 E13.72337
G1 X121.654 Y106.496 E13.75133
G1 X122.275 Y107.096 E13.78005
G1 X123.017 Y107.553 E13.80904
G1 X123.824 Y107.866 E13.83783
G1 X124.219 Y107.929 E13.85113
G1 X124.22 Y109.528 E13.90431
G1 X124.493 Y109.528 E13.91339
G1 X139.373 Y109.526 E14.4083
G1 X139.373 Y109.837 E14.41865
G1 X124.494 Y109.837 E14.80314
G1 X124.253 Y109.86 E14.80952
G1 X123.622 Y109.923 E14.83061
G1 X123.326 Y109.95 E14.84049
G1 X122.166 Y110.334 E14.88113
G1 X121.754 Y110.494 E14.89583
G1 X120.677 Y111.192 E14.93852
G1 X120.458 Y111.341 E14.94733
G1 X119.707 Y112.116 E14.98322
G1 X119.44 Y112.403 E14.99626
G1 X118.831 Y113.415 E15.03555
G1 X118.718 Y113.617 E15.04324
G1 X118.627 Y113.823 E15.05074
G1 X118.471 Y114.177 E15.06331
G1 X114.985 Y122.061 E15.33781
G1 X114.956 Y122.126 E15.34013
G1 X114.393 Y123.4 E15.38645
G1 X114.394 Y124.979 E15.43897
G1 X114.387 Y132.983 E15.70519
G1 X114.386 Y137.71 E15.86241
G0 F6000 X114.786 Y138.11
G1 F1200 X89.912 Y138.11 E16.68972
G1 X89.713 Y138.11 E16.69634
G1 X89.713 Y137.911 E16.70062
G1 X89.714 Y135.5 E16.78081
G1 X89.817 Y135.5 E16.78424
G1 X89.775 Y133.066 E16.8652
G1 X90.024 Y133.066 E16.87349
G1 X90.024 Y131.057 E16.94031
G1 X89.742 Y131.054 E16.94969
G1 X89.734 Y130.613 E16.96436
G1 X89.734 Y124.047 E17.18274
G1 X117.583 Y98.596 E18.43754
G1 X117.607 Y98.577 E18.43856
G1 X119.288 Y97.514 E18.50471
G1 X119.434 Y97.43 E18.51032
G1 X120.346 Y97.143 E18.54212
G1 X120.575 Y97.082 E18.55
G1 X120.607 Y97.079 E18.55107
G1 X121.853 Y96.929 E18.59281
G1 X121.868 Y96.929 E18.59331
G1 X121.937 Y96.924 E18.59561
G1 X139.574 Y96.923 E19.18222
G1 X139.773 Y96.923 E19.18884
G1 X139.773 Y97.122 E19.19312
G1 X139.773 Y98.035 E19.22348
G1 X126.481 Y98.035 E19.66558
G1 X124.819 Y98.033 E19.72086
G1 X124.62 Y98.033 E19.72748
G1 X124.62 Y98.232 E19.73176
G1 X124.619 Y99.632 E19.77832
G1 X124.088 Y99.657 E19.796
G1 X123.906 Y99.691 E19.80216
G1 X123.187 Y99.973 E19.82785
G1 X122.509 Y100.392 E19.85436
G1 X121.79 Y101.118 E19.88834
G1 X121.359 Y101.836 E19.91619
G1 X121.001 Y103.008 E19.95695
G1 X120.999 Y103.054 E19.95848
G1 X120.966 Y103.569 E19.97565
G1 X120.963 Y103.605 E19.97685
G1 X121.045 Y104.369 E20.00241
G1 X121.258 Y105.102 E20.0278
G1 X121.505 Y105.609 E20.04655
G1 X121.957 Y106.233 E20.07218
G1 X122.522 Y106.778 E20.09829
G1 X123.196 Y107.193 E20.12462
G1 X123.929 Y107.478 E20.15077
G1 X124.619 Y107.587 E20.17401
G1 X124.62 Y109.128 E20.22526
G1 X139.574 Y109.126 E20.72263
G1 X139.773 Y109.126 E20.72925
G1 X139.773 Y109.325 E20.73353
G1 X139.773 Y110.237 E20.76387
G1 X124.514 Y110.237 E21.27138
G1 X123.661 Y110.321 E21.29989
G1 X123.408 Y110.344 E21.30834
G1 X122.301 Y110.711 E21.34713
G1 X121.937 Y110.852 E21.36011
G1 X120.898 Y111.526 E21.40131
G1 X120.716 Y111.649 E21.40861
G1 X119.997 Y112.391 E21.44298
G1 X119.761 Y112.645 E21.45451
G1 X119.177 Y113.616 E21.4922
G1 X119.076 Y113.796 E21.49906
G1 X114.793 Y123.484 E21.85137
G1 X114.794 Y124.979 E21.90109
G1 X114.787 Y132.983 E22.16731
G1 X114.786 Y138.11 E22.33783
G0 F6000 X115.186 Y138.51
G1 F1200 X89.512 Y138.51 E23.19175
G1 X89.313 Y138.51 E23.19837
G1 X89.313 Y138.311 E23.20265
G1 X89.314 Y135.1 E23.30945
G1 X89.41 Y135.1 E23.31265
G1 X89.368 Y132.666 E23.39361
G1 X89.624 Y132.666 E23.40213
G1 X89.624 Y131.453 E23.44247
G1 X89.349 Y131.45 E23.45162
G1 X89.334 Y130.613 E23.47946
G1 X89.334 Y123.871 E23.7037
G1 X117.328 Y98.287 E24.96505
G1 X117.374 Y98.251 E24.96699
G1 X119.081 Y97.172 E25.03416
G1 X119.274 Y97.061 E25.04156
G1 X120.236 Y96.758 E25.07511
G1 X120.495 Y96.689 E25.08402
G1 X120.527 Y96.686 E25.08509
G1 X121.814 Y96.531 E25.12821
G1 X121.828 Y96.531 E25.12867
G1 X121.909 Y96.526 E25.13137
G1 X121.93 Y96.524 E25.13207
G1 X139.949 Y96.523 E25.73139
G1 X140.124 Y96.523 E25.73721
G1 X140.173 Y96.53 E25.73885
G1 X140.173 Y96.705 E25.74468
G1 X140.173 Y98.435 E25.80222
G1 X126.481 Y98.435 E26.25761
G1 X125.219 Y98.433 E26.29959
G1 X125.02 Y98.433 E26.30621
G1 X125.02 Y98.632 E26.31049
G1 X125.019 Y100.014 E26.35645
G1 X124.134 Y100.055 E26.38592
G1 X124.017 Y100.077 E26.38988
G1 X123.367 Y100.332 E26.4131
G1 X122.76 Y100.707 E26.43683
G1 X122.108 Y101.365 E26.46764
G1 X121.727 Y102 E26.49227
G1 X121.397 Y103.08 E26.52983
G1 X121.364 Y103.596 E26.54703
G1 X121.439 Y104.291 E26.57028
G1 X121.633 Y104.958 E26.59339
G1 X121.849 Y105.403 E26.60984
G1 X122.26 Y105.97 E26.63313
G1 X122.768 Y106.46 E26.65661
G1 X123.375 Y106.833 E26.6803
G1 X124.034 Y107.09 E26.70383
G1 X124.724 Y107.198 E26.72706
G1 X125.019 Y107.2 E26.73687
G1 X125.02 Y108.728 E26.78769
G1 X139.974 Y108.726 E27.28506
G1 X140.173 Y108.726 E27.29168
G1 X140.173 Y108.925 E27.29596
G1 X140.173 Y110.63 E27.35267
G1 X140.119 Y110.637 E27.35448
G1 X124.534 Y110.637 E27.87284
G1 X123.7 Y110.719 E27.90071
G1 X123.49 Y110.738 E27.90773
G1 X122.436 Y111.088 E27.94467
G1 X122.12 Y111.21 E27.95593
G1 X121.119 Y111.859 E27.99561
G1 X120.975 Y111.957 E28.0014
G1 X120.287 Y112.666 E28.03426
G1 X120.082 Y112.887 E28.04429
G1 X119.523 Y113.817 E28.08038
G1 X119.434 Y113.975 E28.08641
G1 X115.193 Y123.568 E28.43526
G1 X115.194 Y124.979 E28.48219
G1 X115.187 Y132.983 E28.74841
G1 X115.186 Y138.51 E28.93224
G0 F6000 X115.586 Y138.91
;TYPE:WALL-OUTER
G1 F1200 X88.913 Y138.91 E29.81939
G1 X88.914 Y134.7 E29.95941
G1 X89.003 Y134.7 E29.96237
G1 X88.961 Y132.266 E30.04334
G1 X89.224 Y132.266 E30.05208
G1 X89.224 Y131.849 E30.06595
G1 X88.956 Y131.846 E30.07487
G1 X88.934 Y130.613 E30.11588
G1 X88.934 Y123.695 E30.34598
G1 X117.071 Y97.98 E31.61378
G1 X117.142 Y97.924 E31.61678
G1 X118.881 Y96.825 E31.6852
G1 X119.112 Y96.692 E31.69407
G1 X120.121 Y96.374 E31.72926
G1 X120.418 Y96.296 E31.73947
G1 X121.775 Y96.133 E31.78493
G1 X121.922 Y96.124 E31.78983
G1 X140.147 Y96.123 E32.39599
G1 X140.573 Y96.18 E32.41029
G1 X140.573 Y98.835 E32.49859
G1 X126.481 Y98.835 E32.9673
G1 X125.42 Y98.833 E33.00258
G1 X125.419 Y100.396 E33.05457
G1 X124.181 Y100.453 E33.09579
G1 X124.128 Y100.463 E33.09758
G1 X123.547 Y100.691 E33.11834
G1 X123.011 Y101.022 E33.1393
G1 X122.426 Y101.612 E33.16693
G1 X122.095 Y102.164 E33.18834
G1 X121.793 Y103.152 E33.2227
G1 X121.765 Y103.587 E33.2372
G1 X121.833 Y104.213 E33.25814
G1 X122.008 Y104.814 E33.27896
G1 X122.194 Y105.197 E33.29312
G1 X122.563 Y105.707 E33.31406
G1 X123.014 Y106.142 E33.3349
G1 X123.554 Y106.473 E33.35597
G1 X124.139 Y106.702 E33.37686
G1 X124.756 Y106.798 E33.39763
G1 X125.419 Y106.803 E33.41968
G1 X125.42 Y108.328 E33.4704
G1 X140.573 Y108.326 E33.97439
G1 X140.573 Y110.981 E34.0627
G1 X140.148 Y111.037 E34.07696
G1 X124.554 Y111.037 E34.59561
G1 X123.734 Y111.118 E34.62302
G1 X123.571 Y111.132 E34.62846
G1 X122.571 Y111.465 E34.66352
G1 X122.303 Y111.568 E34.67307
G1 X121.341 Y112.192 E34.71121
G1 X121.234 Y112.265 E34.71551
G1 X120.577 Y112.941 E34.74687
G1 X120.404 Y113.128 E34.75534
G1 X119.869 Y114.019 E34.78991
G1 X119.792 Y114.155 E34.7951
G1 X115.593 Y123.652 E35.14047
G1 X115.594 Y124.979 E35.18461
G1 X115.587 Y132.983 E35.45082
G1 X115.586 Y138.91 E35.64796
G0 F6000 X115.316 Y138.64
G0 X113.996 Y137.6
G0 X113.996 Y137.32
;TYPE:SKIN
G1 F1200 X90.503 Y137.32 E36.42934
G1 X90.504 Y136.29 E36.46359
G1 X90.62 Y136.29 E36.46745
G1 X90.578 Y133.856 E36.54842
G1 X90.814 Y133.856 E36.55627
G1 X90.814 Y130.275 E36.67537
G1 X90.525 Y130.272 E36.68499
G1 X90.524 Y124.395 E36.88046
G1 X94.027 Y121.194 E37.03828
G1 X93.852 Y121.456 E37.04876
G1 X93.664 Y122.83 E37.09489
G1 X93.762 Y123.218 E37.1082
G1 X93.892 Y123.88 E37.13064
G1 X94.399 Y124.69 E37.16242
G1 X94.715 Y125.116 E37.18006
G1 X95.874 Y125.759 E37.22415
G1 X96.372 Y125.943 E37.2418
G1 X96.926 Y125.997 E37.26032
G1 X108.918 Y125.997 E37.65917
G1 X109.799 Y125.91 E37.68862
G1 X110.11 Y125.883 E37.699
G1 X111.298 Y125.528 E37.74024
G1 X111.585 Y125.398 E37.75072
G1 X112.468 Y124.933 E37.78391
G1 X112.724 Y124.752 E37.79434
G1 X113.541 Y124.093 E37.82925
G1 X114.003 Y123.549 E37.85299
G1 X114.004 Y124.979 E37.90055
G1 X113.997 Y132.983 E38.16676
G1 X113.996 Y137.32 E38.31101
G0 F6000 X113.996 Y137.6
G0 X114.736 Y122.115
G0 X113.271 Y123.952
G0 X113.545 Y124.293
G1 F1200 X113.844 Y124.592 E38.32508
G0 F6000 X113.844 Y125.157
G1 F1200 X113.233 Y124.546 E38.35382
G0 F6000 X112.92 Y124.799
G1 F1200 X113.844 Y125.723 E38.39728
G0 F6000 X113.843 Y126.288
G1 F1200 X112.594 Y125.039 E38.45603
G0 F6000 X112.229 Y125.239
G1 F1200 X113.842 Y126.853 E38.53192
G0 F6000 X113.842 Y127.418
G1 F1200 X111.858 Y125.435 E38.62522
G0 F6000 X111.479 Y125.621
