;FLAVOR:Marlin
;TIME:1835
;Filament used: 1.26708m
;Layer height: 0.2
;MINX:77.606
;MINY:94.526
;MINZ:0.2
;MAXX:157.394
;MAXY:140.474
;MAXZ:4.4
;Generated with Cura_SteamEngine 4.7.0
M140 S55
M105
M190 S55
M104 S210
M105
M109 S210
M82 ;absolute extrusion mode
; Ender 3 Custom Start G-code
G92 E0 ; Reset Extruder
G28 ; Home all axes
G1 Z2.0 F3000 ; Move Z Axis up little to prevent scratching of Heat Bed
G1 X0.1 Y20 Z0.3 F5000.0 ; Move to start position
G1 X0.1 Y200.0 Z0.3 F1500.0 E15 ; Draw the first line
G1 X0.4 Y200.0 Z0.3 F5000.0 ; Move to side a little
G1 X0.4 Y20 Z0.3 F1500.0 E30 ; Draw the second line
G92 E0 ; Reset Extruder
G1 Z2.0 F3000 ; Move Z Axis up little to prevent scratching of Heat Bed
G1 X5 Y20 Z0.3 F5000.0 ; Move over to prevent blob squish
G92 E0
G92 E0
G1 F2700 E-5
;LAYER_COUNT:22
;LAYER:0
M107
G0 F6000 X81.492 Y97.153 Z0.2
;TYPE:SKIRT
G1 F2700 E0
G1 F1200 X82.232 Y96.577 E0.03119
G1 X83.018 Y96.065 E0.06239
G1 X83.845 Y95.623 E0.09358
G1 X84.707 Y95.253 E0.12478
G1 X85.597 Y94.957 E0.15597
G1 X86.509 Y94.739 E0.18716
G1 X87.436 Y94.598 E0.21835
G1 X88.307 Y94.539 E0.24738
G1 X88.628 Y94.53 E0.25806
G1 X88.936 Y94.526 E0.26831
G1 X145.845 Y94.527 E2.16111
G1 X146.543 Y94.537 E2.18433
G1 X147.479 Y94.591 E2.21551
G1 X148.407 Y94.723 E2.24669
G1 X149.321 Y94.935 E2.27789
G1 X150.213 Y95.224 E2.30908
G1 X151.078 Y95.587 E2.34028
G1 X151.908 Y96.023 E2.37146
G1 X152.699 Y96.528 E2.40268
G1 X153.443 Y97.099 E2.43387
G1 X154.136 Y97.731 E2.46507
G1 X154.773 Y98.419 E2.49625
G1 X155.348 Y99.16 E2.52745
G1 X155.859 Y99.946 E2.55863
G1 X156.301 Y100.774 E2.58985
G1 X156.67 Y101.636 E2.62103
G1 X156.965 Y102.526 E2.65222
G1 X157.183 Y103.438 E2.68341
G1 X157.323 Y104.366 E2.71462
G1 X157.381 Y105.227 E2.74332
G1 X157.39 Y105.547 E2.75397
G1 X157.394 Y105.856 E2.76425
G1 X157.393 Y128.874 E3.52983
G1 X157.384 Y129.601 E3.55401
G1 X157.333 Y130.538 E3.58522
G1 X157.201 Y131.466 E3.6164
G1 X156.992 Y132.38 E3.64758
G1 X156.705 Y133.273 E3.67878
G1 X156.343 Y134.139 E3.71
G1 X155.909 Y134.97 E3.74118
G1 X155.405 Y135.761 E3.77238
G1 X154.836 Y136.506 E3.80356
G1 X154.205 Y137.201 E3.83478
G1 X153.518 Y137.839 E3.86596
G1 X152.779 Y138.416 E3.89714
G1 X151.993 Y138.928 E3.92834
G1 X151.167 Y139.371 E3.95952
G1 X150.305 Y139.743 E3.99074
G1 X149.416 Y140.039 E4.02191
G1 X148.504 Y140.259 E4.05311
G1 X147.577 Y140.4 E4.0843
G1 X146.693 Y140.461 E4.11377
G1 X146.372 Y140.47 E4.12445
G1 X146.064 Y140.474 E4.1347
G1 X89.171 Y140.473 E6.02697
G1 X88.473 Y140.464 E6.05018
G1 X87.537 Y140.412 E6.08136
G1 X86.608 Y140.28 E6.11257
G1 X85.694 Y140.07 E6.14376
G1 X84.801 Y139.783 E6.17496
G1 X83.936 Y139.42 E6.20616
G1 X83.105 Y138.986 E6.23734
G1 X82.314 Y138.482 E6.26854
G1 X81.569 Y137.912 E6.29974
G1 X80.875 Y137.281 E6.33093
G1 X80.238 Y136.594 E6.3621
G1 X79.661 Y135.854 E6.39331
G1 X79.149 Y135.068 E6.42451
G1 X78.706 Y134.241 E6.45571
G1 X78.335 Y133.38 E6.48689
G1 X78.039 Y132.49 E6.51809
G1 X77.82 Y131.578 E6.54928
G1 X77.679 Y130.651 E6.58047
G1 X77.619 Y129.762 E6.61011
G1 X77.61 Y129.429 E6.62118
G1 X77.606 Y129.132 E6.63106
G1 X77.607 Y106.051 E7.39874
G1 X77.616 Y105.386 E7.42086
G1 X77.669 Y104.45 E7.45204
G1 X77.801 Y103.521 E7.48325
G1 X78.012 Y102.607 E7.51445
G1 X78.3 Y101.715 E7.54563
G1 X78.663 Y100.85 E7.57683
G1 X79.098 Y100.019 E7.60802
G1 X79.602 Y99.229 E7.63919
G1 X80.172 Y98.484 E7.67039
G1 X80.804 Y97.79 E7.70161
G1 X81.492 Y97.153 E7.7328
G0 F6000 X81.88 Y97.349
G1 F1200 X82.616 Y96.796 E7.76342
G1 X83.397 Y96.308 E7.79405
G1 X84.217 Y95.89 E7.82466
G1 X85.071 Y95.545 E7.85529
G1 X85.951 Y95.275 E7.88591
G1 X86.851 Y95.083 E7.91652
G1 X87.765 Y94.969 E7.94715
G1 X88.318 Y94.939 E7.96557
G1 X88.639 Y94.93 E7.97625
G1 X88.936 Y94.926 E7.98613
G1 X145.687 Y94.926 E9.87368
G1 X146.537 Y94.937 E9.90195
G1 X147.456 Y94.99 E9.93257
G1 X148.367 Y95.123 E9.96319
G1 X149.263 Y95.334 E9.9938
G1 X150.137 Y95.622 E10.02441
G1 X150.984 Y95.985 E10.05506
G1 X151.795 Y96.42 E10.08567
G1 X152.565 Y96.924 E10.11628
G1 X153.289 Y97.493 E10.14691
G1 X153.961 Y98.123 E10.17754
G1 X154.576 Y98.808 E10.20816
G1 X155.129 Y99.544 E10.23878
G1 X155.616 Y100.325 E10.26939
G1 X156.033 Y101.146 E10.30002
G1 X156.378 Y102 E10.33065
G1 X156.647 Y102.88 E10.36126
G1 X156.839 Y103.781 E10.3919
G1 X156.952 Y104.694 E10.4225
G1 X156.981 Y105.238 E10.44062
G1 X156.99 Y105.558 E10.45127
G1 X156.994 Y105.856 E10.46118
G1 X156.993 Y128.869 E11.22659
G1 X156.984 Y129.596 E11.25077
G1 X156.933 Y130.515 E11.28139
G1 X156.802 Y131.427 E11.31203
G1 X156.592 Y132.323 E11.34264
G1 X156.306 Y133.198 E11.37326
G1 X155.945 Y134.045 E11.40388
G1 X155.511 Y134.857 E11.43451
G1 X155.009 Y135.629 E11.46513
G1 X154.441 Y136.354 E11.49577
G1 X153.813 Y137.027 E11.52638
G1 X153.129 Y137.643 E11.557
G1 X152.394 Y138.197 E11.58761
G1 X151.614 Y138.686 E11.61823
G1 X150.794 Y139.105 E11.64886
G1 X149.941 Y139.451 E11.67947
G1 X149.061 Y139.722 E11.7101
G1 X148.161 Y139.915 E11.74071
G1 X147.247 Y140.03 E11.77135
G1 X146.682 Y140.061 E11.79017
G1 X146.361 Y140.07 E11.80085
G1 X146.064 Y140.074 E11.81073
G1 X89.176 Y140.073 E13.70284
G1 X88.478 Y140.064 E13.72605
G1 X87.559 Y140.012 E13.75667
G1 X86.648 Y139.881 E13.78728
G1 X85.752 Y139.671 E13.81789
G1 X84.877 Y139.384 E13.84852
G1 X84.03 Y139.022 E13.87915
G1 X83.218 Y138.588 E13.90978
G1 X82.447 Y138.086 E13.94038
G1 X81.722 Y137.518 E13.97101
G1 X81.049 Y136.889 E14.00165
G1 X80.434 Y136.205 E14.03224
G1 X79.88 Y135.47 E14.06285
G1 X79.392 Y134.689 E14.09348
G1 X78.973 Y133.869 E14.12411
G1 X78.627 Y133.016 E14.15473
G1 X78.357 Y132.136 E14.18534
G1 X78.164 Y131.235 E14.21599
G1 X78.05 Y130.322 E14.24659
G1 X78.019 Y129.751 E14.26561
G1 X78.01 Y129.418 E14.27669
G1 X78.006 Y129.132 E14.2862
G1 X78.007 Y106.057 E15.05368
G1 X78.016 Y105.392 E15.0758
G1 X78.068 Y104.472 E15.10645
G1 X78.2 Y103.561 E15.13707
G1 X78.411 Y102.665 E15.16768
G1 X78.698 Y101.79 E15.19831
G1 X79.061 Y100.944 E15.22893
G1 X79.495 Y100.132 E15.25955
G1 X79.998 Y99.361 E15.29017
G1 X80.567 Y98.637 E15.3208
G1 X81.195 Y97.965 E15.35139
G1 X81.88 Y97.349 E15.38203
G0 F6000 X82.268 Y97.55
G1 F1200 X83 Y97.02 E15.41209
G1 X83.775 Y96.557 E15.44211
G1 X84.588 Y96.164 E15.47215
G1 X85.433 Y95.844 E15.5022
G1 X86.302 Y95.601 E15.53221
G1 X87.19 Y95.435 E15.56226
G1 X88.329 Y95.339 E15.60028
G1 X88.65 Y95.33 E15.61096
G1 X88.936 Y95.326 E15.62047
G1 X145.687 Y95.326 E17.50802
G1 X146.531 Y95.337 E17.53609
G1 X147.433 Y95.39 E17.56614
G1 X148.326 Y95.522 E17.59617
G1 X149.204 Y95.733 E17.6262
G1 X150.06 Y96.021 E17.65624
G1 X150.887 Y96.383 E17.68627
G1 X151.679 Y96.818 E17.71632
G1 X152.43 Y97.32 E17.74636
G1 X153.133 Y97.887 E17.7764
G1 X153.783 Y98.514 E17.80644
G1 X154.375 Y99.196 E17.83648
G1 X154.905 Y99.927 E17.86651
G1 X155.367 Y100.703 E17.89655
G1 X155.76 Y101.516 E17.92658
G1 X156.078 Y102.361 E17.95661
G1 X156.321 Y103.231 E17.98666
G1 X156.486 Y104.119 E18.0167
G1 X156.581 Y105.249 E18.05441
G1 X156.59 Y105.569 E18.06506
G1 X156.594 Y105.856 E18.07461
G1 X156.593 Y128.864 E18.83986
G1 X156.584 Y129.591 E18.86404
G1 X156.533 Y130.493 E18.89409
G1 X156.402 Y131.387 E18.92414
G1 X156.193 Y132.265 E18.95416
G1 X155.907 Y133.122 E18.98421
G1 X155.546 Y133.95 E19.01425
G1 X155.114 Y134.742 E19.04425
G1 X154.613 Y135.494 E19.07431
G1 X154.047 Y136.198 E19.10435
G1 X153.422 Y136.849 E19.13437
G1 X152.741 Y137.443 E19.16442
G1 X152.01 Y137.974 E19.19448
G1 X151.236 Y138.438 E19.22449
G1 X150.423 Y138.832 E19.25454
G1 X149.579 Y139.152 E19.28456
G1 X148.709 Y139.397 E19.31462
G1 X147.822 Y139.563 E19.34464
G1 X146.671 Y139.661 E19.38306
G1 X146.35 Y139.67 E19.39374
G1 X146.064 Y139.674 E19.40325
G1 X89.181 Y139.673 E21.29519
G1 X88.483 Y139.664 E21.3184
G1 X87.582 Y139.613 E21.34842
G1 X86.688 Y139.481 E21.37848
G1 X85.81 Y139.272 E21.4085
G1 X84.953 Y138.985 E21.43856
G1 X84.126 Y138.624 E21.46857
G1 X83.333 Y138.191 E21.49862
G1 X82.582 Y137.69 E21.52865
G1 X81.878 Y137.124 E21.55869
G1 X81.227 Y136.498 E21.58873
G1 X80.634 Y135.817 E21.61876
G1 X80.104 Y135.086 E21.64879
G1 X79.64 Y134.311 E21.67884
G1 X79.246 Y133.498 E21.70889
G1 X78.926 Y132.654 E21.73891
G1 X78.682 Y131.784 E21.76896
G1 X78.516 Y130.896 E21.79901
G1 X78.419 Y129.741 E21.83756
G1 X78.41 Y129.408 E21.84864
G1 X78.406 Y129.132 E21.85782
G1 X78.407 Y106.062 E22.62513
G1 X78.416 Y105.397 E22.64725
G1 X78.468 Y104.495 E22.6773
G1 X78.6 Y103.602 E22.70732
G1 X78.81 Y102.724 E22.73735
G1 X79.097 Y101.867 E22.76741
G1 X79.459 Y101.04 E22.79743
G1 X79.892 Y100.248 E22.82746
G1 X80.394 Y99.497 E22.8575
G1 X80.961 Y98.793 E22.88757
G1 X81.587 Y98.143 E22.91758
G1 X82.268 Y97.55 E22.94762
G1 F2700 E17.94762
;MESH:display.stl
G0 F6000 X89.026 Y104.861
G0 X89.026 Y105.946
G0 X145.612 Y106.308
G0 X145.794 Y128.874
;TYPE:WALL-INNER
G1 F2700 E22.94762
G1 F1200 X89.206 Y128.874 E24.82974
G1 X89.206 Y106.126 E25.58634
G1 X145.794 Y106.126 E27.46847
G1 X145.794 Y128.874 E28.22507
G0 F6000 X146.194 Y129.274
;TYPE:WALL-OUTER
G1 F1200 X88.806 Y129.274 E30.1338
G1 X88.806 Y105.726 E30.91701
G1 X146.194 Y105.726 E32.82574
G1 X146.194 Y129.274 E33.60895
G0 F6000 X145.924 Y129.004
G0 X145.684 Y128.484
G0 X145.404 Y128.484
;TYPE:SKIN
G1 F1200 X89.596 Y128.484 E35.46513
G1 X89.596 Y106.516 E36.19579
G1 X145.404 Y106.516 E38.05197
G1 X145.404 Y128.484 E38.78263
G0 F6000 X145.684 Y128.484
G0 X145.684 Y106.776
G0 X145.243 Y106.776
G1 F1200 X145.142 Y106.676 E38.78736
G0 F6000 X144.577 Y106.676
G1 F1200 X145.243 Y107.342 E38.81869
G0 F6000 X145.243 Y107.908
G1 F1200 X144.011 Y106.676 E38.87664
G0 F6000 X143.445 Y106.676
G1 F1200 X145.243 Y108.473 E38.96119
G0 F6000 X145.243 Y109.039
G1 F1200 X142.88 Y106.676 E39.07233
G0 F6000 X142.314 Y106.676
G1 F1200 X145.243 Y109.605 E39.2101
G0 F6000 X145.243 Y110.17
G1 F1200 X141.748 Y106.676 E39.37448
G0 F6000 X141.183 Y106.676
G1 F1200 X145.243 Y110.736 E39.56545
G0 F6000 X145.243 Y111.302
G1 F1200 X140.617 Y106.676 E39.78304
G0 F6000 X140.051 Y106.676
G1 F1200 X145.243 Y111.867 E40.02723
G0 F6000 X145.243 Y112.433
G1 F1200 X139.486 Y106.676 E40.29802
G0 F6000 X138.92 Y106.676
G1 F1200 X145.243 Y112.999 E40.59544
G0 F6000 X145.243 Y113.564
G1 F1200 X138.354 Y106.676 E40.91945
G0 F6000 X137.788 Y106.676
G1 F1200 X145.243 Y114.13 E41.27009
G0 F6000 X145.243 Y114.696
G1 F1200 X137.223 Y106.676 E41.64732
G0 F6000 X136.657 Y106.676
G1 F1200 X145.243 Y115.261 E42.05116
G0 F6000 X145.243 Y115.827
G1 F1200 X136.091 Y106.676 E42.48162
G0 F6000 X135.526 Y106.676
G1 F1200 X145.243 Y116.393 E42.93868
G0 F6000 X145.243 Y116.958
G1 F1200 X134.96 Y106.676 E43.42233
G0 F6000 X134.394 Y106.676
G1 F1200 X145.243 Y117.524 E43.93261
G0 F6000 X145.243 Y118.09
G1 F1200 X133.829 Y106.676 E44.46949
G0 F6000 X133.263 Y106.676
G1 F1200 X145.243 Y118.656 E45.03299
G0 F6000 X145.243 Y119.221
G1 F1200 X132.697 Y106.676 E45.6231
G0 F6000 X132.132 Y106.676
G1 F1200 X145.243 Y119.787 E46.2398
G0 F6000 X145.243 Y120.353
G1 F1200 X131.566 Y106.676 E46.88312
G0 F6000 X131 Y106.676
G1 F1200 X145.243 Y120.918 E47.55305
G0 F6000 X145.243 Y121.484
G1 F1200 X130.435 Y106.676 E48.24957
G0 F6000 X129.869 Y106.676
G1 F1200 X145.243 Y122.05 E48.97271
G0 F6000 X145.243 Y122.615
G1 F1200 X129.303 Y106.676 E49.72246
G0 F6000 X128.737 Y106.676
G1 F1200 X145.243 Y123.181 E50.49883
G0 F6000 X145.243 Y123.747
G1 F1200 X128.172 Y106.676 E51.3018
G0 F6000 X127.606 Y106.676
G1 F1200 X145.243 Y124.312 E52.13136
G0 F6000 X145.243 Y124.878
G1 F1200 X127.04 Y106.676 E52.98755
G0 F6000 X126.475 Y106.676
G1 F1200 X145.243 Y125.444 E53.87034
G0 F6000 X145.243 Y126.009
G1 F1200 X125.909 Y106.676 E54.77973
G0 F6000 X125.343 Y106.676
G1 F1200 X145.243 Y126.575 E55.71574
G0 F6000 X145.243 Y127.141
G1 F1200 X124.778 Y106.676 E56.67835
G0 F6000 X124.212 Y106.676
G1 F1200 X145.243 Y127.707 E57.66759
G0 F6000 X145.243 Y128.272
G1 F1200 X123.646 Y106.676 E58.68342
G0 F6000 X123.081 Y106.676
G1 F1200 X144.727 Y128.322 E59.70158
G0 F6000 X144.162 Y128.322
G1 F1200 X122.515 Y106.676 E60.71977
G0 F6000 X121.949 Y106.676
G1 F1200 X143.596 Y128.322 E61.73795
G0 F6000 X143.03 Y128.322
G1 F1200 X121.384 Y106.676 E62.75611
G0 F6000 X120.818 Y106.676
G1 F1200 X142.465 Y128.322 E63.7743
G0 F6000 X141.899 Y128.322
G1 F1200 X120.252 Y106.676 E64.79248
G0 F6000 X119.687 Y106.676
G1 F1200 X141.333 Y128.322 E65.81064
G0 F6000 X140.767 Y128.322
G1 F1200 X119.121 Y106.676 E66.8288
G0 F6000 X118.555 Y106.676
G1 F1200 X140.202 Y128.322 E67.84699
G0 F6000 X139.636 Y128.322
G1 F1200 X117.989 Y106.676 E68.86517
G0 F6000 X117.424 Y106.676
G1 F1200 X139.07 Y128.322 E69.88334
G0 F6000 X138.505 Y128.322
G1 F1200 X116.858 Y106.676 E70.90152
G0 F6000 X116.292 Y106.676
G1 F1200 X137.939 Y128.322 E71.91971
G0 F6000 X137.373 Y128.322
G1 F1200 X115.727 Y106.676 E72.93787
G0 F6000 X115.161 Y106.676
G1 F1200 X136.808 Y128.322 E73.95605
G0 F6000 X136.242 Y128.322
G1 F1200 X114.595 Y106.676 E74.97424
G0 F6000 X114.03 Y106.676
G1 F1200 X135.676 Y128.322 E75.9924
G0 F6000 X135.111 Y128.322
G1 F1200 X113.464 Y106.676 E77.01058
G0 F6000 X112.898 Y106.676
G1 F1200 X134.545 Y128.322 E78.02877
G0 F6000 X133.979 Y128.322
G1 F1200 X112.333 Y106.676 E79.04693
G0 F6000 X111.767 Y106.676
G1 F1200 X133.414 Y128.322 E80.06512
G0 F6000 X132.848 Y128.322
G1 F1200 X111.201 Y106.676 E81.0833
G0 F6000 X110.636 Y106.676
G1 F1200 X132.282 Y128.322 E82.10146
G0 F6000 X131.717 Y128.322
G1 F1200 X110.07 Y106.676 E83.11965
G0 F6000 X109.504 Y106.676
G1 F1200 X131.151 Y128.322 E84.13783
G0 F6000 X130.585 Y128.322
G1 F1200 X108.938 Y106.676 E85.15602
G0 F6000 X108.373 Y106.676
G1 F1200 X130.019 Y128.322 E86.17418
G0 F6000 X129.454 Y128.322
G1 F1200 X107.807 Y106.676 E87.19236
G0 F6000 X107.241 Y106.676
G1 F1200 X128.888 Y128.322 E88.21055
G0 F6000 X128.322 Y128.322
G1 F1200 X106.676 Y106.676 E89.22871
G0 F6000 X106.11 Y106.676
G1 F1200 X127.757 Y128.322 E90.24689
G0 F6000 X127.191 Y128.322
G1 F1200 X105.544 Y106.676 E91.26508
G0 F6000 X104.979 Y106.676
G1 F1200 X126.625 Y128.322 E92.28324
G0 F6000 X126.06 Y128.322
G1 F1200 X104.413 Y106.676 E93.30143
G0 F6000 X103.847 Y106.676
G1 F1200 X125.494 Y128.322 E94.31961
G0 F6000 X124.928 Y128.322
G1 F1200 X103.282 Y106.676 E95.33777
G0 F6000 X102.716 Y106.676
G1 F1200 X124.363 Y128.322 E96.35596
G0 F6000 X123.797 Y128.322
G1 F1200 X102.15 Y106.676 E97.37414
G0 F6000 X101.585 Y106.676
G1 F1200 X123.231 Y128.322 E98.3923
G0 F6000 X122.666 Y128.322
G1 F1200 X101.019 Y106.676 E99.41049
G0 F6000 X100.453 Y106.676
G1 F1200 X122.1 Y128.322 E100.42867
G0 F6000 X121.534 Y128.322
G1 F1200 X99.888 Y106.676 E101.44684
G0 F6000 X99.322 Y106.676
G1 F1200 X120.968 Y128.322 E102.465
G0 F6000 X120.403 Y128.322
G1 F1200 X98.756 Y106.676 E103.48318
G0 F6000 X98.19 Y106.676
G1 F1200 X119.837 Y128.322 E104.50137
G0 F6000 X119.271 Y128.322
G1 F1200 X97.625 Y106.676 E105.51953
G0 F6000 X97.059 Y106.676
G1 F1200 X118.706 Y128.322 E106.53771
G0 F6000 X118.14 Y128.322
G1 F1200 X96.493 Y106.676 E107.5559
G0 F6000 X95.928 Y106.676
G1 F1200 X117.574 Y128.322 E108.57406
G0 F6000 X117.009 Y128.322
G1 F1200 X95.362 Y106.676 E109.59225
G0 F6000 X94.796 Y106.676
G1 F1200 X116.443 Y128.322 E110.61043
G0 F6000 X115.877 Y128.322
G1 F1200 X94.231 Y106.676 E111.62859
G0 F6000 X93.665 Y106.676
G1 F1200 X115.312 Y128.322 E112.64678
G0 F6000 X114.746 Y128.322
G1 F1200 X93.099 Y106.676 E113.66496
G0 F6000 X92.534 Y106.676
G1 F1200 X114.18 Y128.322 E114.68312
G0 F6000 X113.615 Y128.322
G1 F1200 X91.968 Y106.676 E115.70131
G0 F6000 X91.402 Y106.676
G1 F1200 X113.049 Y128.322 E116.71949
G0 F6000 X112.483 Y128.322
G1 F1200 X90.837 Y106.676 E117.73765
G0 F6000 X90.271 Y106.676
G1 F1200 X111.918 Y128.322 E118.75584
G0 F6000 X111.352 Y128.322
G1 F1200 X89.755 Y106.726 E119.77167
G0 F6000 X89.755 Y107.292
G1 F1200 X110.786 Y128.322 E120.76088
G0 F6000 X110.22 Y128.322
G1 F1200 X89.755 Y107.857 E121.72349
G0 F6000 X89.755 Y108.423
G1 F1200 X109.655 Y128.322 E122.65951
G0 F6000 X109.089 Y128.322
G1 F1200 X89.755 Y108.989 E123.56889
G0 F6000 X89.755 Y109.554
G1 F1200 X108.523 Y128.322 E124.45168
G0 F6000 X107.958 Y128.322
G1 F1200 X89.755 Y110.12 E125.30787
