;FLAVOR:Marlin
;TIME:2462
;Filament used: 1.09947m
;Layer height: 0.24
;MINX:71.875
;MINY:84.497
;MINZ:0.28
;MAXX:153.534
;MAXY:153.931
;MAXZ:15.16
;Generated with Cura_SteamEngine 4.6.1
M140 S50
M105
M190 S50
M104 S200
M105
M109 S200
M82 ;absolute extrusion mode
; Ender 3 Custom Start G-code
G92 E0 ; Reset Extruder
G28 ; Home all axes
G1 Z2.0 F3000 ; Move Z Axis up little to prevent scratching of Heat Bed
G1 X0.1 Y20 Z0.3 F5000.0 ; Move to start position
G1 X0.1 Y200.0 Z0.3 F1500.0 E15 ; Draw the first line
G1 X0.4 Y200.0 Z0.3 F5000.0 ; Move to side a little
G1 X0.4 Y20 Z0.3 F1500.0 E30 ; Draw the second line
G92 E0 ; Reset Extruder
G1 Z2.0 F3000 ; Move Z Axis up little to prevent scratching of Heat Bed
G1 X5 Y20 Z0.3 F5000.0 ; Move over to prevent blob squish
G92 E0
G92 E0
G1 F2700 E-5
;LAYER_COUNT:63
;LAYER:0
M107
G0 F6000 X118.199 Y85.507 Z0.28
;TYPE:SKIRT
G1 F2700 E0
G1 F1200 X119.075 Y85.73 E0.04209
G1 X120.272 Y86.175 E0.10156
G1 X120.463 Y86.26 E0.11129
G1 X121.271 Y86.663 E0.15333
G1 X122.04 Y87.137 E0.1954
G1 X122.765 Y87.676 E0.23746
G1 X123.438 Y88.278 E0.27951
G1 X124.056 Y88.936 E0.32154
G1 X124.674 Y89.733 E0.36851
G1 X124.795 Y89.906 E0.37834
G1 X125.28 Y90.668 E0.4204
G1 X125.695 Y91.47 E0.46244
G1 X126.047 Y92.332 E0.5058
G1 X126.512 Y93.638 E0.57035
G1 X127.409 Y96.059 E0.69057
G1 X128.359 Y98.418 E0.80899
G1 X129.373 Y100.739 E0.92693
G1 X130.45 Y103.027 E1.04468
G1 X131.603 Y105.31 E1.16378
G1 X132.792 Y107.508 E1.28014
G1 X134.075 Y109.725 E1.39941
G1 X135.425 Y111.912 E1.51909
G1 X136.8 Y114.005 E1.6357
G1 X138.268 Y116.107 E1.75508
G1 X139.762 Y118.126 E1.87203
G1 X141.335 Y120.126 E1.99051
G1 X142.312 Y121.289 E2.06124
G1 X143.219 Y122.394 E2.12781
G1 X143.726 Y123.065 E2.16697
G1 X144.097 Y123.601 E2.19732
G1 X145.572 Y125.669 E2.3156
G1 X147.128 Y127.728 E2.43578
G1 X148.714 Y129.699 E2.55358
G1 X149.756 Y130.932 E2.62875
G1 X149.964 Y131.187 E2.64407
G1 X150.503 Y131.911 E2.6861
G1 X150.948 Y132.629 E2.72543
G1 X151.055 Y132.819 E2.73559
G1 X151.571 Y133.874 E2.79027
G1 X151.655 Y134.074 E2.80037
G1 X152.019 Y135.087 E2.8505
G1 X152.102 Y135.363 E2.86392
G1 X152.377 Y136.515 E2.91906
G1 X152.524 Y137.368 E2.95937
G1 X152.628 Y138.073 E2.99255
G1 X152.72 Y138.972 E3.03463
G1 X152.732 Y139.875 E3.07668
G1 X152.665 Y140.775 E3.11871
G1 X152.518 Y141.666 E3.16076
G1 X152.273 Y142.604 E3.2059
G1 X151.92 Y143.721 E3.26045
G1 X151.774 Y144.151 E3.28159
G1 X151.447 Y144.993 E3.32365
G1 X150.961 Y145.951 E3.37367
G1 X150.787 Y146.254 E3.38994
G1 X150.303 Y147.017 E3.43202
G1 X150.029 Y147.391 E3.4536
G1 X149.803 Y147.685 E3.47087
G1 X149.221 Y148.376 E3.51294
G1 X148.581 Y149.013 E3.55499
G1 X147.887 Y149.591 E3.59704
G1 X147.144 Y150.105 E3.63911
G1 X146.218 Y150.622 E3.68849
G1 X145.738 Y150.858 E3.7134
G1 X145.039 Y151.209 E3.74982
G1 X144.493 Y151.473 E3.77806
G1 X143.663 Y151.83 E3.82013
G1 X143.104 Y152.023 E3.84767
G1 X142.734 Y152.139 E3.86573
G1 X142.291 Y152.267 E3.8872
G1 X140.945 Y152.623 E3.95203
G1 X139.754 Y152.863 E4.0086
G1 X138.82 Y152.994 E4.05252
G1 X138.305 Y153.053 E4.07666
G1 X137.877 Y153.091 E4.09666
G1 X136.963 Y153.131 E4.13926
G1 X136.124 Y153.13 E4.17833
G1 X135.798 Y153.124 E4.19351
G1 X134.978 Y153.093 E4.23172
G1 X132.564 Y152.94 E4.34435
G1 X129.933 Y152.787 E4.46707
G1 X129.028 Y152.716 E4.50934
G1 X126.164 Y152.475 E4.64317
G1 X124.839 Y152.344 E4.70517
G1 X123.1 Y152.147 E4.78666
G1 X122.003 Y152.047 E4.83796
G1 X121.244 Y151.966 E4.8735
G1 X120.754 Y151.902 E4.89651
G1 X120.331 Y151.836 E4.91645
G1 X119.454 Y151.66 E4.9581
G1 X118.92 Y151.526 E4.98373
G1 X118.347 Y151.374 E5.01134
G1 X117.826 Y151.221 E5.03662
G1 X117.532 Y151.126 E5.05101
G1 X116.394 Y150.681 E5.10791
G1 X114.807 Y149.945 E5.18936
G1 X113.542 Y149.319 E5.25508
G1 X112.839 Y148.936 E5.29236
G1 X112.032 Y148.454 E5.33613
G1 X109.751 Y147.134 E5.45885
G1 X107.524 Y145.928 E5.57677
G1 X105.233 Y144.771 E5.69629
G1 X102.959 Y143.701 E5.81331
G1 X100.659 Y142.697 E5.93017
G1 X98.238 Y141.719 E6.05175
G1 X95.905 Y140.857 E6.16756
G1 X93.459 Y140.03 E6.28779
G1 X91.07 Y139.295 E6.40418
G1 X88.6 Y138.611 E6.52352
G1 X86.168 Y138.011 E6.64016
G1 X82.859 Y137.308 E6.79768
G1 X82.472 Y137.233 E6.81604
G1 X81.593 Y137.022 E6.85813
G1 X80.718 Y136.726 E6.90114
G1 X80.52 Y136.649 E6.91103
G1 X79.694 Y136.285 E6.95306
G1 X78.642 Y135.685 E7.00946
G1 X78.308 Y135.467 E7.02803
G1 X77.837 Y135.14 E7.05473
G1 X77.481 Y134.878 E7.07531
G1 X76.778 Y134.311 E7.11736
G1 X76.087 Y133.64 E7.16221
G1 X75.846 Y133.383 E7.17862
G1 X75.567 Y133.074 E7.19801
G1 X75.256 Y132.714 E7.22016
G1 X74.697 Y132.005 E7.2622
G1 X74.002 Y130.896 E7.32314
G1 X73.902 Y130.711 E7.33293
G1 X73.508 Y129.899 E7.37496
G1 X73.188 Y129.054 E7.41703
G1 X72.943 Y128.185 E7.45907
G1 X72.777 Y127.297 E7.50114
G1 X72.689 Y126.398 E7.5432
G1 X72.675 Y125.816 E7.57031
G1 X72.676 Y125.587 E7.58097
G1 X72.72 Y124.685 E7.62302
G1 X72.844 Y123.791 E7.66505
G1 X73.046 Y122.911 E7.70709
G1 X73.325 Y122.052 E7.74915
G1 X73.679 Y121.221 E7.79121
G1 X74.118 Y120.404 E7.83439
G1 X74.422 Y119.899 E7.86184
G1 X75.169 Y118.703 E7.9275
G1 X75.817 Y117.782 E7.97994
G1 X76.029 Y117.513 E7.99589
G1 X77.664 Y115.393 E8.12055
G1 X79.158 Y113.339 E8.23882
G1 X80.442 Y111.471 E8.34437
G1 X80.638 Y111.177 E8.36082
G1 X81.348 Y110.235 E8.41575
G1 X81.701 Y109.824 E8.44097
G1 X82.213 Y109.253 E8.47669
G1 X82.706 Y108.72 E8.51049
G1 X83.505 Y107.946 E8.56229
G1 X83.895 Y107.608 E8.58632
G1 X85.486 Y106.273 E8.68303
G1 X87.353 Y104.613 E8.79936
G1 X89.791 Y102.301 E8.95582
G1 X91.702 Y100.422 E9.08061
G1 X94.095 Y98.149 E9.23429
G1 X96.597 Y95.789 E9.39445
G1 X98.017 Y94.497 E9.48384
G1 X101.304 Y91.602 E9.6878
G1 X102.015 Y90.967 E9.73218
G1 X102.81 Y90.281 E9.78108
G1 X103.303 Y89.876 E9.81079
G1 X104.539 Y88.886 E9.88453
G1 X105.096 Y88.453 E9.91738
G1 X105.833 Y87.931 E9.95943
G1 X106.613 Y87.476 E10.00148
G1 X107.057 Y87.256 E10.02455
G1 X107.709 Y86.958 E10.05793
G1 X107.988 Y86.838 E10.07208
G1 X108.832 Y86.518 E10.11411
G1 X109.681 Y86.279 E10.15518
G1 X110.656 Y86.051 E10.2018
G1 X112.104 Y85.735 E10.27081
G1 X112.775 Y85.598 E10.3027
G1 X113.914 Y85.432 E10.3563
G1 X114.848 Y85.353 E10.39995
G1 X115.504 Y85.313 E10.43055
G1 X116.407 Y85.298 E10.4726
G1 X117.308 Y85.363 E10.51467
G1 X118.199 Y85.507 E10.55669
G0 F6000 X118.228 Y85.105
G1 F1200 X119.122 Y85.326 E10.59957
G1 X119.993 Y85.625 E10.64245
G1 X120.626 Y85.895 E10.6745
G1 X121.45 Y86.305 E10.71735
G1 X122.235 Y86.786 E10.76022
G1 X122.976 Y87.332 E10.80308
G1 X123.666 Y87.941 E10.84594
G1 X124.301 Y88.608 E10.88882
G1 X125.002 Y89.504 E10.94179
G1 X125.123 Y89.677 E10.95162
G1 X125.618 Y90.453 E10.99448
G1 X126.043 Y91.27 E11.03736
G1 X126.423 Y92.198 E11.08406
G1 X126.867 Y93.447 E11.14578
G1 X127.779 Y95.907 E11.26795
G1 X128.726 Y98.257 E11.38593
G1 X129.738 Y100.574 E11.50366
G1 X130.818 Y102.869 E11.62176
G1 X131.946 Y105.103 E11.7383
G1 X133.162 Y107.35 E11.85726
G1 X134.419 Y109.52 E11.97404
G1 X135.756 Y111.687 E12.0926
G1 X137.133 Y113.784 E12.20942
G1 X138.585 Y115.863 E12.3275
G1 X140.1 Y117.908 E12.446
G1 X141.641 Y119.869 E12.56214
G1 X142.621 Y121.035 E12.63306
G1 X143.528 Y122.14 E12.69963
G1 X144.055 Y122.838 E12.74035
G1 X144.408 Y123.349 E12.76927
G1 X145.901 Y125.442 E12.88899
G1 X147.446 Y127.486 E13.00829
G1 X149.003 Y129.422 E13.12398
G1 X150.066 Y130.679 E13.20063
G1 X150.274 Y130.934 E13.21596
G1 X150.824 Y131.672 E13.25881
G1 X151.296 Y132.433 E13.30051
G1 X151.403 Y132.623 E13.31067
G1 X151.94 Y133.719 E13.3675
G1 X152.024 Y133.919 E13.3776
G1 X152.402 Y134.971 E13.42965
G1 X152.485 Y135.247 E13.44307
G1 X152.77 Y136.445 E13.50041
G1 X152.92 Y137.31 E13.54129
G1 X153.024 Y138.015 E13.57447
G1 X153.118 Y138.931 E13.61735
G1 X153.133 Y139.851 E13.66019
G1 X153.068 Y140.77 E13.70309
G1 X152.923 Y141.679 E13.74596
G1 X152.654 Y142.724 E13.7962
G1 X152.299 Y143.85 E13.85118
G1 X152.153 Y144.28 E13.87232
G1 X151.82 Y145.138 E13.91518
G1 X151.308 Y146.151 E13.96803
G1 X151.134 Y146.454 E13.9843
G1 X150.641 Y147.231 E14.02715
G1 X150.346 Y147.635 E14.05044
G1 X150.12 Y147.929 E14.06771
G1 X149.528 Y148.634 E14.11058
G1 X148.876 Y149.285 E14.15348
G1 X148.171 Y149.877 E14.19634
G1 X147.417 Y150.405 E14.23921
G1 X146.395 Y150.98 E14.29381
G1 X145.94 Y151.204 E14.31742
G1 X145.213 Y151.569 E14.3553
G1 X144.667 Y151.833 E14.38354
G1 X143.822 Y152.197 E14.42639
G1 X143.224 Y152.405 E14.45587
G1 X142.854 Y152.521 E14.47392
G1 X142.393 Y152.654 E14.49627
G1 X141.047 Y153.01 E14.5611
G1 X139.809 Y153.259 E14.6199
G1 X138.875 Y153.39 E14.66381
G1 X138.34 Y153.451 E14.68889
G1 X137.912 Y153.489 E14.70889
G1 X136.962 Y153.531 E14.75317
G1 X136.123 Y153.53 E14.79224
G1 X135.785 Y153.524 E14.80798
G1 X134.953 Y153.492 E14.84675
G1 X132.601 Y153.343 E14.95649
G1 X129.902 Y153.185 E15.08238
G1 X128.995 Y153.115 E15.12474
G1 X126.125 Y152.873 E15.25886
G1 X124.794 Y152.742 E15.32113
G1 X123.018 Y152.541 E15.40436
G1 X121.96 Y152.445 E15.45382
G1 X121.201 Y152.364 E15.48937
G1 X120.692 Y152.297 E15.51327
G1 X120.269 Y152.231 E15.53321
G1 X119.358 Y152.048 E15.57648
G1 X118.817 Y151.913 E15.60244
G1 X118.244 Y151.761 E15.63004
G1 X117.703 Y151.601 E15.65631
G1 X117.409 Y151.506 E15.6707
G1 X116.226 Y151.045 E15.72982
G1 X114.63 Y150.303 E15.81178
G1 X113.365 Y149.677 E15.8775
G1 X112.634 Y149.279 E15.91625
G1 X111.833 Y148.801 E15.95969
G1 X109.567 Y147.489 E16.08161
G1 X107.332 Y146.279 E16.19996
G1 X105.073 Y145.138 E16.3178
G1 X102.794 Y144.066 E16.43507
G1 X100.486 Y143.058 E16.55235
G1 X98.098 Y142.094 E16.67226
G1 X95.775 Y141.236 E16.78757
G1 X93.361 Y140.419 E16.90624
G1 X90.942 Y139.675 E17.02409
G1 X88.512 Y139.002 E17.1415
G1 X86.079 Y138.402 E17.25818
G1 X82.767 Y137.698 E17.41585
G1 X82.395 Y137.626 E17.43349
G1 X81.5 Y137.411 E17.47635
G1 X80.573 Y137.099 E17.5219
G1 X80.375 Y137.022 E17.53179
G1 X79.532 Y136.652 E17.57466
G1 X78.423 Y136.02 E17.63409
G1 X78.089 Y135.802 E17.65267
G1 X77.6 Y135.462 E17.6804
G1 X77.244 Y135.2 E17.70098
G1 X76.527 Y134.623 E17.74384
G1 X75.795 Y133.914 E17.79129
G1 X75.554 Y133.657 E17.80769
G1 X75.265 Y133.336 E17.82781
G1 X74.954 Y132.976 E17.84996
G1 X74.383 Y132.253 E17.89286
G1 X73.65 Y131.086 E17.95703
G1 X73.55 Y130.901 E17.96682
G1 X73.148 Y130.073 E18.00968
G1 X72.819 Y129.213 E18.05255
G1 X72.566 Y128.328 E18.09541
G1 X72.391 Y127.424 E18.13829
G1 X72.295 Y126.509 E18.18113
G1 X72.275 Y125.815 E18.21346
G1 X72.276 Y125.586 E18.22412
G1 X72.32 Y124.666 E18.26701
G1 X72.444 Y123.754 E18.30987
G1 X72.646 Y122.856 E18.35273
G1 X72.926 Y121.978 E18.39564
G1 X73.28 Y121.129 E18.43847
G1 X73.774 Y120.199 E18.48751
G1 X74.083 Y119.687 E18.51535
G1 X74.83 Y118.491 E18.58101
G1 X75.503 Y117.534 E18.63549
G1 X75.778 Y117.186 E18.65614
G1 X77.34 Y115.16 E18.77527
G1 X78.82 Y113.124 E18.89247
G1 X80.101 Y111.261 E18.99775
G1 X80.305 Y110.955 E19.01487
G1 X81.043 Y109.976 E19.07196
G1 X81.402 Y109.558 E19.09762
G1 X81.919 Y108.981 E19.13369
G1 X82.412 Y108.448 E19.1675
G1 X83.242 Y107.644 E19.22131
G1 X83.638 Y107.302 E19.24567
G1 X85.208 Y105.984 E19.34112
G1 X87.095 Y104.307 E19.45868
G1 X89.519 Y102.008 E19.61424
G1 X91.427 Y100.132 E19.73883
G1 X93.82 Y97.859 E19.89252
G1 X96.328 Y95.494 E20.05303
G1 X97.753 Y94.196 E20.14279
G1 X100.982 Y91.352 E20.34315
G1 X101.753 Y90.665 E20.39123
G1 X102.556 Y89.972 E20.44062
G1 X103.052 Y89.564 E20.47053
G1 X104.293 Y88.57 E20.54457
G1 X104.85 Y88.137 E20.57742
G1 X105.601 Y87.604 E20.6203
G1 X106.395 Y87.139 E20.66315
G1 X106.889 Y86.893 E20.68884
G1 X107.551 Y86.59 E20.72274
G1 X107.83 Y86.47 E20.73689
G1 X108.691 Y86.144 E20.77976
G1 X109.589 Y85.89 E20.82321
G1 X110.57 Y85.66 E20.87013
G1 X112.024 Y85.343 E20.93942
G1 X112.695 Y85.206 E20.97131
G1 X113.879 Y85.033 E21.02703
G1 X114.824 Y84.954 E21.07119
G1 X115.48 Y84.914 E21.10179
G1 X116.4 Y84.898 E21.14463
G1 X117.319 Y84.961 E21.18753
G1 X118.228 Y85.105 E21.23038
G0 F6000 X118.256 Y84.702
G1 F1200 X119.168 Y84.923 E21.27408
G1 X120.057 Y85.221 E21.31774
G1 X120.597 Y85.444 E21.34494
G1 X120.788 Y85.529 E21.35468
G1 X121.628 Y85.947 E21.39837
G1 X122.429 Y86.434 E21.44202
G1 X123.186 Y86.988 E21.4857
G1 X123.893 Y87.605 E21.52939
G1 X124.545 Y88.279 E21.57306
G1 X125.33 Y89.274 E21.63207
G1 X125.451 Y89.447 E21.6419
G1 X125.955 Y90.238 E21.68558
G1 X126.39 Y91.069 E21.72925
G1 X126.8 Y92.064 E21.77936
G1 X127.248 Y93.323 E21.84159
G1 X128.154 Y95.767 E21.96296
G1 X129.087 Y98.084 E22.07927
G1 X130.109 Y100.422 E22.19808
G1 X131.172 Y102.683 E22.31442
G1 X132.305 Y104.926 E22.43143
G1 X133.509 Y107.15 E22.54919
G1 X134.749 Y109.292 E22.66444
G1 X136.088 Y111.463 E22.78321
G1 X137.479 Y113.581 E22.9012
G1 X138.919 Y115.642 E23.01827
G1 X140.403 Y117.646 E23.13439
G1 X141.954 Y119.62 E23.25128
G1 X142.931 Y120.781 E23.32194
G1 X143.838 Y121.886 E23.3885
G1 X144.384 Y122.61 E23.43073
G1 X144.741 Y123.127 E23.45998
G1 X146.231 Y125.215 E23.57943
G1 X147.749 Y127.223 E23.69664
G1 X149.342 Y129.204 E23.81501
G1 X150.376 Y130.426 E23.88955
G1 X150.584 Y130.681 E23.90487
G1 X151.145 Y131.433 E23.94856
G1 X151.645 Y132.236 E23.9926
G1 X151.752 Y132.426 E24.00276
G1 X152.309 Y133.564 E24.06175
G1 X152.393 Y133.764 E24.07185
G1 X152.785 Y134.856 E24.12588
G1 X152.868 Y135.132 E24.1393
G1 X153.164 Y136.375 E24.1988
G1 X153.315 Y137.252 E24.24024
G1 X153.419 Y137.957 E24.27342
G1 X153.516 Y138.889 E24.31705
G1 X153.534 Y139.827 E24.36074
G1 X153.471 Y140.763 E24.40442
G1 X153.329 Y141.69 E24.44809
G1 X153.036 Y142.843 E24.50348
G1 X152.678 Y143.979 E24.55894
G1 X152.532 Y144.409 E24.58009
G1 X152.193 Y145.283 E24.62374
G1 X151.655 Y146.35 E24.67938
G1 X151.481 Y146.653 E24.69565
G1 X150.98 Y147.446 E24.73933
G1 X150.663 Y147.879 E24.76432
G1 X150.437 Y148.173 E24.78158
G1 X149.834 Y148.891 E24.82524
G1 X149.173 Y149.556 E24.8689
G1 X148.457 Y150.162 E24.91258
G1 X147.692 Y150.704 E24.95624
G1 X146.571 Y151.339 E25.01623
G1 X146.12 Y151.561 E25.03964
G1 X145.387 Y151.929 E25.07783
G1 X144.841 Y152.193 E25.10607
G1 X143.98 Y152.565 E25.14974
G1 X143.344 Y152.786 E25.18109
G1 X142.974 Y152.902 E25.19915
G1 X142.496 Y153.04 E25.22232
G1 X141.15 Y153.396 E25.28715
G1 X139.865 Y153.655 E25.34818
G1 X138.931 Y153.786 E25.3921
G1 X138.376 Y153.85 E25.41812
G1 X137.948 Y153.888 E25.43812
G1 X136.962 Y153.931 E25.48408
G1 X136.123 Y153.93 E25.52315
G1 X135.772 Y153.924 E25.53949
G1 X134.927 Y153.891 E25.57887
G1 X132.558 Y153.741 E25.6894
G1 X129.871 Y153.584 E25.81473
G1 X128.962 Y153.513 E25.85719
G1 X126.086 Y153.271 E25.99158
G1 X124.749 Y153.139 E26.05414
G1 X123.023 Y152.944 E26.13502
G1 X121.918 Y152.843 E26.18669
G1 X121.159 Y152.762 E26.22223
G1 X120.63 Y152.692 E26.24708
G1 X120.207 Y152.626 E26.26701
G1 X119.262 Y152.436 E26.3119
G1 X118.715 Y152.299 E26.33815
G1 X118.142 Y152.147 E26.36576
G1 X117.58 Y151.982 E26.39303
G1 X117.286 Y151.887 E26.40742
G1 X116.059 Y151.408 E26.46875
G1 X114.452 Y150.662 E26.55125
G1 X113.187 Y150.036 E26.61697
G1 X112.429 Y149.623 E26.65717
G1 X111.61 Y149.134 E26.70158
G1 X109.355 Y147.829 E26.8229
G1 X107.153 Y146.636 E26.93952
G1 X104.904 Y145.501 E27.05682
G1 X102.642 Y144.437 E27.17322
G1 X100.295 Y143.411 E27.29249
G1 X97.975 Y142.475 E27.40898
G1 X95.612 Y141.602 E27.52628
G1 X93.263 Y140.807 E27.64176
G1 X90.822 Y140.056 E27.76068
G1 X88.415 Y139.39 E27.87697
G1 X85.99 Y138.792 E27.99327
G1 X82.664 Y138.085 E28.1516
G1 X82.319 Y138.018 E28.16797
G1 X81.407 Y137.801 E28.21162
G1 X80.428 Y137.472 E28.25971
G1 X80.23 Y137.395 E28.2696
G1 X79.371 Y137.018 E28.31328
G1 X78.205 Y136.355 E28.37574
G1 X77.871 Y136.137 E28.39431
G1 X77.363 Y135.784 E28.42312
G1 X77.007 Y135.522 E28.4437
G1 X76.276 Y134.935 E28.48735
G1 X75.503 Y134.187 E28.53744
G1 X75.262 Y133.93 E28.55385
G1 X74.962 Y133.597 E28.57472
G1 X74.651 Y133.237 E28.59687
G1 X74.069 Y132.502 E28.64052
G1 X73.551 Y131.72 E28.6842
G1 X73.198 Y131.092 E28.71775
G1 X72.788 Y130.248 E28.76144
G1 X72.451 Y129.373 E28.8051
G1 X72.189 Y128.472 E28.84879
G1 X72.006 Y127.553 E28.89242
G1 X71.901 Y126.621 E28.9361
G1 X71.875 Y125.813 E28.97374
G1 X71.876 Y125.584 E28.9844
