;FLAVOR:Marlin
;TIME:28230
;Filament used: 27.2752m
;Layer height: 0.24
;MINX:66.835
;MINY:33.2
;MINZ:0.28
;MAXX:168.165
;MAXY:201.8
;MAXZ:59.8
;Generated with Cura_SteamEngine 4.6.1
M140 S65
M105
M190 S65
M104 S215
M105
M109 S215
M82 ;absolute extrusion mode
; Ender 3 Custom Start G-code
G92 E0 ; Reset Extruder
G28 ; Home all axes
G1 Z2.0 F3000 ; Move Z Axis up little to prevent scratching of Heat Bed
G1 X0.1 Y20 Z0.3 F5000.0 ; Move to start position
G1 X0.1 Y200.0 Z0.3 F1500.0 E15 ; Draw the first line
G1 X0.4 Y200.0 Z0.3 F5000.0 ; Move to side a little
G1 X0.4 Y20 Z0.3 F1500.0 E30 ; Draw the second line
G92 E0 ; Reset Extruder
G1 Z2.0 F3000 ; Move Z Axis up little to prevent scratching of Heat Bed
G1 X5 Y20 Z0.3 F5000.0 ; Move over to prevent blob squish
G92 E0
G92 E0
G1 F2700 E-5
;LAYER_COUNT:249
;LAYER:0
M107
G0 F6000 X116.746 Y115.677 Z0.28
;TYPE:SKIRT
G1 F2700 E0
G1 F1200 X116.913 Y115.556 E0.0096
G1 X117.103 Y115.556 E0.01845
G1 X117.27 Y115.677 E0.02805
G1 X117.33 Y115.863 E0.03715
G1 X117.27 Y116.049 E0.04625
G1 X117.103 Y116.17 E0.05586
G1 X116.913 Y116.17 E0.0647
G1 X116.746 Y116.049 E0.07431
G1 X116.686 Y115.863 E0.08341
G1 X116.746 Y115.677 E0.09251
G0 F6000 X116.407 Y115.428
G1 F1200 X116.781 Y115.156 E0.11404
G1 X117.235 Y115.156 E0.13518
G1 X117.609 Y115.428 E0.15671
G1 X117.75 Y115.863 E0.17801
G1 X117.609 Y116.298 E0.1993
G1 X117.235 Y116.57 E0.22083
G1 X116.781 Y116.57 E0.24197
G1 X116.407 Y116.298 E0.26351
G1 X116.266 Y115.863 E0.2848
G1 X116.407 Y115.428 E0.30609
G0 F6000 X116.067 Y115.182
G1 F1200 X116.652 Y114.756 E0.33979
G1 X117.364 Y114.756 E0.37294
G1 X117.949 Y115.182 E0.40664
G1 X118.171 Y115.863 E0.43999
G1 X117.949 Y116.544 E0.47335
G1 X117.364 Y116.97 E0.50704
G1 X116.652 Y116.97 E0.5402
G1 X116.067 Y116.544 E0.5739
G1 X115.845 Y115.863 E0.60725
G1 X116.067 Y115.182 E0.6406
G0 F6000 X115.726 Y114.936
G1 F1200 X116.521 Y114.356 E0.68642
G1 X117.495 Y114.356 E0.73178
G1 X118.29 Y114.936 E0.7776
G1 X118.592 Y115.863 E0.823
G1 X118.29 Y116.79 E0.8684
G1 X117.495 Y117.37 E0.91422
G1 X116.521 Y117.37 E0.95957
G1 X115.726 Y116.79 E1.0054
G1 X115.424 Y115.863 E1.05079
G1 X115.726 Y114.936 E1.09619
G0 F6000 X115.386 Y114.688
G1 F1200 X116.391 Y113.956 E1.15409
G1 X117.625 Y113.956 E1.21155
G1 X118.63 Y114.688 E1.26944
G1 X119.013 Y115.863 E1.32699
G1 X118.63 Y117.038 E1.38453
G1 X117.625 Y117.77 E1.44243
G1 X116.391 Y117.77 E1.49989
G1 X115.386 Y117.038 E1.55778
G1 X115.003 Y115.863 E1.61533
G1 X115.386 Y114.688 E1.67287
G0 F6000 X115.047 Y114.44
G1 F1200 X116.261 Y113.556 E1.7428
G1 X117.755 Y113.556 E1.81237
G1 X118.969 Y114.44 E1.8823
G1 X119.433 Y115.863 E1.95199
G1 X118.969 Y117.286 E2.02168
G1 X117.755 Y118.17 E2.09161
G1 X116.261 Y118.17 E2.16118
G1 X115.047 Y117.286 E2.23111
G1 X114.583 Y115.863 E2.3008
G1 X115.047 Y114.44 E2.3705
G0 F6000 X114.705 Y114.195
G1 F1200 X116.131 Y113.156 E2.45265
G1 X117.885 Y113.156 E2.53433
G1 X119.311 Y114.195 E2.61648
G1 X119.854 Y115.863 E2.69816
G1 X119.311 Y117.531 E2.77984
G1 X117.885 Y118.57 E2.862
G1 X116.131 Y118.57 E2.94367
G1 X114.705 Y117.531 E3.02583
G1 X114.162 Y115.863 E3.10751
G1 X114.705 Y114.195 E3.18919
G0 F6000 X114.366 Y113.946
G1 F1200 X116 Y112.756 E3.28332
G1 X118.016 Y112.756 E3.37719
G1 X119.65 Y113.946 E3.47132
G1 X120.274 Y115.863 E3.56519
G1 X119.65 Y117.78 E3.65906
G1 X118.016 Y118.97 E3.75319
G1 X116 Y118.97 E3.84706
G1 X114.366 Y117.78 E3.94119
G1 X113.742 Y115.863 E4.03506
G1 X114.366 Y113.946 E4.12893
G0 F6000 X114.025 Y113.7
G1 F1200 X115.87 Y112.356 E4.23522
G1 X118.146 Y112.356 E4.3412
G1 X119.991 Y113.7 E4.44749
G1 X120.695 Y115.863 E4.55341
G1 X119.991 Y118.026 E4.65933
G1 X118.146 Y119.37 E4.76562
G1 X115.87 Y119.37 E4.8716
G1 X114.025 Y118.026 E4.97788
G1 X113.321 Y115.863 E5.0838
G1 X114.025 Y113.7 E5.18972
G0 F6000 X113.684 Y113.453
G1 F1200 X115.74 Y111.956 E5.30815
G1 X118.276 Y111.956 E5.42623
G1 X120.332 Y113.453 E5.54466
G1 X121.116 Y115.863 E5.66267
G1 X120.332 Y118.273 E5.78067
G1 X118.276 Y119.77 E5.8991
G1 X115.74 Y119.77 E6.01719
G1 X113.684 Y118.273 E6.13561
G1 X112.9 Y115.863 E6.25362
G1 X113.684 Y113.453 E6.37163
G0 F6000 X113.345 Y113.205
G1 F1200 X115.609 Y111.556 E6.50205
G1 X118.407 Y111.556 E6.63233
G1 X120.671 Y113.205 E6.76275
G1 X121.536 Y115.863 E6.89291
G1 X120.671 Y118.521 E7.02307
G1 X118.407 Y120.17 E7.15349
G1 X115.609 Y120.17 E7.28378
G1 X113.345 Y118.521 E7.4142
G1 X112.48 Y115.863 E7.54435
G1 X113.345 Y113.205 E7.67451
G0 F6000 X113.005 Y112.958
G1 F1200 X115.479 Y111.156 E7.81703
G1 X118.537 Y111.156 E7.95942
G1 X121.011 Y112.958 E8.10194
G1 X121.956 Y115.863 E8.24419
G1 X121.011 Y118.768 E8.38643
G1 X118.537 Y120.57 E8.52895
G1 X115.479 Y120.57 E8.67134
G1 X113.005 Y118.768 E8.81386
G1 X112.06 Y115.863 E8.95611
G1 X113.005 Y112.958 E9.09836
G0 F6000 X112.664 Y112.712
G1 F1200 X115.35 Y110.756 E9.25308
G1 X118.666 Y110.756 E9.40748
G1 X121.352 Y112.712 E9.5622
G1 X122.378 Y115.863 E9.71651
G1 X121.352 Y119.014 E9.87081
G1 X118.666 Y120.97 E10.02554
G1 X115.35 Y120.97 E10.17994
G1 X112.664 Y119.014 E10.33466
G1 X111.638 Y115.863 E10.48897
G1 X112.664 Y112.712 E10.64327
G1 F2700 E5.64327
G0 F6000 X115.244 Y114.915
G0 X116.067 Y115.182
;TYPE:SUPPORT
G1 F2700 E10.64327
G1 F1200 X116.652 Y114.756 E10.67697
G1 X117.364 Y114.756 E10.71012
G1 X117.949 Y115.182 E10.74382
G1 X118.171 Y115.863 E10.77717
G1 X117.949 Y116.544 E10.81053
G1 X117.364 Y116.97 E10.84422
G1 X116.652 Y116.97 E10.87738
G1 X116.067 Y116.544 E10.91108
G1 X115.845 Y115.863 E10.94443
G1 X116.067 Y115.182 E10.97778
G1 F2700 E5.97778
;MESH:base_paintball_cmclito.stl
G0 F6000 X115.244 Y114.915
G0 X93.204 Y115.18
G0 X92.119 Y115.18
G0 X91.938 Y169.429
;TYPE:WALL-INNER
G1 F2700 E10.97778
G1 F1200 X91.938 Y169.629 E10.98709
G1 X92.138 Y169.629 E10.99312
G1 X93.09 Y169.624 E11.03745
G1 X143.003 Y169.625 E13.36161
G1 X143.202 Y169.625 E13.37088
G1 X143.202 Y169.426 E13.37687
G1 X143.202 Y108.56 E16.21105
G1 X143.202 Y108.361 E16.22032
G1 X143.003 Y108.361 E16.22631
G1 X142.052 Y108.363 E16.27059
G1 X92.137 Y108.363 E18.59484
G1 X91.938 Y108.363 E18.60411
G1 X91.938 Y108.562 E18.61011
G1 X91.939 Y109.66 E18.66123
G1 X91.938 Y169.429 E21.44433
G0 F6000 X92.338 Y169.227
;TYPE:WALL-OUTER
G1 F1200 X93.088 Y169.224 E21.47925
G1 X142.802 Y169.225 E23.79414
G1 X142.802 Y108.762 E26.60955
G1 X142.053 Y108.763 E26.64443
G1 X92.338 Y108.762 E28.95937
G1 X92.339 Y109.66 E29.00118
G1 X92.338 Y169.227 E31.77487
G1 F2700 E26.77487
G0 F6000 X92.039 Y169.226
G0 X92.102 Y169.433
G0 X137.728 Y169.814
G0 X137.728 Y168.359
G0 X131.815 Y196.666
G0 X133.29 Y196.666
G0 X137.728 Y201.4
;TYPE:WALL-INNER
G1 F2700 E31.77487
G1 F1200 X133.08 Y196.752 E32.08095
G1 X133.08 Y192.393 E32.28393
G1 X101.88 Y192.393 E33.73673
G1 X101.88 Y196.752 E33.9397
G1 X97.232 Y201.4 E34.24578
G1 X82.511 Y201.4 E34.93125
G1 X81.958 Y201.39 E34.95701
G1 X81.412 Y201.36 E34.98247
G1 X80.851 Y201.306 E35.00871
G1 X80.327 Y201.236 E35.03333
G1 X79.774 Y201.14 E35.05946
G1 X79.236 Y201.025 E35.08508
G1 X78.696 Y200.889 E35.11101
G1 X78.157 Y200.73 E35.13718
G1 X77.643 Y200.556 E35.16245
G1 X77.127 Y200.361 E35.18813
G1 X76.632 Y200.151 E35.21317
G1 X76.12 Y199.909 E35.23954
G1 X75.631 Y199.656 E35.26518
G1 X75.157 Y199.387 E35.29055
G1 X74.694 Y199.1 E35.31592
G1 X74.218 Y198.779 E35.34265
G1 X73.787 Y198.464 E35.36751
G1 X73.34 Y198.11 E35.39406
G1 X72.927 Y197.757 E35.41936
G1 X72.516 Y197.377 E35.44542
G1 X72.141 Y197.003 E35.47009
G1 X71.762 Y196.593 E35.49608
G1 X71.399 Y196.17 E35.52204
G1 X71.05 Y195.731 E35.54815
G1 X70.738 Y195.306 E35.5727
G1 X70.416 Y194.829 E35.5995
G1 X70.124 Y194.36 E35.62523
G1 X69.859 Y193.895 E35.65015
G1 X69.6 Y193.399 E35.6762
G1 X69.362 Y192.894 E35.7022
G1 X69.152 Y192.399 E35.72724
G1 X68.95 Y191.87 E35.7536
G1 X68.774 Y191.354 E35.77899
G1 X68.617 Y190.819 E35.80495
G1 X68.481 Y190.284 E35.83066
G1 X68.365 Y189.744 E35.85638
G1 X68.27 Y189.201 E35.88204
G1 X68.198 Y188.667 E35.90713
G1 X68.144 Y188.112 E35.9331
G1 X68.113 Y187.569 E35.95842
G1 X68.101 Y187.014 E35.98427
G1 X68.1 Y185.757 E36.04281
G1 X68.1 Y80.506 E40.94373
G1 X68.11 Y79.486 E40.99123
G1 X68.144 Y78.455 E41.03926
G1 X68.2 Y77.438 E41.08669
G1 X68.277 Y76.423 E41.13409
G1 X68.377 Y75.406 E41.18167
G1 X68.499 Y74.387 E41.22946
G1 X68.643 Y73.379 E41.27688
G1 X68.811 Y72.362 E41.32487
G1 X68.999 Y71.365 E41.37212
G1 X69.208 Y70.364 E41.41973
G1 X69.44 Y69.368 E41.46735
G1 X69.695 Y68.37 E41.51531
G1 X69.97 Y67.389 E41.56276
G1 X70.263 Y66.415 E41.61012
G1 X70.582 Y65.444 E41.65771
G1 X70.922 Y64.475 E41.70553
G1 X71.281 Y63.522 E41.75295
G1 X71.661 Y62.574 E41.8005
G1 X72.065 Y61.629 E41.84836
G1 X72.483 Y60.701 E41.89575
G1 X72.924 Y59.779 E41.94334
G1 X73.386 Y58.868 E41.9909
G1 X73.876 Y57.951 E42.03932
G1 X74.37 Y57.074 E42.08619
G1 X74.895 Y56.186 E42.13422
G1 X75.436 Y55.316 E42.18193
G1 X75.992 Y54.46 E42.22946
G1 X76.574 Y53.61 E42.27742
G1 X77.168 Y52.782 E42.32487
G1 X77.791 Y51.95 E42.37327
G1 X78.408 Y51.161 E42.41991
G1 X79.066 Y50.362 E42.46811
G1 X79.724 Y49.594 E42.5152
G1 X80.409 Y48.828 E42.56305
G1 X81.113 Y48.077 E42.61098
G1 X81.823 Y47.35 E42.6583
G1 X82.558 Y46.632 E42.70615
G1 X83.309 Y45.927 E42.75411
G1 X84.064 Y45.251 E42.8013
G1 X84.843 Y44.582 E42.84911
G1 X85.639 Y43.928 E42.89708
G1 X86.442 Y43.298 E42.94461
G1 X87.256 Y42.687 E42.992
G1 X88.093 Y42.087 E43.03995
G1 X88.941 Y41.506 E43.08782
G1 X89.789 Y40.954 E43.13494
G1 X90.669 Y40.406 E43.18321
G1 X91.551 Y39.883 E43.23095
G1 X92.429 Y39.388 E43.27789
G1 X93.332 Y38.906 E43.32555
G1 X94.246 Y38.443 E43.37326
G1 X95.178 Y37.995 E43.42141
G1 X96.098 Y37.578 E43.46844
G1 X97.055 Y37.17 E43.51689
G1 X98.008 Y36.787 E43.56471
G1 X98.953 Y36.431 E43.61173
G1 X99.923 Y36.09 E43.65961
G1 X100.894 Y35.771 E43.7072
G1 X101.878 Y35.473 E43.75508
G1 X102.856 Y35.2 E43.80236
G1 X103.851 Y34.944 E43.8502
G1 X104.851 Y34.712 E43.898
G1 X105.844 Y34.503 E43.94525
G1 X106.854 Y34.314 E43.9931
G1 X107.867 Y34.146 E44.04091
G1 X108.881 Y34.001 E44.08861
G1 X109.896 Y33.879 E44.13621
G1 X110.91 Y33.779 E44.18365
G1 X111.935 Y33.7 E44.23152
G1 X112.943 Y33.645 E44.27853
G1 X113.975 Y33.612 E44.32661
G1 X114.997 Y33.601 E44.3742
G1 X119.994 Y33.6 E44.60688
G1 X121.015 Y33.611 E44.65443
G1 X122.047 Y33.645 E44.70251
G1 X123.066 Y33.701 E44.75003
G1 X124.091 Y33.779 E44.79789
G1 X125.104 Y33.879 E44.84529
G1 X126.119 Y34.001 E44.8929
G1 X127.133 Y34.146 E44.94059
G1 X128.146 Y34.313 E44.9884
G1 X129.156 Y34.503 E45.03625
G1 X130.149 Y34.711 E45.08349
G1 X131.149 Y34.945 E45.13132
G1 X132.132 Y35.197 E45.17857
G1 X133.122 Y35.474 E45.22644
G1 X134.106 Y35.771 E45.2743
G1 X135.077 Y36.09 E45.32189
G1 X136.047 Y36.431 E45.36977
G1 X136.993 Y36.787 E45.41683
G1 X137.942 Y37.168 E45.46445
G1 X138.886 Y37.572 E45.51226
G1 X139.821 Y37.994 E45.56003
G1 X140.749 Y38.44 E45.60797
G1 X141.646 Y38.893 E45.65477
G1 X142.557 Y39.38 E45.70287
G1 X143.439 Y39.877 E45.75001
G1 X144.32 Y40.398 E45.79767
G1 X145.193 Y40.941 E45.84554
G1 X146.053 Y41.502 E45.89335
G1 X146.888 Y42.073 E45.94045
G1 X147.723 Y42.672 E45.98831
G1 X148.543 Y43.286 E46.03601
G1 X149.353 Y43.92 E46.0839
G1 X150.135 Y44.564 E46.13107
G1 X150.914 Y45.231 E46.17883
G1 X151.68 Y45.917 E46.22671
G1 X152.423 Y46.613 E46.27411
G1 X153.15 Y47.323 E46.32143
G1 X153.868 Y48.058 E46.36928
G1 X154.572 Y48.808 E46.41717
G1 X155.248 Y49.562 E46.46433
G1 X155.918 Y50.344 E46.51228
G1 X156.563 Y51.129 E46.55959
G1 X157.198 Y51.937 E46.60744
G1 X157.808 Y52.749 E46.65473
G1 X158.408 Y53.585 E46.70265
G1 X158.984 Y54.426 E46.75011
G1 X159.545 Y55.284 E46.79785
G1 X160.089 Y56.159 E46.84582
G1 X160.607 Y57.033 E46.89313
G1 X161.113 Y57.93 E46.94108
G1 X161.591 Y58.826 E46.98837
G1 X162.06 Y59.749 E47.03658
G1 X162.503 Y60.674 E47.08434
G1 X162.922 Y61.599 E47.13162
G1 X163.323 Y62.539 E47.17921
G1 X163.706 Y63.491 E47.22699
G1 X164.065 Y64.443 E47.27437
G1 X164.405 Y65.408 E47.32201
G1 X164.724 Y66.378 E47.36956
G1 X165.021 Y67.357 E47.41719
G1 X165.299 Y68.35 E47.46521
G1 X165.551 Y69.332 E47.51242
G1 X165.784 Y70.336 E47.56041
G1 X165.993 Y71.328 E47.60762
G1 X166.182 Y72.338 E47.65546
G1 X166.349 Y73.341 E47.70281
G1 X166.494 Y74.353 E47.75041
G1 X166.618 Y75.368 E47.79803
G1 X166.718 Y76.385 E47.84561
G1 X166.797 Y77.413 E47.89362
G1 X166.854 Y78.425 E47.94082
G1 X166.887 Y79.448 E47.98848
G1 X166.899 Y80.476 E48.03635
G1 X166.9 Y81.743 E48.09535
G1 X166.9 Y186.989 E52.99604
G1 X166.89 Y187.543 E53.02184
G1 X166.86 Y188.085 E53.04712
G1 X166.807 Y188.642 E53.07317
G1 X166.736 Y189.173 E53.09812
G1 X166.642 Y189.716 E53.12378
G1 X166.525 Y190.264 E53.14987
G1 X166.392 Y190.792 E53.17522
G1 X166.231 Y191.341 E53.20186
G1 X166.056 Y191.857 E53.22724
G1 X165.867 Y192.359 E53.25221
G1 X165.651 Y192.868 E53.27796
G1 X165.414 Y193.373 E53.30394
G1 X165.156 Y193.869 E53.32997
G1 X164.892 Y194.335 E53.35491
G1 X164.593 Y194.817 E53.38132
G1 X164.288 Y195.27 E53.40675
G1 X163.967 Y195.709 E53.43207
G1 X163.618 Y196.15 E53.45826
G1 X163.267 Y196.561 E53.48343
G1 X162.882 Y196.977 E53.50982
G1 X162.492 Y197.369 E53.53557
G1 X162.095 Y197.737 E53.56077
G1 X161.681 Y198.092 E53.58617
G1 X161.234 Y198.448 E53.61278
G1 X160.796 Y198.769 E53.63806
G1 X160.349 Y199.072 E53.66321
G1 X159.86 Y199.376 E53.69002
G1 X159.395 Y199.641 E53.71494
G1 X158.898 Y199.9 E53.74104
G1 X158.406 Y200.132 E53.76637
G1 X157.897 Y200.349 E53.79213
G1 X157.375 Y200.548 E53.81814
G1 X156.863 Y200.723 E53.84334
G1 X156.332 Y200.879 E53.86911
G1 X155.791 Y201.017 E53.89511
G1 X155.253 Y201.133 E53.92074
G1 X154.702 Y201.23 E53.94679
G1 X154.174 Y201.301 E53.97159
G1 X153.614 Y201.356 E53.9978
G1 X153.07 Y201.387 E54.02317
G1 X152.502 Y201.399 E54.04962
G1 X152.148 Y201.4 E54.06611
G1 X137.728 Y201.4 E54.73756
G0 F6000 X137.562 Y201.8
;TYPE:WALL-OUTER
G1 F1200 X132.68 Y196.918 E55.05905
G1 X132.68 Y192.793 E55.25113
G1 X102.28 Y192.793 E56.66668
G1 X102.28 Y196.918 E56.85876
G1 X97.398 Y201.8 E57.18024
G1 X82.504 Y201.8 E57.87377
G1 X81.951 Y201.79 E57.89952
G1 X81.377 Y201.758 E57.92629
G1 X80.813 Y201.704 E57.95268
G1 X80.258 Y201.63 E57.97875
G1 X79.7 Y201.533 E58.00512
G1 X79.138 Y201.413 E58.03188
G1 X78.588 Y201.274 E58.0583
G1 X78.044 Y201.114 E58.0847
G1 X77.515 Y200.935 E58.1107
G1 X76.978 Y200.732 E58.13744
G1 X76.461 Y200.513 E58.16358
G1 X75.949 Y200.271 E58.18995
G1 X75.439 Y200.007 E58.21669
G1 X74.947 Y199.728 E58.24303
G1 X74.47 Y199.432 E58.26917
G1 X73.994 Y199.111 E58.2959
G1 X73.543 Y198.781 E58.32192
G1 X73.092 Y198.424 E58.34871
G1 X72.667 Y198.061 E58.37473
G1 X72.245 Y197.671 E58.40149
G1 X71.848 Y197.275 E58.4276
G1 X71.459 Y196.855 E58.45426
G1 X71.095 Y196.43 E58.48031
G1 X70.737 Y195.98 E58.50709
G1 X70.406 Y195.53 E58.5331
G1 X70.084 Y195.053 E58.5599
G1 X69.784 Y194.571 E58.58633
G1 X69.504 Y194.08 E58.61265
G1 X69.245 Y193.584 E58.63871
G1 X69 Y193.064 E58.66547
G1 X68.778 Y192.542 E58.69189
G1 X68.576 Y192.013 E58.71825
G1 X68.395 Y191.483 E58.74433
G1 X68.233 Y190.932 E58.77108
G1 X68.093 Y190.383 E58.79746
G1 X67.974 Y189.828 E58.82389
G1 X67.876 Y189.27 E58.85027
G1 X67.8 Y188.707 E58.87672
G1 X67.746 Y188.151 E58.90273
G1 X67.713 Y187.578 E58.92946
G1 X67.701 Y187.014 E58.95573
G1 X67.7 Y185.757 E59.01426
G1 X67.7 Y80.502 E63.91537
G1 X67.71 Y79.473 E63.96329
G1 X67.744 Y78.442 E64.01132
G1 X67.801 Y77.408 E64.05954
G1 X67.879 Y76.384 E64.10736
G1 X67.98 Y75.358 E64.15537
G1 X68.103 Y74.33 E64.20358
G1 X68.248 Y73.314 E64.25137
G1 X68.416 Y72.297 E64.29936
G1 X68.607 Y71.283 E64.34741
G1 X68.818 Y70.273 E64.39546
G1 X69.052 Y69.269 E64.44346
G1 X69.307 Y68.271 E64.49142
G1 X69.587 Y67.274 E64.53964
G1 X69.883 Y66.29 E64.58749
G1 X70.205 Y65.311 E64.63548
G1 X70.548 Y64.334 E64.6837
G1 X70.91 Y63.373 E64.73151
G1 X71.293 Y62.417 E64.77947
G1 X71.7 Y61.465 E64.82768
G1 X72.122 Y60.529 E64.87549
G1 X72.567 Y59.598 E64.92354
G1 X73.033 Y58.679 E64.97152
G1 X73.523 Y57.762 E65.01993
G1 X74.026 Y56.87 E65.06761
G1 X74.555 Y55.975 E65.11602
G1 X75.096 Y55.105 E65.16373
G1 X75.662 Y54.234 E65.2121
G1 X76.249 Y53.377 E65.26047
G1 X76.848 Y52.542 E65.30832
