;FLAVOR:Marlin
;TIME:3162
;Filament used: 2.60709m
;Layer height: 0.28
;MINX:67.5
;MINY:92.5
;MINZ:0.28
;MAXX:167.5
;MAXY:142.5
;MAXZ:21
;Generated with Cura_SteamEngine 4.6.1
M140 S60
M105
M190 S60
M104 S210
M105
M109 S210
M82 ;absolute extrusion mode
; Ender 3 Custom Start G-code
G92 E0 ; Reset Extruder
G28 ; Home all axes
G1 Z2.0 F3000 ; Move Z Axis up little to prevent scratching of Heat Bed
G1 X0.1 Y20 Z0.3 F5000.0 ; Move to start position
G1 X0.1 Y200.0 Z0.3 F1500.0 E15 ; Draw the first line
G1 X0.4 Y200.0 Z0.3 F5000.0 ; Move to side a little
G1 X0.4 Y20 Z0.3 F1500.0 E30 ; Draw the second line
G92 E0 ; Reset Extruder
G1 Z2.0 F3000 ; Move Z Axis up little to prevent scratching of Heat Bed
G1 X5 Y20 Z0.3 F5000.0 ; Move over to prevent blob squish
G92 E0
G92 E0
G1 F2700 E-5
;LAYER_COUNT:75
;LAYER:0
M107
G0 F6000 X153.639 Y93.311 Z0.28
;TYPE:SKIRT
G1 F2700 E0
G1 F1200 X154.541 Y93.364 E0.04207
G1 X155.434 Y93.496 E0.08411
G1 X156.313 Y93.707 E0.1262
G1 X157.169 Y93.995 E0.16825
G1 X157.996 Y94.357 E0.21029
G1 X158.788 Y94.791 E0.25234
G1 X159.538 Y95.294 E0.29439
G1 X160.517 Y96.113 E0.35383
G1 X161.023 Y96.599 E0.3865
G1 X163.332 Y98.908 E0.53855
G1 X163.79 Y99.379 E0.56914
G1 X164.39 Y100.054 E0.61119
G1 X164.928 Y100.779 E0.65323
G1 X165.4 Y101.549 E0.69529
G1 X165.802 Y102.358 E0.73735
G1 X166.131 Y103.199 E0.7794
G1 X166.385 Y104.066 E0.82147
G1 X166.56 Y104.951 E0.86348
G1 X166.669 Y106.08 E0.91629
G1 X166.692 Y106.652 E0.94295
G1 X166.7 Y107.062 E0.96204
G1 X166.699 Y127.939 E1.93416
G1 X166.689 Y128.637 E1.96667
G1 X166.636 Y129.539 E2.00874
G1 X166.504 Y130.432 E2.05078
G1 X166.293 Y131.31 E2.09282
G1 X166.005 Y132.166 E2.13488
G1 X165.643 Y132.993 E2.17691
G1 X165.208 Y133.785 E2.21899
G1 X164.706 Y134.536 E2.26105
G1 X164.057 Y135.331 E2.30884
G1 X163.916 Y135.487 E2.31863
G1 X163.459 Y135.965 E2.34942
G1 X161.103 Y138.321 E2.50457
G1 X160.619 Y138.792 E2.53602
G1 X159.944 Y139.393 E2.5781
G1 X159.219 Y139.931 E2.62014
G1 X158.449 Y140.403 E2.6622
G1 X157.641 Y140.806 E2.70424
G1 X156.8 Y141.135 E2.74629
G1 X155.933 Y141.389 E2.78836
G1 X155.047 Y141.565 E2.83042
G1 X153.829 Y141.677 E2.88737
G1 X153.262 Y141.695 E2.91379
G1 X152.938 Y141.7 E2.92888
G1 X82.207 Y141.7 E6.22241
G1 X82.061 Y141.699 E6.22921
G1 X81.363 Y141.689 E6.26171
G1 X80.461 Y141.636 E6.30379
G1 X79.568 Y141.504 E6.34582
G1 X78.69 Y141.293 E6.38787
G1 X77.834 Y141.005 E6.42992
G1 X77.007 Y140.643 E6.47196
G1 X76.215 Y140.208 E6.51403
G1 X75.464 Y139.706 E6.5561
G1 X74.669 Y139.057 E6.60388
G1 X74.513 Y138.916 E6.61367
G1 X74.216 Y138.636 E6.63268
G1 X74.021 Y138.445 E6.64539
G1 X71.671 Y136.094 E6.80018
G1 X71.202 Y135.612 E6.83149
G1 X70.601 Y134.938 E6.87354
G1 X70.063 Y134.213 E6.91558
G1 X69.59 Y133.443 E6.95766
G1 X69.188 Y132.634 E6.99972
G1 X68.859 Y131.793 E7.04177
G1 X68.605 Y130.927 E7.0838
G1 X68.429 Y130.041 E7.12586
G1 X68.314 Y128.717 E7.18774
G1 X68.3 Y127.938 E7.22402
G1 X68.301 Y107.061 E8.19614
G1 X68.311 Y106.363 E8.22865
G1 X68.364 Y105.461 E8.27072
G1 X68.496 Y104.568 E8.31275
G1 X68.707 Y103.69 E8.3548
G1 X68.995 Y102.834 E8.39686
G1 X69.357 Y102.007 E8.43889
G1 X69.792 Y101.215 E8.48097
G1 X70.294 Y100.464 E8.52303
G1 X70.943 Y99.669 E8.57082
G1 X71.084 Y99.513 E8.58061
G1 X71.541 Y99.035 E8.6114
G1 X73.906 Y96.671 E8.76711
G1 X74.389 Y96.201 E8.79849
G1 X75.063 Y95.6 E8.84054
G1 X75.788 Y95.062 E8.88258
G1 X76.558 Y94.589 E8.92466
G1 X77.366 Y94.187 E8.96668
G1 X78.207 Y93.858 E9.00873
G1 X79.074 Y93.604 E9.0508
G1 X79.96 Y93.428 E9.09286
G1 X81.302 Y93.313 E9.15558
G1 X82.062 Y93.3 E9.19097
G1 X152.793 Y93.3 E12.4845
G1 X152.938 Y93.301 E12.49126
G1 X153.639 Y93.311 E12.5239
G0 F6000 X153.645 Y92.911
G1 F1200 X154.564 Y92.964 E12.56676
G1 X155.475 Y93.097 E12.60963
G1 X156.371 Y93.308 E12.6525
G1 X157.246 Y93.596 E12.69539
G1 X158.092 Y93.959 E12.73826
G1 X158.903 Y94.394 E12.78111
G1 X159.674 Y94.898 E12.824
G1 X160.398 Y95.467 E12.86688
G1 X160.793 Y95.823 E12.89164
G1 X161.306 Y96.316 E12.92477
G1 X163.618 Y98.629 E13.07705
G1 X164.076 Y99.1 E13.10764
G1 X164.689 Y99.788 E13.15055
G1 X165.24 Y100.525 E13.1934
G1 X165.724 Y101.308 E13.23626
G1 X166.139 Y102.13 E13.27914
G1 X166.481 Y102.985 E13.32202
G1 X166.747 Y103.866 E13.36487
G1 X166.936 Y104.767 E13.40774
G1 X167.068 Y106.064 E13.46844
G1 X167.091 Y106.636 E13.4951
G1 X167.1 Y107.062 E13.51494
G1 X167.099 Y127.945 E14.48734
G1 X167.089 Y128.643 E14.51985
G1 X167.036 Y129.562 E14.56271
G1 X166.903 Y130.473 E14.60558
G1 X166.692 Y131.369 E14.64844
G1 X166.404 Y132.243 E14.69129
G1 X166.041 Y133.09 E14.7342
G1 X165.606 Y133.901 E14.77705
G1 X165.102 Y134.671 E14.81991
G1 X164.354 Y135.599 E14.87541
G1 X164.213 Y135.755 E14.8852
G1 X163.926 Y136.06 E14.9047
G1 X163.745 Y136.245 E14.91675
G1 X161.382 Y138.608 E15.07236
G1 X160.898 Y139.079 E15.10381
G1 X160.211 Y139.691 E15.14665
G1 X159.473 Y140.242 E15.18953
G1 X158.69 Y140.727 E15.23242
G1 X157.868 Y141.142 E15.2753
G1 X157.014 Y141.484 E15.31813
G1 X156.133 Y141.751 E15.361
G1 X155.232 Y141.94 E15.40387
G1 X154.318 Y142.051 E15.44674
G1 X153.841 Y142.077 E15.46898
G1 X153.274 Y142.095 E15.4954
G1 X152.938 Y142.1 E15.51105
G1 X82.207 Y142.1 E18.80458
G1 X82.055 Y142.099 E18.81166
G1 X81.357 Y142.089 E18.84416
G1 X80.438 Y142.036 E18.88702
G1 X79.527 Y141.903 E18.92989
G1 X78.631 Y141.692 E18.97276
G1 X77.757 Y141.404 E19.01561
G1 X76.91 Y141.041 E19.05852
G1 X76.099 Y140.606 E19.10137
G1 X75.329 Y140.102 E19.14422
G1 X74.401 Y139.354 E19.19972
G1 X74.245 Y139.213 E19.20951
G1 X73.936 Y138.922 E19.22928
G1 X73.741 Y138.731 E19.24199
G1 X71.384 Y136.373 E19.39723
G1 X70.915 Y135.891 E19.42855
G1 X70.302 Y135.204 E19.47142
G1 X69.751 Y134.466 E19.51431
G1 X69.267 Y133.684 E19.55713
G1 X68.852 Y132.862 E19.60001
G1 X68.509 Y132.007 E19.6429
G1 X68.243 Y131.126 E19.68576
G1 X68.053 Y130.225 E19.72863
G1 X67.943 Y129.311 E19.7715
G1 X67.914 Y128.726 E19.79877
G1 X67.9 Y127.938 E19.83547
G1 X67.901 Y107.055 E20.80787
G1 X67.911 Y106.357 E20.84038
G1 X67.964 Y105.438 E20.88324
G1 X68.097 Y104.527 E20.92611
G1 X68.308 Y103.631 E20.96897
G1 X68.596 Y102.757 E21.01182
G1 X68.959 Y101.91 E21.05473
G1 X69.394 Y101.099 E21.09758
G1 X69.898 Y100.329 E21.14044
G1 X70.646 Y99.401 E21.19594
G1 X70.787 Y99.245 E21.20573
G1 X71.074 Y98.94 E21.22523
G1 X71.255 Y98.755 E21.23728
G1 X73.627 Y96.384 E21.39345
G1 X74.11 Y95.914 E21.42483
G1 X74.797 Y95.301 E21.4677
G1 X75.534 Y94.75 E21.51055
G1 X76.317 Y94.266 E21.55342
G1 X77.139 Y93.851 E21.59629
G1 X77.994 Y93.508 E21.63919
G1 X78.875 Y93.242 E21.68204
G1 X79.776 Y93.053 E21.72491
G1 X80.69 Y92.942 E21.76778
G1 X81.294 Y92.913 E21.79594
G1 X82.062 Y92.9 E21.8317
G1 X152.793 Y92.9 E25.12524
G1 X152.944 Y92.901 E25.13227
G1 X153.645 Y92.911 E25.16491
G0 F6000 X153.651 Y92.511
G1 F1200 X154.587 Y92.564 E25.20857
G1 X155.516 Y92.697 E25.25227
G1 X156.429 Y92.909 E25.29591
G1 X157.322 Y93.197 E25.3396
G1 X158.186 Y93.561 E25.38326
G1 X159.017 Y93.997 E25.42695
G1 X159.807 Y94.502 E25.47061
G1 X160.551 Y95.072 E25.51426
G1 X161.068 Y95.533 E25.54651
G1 X161.589 Y96.033 E25.58013
G1 X163.905 Y98.35 E25.73268
G1 X164.363 Y98.821 E25.76327
G1 X164.988 Y99.521 E25.80697
G1 X165.551 Y100.271 E25.85064
G1 X166.047 Y101.067 E25.89431
G1 X166.474 Y101.902 E25.93798
G1 X166.829 Y102.77 E25.98164
G1 X167.108 Y103.665 E26.0253
G1 X167.31 Y104.581 E26.06897
G1 X167.433 Y105.511 E26.11266
G1 X167.468 Y106.048 E26.13771
G1 X167.491 Y106.62 E26.16437
G1 X167.5 Y107.062 E26.18496
G1 X167.499 Y127.951 E27.15764
G1 X167.489 Y128.649 E27.19014
G1 X167.435 Y129.585 E27.2338
G1 X167.303 Y130.513 E27.27744
G1 X167.091 Y131.427 E27.32113
G1 X166.802 Y132.319 E27.36479
G1 X166.439 Y133.184 E27.40848
G1 X166.003 Y134.014 E27.45213
G1 X165.498 Y134.805 E27.49583
G1 X164.651 Y135.867 E27.55908
G1 X164.51 Y136.023 E27.56887
G1 X164.212 Y136.34 E27.58913
G1 X164.031 Y136.525 E27.60119
G1 X161.661 Y138.894 E27.75722
G1 X161.177 Y139.365 E27.78867
G1 X160.477 Y139.99 E27.83236
G1 X159.727 Y140.553 E27.87603
G1 X158.932 Y141.05 E27.91969
G1 X158.097 Y141.478 E27.96338
G1 X157.229 Y141.833 E28.00705
G1 X156.334 Y142.112 E28.0507
G1 X155.418 Y142.314 E28.09438
G1 X154.488 Y142.438 E28.13807
G1 X153.854 Y142.476 E28.16764
G1 X153.287 Y142.494 E28.19406
G1 X152.938 Y142.5 E28.21031
G1 X82.207 Y142.5 E31.50384
G1 X82.049 Y142.499 E31.5112
G1 X81.351 Y142.489 E31.5437
G1 X80.415 Y142.435 E31.58736
G1 X79.487 Y142.303 E31.63101
G1 X78.573 Y142.091 E31.6747
G1 X77.681 Y141.802 E31.71836
G1 X76.816 Y141.439 E31.76204
G1 X75.986 Y141.003 E31.80569
G1 X75.195 Y140.498 E31.84939
G1 X74.133 Y139.651 E31.91265
G1 X73.977 Y139.51 E31.92244
G1 X73.656 Y139.207 E31.94299
G1 X73.38 Y138.936 E31.961
G1 X71.097 Y136.652 E32.11138
G1 X70.628 Y136.17 E32.14269
G1 X70.003 Y135.471 E32.18635
G1 X69.44 Y134.721 E32.23002
G1 X68.943 Y133.925 E32.27372
G1 X68.516 Y133.09 E32.31739
G1 X68.161 Y132.222 E32.36105
G1 X67.882 Y131.327 E32.40471
G1 X67.679 Y130.411 E32.44839
G1 X67.556 Y129.481 E32.49208
G1 X67.515 Y128.734 E32.52691
G1 X67.5 Y127.938 E32.56398
G1 X67.501 Y107.049 E33.53666
G1 X67.511 Y106.351 E33.56917
G1 X67.565 Y105.415 E33.61283
G1 X67.697 Y104.487 E33.65647
G1 X67.909 Y103.573 E33.70016
G1 X68.198 Y102.681 E33.74382
G1 X68.561 Y101.816 E33.7875
G1 X68.997 Y100.986 E33.83116
G1 X69.502 Y100.195 E33.87486
G1 X70.349 Y99.133 E33.93811
G1 X70.49 Y98.977 E33.9479
G1 X70.788 Y98.66 E33.96816
G1 X70.969 Y98.475 E33.98021
G1 X73.348 Y96.097 E34.13684
G1 X73.831 Y95.627 E34.16822
G1 X74.53 Y95.003 E34.21185
G1 X75.28 Y94.44 E34.25552
G1 X76.076 Y93.943 E34.29922
G1 X76.91 Y93.515 E34.34287
G1 X77.778 Y93.16 E34.38653
G1 X78.674 Y92.881 E34.43023
G1 X79.59 Y92.679 E34.47391
G1 X80.519 Y92.555 E34.51755
G1 X81.286 Y92.513 E34.55332
G1 X82.062 Y92.5 E34.58946
G1 X152.793 Y92.5 E37.88299
G1 X152.95 Y92.501 E37.8903
G1 X153.651 Y92.511 E37.92295
G1 F2700 E32.92295
;MESH:TMC_Molle_Mag_Pouch_v4.stl
G0 F6000 X153.328 Y102.835
G0 X153.328 Y103.92
G0 X155.726 Y106.819
G0 X155.726 Y128.181
G0 X153.181 Y130.726
G0 X140.782 Y130.718
G0 X129.572 Y130.428
G0 X129.4 Y129.1
;TYPE:WALL-INNER
G1 F2700 E37.92295
G1 F1200 X129.4 Y129.299 E37.93221
G1 X129.4 Y130.6 E37.99279
G1 X140.6 Y130.6 E38.51431
G1 X140.6 Y129.1 E38.58416
G1 X142.566 Y129.1 E38.6757
G1 X150.401 Y129.111 E39.04053
G1 X150.6 Y129.111 E39.0498
G1 X150.6 Y128.912 E39.05579
G1 X150.6 Y123.85 E39.2915
G1 X153.66 Y123.85 E39.43399
G1 X153.66 Y111.15 E40.02535
G1 X150.6 Y111.15 E40.16784
G1 X150.6 Y105.888 E40.41286
G1 X84.599 Y105.886 E43.48614
G1 X84.4 Y105.886 E43.49541
G1 X84.4 Y106.085 E43.50141
G1 X84.4 Y113.25 E43.83504
G1 X82.9 Y113.25 E43.90488
G1 X82.9 Y121.75 E44.30068
G1 X84.4 Y121.75 E44.37053
G1 X84.4 Y129.114 E44.71343
G1 X90.808 Y129.114 E45.01181
G1 X129.201 Y129.1 E46.79955
G1 X129.4 Y129.1 E46.80554
G0 F6000 X129.8 Y128.7
;TYPE:WALL-OUTER
G1 F1200 X129.8 Y130.2 E46.87539
G1 X140.2 Y130.2 E47.35966
G1 X140.2 Y128.7 E47.4295
G1 X142.566 Y128.7 E47.53967
G1 X150.2 Y128.711 E47.89515
G1 X150.2 Y123.45 E48.14012
G1 X153.26 Y123.45 E48.28261
G1 X153.26 Y111.55 E48.83672
G1 X150.2 Y111.55 E48.97921
G1 X150.2 Y106.288 E49.22423
G1 X84.8 Y106.286 E52.26952
G1 X84.8 Y113.65 E52.61242
G1 X83.3 Y113.65 E52.68227
G1 X83.3 Y121.35 E53.04081
G1 X84.8 Y121.35 E53.11066
G1 X84.8 Y128.714 E53.45356
G1 X90.808 Y128.714 E53.73332
G1 X129.8 Y128.7 E55.54895
G0 F6000 X129.53 Y128.97
G0 X129.572 Y130.428
G0 X138.652 Y130.662
G0 X153.252 Y130.9
;TYPE:WALL-INNER
G1 F1200 X140.6 Y130.9 E56.13808
G1 X129.4 Y130.9 E56.5302
G1 X81.748 Y130.9 E58.74907
G1 X79.1 Y128.252 E58.92345
G1 X79.1 Y106.748 E59.92477
G1 X81.748 Y104.1 E60.09914
G1 X153.252 Y104.1 E63.42867
G1 X155.9 Y106.748 E63.60304
G1 X155.9 Y128.252 E64.60436
G1 X153.252 Y130.9 E64.77873
G0 F6000 X153.418 Y131.3
;TYPE:WALL-OUTER
G1 F1200 X81.582 Y131.3 E68.12372
G1 X78.7 Y128.418 E68.3135
G1 X78.7 Y106.582 E69.33028
G1 X81.582 Y103.7 E69.52006
G1 X153.418 Y103.7 E72.86505
G1 X156.3 Y106.582 E73.05483
G1 X156.3 Y128.418 E74.07161
G1 X153.418 Y131.3 E74.26139
G0 F6000 X153.25 Y130.894
G0 X153.092 Y130.51
;TYPE:SKIN
G1 F1200 X140.99 Y130.51 E74.82491
G1 X140.99 Y129.49 E74.87241
G1 X142.566 Y129.49 E74.94579
G1 X150.99 Y129.501 E75.33805
G1 X150.99 Y124.24 E75.58303
G1 X154.05 Y124.24 E75.72551
G1 X154.05 Y110.76 E76.3532
G1 X150.99 Y110.76 E76.49568
G1 X150.99 Y105.498 E76.7407
G1 X84.01 Y105.496 E79.85957
G1 X84.01 Y112.86 E80.20247
G1 X82.51 Y112.86 E80.27232
G1 X82.51 Y122.14 E80.70443
G1 X84.01 Y122.14 E80.77428
G1 X84.01 Y129.504 E81.11718
G1 X90.808 Y129.504 E81.43372
G1 X129.01 Y129.49 E83.21257
G1 X129.01 Y130.51 E83.26006
G1 X81.908 Y130.51 E85.45333
G1 X79.49 Y128.092 E85.61256
G1 X79.49 Y106.908 E86.59898
G1 X81.908 Y104.49 E86.7582
G1 X153.092 Y104.49 E90.07283
G1 X155.51 Y106.908 E90.23206
G1 X155.51 Y128.092 E91.21847
G1 X153.092 Y130.51 E91.3777
G0 F6000 X153.289 Y130.707
G0 X155.726 Y128.181
G0 X155.726 Y106.819
G0 X153.181 Y104.274
G0 X152.733 Y104.21
G0 X152.733 Y104.65
G1 F1200 X155.349 Y107.265 E91.54994
G0 F6000 X155.349 Y107.831
G1 F1200 X152.167 Y104.65 E91.75945
G0 F6000 X151.602 Y104.65
G1 F1200 X155.349 Y108.397 E92.00619
G0 F6000 X155.349 Y108.963
G1 F1200 X151.036 Y104.65 E92.29021
G0 F6000 X150.47 Y104.65
G1 F1200 X155.349 Y109.528 E92.61147
G0 F6000 X155.349 Y110.094
G1 F1200 X151.149 Y105.894 E92.88805
G0 F6000 X151.149 Y106.459
G1 F1200 X155.349 Y110.66 E93.16466
G0 F6000 X155.349 Y111.225
G1 F1200 X151.149 Y107.025 E93.44123
G0 F6000 X151.149 Y107.591
G1 F1200 X154.157 Y110.599 E93.63932
G0 F6000 X154.208 Y110.65
G1 F1200 X155.349 Y111.791 E93.71445
G0 F6000 X155.349 Y112.357
G1 F1200 X154.208 Y111.216 E93.78959
G0 F6000 X154.208 Y111.782
G1 F1200 X155.349 Y112.922 E93.86469
G0 F6000 X155.349 Y113.488
G1 F1200 X154.208 Y112.347 E93.93983
G0 F6000 X154.208 Y112.913
G1 F1200 X155.349 Y114.054 E94.01497
G0 F6000 X155.349 Y114.619
G1 F1200 X154.208 Y113.479 E94.09007
G0 F6000 X154.208 Y114.045
G1 F1200 X155.349 Y115.185 E94.16517
G0 F6000 X155.349 Y115.751
G1 F1200 X154.208 Y114.61 E94.24031
G0 F6000 X154.208 Y115.176
G1 F1200 X155.349 Y116.316 E94.31541
G0 F6000 X155.349 Y116.882
G1 F1200 X154.208 Y115.742 E94.39052
G0 F6000 X154.208 Y116.307
G1 F1200 X155.349 Y117.448 E94.46566
G0 F6000 X155.349 Y118.014
G1 F1200 X154.208 Y116.873 E94.54079
G0 F6000 X154.208 Y117.439
G1 F1200 X155.349 Y118.579 E94.6159
G0 F6000 X155.349 Y119.145
G1 F1200 X154.208 Y118.004 E94.69103
G0 F6000 X154.208 Y118.57
G1 F1200 X155.349 Y119.711 E94.76617
G0 F6000 X155.349 Y120.276
G1 F1200 X154.208 Y119.136 E94.84127
G0 F6000 X154.208 Y119.701
G1 F1200 X155.349 Y120.842 E94.91641
G0 F6000 X155.349 Y121.408
G1 F1200 X154.208 Y120.267 E94.99155
G0 F6000 X154.208 Y120.833
G1 F1200 X155.349 Y121.973 E95.06665
G0 F6000 X155.349 Y122.539
G1 F1200 X154.208 Y121.398 E95.14179
G0 F6000 X154.208 Y121.964
G1 F1200 X155.349 Y123.105 E95.21692
G0 F6000 X155.349 Y123.67
G1 F1200 X154.208 Y122.53 E95.29203
G0 F6000 X154.208 Y123.095
G1 F1200 X155.349 Y124.236 E95.36717
G0 F6000 X155.349 Y124.802
G1 F1200 X154.208 Y123.661 E95.4423
G0 F6000 X154.208 Y124.227
G1 F1200 X155.349 Y125.367 E95.51741
G0 F6000 X155.349 Y125.933
G1 F1200 X153.816 Y124.4 E95.61836
G0 F6000 X153.25 Y124.4
G1 F1200 X155.349 Y126.499 E95.75658
G0 F6000 X155.349 Y127.064
G1 F1200 X152.684 Y124.4 E95.93204
G0 F6000 X152.119 Y124.4
G1 F1200 X155.349 Y127.63 E96.14474
G0 F6000 X155.264 Y128.111
G1 F1200 X151.553 Y124.4 E96.38912
G0 F6000 X151.149 Y124.562
G1 F1200 X154.981 Y128.394 E96.64146
G0 F6000 X154.698 Y128.677
G1 F1200 X151.149 Y125.128 E96.87517
G0 F6000 X151.149 Y125.693
G1 F1200 X154.415 Y128.96 E97.09027
G0 F6000 X154.133 Y129.242
G1 F1200 X151.149 Y126.259 E97.28674
G0 F6000 X151.149 Y126.825
G1 F1200 X153.85 Y129.525 E97.46458
G0 F6000 X153.567 Y129.808
G1 F1200 X151.149 Y127.39 E97.6238
G0 F6000 X151.149 Y127.956
G1 F1200 X153.284 Y130.091 E97.7644
G0 F6000 X152.976 Y130.349
G1 F1200 X151.149 Y128.522 E97.88471
G0 F6000 X151.149 Y129.087
G1 F1200 X152.411 Y130.349 E97.96781
G0 F6000 X151.845 Y130.349
G1 F1200 X151.149 Y129.653 E98.01365
