;FLAVOR:Marlin
;TIME:3977
;Filament used: 2.88493m
;Layer height: 0.2
;MINX:75.193
;MINY:90.275
;MINZ:0.2
;MAXX:159.807
;MAXY:144.725
;MAXZ:15.8
;Generated with Cura_SteamEngine 4.9.1
M140 S55
M105
M190 S55
M104 S228
M105
M109 S228
M82 ;absolute extrusion mode
; Ender 3 Custom Start G-code
G92 E0 ; Reset Extruder
G28 ; Home all axes
G1 Z2.0 F3000 ; Move Z Axis up little to prevent scratching of Heat Bed
G1 X0.1 Y20 Z0.3 F5000.0 ; Move to start position
G1 X0.1 Y200.0 Z0.3 F1500.0 E15 ; Draw the first line
G1 X0.4 Y200.0 Z0.3 F5000.0 ; Move to side a little
G1 X0.4 Y20 Z0.3 F1500.0 E30 ; Draw the second line
G92 E0 ; Reset Extruder
G1 Z2.0 F3000 ; Move Z Axis up little to prevent scratching of Heat Bed
G1 X5 Y20 Z0.3 F5000.0 ; Move over to prevent blob squish
G92 E0
G92 E0
G1 F1500 E-6.5
;LAYER_COUNT:79
;LAYER:0
M107
G0 F6000 X79.733 Y94.051 Z0.2
;TYPE:SKIRT
G1 F1500 E0
G1 F1200 X80.256 Y93.608 E0.0228
G1 X80.713 Y93.245 E0.04221
G1 X80.992 Y93.03 E0.05392
G1 X81.183 Y92.888 E0.06184
G1 X81.959 Y92.361 E0.09304
G1 X82.777 Y91.902 E0.12424
G1 X83.346 Y91.634 E0.14515
G1 X83.834 Y91.421 E0.16286
G1 X84.17 Y91.281 E0.17497
G1 X84.419 Y91.182 E0.18388
G1 X85.304 Y90.873 E0.21506
G1 X86.213 Y90.641 E0.24626
G1 X86.849 Y90.526 E0.26776
G1 X87.448 Y90.436 E0.28791
G1 X87.814 Y90.387 E0.30019
G1 X88.064 Y90.358 E0.30856
G1 X89.016 Y90.29 E0.3403
G1 X89.155 Y90.286 E0.34493
G1 X89.606 Y90.282 E0.35993
G1 X89.85 Y90.285 E0.36805
G1 X90.834 Y90.341 E0.40083
G1 X91.362 Y90.395 E0.41848
G1 X91.711 Y90.436 E0.43017
G1 X92.215 Y90.505 E0.44709
G1 X94.618 Y90.86 E0.52788
G1 X97.139 Y91.161 E0.61232
G1 X99.633 Y91.388 E0.69562
G1 X102.149 Y91.544 E0.77946
G1 X104.669 Y91.63 E0.86332
G1 X107.192 Y91.643 E0.94724
G1 X109.683 Y91.587 E1.03011
G1 X112.236 Y91.457 E1.11514
G1 X114.693 Y91.262 E1.19711
G1 X117.276 Y90.983 E1.28352
G1 X119.038 Y90.749 E1.34264
G1 X121.438 Y90.406 E1.42328
G1 X122.144 Y90.328 E1.4469
G1 X122.816 Y90.295 E1.46928
G1 X123.78 Y90.277 E1.50135
G1 X123.985 Y90.275 E1.50817
G1 X144.968 Y90.275 E2.20606
G1 X145.824 Y90.286 E2.23454
G1 X146.711 Y90.335 E2.26408
G1 X146.973 Y90.36 E2.27284
G1 X147.516 Y90.425 E2.29103
G1 X148.03 Y90.5 E2.3083
G1 X148.952 Y90.675 E2.33952
G1 X149.855 Y90.928 E2.37071
G1 X150.459 Y91.145 E2.39205
G1 X151.081 Y91.389 E2.41428
G1 X151.463 Y91.547 E2.42803
G1 X151.628 Y91.619 E2.43401
G1 X152.471 Y92.03 E2.46521
G1 X153.276 Y92.512 E2.49641
G1 X153.773 Y92.859 E2.51657
G1 X154.177 Y93.158 E2.53329
G1 X154.426 Y93.348 E2.54371
G1 X154.654 Y93.527 E2.55335
G1 X155.366 Y94.137 E2.58453
G1 X156.024 Y94.805 E2.61572
G1 X156.479 Y95.342 E2.63913
G1 X156.836 Y95.792 E2.65823
G1 X157.045 Y96.065 E2.66967
G1 X157.193 Y96.264 E2.67792
G1 X157.72 Y97.039 E2.70909
G1 X158.179 Y97.857 E2.74029
G1 X158.45 Y98.434 E2.76149
G1 X158.66 Y98.916 E2.77898
G1 X158.8 Y99.252 E2.79108
G1 X158.904 Y99.514 E2.80046
G1 X159.213 Y100.399 E2.83164
G1 X159.444 Y101.308 E2.86283
G1 X159.556 Y101.924 E2.88366
G1 X159.636 Y102.452 E2.90142
G1 X159.686 Y102.829 E2.91407
G1 X159.723 Y103.147 E2.92471
G1 X159.791 Y104.05 E2.95483
G1 X159.799 Y104.289 E2.96279
G1 X159.807 Y104.866 E2.98198
G1 X159.806 Y130.045 E3.81944
G1 X159.796 Y130.74 E3.84255
G1 X159.749 Y131.605 E3.87137
G1 X159.725 Y131.862 E3.87995
G1 X159.657 Y132.435 E3.89914
G1 X159.579 Y132.967 E3.91703
G1 X159.403 Y133.888 E3.94821
G1 X159.15 Y134.791 E3.9794
G1 X158.936 Y135.386 E4.00044
G1 X158.718 Y135.942 E4.0203
G1 X158.585 Y136.266 E4.03195
G1 X158.494 Y136.478 E4.03962
G1 X158.088 Y137.323 E4.0708
G1 X157.611 Y138.131 E4.10201
G1 X157.223 Y138.689 E4.12461
G1 X156.905 Y139.118 E4.14238
G1 X156.726 Y139.353 E4.1522
G1 X156.563 Y139.561 E4.16099
G1 X155.954 Y140.274 E4.19218
G1 X155.286 Y140.932 E4.22336
G1 X154.751 Y141.386 E4.2467
G1 X154.268 Y141.77 E4.26722
G1 X153.981 Y141.991 E4.27927
G1 X153.81 Y142.118 E4.28636
G1 X153.034 Y142.644 E4.31754
G1 X152.215 Y143.103 E4.34876
G1 X151.616 Y143.384 E4.37077
G1 X151.121 Y143.598 E4.38871
G1 X150.834 Y143.717 E4.39904
G1 X150.586 Y143.816 E4.40792
G1 X149.701 Y144.126 E4.43911
G1 X148.793 Y144.36 E4.4703
G1 X148.142 Y144.478 E4.4923
G1 X147.616 Y144.557 E4.50999
G1 X147.263 Y144.604 E4.52184
G1 X146.973 Y144.638 E4.53155
G1 X146.038 Y144.708 E4.56273
G1 X145.1 Y144.697 E4.59393
G1 X144.607 Y144.659 E4.61038
G1 X142.133 Y144.414 E4.69307
G1 X139.64 Y144.237 E4.77619
G1 X137.118 Y144.13 E4.86015
G1 X134.594 Y144.094 E4.94411
G1 X132.071 Y144.13 E5.02803
G1 X129.55 Y144.237 E5.11196
G1 X127.089 Y144.411 E5.19402
G1 X125.107 Y144.61 E5.26027
G1 X124.415 Y144.672 E5.28338
G1 X123.762 Y144.711 E5.30513
G1 X123.304 Y144.722 E5.32037
G1 X122.99 Y144.725 E5.33082
G1 X89.869 Y144.724 E6.43242
G1 X89.171 Y144.714 E6.45564
G1 X88.311 Y144.668 E6.48429
G1 X88.085 Y144.647 E6.49184
G1 X87.545 Y144.583 E6.50992
G1 X86.986 Y144.503 E6.5287
G1 X86.064 Y144.331 E6.5599
G1 X85.16 Y144.08 E6.5911
G1 X84.494 Y143.841 E6.61464
G1 X83.951 Y143.626 E6.63406
G1 X83.668 Y143.51 E6.64424
G1 X83.444 Y143.414 E6.65234
G1 X82.598 Y143.008 E6.68355
G1 X81.791 Y142.531 E6.71473
G1 X81.221 Y142.135 E6.73782
G1 X80.798 Y141.821 E6.75534
G1 X80.581 Y141.657 E6.76438
G1 X80.366 Y141.489 E6.77346
G1 X79.652 Y140.88 E6.80467
G1 X78.993 Y140.213 E6.83586
G1 X78.516 Y139.651 E6.86037
G1 X78.154 Y139.194 E6.87977
G1 X77.955 Y138.935 E6.89063
G1 X77.812 Y138.743 E6.89859
G1 X77.284 Y137.967 E6.92981
G1 X76.825 Y137.15 E6.96098
G1 X76.548 Y136.562 E6.9826
G1 X76.333 Y136.068 E7.00052
G1 X76.192 Y135.728 E7.01276
G1 X76.093 Y135.478 E7.0217
G1 X75.785 Y134.592 E7.0529
G1 X75.554 Y133.683 E7.08409
G1 X75.445 Y133.081 E7.10444
G1 X75.362 Y132.535 E7.12281
G1 X75.308 Y132.132 E7.13633
G1 X75.273 Y131.826 E7.14658
G1 X75.207 Y130.906 E7.17726
G1 X75.195 Y130.428 E7.19316
G1 X75.193 Y130.17 E7.20174
G1 X75.194 Y104.955 E8.0404
G1 X75.204 Y104.258 E8.06358
G1 X75.253 Y103.369 E8.09319
G1 X75.279 Y103.097 E8.10228
G1 X75.347 Y102.538 E8.12101
G1 X75.423 Y102.023 E8.13832
G1 X75.599 Y101.102 E8.16951
G1 X75.853 Y100.199 E8.20071
G1 X76.064 Y99.614 E8.2214
G1 X76.282 Y99.058 E8.24126
G1 X76.415 Y98.734 E8.25291
G1 X76.506 Y98.522 E8.26058
G1 X76.912 Y97.677 E8.29176
G1 X77.389 Y96.869 E8.32297
G1 X77.777 Y96.311 E8.34557
G1 X78.095 Y95.882 E8.36334
G1 X78.287 Y95.631 E8.37385
G1 X78.453 Y95.42 E8.38278
G1 X79.064 Y94.708 E8.41398
G1 X79.733 Y94.051 E8.44517
G0 F6000 X80.026 Y94.325
G1 F1200 X80.505 Y93.921 E8.46601
G1 X80.962 Y93.558 E8.48542
G1 X81.231 Y93.351 E8.49671
G1 X81.422 Y93.209 E8.50463
G1 X82.184 Y92.693 E8.53523
G1 X82.988 Y92.244 E8.56586
G1 X83.506 Y92.001 E8.58489
G1 X83.994 Y91.788 E8.6026
G1 X84.318 Y91.653 E8.61428
G1 X84.567 Y91.554 E8.62319
G1 X85.436 Y91.251 E8.6538
G1 X86.329 Y91.025 E8.68444
G1 X86.908 Y90.922 E8.704
G1 X87.507 Y90.832 E8.72414
G1 X87.861 Y90.785 E8.73602
G1 X88.111 Y90.756 E8.74439
G1 X89.027 Y90.689 E8.77494
G1 X89.166 Y90.685 E8.77956
G1 X89.601 Y90.682 E8.79403
G1 X89.845 Y90.685 E8.80215
G1 X90.793 Y90.739 E8.83373
G1 X91.321 Y90.793 E8.85138
G1 X91.657 Y90.833 E8.86264
G1 X92.156 Y90.901 E8.87939
G1 X94.579 Y91.259 E8.96085
G1 X97.095 Y91.559 E9.04513
G1 X99.605 Y91.787 E9.12895
G1 X102.109 Y91.943 E9.2124
G1 X104.654 Y92.03 E9.2971
G1 X107.199 Y92.043 E9.38174
G1 X109.711 Y91.986 E9.46531
G1 X112.219 Y91.859 E9.54884
G1 X114.767 Y91.656 E9.63385
G1 X117.292 Y91.384 E9.71832
G1 X119.147 Y91.138 E9.78056
G1 X121.495 Y90.802 E9.85945
G1 X122.176 Y90.727 E9.88224
G1 X122.823 Y90.695 E9.90378
G1 X123.985 Y90.675 E9.94244
G1 X144.968 Y90.675 E10.64033
G1 X145.818 Y90.686 E10.66861
G1 X146.673 Y90.733 E10.69709
G1 X146.935 Y90.758 E10.70584
G1 X147.458 Y90.821 E10.72336
G1 X147.972 Y90.896 E10.74064
G1 X148.877 Y91.068 E10.77128
G1 X149.763 Y91.319 E10.80191
G1 X150.313 Y91.517 E10.82135
G1 X150.935 Y91.761 E10.84357
G1 X151.303 Y91.914 E10.85683
G1 X151.468 Y91.986 E10.86281
G1 X152.295 Y92.39 E10.89343
G1 X153.084 Y92.865 E10.92406
G1 X153.535 Y93.181 E10.94237
G1 X153.939 Y93.48 E10.95909
G1 X154.179 Y93.662 E10.96911
G1 X154.407 Y93.841 E10.97875
G1 X155.105 Y94.441 E11.00936
G1 X155.75 Y95.099 E11.04001
G1 X156.165 Y95.591 E11.06142
G1 X156.522 Y96.041 E11.08052
G1 X156.724 Y96.303 E11.09153
G1 X156.872 Y96.502 E11.09977
G1 X157.388 Y97.264 E11.13038
G1 X157.837 Y98.068 E11.16101
G1 X158.084 Y98.594 E11.18034
G1 X158.294 Y99.076 E11.19783
G1 X158.428 Y99.399 E11.20946
G1 X158.532 Y99.661 E11.21883
G1 X158.834 Y100.531 E11.24946
G1 X159.06 Y101.423 E11.28007
G1 X159.16 Y101.984 E11.29902
G1 X159.24 Y102.512 E11.31678
G1 X159.289 Y102.875 E11.32897
G1 X159.326 Y103.193 E11.33961
G1 X159.391 Y104.063 E11.36863
G1 X159.405 Y104.556 E11.38503
G1 X159.407 Y104.765 E11.39199
G1 X159.406 Y130.04 E12.23264
G1 X159.396 Y130.735 E12.25575
G1 X159.351 Y131.568 E12.2835
G1 X159.327 Y131.825 E12.29209
G1 X159.261 Y132.377 E12.31058
G1 X159.183 Y132.909 E12.32846
G1 X159.01 Y133.813 E12.35907
G1 X158.759 Y134.699 E12.3897
G1 X158.564 Y135.24 E12.40883
G1 X158.346 Y135.796 E12.42869
G1 X158.218 Y136.108 E12.43991
G1 X158.127 Y136.32 E12.44758
G1 X157.727 Y137.15 E12.47822
G1 X157.257 Y137.941 E12.50883
G1 X156.902 Y138.451 E12.52949
G1 X156.584 Y138.88 E12.54726
G1 X156.411 Y139.106 E12.55672
G1 X156.248 Y139.314 E12.56551
G1 X155.65 Y140.014 E12.59613
G1 X154.992 Y140.658 E12.62676
G1 X154.502 Y141.073 E12.64811
G1 X154.019 Y141.457 E12.66864
G1 X153.742 Y141.67 E12.68026
G1 X153.571 Y141.797 E12.68734
G1 X152.809 Y142.313 E12.71795
G1 X152.005 Y142.761 E12.74856
G1 X151.457 Y143.017 E12.76868
G1 X150.962 Y143.231 E12.78662
G1 X150.686 Y143.346 E12.79656
G1 X150.438 Y143.445 E12.80544
G1 X149.569 Y143.748 E12.83605
G1 X148.677 Y143.976 E12.86667
G1 X148.082 Y144.082 E12.88678
G1 X147.556 Y144.161 E12.90447
G1 X147.216 Y144.207 E12.91588
G1 X146.926 Y144.241 E12.92559
G1 X146.008 Y144.308 E12.9562
G1 X144.646 Y144.261 E13.00153
G1 X142.164 Y144.015 E13.08449
G1 X139.649 Y143.837 E13.16835
G1 X137.141 Y143.73 E13.25184
G1 X134.594 Y143.694 E13.33656
G1 X132.048 Y143.73 E13.42125
G1 X129.539 Y143.837 E13.50477
G1 X127.057 Y144.013 E13.58753
G1 X125.071 Y144.212 E13.65392
G1 X124.379 Y144.274 E13.67703
G1 X123.75 Y144.311 E13.69798
G1 X123.3 Y144.323 E13.71296
G1 X123.091 Y144.325 E13.71991
G1 X89.875 Y144.324 E14.82468
G1 X89.177 Y144.314 E14.84789
G1 X88.348 Y144.27 E14.87551
G1 X88.122 Y144.249 E14.88305
G1 X87.601 Y144.187 E14.90051
G1 X87.042 Y144.107 E14.91929
G1 X86.137 Y143.937 E14.94991
G1 X85.251 Y143.689 E14.98052
G1 X84.642 Y143.47 E15.00204
G1 X84.099 Y143.255 E15.02147
G1 X83.825 Y143.142 E15.03132
G1 X83.601 Y143.046 E15.03943
G1 X82.772 Y142.647 E15.07003
G1 X81.98 Y142.177 E15.10066
G1 X81.459 Y141.814 E15.12178
G1 X81.036 Y141.5 E15.1393
G1 X80.827 Y141.341 E15.14804
G1 X80.612 Y141.173 E15.15711
G1 X79.912 Y140.576 E15.18771
G1 X79.267 Y139.919 E15.21833
G1 X78.83 Y139.403 E15.24082
G1 X78.468 Y138.946 E15.26021
G1 X78.276 Y138.696 E15.2707
G1 X78.133 Y138.504 E15.27866
G1 X77.615 Y137.742 E15.30931
G1 X77.166 Y136.939 E15.33991
G1 X76.915 Y136.402 E15.35962
G1 X76.7 Y135.908 E15.37754
G1 X76.564 Y135.581 E15.38932
G1 X76.465 Y135.331 E15.39826
G1 X76.163 Y134.461 E15.42889
G1 X75.938 Y133.568 E15.45952
G1 X75.84 Y133.021 E15.47801
G1 X75.757 Y132.475 E15.49637
G1 X75.706 Y132.087 E15.50939
G1 X75.671 Y131.781 E15.51963
G1 X75.607 Y130.894 E15.54921
G1 X75.595 Y130.425 E15.56482
G1 X75.593 Y130.167 E15.5734
G1 X75.594 Y104.961 E16.41175
G1 X75.604 Y104.264 E16.43494
G1 X75.651 Y103.407 E16.46348
G1 X75.677 Y103.135 E16.47257
G1 X75.743 Y102.596 E16.49063
G1 X75.819 Y102.081 E16.50795
G1 X75.992 Y101.177 E16.53856
G1 X76.244 Y100.292 E16.56917
G1 X76.436 Y99.76 E16.58798
G1 X76.654 Y99.204 E16.60784
G1 X76.782 Y98.892 E16.61906
G1 X76.873 Y98.68 E16.62673
G1 X77.273 Y97.85 E16.65737
G1 X77.743 Y97.059 E16.68798
G1 X78.098 Y96.549 E16.70865
G1 X78.416 Y96.12 E16.72641
G1 X78.601 Y95.878 E16.73654
G1 X78.767 Y95.667 E16.74547
G1 X79.367 Y94.969 E16.77608
G1 X80.026 Y94.325 E16.80673
G0 F6000 X80.318 Y94.6
G1 F1200 X80.754 Y94.234 E16.82566
G1 X81.211 Y93.871 E16.84507
G1 X81.469 Y93.672 E16.85591
G1 X81.66 Y93.53 E16.86383
G1 X82.408 Y93.024 E16.89386
G1 X83.198 Y92.586 E16.92391
G1 X83.666 Y92.368 E16.94108
G1 X84.154 Y92.155 E16.95879
G1 X84.466 Y92.025 E16.97003
G1 X84.715 Y91.926 E16.97894
G1 X85.568 Y91.63 E17.00897
G1 X86.444 Y91.41 E17.03901
G1 X86.967 Y91.317 E17.05668
G1 X87.566 Y91.227 E17.07683
G1 X87.907 Y91.182 E17.08827
G1 X88.157 Y91.153 E17.09664
G1 X89.039 Y91.089 E17.12605
G1 X89.178 Y91.085 E17.13068
G1 X89.596 Y91.082 E17.14458
G1 X89.84 Y91.085 E17.15269
G1 X90.753 Y91.137 E17.18311
G1 X91.281 Y91.191 E17.20076
G1 X91.604 Y91.229 E17.21158
G1 X92.098 Y91.297 E17.22817
G1 X94.514 Y91.654 E17.30939
G1 X97.044 Y91.956 E17.39414
G1 X99.58 Y92.186 E17.47883
G1 X102.106 Y92.344 E17.56301
G1 X104.638 Y92.43 E17.64728
G1 X107.206 Y92.443 E17.73269
G1 X109.705 Y92.387 E17.81583
G1 X112.273 Y92.256 E17.90135
G1 X114.805 Y92.055 E17.98583
G1 X117.343 Y91.781 E18.07074
G1 X119.171 Y91.539 E18.13207
G1 X121.552 Y91.198 E18.21207
G1 X122.208 Y91.125 E18.23402
G1 X122.831 Y91.095 E18.25476
G1 X123.985 Y91.075 E18.29315
G1 X144.968 Y91.075 E18.99105
G1 X145.812 Y91.086 E19.01912
G1 X146.635 Y91.131 E19.04654
G1 X146.897 Y91.156 E19.05529
G1 X147.401 Y91.217 E19.07218
G1 X147.915 Y91.292 E19.08945
G1 X148.802 Y91.462 E19.11949
G1 X149.67 Y91.709 E19.14951
G1 X150.167 Y91.889 E19.16709
G1 X150.789 Y92.133 E19.18931
G1 X151.143 Y92.28 E19.20206
G1 X151.308 Y92.352 E19.20805
G1 X152.119 Y92.75 E19.2381
G1 X152.892 Y93.217 E19.26813
G1 X153.297 Y93.502 E19.2846
G1 X153.701 Y93.801 E19.30132
G1 X153.932 Y93.977 E19.31098
G1 X154.16 Y94.156 E19.32062
G1 X154.845 Y94.745 E19.35067
G1 X155.475 Y95.392 E19.3807
G1 X155.852 Y95.84 E19.40018
G1 X156.209 Y96.29 E19.41928
G1 X156.403 Y96.542 E19.42986
G1 X156.551 Y96.741 E19.43811
G1 X157.057 Y97.489 E19.46815
G1 X157.495 Y98.278 E19.49816
G1 X157.717 Y98.754 E19.51563
G1 X157.927 Y99.236 E19.53312
G1 X158.056 Y99.547 E19.54432
G1 X158.16 Y99.809 E19.55369
G1 X158.456 Y100.662 E19.58372
G1 X158.675 Y101.538 E19.61375
G1 X158.765 Y102.044 E19.63085
G1 X158.845 Y102.572 E19.64861
G1 X158.892 Y102.921 E19.66032
G1 X158.929 Y103.239 E19.67097
G1 X158.991 Y104.077 E19.69892
G1 X159.005 Y104.559 E19.71496
G1 X159.007 Y104.768 E19.72191
G1 X159.006 Y130.034 E20.56226
G1 X158.996 Y130.729 E20.58538
G1 X158.953 Y131.53 E20.61206
G1 X158.929 Y131.787 E20.62064
G1 X158.865 Y132.319 E20.63846
G1 X158.787 Y132.851 E20.65635
G1 X158.617 Y133.738 E20.68639
G1 X158.368 Y134.606 E20.71642
G1 X158.191 Y135.094 E20.73369
G1 X157.973 Y135.65 E20.75355
G1 X157.85 Y135.95 E20.76433
G1 X157.759 Y136.162 E20.77201
G1 X157.366 Y136.976 E20.80207
G1 X156.903 Y137.751 E20.8321
G1 X156.58 Y138.213 E20.85085
G1 X156.262 Y138.642 E20.86861
G1 X156.096 Y138.86 E20.87772
G1 X155.933 Y139.068 E20.88651
G1 X155.346 Y139.753 E20.91651
G1 X154.699 Y140.384 E20.94657
G1 X154.253 Y140.76 E20.96598
G1 X153.77 Y141.144 E20.9865
G1 X153.504 Y141.349 E20.99767
G1 X153.333 Y141.476 E21.00475
G1 X152.584 Y141.981 E21.0348
G1 X151.795 Y142.419 E21.06481
G1 X151.299 Y142.65 E21.08301
G1 X150.804 Y142.864 E21.10095
G1 X150.538 Y142.974 E21.11052
G1 X150.29 Y143.073 E21.1194
G1 X149.437 Y143.37 E21.14944
G1 X148.561 Y143.591 E21.17949
G1 X148.023 Y143.687 E21.19767
G1 X147.497 Y143.766 E21.21536
G1 X147.17 Y143.81 E21.22633
G1 X146.88 Y143.844 E21.23605
G1 X145.979 Y143.909 E21.26609
G1 X144.685 Y143.863 E21.30916
G1 X142.195 Y143.616 E21.39238
G1 X139.694 Y143.439 E21.47577
G1 X137.128 Y143.33 E21.5612
G1 X134.594 Y143.294 E21.64548
G1 X132.061 Y143.33 E21.72974
G1 X129.494 Y143.439 E21.8152
G1 X127.022 Y143.614 E21.89762
G1 X125.035 Y143.813 E21.96404
G1 X124.343 Y143.875 E21.98715
G1 X123.738 Y143.911 E22.00731
G1 X123.297 Y143.923 E22.02198
G1 X123.088 Y143.925 E22.02893
G1 X89.881 Y143.924 E23.1334
G1 X89.183 Y143.914 E23.15662
G1 X88.385 Y143.871 E23.1832
G1 X88.159 Y143.85 E23.19075
G1 X87.658 Y143.791 E23.20753
G1 X87.099 Y143.711 E23.22631
G1 X86.212 Y143.544 E23.25633
