;FLAVOR:Marlin
;TIME:2156
;Filament used: 0.725065m
;Layer height: 0.12
;MINX:98.034
;MINY:98.033
;MINZ:0.12
;MAXX:136.97
;MAXY:136.956
;MAXZ:15.96
;Generated with Cura_SteamEngine 4.7.0
M140 S55
M105
M190 S55
M104 S210
M105
M109 S210
M82 ;absolute extrusion mode
; Ender 3 Custom Start G-code
G92 E0 ; Reset Extruder
G28 ; Home all axes
G1 Z2.0 F3000 ; Move Z Axis up little to prevent scratching of Heat Bed
G1 X0.1 Y20 Z0.3 F5000.0 ; Move to start position
G1 X0.1 Y200.0 Z0.3 F1500.0 E15 ; Draw the first line
G1 X0.4 Y200.0 Z0.3 F5000.0 ; Move to side a little
G1 X0.4 Y20 Z0.3 F1500.0 E30 ; Draw the second line
G92 E0 ; Reset Extruder
G1 Z2.0 F3000 ; Move Z Axis up little to prevent scratching of Heat Bed
G1 X5 Y20 Z0.3 F5000.0 ; Move over to prevent blob squish
G92 E0
G92 E0
G1 F2700 E-5
;LAYER_COUNT:133
;LAYER:0
M107
G0 F6000 X103.885 Y103.584 Z0.12
;TYPE:SKIRT
G1 F2700 E0
G1 F1200 X104.167 Y103.314 E0.00779
G1 X104.566 Y102.95 E0.01857
G1 X104.815 Y102.734 E0.02515
G1 X104.991 Y102.585 E0.02975
G1 X105.163 Y102.442 E0.03421
G1 X105.358 Y102.283 E0.03923
G1 X105.542 Y102.137 E0.04392
G1 X105.971 Y101.813 E0.05465
G1 X106.271 Y101.598 E0.06202
G1 X106.596 Y101.374 E0.06989
G1 X106.929 Y101.153 E0.07787
G1 X107.268 Y100.937 E0.08589
G1 X107.446 Y100.828 E0.09006
G1 X107.732 Y100.658 E0.09669
G1 X107.907 Y100.558 E0.10072
G1 X108.169 Y100.413 E0.10669
G1 X108.406 Y100.286 E0.11206
G1 X108.661 Y100.154 E0.11779
G1 X108.84 Y100.064 E0.12179
G1 X109.127 Y99.925 E0.12815
G1 X109.471 Y99.766 E0.13571
G1 X109.675 Y99.674 E0.14018
G1 X110.106 Y99.49 E0.14953
G1 X110.418 Y99.365 E0.15624
G1 X110.875 Y99.194 E0.16598
G1 X111.235 Y99.068 E0.17359
G1 X111.572 Y98.956 E0.18067
G1 X111.763 Y98.896 E0.18467
G1 X112.143 Y98.784 E0.19258
G1 X112.383 Y98.718 E0.19754
G1 X112.619 Y98.656 E0.20241
G1 X112.806 Y98.609 E0.20626
G1 X113.267 Y98.503 E0.2157
G1 X113.898 Y98.373 E0.22856
G1 X114.423 Y98.278 E0.2392
G1 X114.673 Y98.239 E0.24425
G1 X115.071 Y98.185 E0.25227
G1 X115.231 Y98.166 E0.25548
G1 X115.703 Y98.12 E0.26495
G1 X116.408 Y98.067 E0.27906
G1 X117.084 Y98.037 E0.29256
G1 X117.379 Y98.033 E0.29845
G1 X118.137 Y98.049 E0.31358
G1 X119.02 Y98.098 E0.33123
G1 X119.743 Y98.162 E0.34571
G1 X119.989 Y98.192 E0.35066
G1 X120.67 Y98.297 E0.36441
G1 X121.422 Y98.437 E0.37967
G1 X121.994 Y98.559 E0.39134
G1 X122.238 Y98.618 E0.39635
G1 X122.675 Y98.733 E0.40537
G1 X122.983 Y98.821 E0.41176
G1 X123.242 Y98.899 E0.41716
G1 X123.482 Y98.974 E0.42218
G1 X123.942 Y99.129 E0.43187
G1 X124.354 Y99.278 E0.44061
G1 X124.943 Y99.51 E0.45324
G1 X125.305 Y99.665 E0.4611
G1 X125.585 Y99.789 E0.46721
G1 X125.819 Y99.897 E0.47236
G1 X126.262 Y100.114 E0.4822
G1 X126.583 Y100.28 E0.48941
G1 X126.923 Y100.464 E0.49713
G1 X127.295 Y100.675 E0.50566
G1 X127.512 Y100.803 E0.51069
G1 X127.804 Y100.982 E0.51752
G1 X128.107 Y101.177 E0.52471
G1 X128.495 Y101.436 E0.53402
G1 X128.666 Y101.553 E0.53816
G1 X129.032 Y101.815 E0.54714
G1 X129.162 Y101.912 E0.55038
G1 X129.404 Y102.097 E0.55646
G1 X129.728 Y102.353 E0.5647
G1 X130.064 Y102.63 E0.57339
G1 X130.287 Y102.821 E0.57925
G1 X130.478 Y102.988 E0.58431
G1 X130.634 Y103.128 E0.58849
G1 X130.963 Y103.436 E0.59749
G1 X131.235 Y103.701 E0.60506
G1 X131.59 Y104.063 E0.61518
G1 X131.824 Y104.313 E0.62202
G1 X132.137 Y104.662 E0.63137
G1 X132.387 Y104.953 E0.63903
G1 X132.582 Y105.187 E0.64511
G1 X132.703 Y105.336 E0.64894
G1 X132.991 Y105.706 E0.65829
G1 X133.215 Y106.009 E0.66581
G1 X133.334 Y106.173 E0.66986
G1 X133.517 Y106.432 E0.67619
G1 X133.661 Y106.643 E0.68128
G1 X133.863 Y106.951 E0.68863
G1 X134.014 Y107.189 E0.69426
G1 X134.178 Y107.456 E0.70051
G1 X134.363 Y107.771 E0.7078
G1 X134.568 Y108.133 E0.7161
G1 X134.696 Y108.367 E0.72143
G1 X134.907 Y108.774 E0.73058
G1 X135.086 Y109.146 E0.73881
G1 X135.24 Y109.482 E0.74619
G1 X135.407 Y109.863 E0.75449
G1 X135.525 Y110.146 E0.76061
G1 X135.626 Y110.398 E0.76603
G1 X135.767 Y110.769 E0.77395
G1 X135.854 Y111.011 E0.77908
G1 X135.995 Y111.428 E0.78786
G1 X136.137 Y111.879 E0.7973
G1 X136.258 Y112.291 E0.80587
G1 X136.325 Y112.541 E0.81103
G1 X136.415 Y112.896 E0.81834
G1 X136.483 Y113.183 E0.82423
G1 X136.517 Y113.334 E0.82732
G1 X136.591 Y113.687 E0.83452
G1 X136.629 Y113.886 E0.83856
G1 X136.687 Y114.221 E0.84534
G1 X136.753 Y114.636 E0.85373
G1 X136.815 Y115.085 E0.86277
G1 X136.85 Y115.384 E0.86878
G1 X136.882 Y115.692 E0.87496
G1 X136.907 Y115.974 E0.88061
G1 X136.937 Y116.42 E0.88953
G1 X136.96 Y116.92 E0.89952
G1 X136.97 Y117.483 E0.91076
G1 X136.968 Y117.699 E0.91507
G1 X136.96 Y118.006 E0.9212
G1 X136.949 Y118.302 E0.92711
G1 X136.932 Y118.635 E0.93376
G1 X136.904 Y119.049 E0.94204
G1 X136.856 Y119.573 E0.95254
G1 X136.794 Y120.091 E0.96295
G1 X136.676 Y120.817 E0.97763
G1 X136.501 Y121.707 E0.99573
G1 X136.341 Y122.403 E1.00999
G1 X136.266 Y122.678 E1.01567
G1 X136.163 Y123.04 E1.02318
G1 X136.001 Y123.561 E1.03407
G1 X135.901 Y123.856 E1.04029
G1 X135.77 Y124.223 E1.04807
G1 X135.693 Y124.429 E1.05245
G1 X135.565 Y124.759 E1.05952
G1 X135.336 Y125.303 E1.0713
G1 X135.152 Y125.711 E1.08023
G1 X134.977 Y126.082 E1.08841
G1 X134.903 Y126.231 E1.09173
G1 X134.753 Y126.521 E1.09825
G1 X134.628 Y126.755 E1.10354
G1 X134.5 Y126.988 E1.10885
G1 X134.401 Y127.163 E1.11286
G1 X134.255 Y127.413 E1.11864
G1 X134.13 Y127.621 E1.12348
G1 X133.938 Y127.931 E1.13076
G1 X133.795 Y128.154 E1.13605
G1 X133.68 Y128.328 E1.14021
G1 X133.52 Y128.563 E1.14588
G1 X133.411 Y128.719 E1.14968
G1 X133.248 Y128.947 E1.15527
G1 X133.06 Y129.202 E1.16159
G1 X132.86 Y129.465 E1.16819
G1 X132.696 Y129.674 E1.17349
G1 X132.399 Y130.036 E1.18283
G1 X132.292 Y130.161 E1.18612
G1 X131.997 Y130.494 E1.195
G1 X131.832 Y130.676 E1.1999
G1 X131.577 Y130.949 E1.20735
G1 X131.196 Y131.337 E1.2182
G1 X130.899 Y131.625 E1.22646
G1 X130.519 Y131.976 E1.23678
G1 X130.315 Y132.156 E1.24221
G1 X130.112 Y132.331 E1.24756
G1 X129.937 Y132.478 E1.25212
G1 X129.756 Y132.626 E1.25679
G1 X129.526 Y132.811 E1.26268
G1 X129.081 Y133.151 E1.27385
G1 X128.824 Y133.337 E1.28019
G1 X128.54 Y133.536 E1.28711
G1 X128.274 Y133.716 E1.29352
G1 X127.918 Y133.947 E1.30198
G1 X127.68 Y134.095 E1.30758
G1 X127.405 Y134.26 E1.31398
G1 X127.125 Y134.423 E1.32044
G1 X126.785 Y134.613 E1.32822
G1 X126.645 Y134.688 E1.33139
G1 X126.301 Y134.865 E1.33911
G1 X125.884 Y135.069 E1.34837
G1 X125.686 Y135.163 E1.35274
G1 X125.344 Y135.318 E1.36024
G1 X125.033 Y135.451 E1.36699
G1 X124.748 Y135.569 E1.37314
G1 X124.216 Y135.774 E1.38452
G1 X123.807 Y135.919 E1.39318
G1 X123.315 Y136.08 E1.40351
G1 X123.024 Y136.168 E1.40958
G1 X122.709 Y136.258 E1.41612
G1 X122.461 Y136.325 E1.42124
G1 X122.214 Y136.389 E1.42633
G1 X122.104 Y136.416 E1.42859
G1 X121.807 Y136.485 E1.43468
G1 X121.511 Y136.549 E1.44072
G1 X121.173 Y136.616 E1.4476
G1 X120.819 Y136.681 E1.45478
G1 X120.478 Y136.738 E1.46168
G1 X120.326 Y136.761 E1.46475
G1 X120.012 Y136.804 E1.47107
G1 X119.625 Y136.85 E1.47885
G1 X119.377 Y136.877 E1.48383
G1 X118.794 Y136.925 E1.4955
G1 X118.559 Y136.938 E1.5002
G1 X117.964 Y136.955 E1.51208
G1 X117.1 Y136.956 E1.52932
G1 X116.547 Y136.943 E1.54036
G1 X116.323 Y136.932 E1.54483
G1 X115.817 Y136.895 E1.55496
G1 X115.524 Y136.867 E1.56083
G1 X115.157 Y136.826 E1.5682
G1 X114.856 Y136.787 E1.57426
G1 X114.553 Y136.743 E1.58037
G1 X114.401 Y136.719 E1.58344
G1 X114.126 Y136.672 E1.58901
G1 X113.762 Y136.605 E1.59639
G1 X113.202 Y136.487 E1.60781
G1 X112.783 Y136.387 E1.61641
G1 X112.643 Y136.352 E1.61929
G1 X112.289 Y136.257 E1.62661
G1 X111.981 Y136.169 E1.633
G1 X111.453 Y136.003 E1.64404
G1 X111.019 Y135.855 E1.65319
G1 X110.736 Y135.754 E1.65919
G1 X110.502 Y135.667 E1.66417
G1 X110.066 Y135.495 E1.67353
G1 X109.857 Y135.407 E1.67805
G1 X109.578 Y135.285 E1.68413
G1 X109.382 Y135.196 E1.68842
G1 X109.143 Y135.084 E1.69369
G1 X108.903 Y134.968 E1.69901
G1 X108.536 Y134.782 E1.70722
G1 X108.272 Y134.642 E1.71318
G1 X107.948 Y134.463 E1.72057
G1 X107.652 Y134.293 E1.72738
G1 X107.371 Y134.126 E1.73391
G1 X107.205 Y134.024 E1.7378
G1 X106.862 Y133.805 E1.74592
G1 X106.649 Y133.663 E1.75102
G1 X106.446 Y133.524 E1.75593
G1 X106.273 Y133.403 E1.76015
G1 X106.048 Y133.241 E1.76568
G1 X105.865 Y133.106 E1.77022
G1 X105.669 Y132.958 E1.77512
G1 X105.515 Y132.839 E1.779
G1 X105.332 Y132.694 E1.78366
G1 X105.037 Y132.455 E1.79124
G1 X104.852 Y132.301 E1.79604
G1 X104.522 Y132.014 E1.80477
G1 X104.338 Y131.848 E1.80972
G1 X103.943 Y131.475 E1.82056
G1 X103.692 Y131.225 E1.82763
G1 X103.472 Y130.998 E1.83394
G1 X103.29 Y130.806 E1.83922
G1 X103.082 Y130.581 E1.84533
G1 X102.883 Y130.359 E1.85128
G1 X102.633 Y130.071 E1.85889
G1 X102.516 Y129.931 E1.86253
G1 X102.352 Y129.73 E1.86771
G1 X102.129 Y129.45 E1.87485
G1 X101.73 Y128.916 E1.88815
G1 X101.464 Y128.537 E1.8974
G1 X101.196 Y128.136 E1.90702
G1 X101.009 Y127.843 E1.91396
G1 X100.806 Y127.513 E1.92169
G1 X100.691 Y127.318 E1.92621
G1 X100.544 Y127.061 E1.93211
G1 X100.416 Y126.83 E1.93738
G1 X100.289 Y126.593 E1.94275
G1 X100.173 Y126.371 E1.94775
G1 X99.943 Y125.906 E1.9581
G1 X99.718 Y125.421 E1.96877
G1 X99.511 Y124.946 E1.97911
G1 X99.396 Y124.664 E1.98519
G1 X99.192 Y124.121 E1.99676
G1 X99.078 Y123.793 E2.00369
G1 X98.983 Y123.509 E2.00967
G1 X98.885 Y123.195 E2.01624
G1 X98.808 Y122.94 E2.02155
G1 X98.67 Y122.441 E2.03188
G1 X98.573 Y122.055 E2.03983
G1 X98.462 Y121.569 E2.04977
G1 X98.384 Y121.186 E2.05757
G1 X98.29 Y120.658 E2.06828
G1 X98.244 Y120.358 E2.07433
G1 X98.173 Y119.798 E2.0856
G1 X98.104 Y119.116 E2.09928
G1 X98.063 Y118.582 E2.10997
G1 X98.052 Y118.371 E2.11418
G1 X98.039 Y118.028 E2.12103
G1 X98.034 Y117.789 E2.1258
G1 X98.042 Y117.082 E2.13991
G1 X98.075 Y116.322 E2.15509
G1 X98.155 Y115.392 E2.17372
G1 X98.257 Y114.601 E2.18964
G1 X98.419 Y113.667 E2.20855
G1 X98.563 Y113.006 E2.22205
G1 X98.699 Y112.45 E2.23348
G1 X98.782 Y112.146 E2.23977
G1 X99.032 Y111.351 E2.2564
G1 X99.29 Y110.627 E2.27173
G1 X99.466 Y110.166 E2.28158
G1 X99.55 Y109.96 E2.28602
G1 X99.711 Y109.586 E2.29415
G1 X99.809 Y109.369 E2.2989
G1 X100.001 Y108.965 E2.30783
G1 X100.177 Y108.614 E2.31566
G1 X100.348 Y108.287 E2.32303
G1 X100.471 Y108.061 E2.32816
G1 X100.655 Y107.736 E2.33561
G1 X100.774 Y107.534 E2.34029
G1 X100.998 Y107.17 E2.34882
G1 X101.185 Y106.879 E2.35572
G1 X101.293 Y106.714 E2.35966
G1 X101.432 Y106.506 E2.36465
G1 X101.658 Y106.181 E2.37255
G1 X101.728 Y106.084 E2.37494
G1 X101.953 Y105.783 E2.38244
G1 X102.256 Y105.392 E2.39231
G1 X102.602 Y104.969 E2.40322
G1 X102.813 Y104.723 E2.40968
G1 X102.978 Y104.534 E2.41469
G1 X103.119 Y104.377 E2.4189
G1 X103.346 Y104.132 E2.42557
G1 X103.535 Y103.934 E2.43103
G1 X103.885 Y103.584 E2.44091
G0 F6000 X104.161 Y103.873
G1 F1200 X104.443 Y103.603 E2.4487
G1 X104.828 Y103.252 E2.45909
G1 X105.077 Y103.036 E2.46567
G1 X105.246 Y102.892 E2.4701
G1 X105.418 Y102.749 E2.47457
G1 X105.606 Y102.596 E2.4794
G1 X105.79 Y102.45 E2.48409
G1 X106.204 Y102.138 E2.49444
G1 X106.504 Y101.923 E2.5018
G1 X106.818 Y101.707 E2.50941
G1 X107.151 Y101.486 E2.51738
G1 X107.476 Y101.278 E2.52508
G1 X107.654 Y101.169 E2.52925
G1 X107.931 Y101.006 E2.53566
G1 X108.106 Y100.906 E2.53969
G1 X108.358 Y100.766 E2.54544
G1 X108.595 Y100.639 E2.5508
G1 X108.84 Y100.512 E2.55631
G1 X109.019 Y100.422 E2.56031
G1 X109.296 Y100.288 E2.56645
G1 X109.635 Y100.13 E2.57391
G1 X109.839 Y100.038 E2.57838
G1 X110.255 Y99.861 E2.5874
G1 X110.567 Y99.736 E2.59411
G1 X111.007 Y99.571 E2.60349
G1 X111.367 Y99.445 E2.6111
G1 X111.692 Y99.337 E2.61793
G1 X111.883 Y99.277 E2.62193
G1 X112.249 Y99.169 E2.62954
G1 X112.489 Y99.103 E2.63451
G1 X112.903 Y98.997 E2.64304
G1 X113.348 Y98.895 E2.65215
G1 X113.979 Y98.765 E2.66501
G1 X114.484 Y98.674 E2.67525
G1 X114.734 Y98.635 E2.6803
G1 X115.118 Y98.582 E2.68803
G1 X115.278 Y98.563 E2.69125
G1 X115.733 Y98.519 E2.70037
G1 X116.438 Y98.466 E2.71448
G1 X117.089 Y98.437 E2.72748
G1 X117.384 Y98.433 E2.73337
G1 X118.115 Y98.448 E2.74796
G1 X118.998 Y98.497 E2.76561
G1 X119.694 Y98.559 E2.77955
G1 X119.94 Y98.589 E2.7845
G1 X120.597 Y98.69 E2.79776
G1 X121.349 Y98.83 E2.81303
G1 X121.9 Y98.948 E2.82427
G1 X122.144 Y99.007 E2.82928
G1 X122.565 Y99.118 E2.83797
G1 X122.873 Y99.206 E2.84437
G1 X123.123 Y99.281 E2.84957
G1 X123.363 Y99.356 E2.85459
G1 X123.806 Y99.505 E2.86392
G1 X124.218 Y99.654 E2.87266
G1 X124.785 Y99.878 E2.88483
G1 X125.147 Y100.033 E2.89269
G1 X125.417 Y100.153 E2.89858
G1 X125.651 Y100.261 E2.90373
G1 X126.078 Y100.469 E2.9132
G1 X126.399 Y100.635 E2.92042
G1 X126.727 Y100.812 E2.92785
G1 X126.903 Y100.911 E2.93188
G1 X127.308 Y101.148 E2.94125
G1 X127.59 Y101.32 E2.94784
G1 X127.885 Y101.51 E2.95484
G1 X128.269 Y101.766 E2.96405
G1 X128.44 Y101.883 E2.96819
G1 X128.793 Y102.135 E2.97684
G1 X128.923 Y102.232 E2.98008
G1 X129.156 Y102.411 E2.98594
G1 X129.48 Y102.667 E2.99418
G1 X129.803 Y102.933 E3.00253
G1 X130.026 Y103.124 E3.00839
G1 X130.211 Y103.286 E3.0133
G1 X130.367 Y103.426 E3.01748
G1 X130.684 Y103.723 E3.02615
G1 X130.956 Y103.988 E3.03373
G1 X131.298 Y104.336 E3.04347
G1 X131.532 Y104.586 E3.0503
G1 X131.833 Y104.923 E3.05932
G1 X132.083 Y105.214 E3.06697
G1 X132.271 Y105.439 E3.07283
G1 X132.392 Y105.588 E3.07666
G1 X132.67 Y105.944 E3.08567
G1 X132.818 Y106.143 E3.09062
G1 X133.01 Y106.408 E3.09715
G1 X133.186 Y106.658 E3.10325
G1 X133.33 Y106.869 E3.10835
G1 X133.526 Y107.165 E3.11543
G1 X133.677 Y107.403 E3.12106
G1 X133.835 Y107.66 E3.12708
G1 X133.91 Y107.786 E3.13
G1 X134.131 Y108.172 E3.13888
G1 X134.217 Y108.325 E3.14238
G1 X134.345 Y108.559 E3.14771
G1 X134.549 Y108.951 E3.15653
G1 X134.59 Y109.034 E3.15837
G1 X134.722 Y109.312 E3.16451
G1 X134.876 Y109.648 E3.17189
G1 X135.04 Y110.022 E3.18004
G1 X135.154 Y110.295 E3.18594
G1 X135.255 Y110.547 E3.19136
G1 X135.391 Y110.904 E3.19899
G1 X135.478 Y111.146 E3.20412
G1 X135.614 Y111.549 E3.2126
G1 X135.756 Y112 E3.22204
G1 X135.873 Y112.398 E3.23032
G1 X135.937 Y112.639 E3.2353
G1 X136.027 Y112.994 E3.2426
G1 X136.093 Y113.271 E3.24829
G1 X136.127 Y113.422 E3.25138
G1 X136.198 Y113.762 E3.25831
G1 X136.236 Y113.961 E3.26235
G1 X136.292 Y114.284 E3.26889
G1 X136.358 Y114.699 E3.27728
G1 X136.418 Y115.132 E3.286
G1 X136.453 Y115.431 E3.29201
G1 X136.484 Y115.727 E3.29795
G1 X136.509 Y116.009 E3.3036
G1 X136.538 Y116.439 E3.3122
G1 X136.561 Y116.937 E3.32215
G1 X136.57 Y117.479 E3.33296
G1 X136.568 Y117.695 E3.33728
G1 X136.561 Y117.991 E3.34318
G1 X136.55 Y118.287 E3.3491
G1 X136.533 Y118.608 E3.35551
G1 X136.505 Y119.022 E3.36379
G1 X136.459 Y119.527 E3.37391
G1 X136.424 Y119.829 E3.37998
G1 X136.397 Y120.04 E3.38422
G1 X136.284 Y120.74 E3.39837
G1 X136.109 Y121.63 E3.41647
G1 X135.954 Y122.301 E3.43022
G1 X135.881 Y122.569 E3.43576
G1 X135.778 Y122.931 E3.44327
G1 X135.622 Y123.433 E3.45376
G1 X135.522 Y123.728 E3.45998
G1 X135.394 Y124.086 E3.46756
G1 X135.32 Y124.284 E3.47178
G1 X135.192 Y124.614 E3.47885
G1 X134.972 Y125.139 E3.49021
G1 X134.788 Y125.547 E3.49914
G1 X134.619 Y125.904 E3.50702
G1 X134.545 Y126.053 E3.51034
G1 X134.401 Y126.332 E3.51661
G1 X134.276 Y126.566 E3.5219
G1 X134.152 Y126.791 E3.52703
G1 X134.053 Y126.966 E3.53104
G1 X133.913 Y127.207 E3.5366
G1 X133.788 Y127.415 E3.54144
G1 X133.599 Y127.719 E3.54859
G1 X133.461 Y127.934 E3.55369
G1 X133.346 Y128.108 E3.55785
G1 X133.192 Y128.334 E3.56331
G1 X133.083 Y128.49 E3.5671
G1 X132.926 Y128.709 E3.57248
G1 X132.738 Y128.964 E3.5788
G1 X132.545 Y129.218 E3.58517
G1 X132.381 Y129.427 E3.59047
G1 X132.095 Y129.776 E3.59948
G1 X131.988 Y129.901 E3.60276
G1 X131.841 Y130.069 E3.60721
G1 X131.699 Y130.228 E3.61147
G1 X131.539 Y130.403 E3.6162
G1 X131.284 Y130.676 E3.62365
G1 X130.917 Y131.05 E3.63411
G1 X130.62 Y131.338 E3.64237
G1 X130.254 Y131.676 E3.65231
G1 X130.05 Y131.856 E3.65774
G1 X129.855 Y132.024 E3.66288
G1 X129.506 Y132.315 E3.67194
G1 X129.276 Y132.5 E3.67783
G1 X128.847 Y132.827 E3.6886
G1 X128.59 Y133.013 E3.69493
G1 X128.316 Y133.205 E3.70161
G1 X128.05 Y133.385 E3.70802
G1 X127.707 Y133.608 E3.71618
G1 X127.469 Y133.756 E3.72177
G1 X127.204 Y133.915 E3.72794
G1 X126.924 Y134.078 E3.73441
G1 X126.597 Y134.261 E3.74188
