;FLAVOR:Marlin
;TIME:5641
;Filament used: 2.17311m
;Layer height: 0.12
;MINX:66.5
;MINY:81.5
;MINZ:0.12
;MAXX:168.5
;MAXY:153.5
;MAXZ:9.96
;Generated with Cura_SteamEngine 4.7.0
M140 S55
M105
M190 S55
M104 S210
M105
M109 S210
M82 ;absolute extrusion mode
; Ender 3 Custom Start G-code
G92 E0 ; Reset Extruder
G28 ; Home all axes
G1 Z2.0 F3000 ; Move Z Axis up little to prevent scratching of Heat Bed
G1 X0.1 Y20 Z0.3 F5000.0 ; Move to start position
G1 X0.1 Y200.0 Z0.3 F1500.0 E15 ; Draw the first line
G1 X0.4 Y200.0 Z0.3 F5000.0 ; Move to side a little
G1 X0.4 Y20 Z0.3 F1500.0 E30 ; Draw the second line
G92 E0 ; Reset Extruder
G1 Z2.0 F3000 ; Move Z Axis up little to prevent scratching of Heat Bed
G1 X5 Y20 Z0.3 F5000.0 ; Move over to prevent blob squish
G92 E0
G92 E0
G1 F2700 E-5
;LAYER_COUNT:83
;LAYER:0
M107
G0 F6000 X71.601 Y99.188 Z0.12
;TYPE:SKIRT
G1 F2700 E0
G1 F1200 X72.279 Y98.704 E0.01662
G1 X72.454 Y98.589 E0.0208
G1 X73.251 Y98.113 E0.03933
G1 X73.31 Y98.081 E0.04067
G1 X73.87 Y97.797 E0.0532
G1 X74.057 Y97.709 E0.05732
G1 X74.792 Y97.395 E0.07327
G1 X74.896 Y97.355 E0.0755
G1 X75.506 Y97.141 E0.0884
G1 X76.43 Y96.847 E0.10775
G1 X78.926 Y96.013 E0.16026
G1 X81.274 Y95.154 E0.21016
G1 X83.604 Y94.225 E0.26022
G1 X85.943 Y93.216 E0.31105
G1 X88.191 Y92.17 E0.36053
G1 X90.457 Y91.037 E0.41109
G1 X92.669 Y89.85 E0.46119
G1 X94.88 Y88.583 E0.51204
G1 X96.991 Y87.292 E0.56142
G1 X99.128 Y85.901 E0.61231
G1 X101.56 Y84.21 E0.67142
G1 X101.916 Y83.953 E0.68018
G1 X102.597 Y83.499 E0.69651
G1 X102.799 Y83.375 E0.70124
G1 X103.87 Y82.797 E0.72553
G1 X104.057 Y82.709 E0.72965
G1 X105.092 Y82.285 E0.75198
G1 X105.311 Y82.208 E0.75661
G1 X106.209 Y81.935 E0.77534
G1 X106.718 Y81.816 E0.78577
G1 X106.987 Y81.76 E0.79125
G1 X108.325 Y81.566 E0.81823
G1 X108.519 Y81.55 E0.82212
G1 X109.023 Y81.52 E0.83219
G1 X109.298 Y81.51 E0.83769
G1 X109.596 Y81.503 E0.84363
G1 X109.921 Y81.5 E0.85012
G1 X124.793 Y81.5 E1.14691
G1 X125.589 Y81.51 E1.16279
G1 X125.922 Y81.52 E1.16944
G1 X126.17 Y81.531 E1.1744
G1 X127.503 Y81.672 E1.20115
G1 X127.813 Y81.724 E1.20742
G1 X128.73 Y81.918 E1.22612
G1 X129.385 Y82.108 E1.23973
G1 X129.638 Y82.19 E1.24504
G1 X130.714 Y82.602 E1.26803
G1 X130.786 Y82.634 E1.26961
G1 X131.381 Y82.921 E1.28279
G1 X131.57 Y83.019 E1.28704
G1 X132.137 Y83.334 E1.29998
G1 X132.184 Y83.362 E1.30107
G1 X132.807 Y83.762 E1.31585
G1 X133.481 Y84.229 E1.33221
G1 X134.934 Y85.262 E1.36779
G1 X137.042 Y86.674 E1.41842
G1 X139.164 Y88.009 E1.46845
G1 X141.312 Y89.276 E1.51822
G1 X143.548 Y90.513 E1.56921
G1 X145.746 Y91.648 E1.61858
G1 X148.038 Y92.752 E1.66935
G1 X150.334 Y93.776 E1.71952
G1 X152.67 Y94.743 E1.76997
G1 X154.987 Y95.625 E1.81945
G1 X157.401 Y96.466 E1.87046
G1 X158.723 Y96.885 E1.89814
G1 X159.306 Y97.074 E1.91037
G1 X159.541 Y97.153 E1.91531
G1 X159.876 Y97.27 E1.9224
G1 X160.757 Y97.621 E1.94132
G1 X160.826 Y97.652 E1.94283
G1 X161.363 Y97.911 E1.95473
G1 X161.549 Y98.007 E1.9589
G1 X162.626 Y98.643 E1.98387
G1 X162.835 Y98.783 E1.98889
G1 X163.591 Y99.338 E2.0076
G1 X163.961 Y99.648 E2.01723
G1 X164.082 Y99.754 E2.02044
G1 X164.924 Y100.575 E2.04391
G1 X165.193 Y100.867 E2.05184
G1 X165.799 Y101.583 E2.07056
G1 X166.288 Y102.267 E2.08733
G1 X166.402 Y102.44 E2.09147
G1 X166.851 Y103.184 E2.10881
G1 X166.878 Y103.233 E2.10993
G1 X167.19 Y103.844 E2.12362
G1 X167.284 Y104.043 E2.12801
G1 X167.715 Y105.092 E2.15064
G1 X167.792 Y105.311 E2.15527
G1 X168.065 Y106.209 E2.17401
G1 X168.181 Y106.702 E2.18411
G1 X168.237 Y106.969 E2.18956
G1 X168.435 Y108.332 E2.21704
G1 X168.451 Y108.528 E2.22097
G1 X168.479 Y109.016 E2.23072
G1 X168.489 Y109.286 E2.23611
G1 X168.497 Y109.59 E2.24218
G1 X168.5 Y109.911 E2.24859
G1 X168.499 Y124.947 E2.54865
G1 X168.49 Y125.588 E2.56144
G1 X168.48 Y125.918 E2.56803
G1 X168.469 Y126.168 E2.57302
G1 X168.327 Y127.509 E2.59993
G1 X168.275 Y127.818 E2.60619
G1 X168.081 Y128.736 E2.62491
G1 X167.888 Y129.398 E2.63867
G1 X167.805 Y129.653 E2.64402
G1 X167.403 Y130.702 E2.66644
G1 X167.372 Y130.772 E2.66797
G1 X167.099 Y131.343 E2.6806
G1 X167.004 Y131.528 E2.68475
G1 X166.351 Y132.635 E2.7104
G1 X166.21 Y132.845 E2.71545
G1 X165.655 Y133.6 E2.73415
G1 X165.352 Y133.961 E2.74355
G1 X165.246 Y134.082 E2.74676
G1 X164.425 Y134.924 E2.77023
G1 X164.133 Y135.193 E2.77815
G1 X163.417 Y135.799 E2.79687
G1 X162.721 Y136.296 E2.81394
G1 X162.546 Y136.411 E2.81812
G1 X161.749 Y136.887 E2.83664
G1 X161.69 Y136.919 E2.83798
G1 X161.13 Y137.203 E2.85051
G1 X160.943 Y137.291 E2.85464
G1 X160.221 Y137.6 E2.87031
G1 X160.12 Y137.639 E2.87247
G1 X159.497 Y137.858 E2.88565
G1 X158.57 Y138.153 E2.90506
G1 X156.074 Y138.987 E2.95758
G1 X153.726 Y139.846 E3.00747
G1 X151.396 Y140.775 E3.05753
G1 X149.057 Y141.784 E3.10837
G1 X146.809 Y142.83 E3.15785
G1 X144.543 Y143.963 E3.20841
G1 X142.331 Y145.15 E3.2585
G1 X140.12 Y146.417 E3.30936
G1 X138.009 Y147.708 E3.35874
G1 X135.872 Y149.099 E3.40962
G1 X133.44 Y150.79 E3.46873
G1 X133.084 Y151.047 E3.4775
G1 X132.382 Y151.513 E3.49431
G1 X132.179 Y151.637 E3.49906
G1 X131.149 Y152.193 E3.52242
G1 X130.963 Y152.281 E3.52652
G1 X129.908 Y152.715 E3.54929
G1 X129.689 Y152.792 E3.55392
G1 X128.791 Y153.065 E3.57265
G1 X128.282 Y153.184 E3.58308
G1 X128.013 Y153.24 E3.58857
G1 X126.675 Y153.434 E3.61555
G1 X126.481 Y153.45 E3.61943
G1 X125.977 Y153.48 E3.62951
G1 X125.702 Y153.49 E3.635
G1 X125.404 Y153.497 E3.64095
G1 X125.079 Y153.5 E3.64743
G1 X110.053 Y153.499 E3.94729
G1 X109.412 Y153.49 E3.96009
G1 X109.082 Y153.48 E3.96667
G1 X108.832 Y153.469 E3.97167
G1 X107.491 Y153.327 E3.99858
G1 X107.182 Y153.275 E4.00483
G1 X106.264 Y153.081 E4.02356
G1 X105.615 Y152.892 E4.03705
G1 X105.362 Y152.81 E4.04235
G1 X104.286 Y152.398 E4.06535
G1 X104.214 Y152.366 E4.06692
G1 X103.62 Y152.08 E4.08008
G1 X103.429 Y151.981 E4.08437
G1 X102.832 Y151.647 E4.09802
G1 X102.787 Y151.62 E4.09907
G1 X102.196 Y151.24 E4.11309
G1 X101.505 Y150.762 E4.12986
G1 X100.055 Y149.73 E4.16537
G1 X97.958 Y148.326 E4.21573
G1 X95.836 Y146.991 E4.26576
G1 X93.688 Y145.724 E4.31553
G1 X91.452 Y144.487 E4.36653
G1 X89.254 Y143.352 E4.41589
G1 X86.962 Y142.248 E4.46666
G1 X84.666 Y141.224 E4.51683
G1 X82.33 Y140.257 E4.56729
G1 X80.013 Y139.375 E4.61676
G1 X77.599 Y138.534 E4.66777
G1 X76.277 Y138.115 E4.69545
G1 X75.694 Y137.926 E4.70768
G1 X75.459 Y137.847 E4.71263
G1 X75.124 Y137.73 E4.71971
G1 X74.243 Y137.379 E4.73863
G1 X74.174 Y137.348 E4.74014
G1 X73.62 Y137.08 E4.75242
G1 X73.429 Y136.981 E4.75672
G1 X72.358 Y136.347 E4.78156
G1 X72.154 Y136.21 E4.78646
G1 X71.399 Y135.654 E4.80517
G1 X71.039 Y135.352 E4.81455
G1 X70.918 Y135.246 E4.81776
G1 X70.076 Y134.425 E4.84123
G1 X69.807 Y134.133 E4.84915
G1 X69.201 Y133.417 E4.86787
G1 X68.677 Y132.68 E4.88592
G1 X68.554 Y132.491 E4.89042
G1 X68.117 Y131.758 E4.90745
G1 X68.093 Y131.714 E4.90845
G1 X67.799 Y131.136 E4.92139
G1 X67.709 Y130.945 E4.9256
G1 X67.269 Y129.864 E4.94889
G1 X67.194 Y129.648 E4.95345
G1 X66.924 Y128.75 E4.97217
G1 X66.813 Y128.266 E4.98208
G1 X66.757 Y127.995 E4.9876
G1 X66.566 Y126.669 E5.01433
G1 X66.549 Y126.462 E5.01848
G1 X66.518 Y125.917 E5.02937
G1 X66.509 Y125.638 E5.03494
G1 X66.503 Y125.38 E5.04009
G1 X66.5 Y125.04 E5.04688
G1 X66.501 Y110.018 E5.34666
G1 X66.51 Y109.405 E5.35889
G1 X66.52 Y109.082 E5.36534
G1 X66.531 Y108.832 E5.37034
G1 X66.672 Y107.496 E5.39715
G1 X66.724 Y107.186 E5.40342
G1 X66.918 Y106.269 E5.42212
G1 X67.112 Y105.602 E5.43599
G1 X67.194 Y105.35 E5.44127
G1 X67.602 Y104.286 E5.46401
G1 X67.634 Y104.214 E5.46559
G1 X67.91 Y103.64 E5.4783
G1 X68.008 Y103.45 E5.48256
G1 X68.678 Y102.321 E5.50876
G1 X68.821 Y102.11 E5.51385
G1 X69.635 Y101.053 E5.54047
G1 X69.737 Y100.936 E5.54357
G1 X70.592 Y100.059 E5.56801
G1 X70.883 Y99.792 E5.57589
G1 X71.601 Y99.188 E5.59462
G0 F6000 X71.858 Y99.494
G1 F1200 X72.499 Y99.039 E5.6103
G1 X72.674 Y98.924 E5.61448
G1 X73.441 Y98.464 E5.63233
G1 X73.5 Y98.432 E5.63367
G1 X74.041 Y98.159 E5.64576
G1 X74.228 Y98.071 E5.64989
G1 X74.936 Y97.769 E5.66525
G1 X75.04 Y97.729 E5.66747
G1 X75.627 Y97.522 E5.67989
G1 X76.595 Y97.214 E5.70017
G1 X79.053 Y96.393 E5.75188
G1 X81.405 Y95.532 E5.80186
G1 X83.763 Y94.592 E5.85252
G1 X86.078 Y93.593 E5.90284
G1 X88.402 Y92.512 E5.95399
G1 X90.646 Y91.39 E6.00406
G1 X92.85 Y90.207 E6.05397
G1 X95.082 Y88.928 E6.10531
G1 X97.222 Y87.62 E6.15536
G1 X99.323 Y86.252 E6.20539
G1 X101.801 Y84.529 E6.26562
G1 X102.15 Y84.277 E6.27421
G1 X102.807 Y83.84 E6.28996
G1 X103.009 Y83.716 E6.29469
G1 X104.041 Y83.159 E6.31809
G1 X104.228 Y83.071 E6.32222
G1 X105.225 Y82.662 E6.34372
G1 X105.444 Y82.585 E6.34836
G1 X106.325 Y82.318 E6.36673
G1 X106.8 Y82.207 E6.37646
G1 X107.069 Y82.151 E6.38195
G1 X108.358 Y81.965 E6.40794
G1 X108.552 Y81.949 E6.41182
G1 X109.038 Y81.92 E6.42154
G1 X109.313 Y81.91 E6.42703
G1 X109.6 Y81.903 E6.43276
G1 X109.925 Y81.9 E6.43924
G1 X124.793 Y81.9 E6.73595
G1 X125.584 Y81.91 E6.75174
G1 X125.905 Y81.919 E6.75814
G1 X126.153 Y81.93 E6.7631
G1 X127.437 Y82.066 E6.78887
G1 X127.747 Y82.118 E6.79514
G1 X128.647 Y82.31 E6.8135
G1 X129.261 Y82.488 E6.82626
G1 X129.514 Y82.57 E6.83157
G1 X130.551 Y82.968 E6.85373
G1 X130.623 Y83 E6.85531
G1 X131.197 Y83.276 E6.86802
G1 X131.386 Y83.374 E6.87227
G1 X131.932 Y83.678 E6.88474
G1 X131.979 Y83.706 E6.88583
G1 X132.579 Y84.091 E6.90005
G1 X133.249 Y84.555 E6.91632
G1 X134.725 Y85.605 E6.95247
G1 X136.787 Y86.985 E7.00198
G1 X138.954 Y88.349 E7.05308
G1 X141.121 Y89.628 E7.10329
G1 X143.35 Y90.86 E7.15412
G1 X145.611 Y92.028 E7.2049
G1 X147.867 Y93.114 E7.25487
G1 X150.167 Y94.141 E7.30514
G1 X152.511 Y95.11 E7.35575
G1 X154.85 Y96.001 E7.4057
G1 X157.255 Y96.839 E7.45653
G1 X158.6 Y97.266 E7.48469
G1 X159.183 Y97.455 E7.49692
G1 X159.409 Y97.531 E7.50168
G1 X159.744 Y97.648 E7.50876
G1 X160.593 Y97.986 E7.52699
G1 X160.662 Y98.017 E7.5285
G1 X161.18 Y98.267 E7.53998
G1 X161.366 Y98.363 E7.54416
G1 X162.403 Y98.975 E7.56819
G1 X162.612 Y99.115 E7.57321
G1 X163.698 Y99.949 E7.60053
G1 X163.819 Y100.055 E7.60375
G1 X164.63 Y100.846 E7.62635
G1 X164.899 Y101.138 E7.63428
G1 X165.493 Y101.842 E7.65266
G1 X165.954 Y102.487 E7.66848
G1 X166.068 Y102.66 E7.67261
G1 X166.501 Y103.377 E7.68933
G1 X166.528 Y103.426 E7.69045
G1 X166.829 Y104.015 E7.70365
G1 X166.923 Y104.214 E7.70804
G1 X167.338 Y105.225 E7.72985
G1 X167.415 Y105.444 E7.73448
G1 X167.682 Y106.325 E7.75285
G1 X167.789 Y106.784 E7.76226
G1 X167.845 Y107.051 E7.7677
G1 X168.036 Y108.365 E7.7942
G1 X168.052 Y108.561 E7.79812
G1 X168.08 Y109.031 E7.80752
G1 X168.09 Y109.301 E7.81291
G1 X168.097 Y109.594 E7.81876
G1 X168.1 Y109.915 E7.82516
G1 X168.099 Y124.942 E8.12504
G1 X168.09 Y125.583 E8.13784
G1 X168.081 Y125.9 E8.14417
G1 X168.07 Y126.15 E8.14916
G1 X167.933 Y127.443 E8.17511
G1 X167.881 Y127.752 E8.18136
G1 X167.689 Y128.652 E8.19973
G1 X167.508 Y129.274 E8.21265
G1 X167.425 Y129.529 E8.21801
G1 X167.037 Y130.54 E8.23962
G1 X167.006 Y130.61 E8.24114
G1 X166.743 Y131.16 E8.25331
G1 X166.648 Y131.345 E8.25746
G1 X166.019 Y132.412 E8.28218
G1 X165.878 Y132.622 E8.28722
G1 X165.051 Y133.698 E8.31431
G1 X164.945 Y133.819 E8.31752
G1 X164.154 Y134.63 E8.34013
G1 X163.862 Y134.899 E8.34805
G1 X163.158 Y135.493 E8.36643
G1 X162.501 Y135.961 E8.38253
G1 X162.326 Y136.076 E8.38671
G1 X161.559 Y136.536 E8.40455
G1 X161.5 Y136.568 E8.40589
G1 X160.959 Y136.841 E8.41799
G1 X160.772 Y136.929 E8.42211
G1 X160.077 Y137.226 E8.43719
G1 X159.976 Y137.265 E8.43935
G1 X159.376 Y137.477 E8.45205
G1 X158.405 Y137.786 E8.47239
G1 X155.947 Y138.607 E8.5241
G1 X153.595 Y139.468 E8.57409
G1 X151.237 Y140.408 E8.62474
G1 X148.922 Y141.407 E8.67506
G1 X146.598 Y142.488 E8.72621
G1 X144.354 Y143.61 E8.77628
G1 X142.15 Y144.793 E8.8262
G1 X139.918 Y146.072 E8.87753
G1 X137.778 Y147.38 E8.92758
G1 X135.677 Y148.748 E8.97762
G1 X133.199 Y150.471 E9.03785
G1 X132.85 Y150.723 E9.04644
G1 X132.174 Y151.172 E9.06263
G1 X131.971 Y151.296 E9.06738
G1 X130.978 Y151.832 E9.0899
G1 X130.792 Y151.92 E9.094
G1 X129.775 Y152.338 E9.11595
G1 X129.556 Y152.415 E9.12058
G1 X128.675 Y152.682 E9.13895
G1 X128.2 Y152.793 E9.14869
G1 X127.931 Y152.849 E9.15417
G1 X126.642 Y153.035 E9.18016
G1 X126.448 Y153.051 E9.18404
G1 X125.962 Y153.08 E9.19376
G1 X125.687 Y153.09 E9.19925
G1 X125.4 Y153.097 E9.20498
G1 X125.075 Y153.1 E9.21147
G1 X110.058 Y153.099 E9.51115
G1 X109.417 Y153.09 E9.52394
G1 X109.1 Y153.081 E9.53027
G1 X108.85 Y153.07 E9.53526
G1 X107.557 Y152.933 E9.56121
G1 X107.248 Y152.881 E9.56746
G1 X106.348 Y152.689 E9.58583
G1 X105.739 Y152.512 E9.59848
G1 X105.486 Y152.43 E9.60379
G1 X104.449 Y152.032 E9.62596
G1 X104.377 Y152 E9.62753
G1 X103.804 Y151.725 E9.64021
G1 X103.613 Y151.626 E9.64451
G1 X103.037 Y151.304 E9.65768
G1 X102.992 Y151.277 E9.65872
G1 X102.424 Y150.911 E9.67221
G1 X101.737 Y150.436 E9.68887
G1 X100.264 Y149.388 E9.72495
G1 X98.213 Y148.015 E9.77421
G1 X96.046 Y146.651 E9.8253
G1 X93.879 Y145.372 E9.87552
G1 X91.65 Y144.14 E9.92634
G1 X89.389 Y142.972 E9.97713
G1 X87.133 Y141.886 E10.02709
G1 X84.833 Y140.859 E10.07736
G1 X82.489 Y139.89 E10.12798
G1 X80.15 Y138.999 E10.17793
G1 X77.745 Y138.161 E10.22875
G1 X76.4 Y137.734 E10.25691
G1 X75.817 Y137.545 E10.26914
G1 X75.591 Y137.469 E10.2739
G1 X75.256 Y137.352 E10.28098
G1 X74.407 Y137.014 E10.29922
G1 X74.338 Y136.983 E10.30073
G1 X73.804 Y136.725 E10.31256
G1 X73.613 Y136.626 E10.31686
G1 X72.581 Y136.015 E10.34079
G1 X72.377 Y135.878 E10.34569
G1 X71.302 Y135.051 E10.37276
G1 X71.181 Y134.945 E10.37597
G1 X70.37 Y134.154 E10.39858
G1 X70.101 Y133.862 E10.4065
G1 X69.507 Y133.158 E10.42488
G1 X69.013 Y132.462 E10.44192
G1 X68.89 Y132.273 E10.44642
G1 X68.468 Y131.567 E10.46283
G1 X68.444 Y131.523 E10.46383
G1 X68.161 Y130.965 E10.47632
G1 X68.071 Y130.774 E10.48053
G1 X67.646 Y129.733 E10.50297
G1 X67.571 Y129.517 E10.50753
G1 X67.308 Y128.635 E10.5259
G1 X67.204 Y128.185 E10.53512
G1 X67.148 Y127.914 E10.54064
G1 X66.965 Y126.637 E10.56638
G1 X66.948 Y126.43 E10.57053
G1 X66.918 Y125.904 E10.58104
G1 X66.909 Y125.625 E10.58661
G1 X66.903 Y125.377 E10.59156
G1 X66.9 Y125.037 E10.59835
G1 X66.901 Y110.023 E10.89797
G1 X66.91 Y109.41 E10.9102
G1 X66.919 Y109.1 E10.91639
G1 X66.93 Y108.85 E10.92139
G1 X67.066 Y107.562 E10.94723
G1 X67.118 Y107.252 E10.9535
G1 X67.31 Y106.352 E10.97187
G1 X67.492 Y105.726 E10.98488
G1 X67.574 Y105.474 E10.99017
G1 X67.968 Y104.449 E11.01208
G1 X68 Y104.377 E11.01365
G1 X68.265 Y103.823 E11.02591
G1 X68.363 Y103.633 E11.03018
G1 X69.009 Y102.545 E11.05543
G1 X69.152 Y102.334 E11.06051
G1 X69.937 Y101.315 E11.08618
G1 X70.039 Y101.198 E11.08928
G1 X70.863 Y100.354 E11.11282
G1 X71.154 Y100.087 E11.1207
G1 X71.858 Y99.494 E11.13907
G0 F6000 X72.116 Y99.801
G1 F1200 X72.718 Y99.373 E11.15381
G1 X72.893 Y99.258 E11.15799
G1 X73.632 Y98.816 E11.17517
G1 X73.691 Y98.784 E11.17651
G1 X74.211 Y98.521 E11.18814
G1 X74.398 Y98.433 E11.19227
G1 X75.079 Y98.142 E11.20704
G1 X75.183 Y98.102 E11.20927
G1 X75.749 Y97.903 E11.22124
G1 X76.695 Y97.601 E11.24106
G1 X79.18 Y96.772 E11.29334
G1 X81.581 Y95.893 E11.34436
G1 X83.92 Y94.961 E11.39461
G1 X86.24 Y93.96 E11.44503
G1 X88.571 Y92.875 E11.49634
G1 X90.807 Y91.756 E11.54624
G1 X93.059 Y90.549 E11.59723
G1 X95.284 Y89.274 E11.6484
G1 X97.427 Y87.963 E11.69854
G1 X99.555 Y86.578 E11.74921
G1 X102.081 Y84.821 E11.81061
G1 X102.385 Y84.602 E11.81809
G1 X103.016 Y84.181 E11.83322
G1 X103.218 Y84.057 E11.83795
G1 X104.211 Y83.521 E11.86047
G1 X104.398 Y83.433 E11.8646
G1 X105.358 Y83.039 E11.88531
G1 X105.577 Y82.962 E11.88994
G1 X106.881 Y82.599 E11.91695
G1 X107.15 Y82.543 E11.92243
G1 X108.391 Y82.364 E11.94746
G1 X108.585 Y82.348 E11.95134
G1 X109.052 Y82.32 E11.96068
G1 X109.327 Y82.31 E11.96617
G1 X109.604 Y82.303 E11.9717
G1 X109.929 Y82.3 E11.97818
G1 X124.793 Y82.3 E12.27481
G1 X125.578 Y82.31 E12.29048
G1 X125.887 Y82.319 E12.29665
G1 X126.135 Y82.33 E12.3016
G1 X127.37 Y82.461 E12.32639
G1 X127.68 Y82.513 E12.33266
G1 X128.564 Y82.701 E12.35069
G1 X129.138 Y82.869 E12.36263
G1 X129.391 Y82.951 E12.36794
G1 X130.389 Y83.333 E12.38926
G1 X130.461 Y83.365 E12.39083
G1 X131.013 Y83.631 E12.40306
