;FLAVOR:Marlin
;TIME:1869
;Filament used: 1.46798m
;Layer height: 0.24
;MINX:89.001
;MINY:99.13
;MINZ:0.28
;MAXX:141.3
;MAXY:136.16
;MAXZ:5.8
;Generated with Cura_SteamEngine 4.5.0
M140 S65
M105
M190 S65
M104 S215
M105
M109 S215
M82 ;absolute extrusion mode
; Ender 3 Custom Start G-code
G92 E0 ; Reset Extruder
G28 ; Home all axes
G1 Z2.0 F3000 ; Move Z Axis up little to prevent scratching of Heat Bed
G1 X0.1 Y20 Z0.3 F5000.0 ; Move to start position
G1 X0.1 Y200.0 Z0.3 F1500.0 E15 ; Draw the first line
G1 X0.4 Y200.0 Z0.3 F5000.0 ; Move to side a little
G1 X0.4 Y20 Z0.3 F1500.0 E30 ; Draw the second line
G92 E0 ; Reset Extruder
G1 Z2.0 F3000 ; Move Z Axis up little to prevent scratching of Heat Bed
G1 X5 Y20 Z0.3 F5000.0 ; Move over to prevent blob squish
G92 E0
G92 E0
G1 F2700 E-5
;LAYER_COUNT:24
;LAYER:0
M107
G0 F6000 X90.757 Y104.848 Z0.28
;TYPE:SKIRT
G1 F2700 E0
G1 F1200 X90.909 Y104.737 E0.00876
G1 X91.095 Y104.737 E0.01743
G1 X91.247 Y104.848 E0.02619
G1 X91.305 Y105.026 E0.03491
G1 X91.247 Y105.204 E0.04362
G1 X91.095 Y105.315 E0.05239
G1 X90.909 Y105.315 E0.06105
G1 X90.757 Y105.204 E0.06981
G1 X90.699 Y105.026 E0.07853
G1 X90.757 Y104.848 E0.08725
G0 F6000 X90.416 Y104.602
G1 F1200 X90.779 Y104.337 E0.10818
G1 X91.225 Y104.337 E0.12894
G1 X91.588 Y104.602 E0.14987
G1 X91.726 Y105.026 E0.17063
G1 X91.588 Y105.45 E0.1914
G1 X91.225 Y105.715 E0.21232
G1 X90.779 Y105.715 E0.23309
G1 X90.416 Y105.45 E0.25402
G1 X90.278 Y105.026 E0.27478
G1 X90.416 Y104.602 E0.29554
G0 F6000 X90.076 Y104.355
G1 F1200 X90.65 Y103.937 E0.32861
G1 X91.354 Y103.937 E0.36139
G1 X91.928 Y104.355 E0.39445
G1 X92.147 Y105.026 E0.42732
G1 X91.928 Y105.697 E0.46019
G1 X91.354 Y106.115 E0.49325
G1 X90.65 Y106.115 E0.52603
G1 X90.076 Y105.697 E0.5591
G1 X89.857 Y105.026 E0.59196
G1 X90.076 Y104.355 E0.62483
G0 F6000 X90.65 Y128.922
G1 F1200 X91.354 Y128.922 E0.65761
G1 X91.928 Y129.34 E0.69067
G1 X92.147 Y130.011 E0.72354
G1 X91.928 Y130.682 E0.75641
G1 X91.354 Y131.1 E0.78947
G1 X90.65 Y131.1 E0.82225
G1 X90.076 Y130.682 E0.85532
G1 X89.857 Y130.011 E0.88818
G1 X90.076 Y129.34 E0.92105
G1 X90.65 Y128.922 E0.95411
G0 F6000 X90.779 Y129.322
G1 F1200 X91.225 Y129.322 E0.97488
G1 X91.588 Y129.587 E0.99581
G1 X91.726 Y130.011 E1.01657
G1 X91.588 Y130.435 E1.03733
G1 X91.225 Y130.7 E1.05826
G1 X90.779 Y130.7 E1.07903
G1 X90.416 Y130.435 E1.09996
G1 X90.278 Y130.011 E1.12072
G1 X90.416 Y129.587 E1.14148
G1 X90.779 Y129.322 E1.16241
G0 F6000 X90.909 Y129.722
G1 F1200 X91.095 Y129.722 E1.17107
G1 X91.247 Y129.833 E1.17983
G1 X91.305 Y130.011 E1.18855
G1 X91.247 Y130.189 E1.19727
G1 X91.095 Y130.3 E1.20603
G1 X90.909 Y130.3 E1.21469
G1 X90.757 Y130.189 E1.22346
G1 X90.699 Y130.011 E1.23218
G1 X90.757 Y129.833 E1.24089
G1 X90.909 Y129.722 E1.24966
G1 F2700 E-3.75034
;MESH:Speed_Loader_Button.stl
G0 F6000 X104.128 Y128.92
G0 X103.694 Y130.353
G0 X107.59 Y131.524
G0 X108.96 Y131.773
G0 X111.579 Y132.083
;TYPE:WALL-INNER
G1 F2700 E1.24966
G1 F1200 X112.159 Y132.048 E1.27671
G1 X112.736 Y131.991 E1.30371
G1 X113.312 Y131.91 E1.3308
G1 X113.882 Y131.806 E1.35778
G1 X114.448 Y131.681 E1.38477
G1 X115.01 Y131.533 E1.41183
G1 X115.566 Y131.362 E1.43891
G1 X116.112 Y131.17 E1.46586
G1 X116.652 Y130.956 E1.49291
G1 X117.181 Y130.719 E1.5199
G1 X117.703 Y130.464 E1.54695
G1 X118.213 Y130.187 E1.57398
G1 X118.711 Y129.891 E1.60095
G1 X119.198 Y129.574 E1.62801
G1 X119.672 Y129.239 E1.65504
G1 X120.131 Y128.884 E1.68206
G1 X120.576 Y128.513 E1.70904
G1 X121.007 Y128.123 E1.7361
G1 X121.422 Y127.716 E1.76317
G1 X121.82 Y127.294 E1.79018
G1 X122.201 Y126.855 E1.81725
G1 X122.563 Y126.403 E1.84421
G1 X122.908 Y125.938 E1.87117
G1 X123.235 Y125.456 E1.89829
G1 X123.542 Y124.963 E1.92534
G1 X123.828 Y124.459 E1.95232
G1 X124.095 Y123.944 E1.97933
G1 X124.341 Y123.418 E2.00637
G1 X124.566 Y122.882 E2.03344
G1 X124.768 Y122.339 E2.06042
G1 X124.95 Y121.787 E2.08748
G1 X125.109 Y121.229 E2.1145
G1 X125.246 Y120.667 E2.14143
G1 X125.362 Y120.097 E2.16852
G1 X125.453 Y119.525 E2.19549
G1 X125.523 Y118.948 E2.22255
G1 X125.568 Y118.368 E2.24964
G1 X125.591 Y117.789 E2.27662
G1 X125.591 Y117.211 E2.30354
G1 X125.568 Y116.632 E2.33052
G1 X125.523 Y116.052 E2.35761
G1 X125.453 Y115.475 E2.38467
G1 X125.362 Y114.903 E2.41164
G1 X125.246 Y114.333 E2.43873
G1 X125.109 Y113.771 E2.46566
G1 X124.95 Y113.213 E2.49268
G1 X124.768 Y112.661 E2.51975
G1 X124.566 Y112.118 E2.54672
G1 X124.341 Y111.582 E2.57379
G1 X124.095 Y111.056 E2.60083
G1 X123.828 Y110.541 E2.62784
G1 X123.542 Y110.037 E2.65483
G1 X123.235 Y109.544 E2.68187
G1 X122.908 Y109.062 E2.70899
G1 X122.563 Y108.597 E2.73595
G1 X122.201 Y108.145 E2.76292
G1 X121.82 Y107.706 E2.78998
G1 X121.422 Y107.284 E2.81699
G1 X121.01 Y106.879 E2.8439
G1 X120.846 Y106.728 E2.85428
G1 X120.575 Y106.486 E2.87119
G1 X120.134 Y106.118 E2.89794
G1 X119.67 Y105.761 E2.9252
G1 X119.198 Y105.426 E2.95215
G1 X118.713 Y105.111 E2.97908
G1 X118.211 Y104.813 E3.00626
G1 X117.703 Y104.536 E3.03321
G1 X117.181 Y104.281 E3.06026
G1 X116.652 Y104.044 E3.08725
G1 X116.113 Y103.83 E3.11425
G1 X115.568 Y103.637 E3.14117
G1 X115.01 Y103.466 E3.16835
G1 X114.448 Y103.319 E3.1954
G1 X113.882 Y103.194 E3.22239
G1 X113.312 Y103.09 E3.24937
G1 X112.736 Y103.009 E3.27645
G1 X112.159 Y102.952 E3.30345
G1 X111.579 Y102.917 E3.33051
G1 X111 Y102.906 E3.35748
G1 X110.421 Y102.917 E3.38444
G1 X109.841 Y102.952 E3.4115
G1 X109.264 Y103.009 E3.4385
G1 X108.688 Y103.09 E3.46558
G1 X108.118 Y103.194 E3.49256
G1 X107.552 Y103.319 E3.51955
G1 X106.99 Y103.467 E3.54661
G1 X106.435 Y103.638 E3.57365
G1 X105.888 Y103.83 E3.60065
G1 X105.348 Y104.044 E3.62769
G1 X104.819 Y104.281 E3.65469
G1 X104.297 Y104.536 E3.68174
G1 X103.787 Y104.813 E3.70876
G1 X103.289 Y105.109 E3.73574
G1 X102.802 Y105.426 E3.7628
G1 X102.328 Y105.761 E3.78982
G1 X101.869 Y106.116 E3.81684
G1 X101.424 Y106.487 E3.84382
G1 X100.993 Y106.877 E3.87089
G1 X100.578 Y107.284 E3.89795
G1 X100.18 Y107.706 E3.92496
G1 X99.799 Y108.144 E3.952
G1 X99.438 Y108.595 E3.97889
G1 X99.302 Y108.777 E3.98947
G1 X98.969 Y109.241 E4.01607
G1 X98.764 Y109.544 E4.0331
G1 X98.458 Y110.037 E4.06012
G1 X98.172 Y110.541 E4.08711
G1 X97.905 Y111.056 E4.11412
G1 X97.659 Y111.582 E4.14116
G1 X97.434 Y112.118 E4.16822
G1 X97.232 Y112.661 E4.1952
G1 X97.05 Y113.213 E4.22227
G1 X96.891 Y113.771 E4.24928
G1 X96.754 Y114.333 E4.27622
G1 X96.638 Y114.903 E4.3033
G1 X96.547 Y115.475 E4.33027
G1 X96.477 Y116.052 E4.35734
G1 X96.432 Y116.632 E4.38443
G1 X96.409 Y117.211 E4.41141
G1 X96.409 Y117.789 E4.43832
G1 X96.432 Y118.368 E4.4653
G1 X96.477 Y118.948 E4.49239
G1 X96.547 Y119.525 E4.51946
G1 X96.638 Y120.097 E4.54643
G1 X96.754 Y120.667 E4.57351
G1 X96.891 Y121.229 E4.60045
G1 X97.05 Y121.787 E4.62747
G1 X97.232 Y122.339 E4.65453
G1 X97.434 Y122.882 E4.68151
G1 X97.659 Y123.418 E4.70858
G1 X97.905 Y123.944 E4.73561
G1 X98.172 Y124.459 E4.76263
G1 X98.458 Y124.963 E4.78961
G1 X98.764 Y125.456 E4.81663
G1 X99.088 Y125.935 E4.84356
G1 X99.437 Y126.405 E4.87081
G1 X99.8 Y126.856 E4.89777
G1 X100.18 Y127.293 E4.92474
G1 X100.578 Y127.716 E4.95178
G1 X100.99 Y128.121 E4.97868
G1 X101.154 Y128.272 E4.98906
G1 X101.425 Y128.514 E5.00598
G1 X101.866 Y128.882 E5.03273
G1 X102.33 Y129.239 E5.05999
G1 X102.802 Y129.574 E5.08694
G1 X103.287 Y129.889 E5.11387
G1 X103.789 Y130.187 E5.14105
G1 X104.297 Y130.464 E5.168
G1 X104.819 Y130.719 E5.19505
G1 X105.348 Y130.956 E5.22204
G1 X105.888 Y131.17 E5.24909
G1 X106.435 Y131.362 E5.27608
G1 X106.99 Y131.533 E5.30312
G1 X107.552 Y131.681 E5.33018
G1 X108.118 Y131.806 E5.35717
G1 X108.688 Y131.91 E5.38415
G1 X109.264 Y131.991 E5.41124
G1 X109.841 Y132.048 E5.43824
G1 X110.421 Y132.083 E5.46529
G1 X111 Y132.094 E5.49226
G1 X111.579 Y132.083 E5.51922
G0 F6000 X111.563 Y131.683
;TYPE:WALL-OUTER
G1 F1200 X112.127 Y131.649 E5.54553
G1 X112.689 Y131.594 E5.57183
G1 X113.248 Y131.515 E5.59812
G1 X113.803 Y131.414 E5.62438
G1 X114.354 Y131.292 E5.65066
G1 X114.9 Y131.148 E5.67696
G1 X115.441 Y130.982 E5.70331
G1 X115.972 Y130.795 E5.72952
G1 X116.497 Y130.587 E5.75581
G1 X117.012 Y130.357 E5.78208
G1 X117.519 Y130.109 E5.80836
G1 X118.015 Y129.839 E5.83465
G1 X118.5 Y129.551 E5.86092
G1 X118.973 Y129.243 E5.8872
G1 X119.434 Y128.917 E5.91349
G1 X119.881 Y128.572 E5.93979
G1 X120.314 Y128.211 E5.96604
G1 X120.733 Y127.832 E5.99234
G1 X121.136 Y127.436 E6.01865
G1 X121.523 Y127.025 E6.04494
G1 X121.894 Y126.599 E6.07124
G1 X122.246 Y126.159 E6.09748
G1 X122.582 Y125.706 E6.12374
G1 X122.9 Y125.238 E6.15009
G1 X123.198 Y124.759 E6.17636
G1 X123.476 Y124.268 E6.20263
G1 X123.736 Y123.767 E6.22892
G1 X123.975 Y123.256 E6.25518
G1 X124.194 Y122.735 E6.2815
G1 X124.391 Y122.206 E6.30779
G1 X124.568 Y121.67 E6.33407
G1 X124.722 Y121.127 E6.36035
G1 X124.856 Y120.58 E6.38658
G1 X124.968 Y120.026 E6.41289
G1 X125.057 Y119.469 E6.43916
G1 X125.125 Y118.908 E6.46547
G1 X125.169 Y118.345 E6.49177
G1 X125.191 Y117.781 E6.51805
G1 X125.191 Y117.219 E6.54422
G1 X125.169 Y116.655 E6.5705
G1 X125.125 Y116.092 E6.5968
G1 X125.057 Y115.531 E6.62311
G1 X124.968 Y114.974 E6.64938
G1 X124.856 Y114.42 E6.67569
G1 X124.722 Y113.873 E6.70192
G1 X124.568 Y113.33 E6.7282
G1 X124.391 Y112.794 E6.75448
G1 X124.194 Y112.265 E6.78077
G1 X123.975 Y111.744 E6.80709
G1 X123.736 Y111.233 E6.83335
G1 X123.476 Y110.732 E6.85964
G1 X123.198 Y110.241 E6.88591
G1 X122.9 Y109.762 E6.91218
G1 X122.582 Y109.294 E6.93852
G1 X122.246 Y108.841 E6.96479
G1 X121.894 Y108.401 E6.99103
G1 X121.523 Y107.975 E7.01733
G1 X121.136 Y107.564 E7.04362
G1 X120.734 Y107.169 E7.06986
G1 X120.577 Y107.024 E7.07981
G1 X120.314 Y106.789 E7.09623
G1 X119.882 Y106.429 E7.12242
G1 X119.714 Y106.297 E7.13237
G1 X119.433 Y106.083 E7.14881
G1 X118.973 Y105.757 E7.17507
G1 X118.5 Y105.45 E7.20132
G1 X118.318 Y105.339 E7.21125
G1 X118.014 Y105.161 E7.22765
G1 X117.519 Y104.891 E7.25391
G1 X117.012 Y104.643 E7.28019
G1 X116.497 Y104.413 E7.30645
G1 X115.972 Y104.205 E7.33275
G1 X115.442 Y104.017 E7.35893
G1 X114.901 Y103.851 E7.38528
G1 X114.354 Y103.708 E7.41161
G1 X113.803 Y103.586 E7.43789
G1 X113.248 Y103.485 E7.46416
G1 X112.689 Y103.406 E7.49045
G1 X112.127 Y103.351 E7.51674
G1 X111.563 Y103.317 E7.54305
G1 X111 Y103.306 E7.56927
G1 X110.437 Y103.317 E7.59549
G1 X109.873 Y103.351 E7.6218
G1 X109.311 Y103.406 E7.64809
G1 X108.752 Y103.485 E7.67438
G1 X108.197 Y103.586 E7.70065
G1 X107.646 Y103.708 E7.72693
G1 X107.1 Y103.852 E7.75322
G1 X106.56 Y104.018 E7.77953
G1 X106.028 Y104.205 E7.80579
G1 X105.503 Y104.413 E7.83208
G1 X104.988 Y104.643 E7.85834
G1 X104.481 Y104.891 E7.88463
G1 X103.985 Y105.161 E7.91092
G1 X103.5 Y105.449 E7.93719
G1 X103.027 Y105.757 E7.96347
G1 X102.566 Y106.083 E7.98976
G1 X102.119 Y106.428 E8.01605
G1 X101.686 Y106.789 E8.0423
G1 X101.267 Y107.168 E8.06861
G1 X100.864 Y107.564 E8.09492
G1 X100.477 Y107.975 E8.12121
G1 X100.106 Y108.401 E8.14751
G1 X99.754 Y108.84 E8.17371
G1 X99.625 Y109.013 E8.18376
G1 X99.297 Y109.47 E8.20995
G1 X99.1 Y109.762 E8.22636
G1 X98.802 Y110.241 E8.25262
G1 X98.524 Y110.732 E8.2789
G1 X98.264 Y111.233 E8.30518
G1 X98.025 Y111.744 E8.33145
G1 X97.806 Y112.265 E8.35776
G1 X97.609 Y112.794 E8.38405
G1 X97.432 Y113.33 E8.41033
G1 X97.278 Y113.873 E8.43662
G1 X97.144 Y114.42 E8.46284
G1 X97.032 Y114.974 E8.48916
G1 X96.943 Y115.531 E8.51542
G1 X96.875 Y116.092 E8.54174
G1 X96.831 Y116.655 E8.56803
G1 X96.809 Y117.219 E8.59431
G1 X96.809 Y117.781 E8.62048
G1 X96.831 Y118.345 E8.64677
G1 X96.875 Y118.908 E8.67306
G1 X96.943 Y119.469 E8.69938
G1 X97.032 Y120.026 E8.72564
G1 X97.144 Y120.58 E8.75196
G1 X97.278 Y121.127 E8.77818
G1 X97.432 Y121.67 E8.80446
G1 X97.609 Y122.206 E8.83075
G1 X97.806 Y122.735 E8.85703
G1 X98.025 Y123.256 E8.88335
G1 X98.264 Y123.767 E8.90962
G1 X98.524 Y124.268 E8.9359
G1 X98.802 Y124.759 E8.96217
G1 X99.1 Y125.238 E8.98844
G1 X99.415 Y125.704 E9.01463
G1 X99.753 Y126.16 E9.04106
G1 X100.107 Y126.599 E9.06732
G1 X100.477 Y127.025 E9.0936
G1 X100.864 Y127.436 E9.11988
G1 X101.266 Y127.831 E9.14613
G1 X101.423 Y127.976 E9.15608
G1 X101.686 Y128.211 E9.1725
G1 X102.118 Y128.571 E9.19869
G1 X102.286 Y128.703 E9.20863
G1 X102.567 Y128.917 E9.22508
G1 X103.027 Y129.243 E9.25133
G1 X103.5 Y129.55 E9.27759
G1 X103.682 Y129.661 E9.28752
G1 X103.986 Y129.839 E9.30392
G1 X104.481 Y130.109 E9.33018
G1 X104.988 Y130.357 E9.35646
G1 X105.503 Y130.587 E9.38272
G1 X106.028 Y130.795 E9.40902
G1 X106.56 Y130.982 E9.43527
G1 X107.1 Y131.148 E9.46158
G1 X107.646 Y131.292 E9.48787
G1 X108.197 Y131.414 E9.51415
G1 X108.752 Y131.515 E9.54042
G1 X109.311 Y131.594 E9.56671
G1 X109.873 Y131.649 E9.593
G1 X110.437 Y131.683 E9.61931
G1 X111 Y131.694 E9.64553
G1 X111.563 Y131.683 E9.67175
G0 F6000 X111.58 Y132.122
G1 F2700 E4.67175
G0 F6000 X113.342 Y132.098
G0 X114.088 Y134.77
G0 X115.4 Y135.374
;TYPE:WALL-INNER
G1 F2700 E9.67175
G1 F1200 X115.048 Y135.289 E9.68861
G1 X115.019 Y135.281 E9.69002
G1 X114.52 Y135.136 E9.71421
G1 X114.014 Y134.967 E9.73905
G1 X113.499 Y134.774 E9.76466
G1 X112.994 Y134.558 E9.79024
G1 X112.508 Y134.328 E9.81527
G1 X112.01 Y134.066 E9.84148
G1 X111.558 Y133.805 E9.86578
G1 X110.561 Y133.149 E9.92135
G1 X110.309 Y133.016 E9.93462
G1 X110.113 Y132.932 E9.94455
G1 X109.735 Y132.805 E9.96312
G1 X109.379 Y132.723 E9.98013
G1 X109.19 Y132.691 E9.98906
G1 X108.982 Y132.666 E9.99881
G1 X108.663 Y132.66 E10.01367
G1 X94.591 Y132.659 E10.66892
G1 X94.591 Y102.54 E12.07139
G1 X94.591 Y102.341 E12.08065
G1 X94.79 Y102.341 E12.08665
G1 X106.591 Y102.345 E12.63615
G1 X108.796 Y102.34 E12.73883
G1 X109.052 Y102.326 E12.75076
G1 X109.475 Y102.258 E12.77071
G1 X109.964 Y102.124 E12.79432
G1 X110.322 Y101.98 E12.81229
G1 X110.648 Y101.795 E12.82974
G1 X111.052 Y101.517 E12.85258
G1 X111.52 Y101.219 E12.87841
G1 X111.985 Y100.949 E12.90345
G1 X112.483 Y100.686 E12.92968
G1 X112.969 Y100.455 E12.95473
G1 X113.487 Y100.233 E12.98097
G1 X113.976 Y100.048 E13.00532
G1 X114.508 Y99.869 E13.03146
G1 X115.016 Y99.721 E13.05609
G1 X115.041 Y99.714 E13.0573
G1 X115.399 Y99.627 E13.07446
G1 X115.399 Y99.713
G1 X115.399 Y99.74 E13.07567
G1 X115.4 Y100.467 E13.10952
G1 X115.416 Y100.702 E13.12049
G1 X115.464 Y100.934 E13.13152
G1 X115.554 Y101.2 E13.14459
G1 X115.661 Y101.41 E13.15557
G1 X115.794 Y101.617 E13.16702
G1 X115.958 Y101.819 E13.17914
G1 X116.167 Y102.018 E13.19258
G1 X116.4 Y102.178 E13.20574
G1 X116.672 Y102.295 E13.21953
G1 X116.949 Y102.343 E13.23262
G1 X118.101 Y102.341 E13.28626
G1 X119.899 Y102.345 E13.36998
G1 X131.653 Y102.346 E13.9173
G1 X131.946 Y102.357 E13.93095
G1 X132.377 Y102.387 E13.95107
G1 X132.817 Y102.442 E13.97172
G1 X133.252 Y102.518 E13.99228
G1 X133.685 Y102.617 E14.01296
G1 X134.101 Y102.733 E14.03307
G1 X134.538 Y102.878 E14.05451
G1 X134.926 Y103.03 E14.07391
G1 X135.337 Y103.213 E14.09486
G1 X135.48 Y103.288 E14.10238
G1 X135.729 Y103.412 E14.11533
G1 X136.115 Y103.634 E14.13607
G1 X136.478 Y103.866 E14.15613
G1 X136.837 Y104.121 E14.17663
G1 X137.19 Y104.4 E14.19758
G1 X137.515 Y104.684 E14.21768
G1 X137.831 Y104.986 E14.23804
G1 X138.147 Y105.323 E14.25955
G1 X138.426 Y105.651 E14.2796
G1 X138.695 Y106.001 E14.30015
G1 X138.939 Y106.355 E14.32017
G1 X139.182 Y106.746 E14.34161
G1 X139.387 Y107.114 E14.36122
G1 X139.587 Y107.519 E14.38226
G1 X139.754 Y107.903 E14.40175
G1 X139.915 Y108.333 E14.42314
G1 X140.045 Y108.745 E14.44325
G1 X140.161 Y109.181 E14.46426
G1 X140.252 Y109.602 E14.48432
G1 X140.321 Y110.026 E14.50432
G1 X140.372 Y110.483 E14.52573
G1 X140.399 Y110.91 E14.54565
G1 X140.407 Y111.251 E14.56154
G1 X140.409 Y112.36 E14.61318
G1 X140.405 Y114.174 E14.69764
G1 X140.404 Y123.847 E15.14806
G1 X140.387 Y124.317 E15.16996
G1 X140.352 Y124.726 E15.18907
G1 X140.293 Y125.163 E15.20961
G1 X140.211 Y125.605 E15.23054
G1 X140.111 Y126.024 E15.2506
G1 X139.988 Y126.447 E15.27111
G1 X139.841 Y126.872 E15.29205
G1 X139.674 Y127.283 E15.31271
G1 X139.482 Y127.698 E15.334
G1 X139.293 Y128.059 E15.35297
G1 X139.061 Y128.452 E15.37422
G1 X138.813 Y128.832 E15.39535
G1 X138.564 Y129.174 E15.41505
G1 X138.455 Y129.305 E15.42299
G1 X138.279 Y129.527 E15.43618
