;FLAVOR:Marlin
;TIME:5050
;Filament used: 2.63059m
;Layer height: 0.24
;MINX:90.379
;MINY:90.379
;MINZ:0.28
;MAXX:144.621
;MAXY:145.379
;MAXZ:41.08
;Generated with Cura_SteamEngine 4.5.0
M140 S65
M105
M190 S65
M104 S215
M105
M109 S215
M82 ;absolute extrusion mode
; Ender 3 Custom Start G-code
G92 E0 ; Reset Extruder
G28 ; Home all axes
G1 Z2.0 F3000 ; Move Z Axis up little to prevent scratching of Heat Bed
G1 X0.1 Y20 Z0.3 F5000.0 ; Move to start position
G1 X0.1 Y200.0 Z0.3 F1500.0 E15 ; Draw the first line
G1 X0.4 Y200.0 Z0.3 F5000.0 ; Move to side a little
G1 X0.4 Y20 Z0.3 F1500.0 E30 ; Draw the second line
G92 E0 ; Reset Extruder
G1 Z2.0 F3000 ; Move Z Axis up little to prevent scratching of Heat Bed
G1 X5 Y20 Z0.3 F5000.0 ; Move over to prevent blob squish
G92 E0
G92 E0
G1 F2700 E-5
;LAYER_COUNT:171
;LAYER:0
M107
G0 F6000 X117.067 Y113.946 Z0.28
;TYPE:SKIRT
G1 F2700 E0
G1 F1200 X117.867 Y113.946 E0.03725
G1 X117.761 Y114.148 E0.04787
G1 X117.371 Y114.21 E0.06626
G1 X117.067 Y113.946 E0.08501
G0 F6000 X114.726 Y115.58
G1 F1200 X114.587 Y115.965 E0.10407
G1 X114.264 Y116.067 E0.11984
G1 X114.516 Y115.293 E0.15774
G1 X114.726 Y115.58 E0.1743
G0 F6000 X117.441 Y117.03
G1 F1200 X117.896 Y117.239 E0.19762
G1 X117.962 Y117.627 E0.21595
G1 X117.706 Y117.932 E0.23449
G1 X117.295 Y117.932 E0.25363
G1 X117.036 Y117.618 E0.27258
G1 X117.109 Y117.224 E0.29124
G1 X117.441 Y117.03 E0.30914
G0 F6000 X120.375 Y115.395
G1 F1200 X120.624 Y116.041 E0.34138
G1 X120.469 Y116.015 E0.3487
G1 X120.271 Y115.678 E0.3669
G1 X120.375 Y115.395 E0.38094
G0 F6000 X120.444 Y118.998
G1 F1200 X120.739 Y118.892 E0.39553
G1 X120.506 Y119.608 E0.43059
G1 X120.402 Y119.654 E0.43589
G1 X120.271 Y119.378 E0.45012
G1 X120.444 Y118.998 E0.46956
G0 F6000 X117.476 Y120.764
G1 F1200 X117.858 Y120.963 E0.48961
G1 X117.188 Y120.935 E0.52084
G1 X117.269 Y120.82 E0.52739
G1 X117.476 Y120.764 E0.53737
G0 F6000 X114.65 Y119.126
G1 F1200 X114.717 Y119.499 E0.55502
G1 X114.586 Y119.682 E0.5655
G1 X114.52 Y119.634 E0.5693
G1 X114.355 Y119.02 E0.59891
G1 X114.65 Y119.126 E0.6135
G1 F2700 E-4.3865
;MESH:ultimate-sink-drain.stl
G0 F6000 X119.55 Y125.385
G0 X119.79 Y123.785
G0 X120.688 Y123.641
;TYPE:WALL-INNER
G1 F2700 E0.6135
G1 F1200 X119.863 Y123.982 E0.65507
G1 X119.27 Y124.168 E0.68401
G1 X118.706 Y124.293 E0.71091
G1 X118.107 Y124.372 E0.73904
G1 X117.2 Y124.413 E0.78132
G1 X116.294 Y124.293 E0.82387
G1 X115.73 Y124.168 E0.85077
G1 X115.132 Y123.98 E0.87996
G1 X114.585 Y123.753 E0.90754
G1 X113.781 Y123.334 E0.94976
G1 X113.057 Y122.778 E0.99226
G1 X112.621 Y122.379 E1.01978
G1 X112.25 Y121.973 E1.04539
G1 X111.861 Y121.473 E1.07489
G1 X111.363 Y120.699 E1.11775
G1 X111.022 Y119.871 E1.15944
G1 X110.844 Y119.306 E1.18703
G1 X110.713 Y118.729 E1.21458
G1 X110.635 Y118.15 E1.24178
G1 X110.602 Y117.499 E1.27213
G1 X110.584 Y117.269 E1.28288
G1 X110.703 Y116.312 E1.32778
G1 X110.827 Y115.751 E1.35453
G1 X111.005 Y115.173 E1.3827
G1 X111.23 Y114.623 E1.41037
G1 X111.668 Y113.784 E1.45444
G1 X112.205 Y113.077 E1.49578
G1 X112.659 Y112.587 E1.52688
G1 X113.057 Y112.222 E1.55203
G1 X113.549 Y111.844 E1.58092
G1 X114.312 Y111.359 E1.62302
G1 X115.137 Y111.018 E1.66458
G1 X115.73 Y110.832 E1.69352
G1 X116.294 Y110.707 E1.72042
G1 X116.893 Y110.628 E1.74856
G1 X117.8 Y110.587 E1.79083
G1 X118.706 Y110.707 E1.83339
G1 X119.27 Y110.832 E1.86029
G1 X119.868 Y111.02 E1.88948
G1 X120.415 Y111.247 E1.91705
G1 X121.219 Y111.666 E1.95927
G1 X121.943 Y112.222 E2.00178
G1 X122.379 Y112.621 E2.0293
G1 X122.75 Y113.027 E2.05491
G1 X123.138 Y113.525 E2.0843
G1 X123.635 Y114.298 E2.12709
G1 X123.978 Y115.129 E2.16896
G1 X124.156 Y115.694 E2.19654
G1 X124.287 Y116.27 E2.22405
G1 X124.365 Y116.847 E2.25116
G1 X124.398 Y117.501 E2.28165
G1 X124.416 Y117.731 E2.29239
G1 X124.297 Y118.688 E2.3373
G1 X124.173 Y119.249 E2.36405
G1 X123.995 Y119.827 E2.39221
G1 X123.772 Y120.372 E2.41963
G1 X123.332 Y121.216 E2.46395
G1 X122.795 Y121.923 E2.50529
G1 X122.341 Y122.413 E2.5364
G1 X121.943 Y122.778 E2.56154
G1 X121.455 Y123.153 E2.5902
G1 X120.688 Y123.641 E2.63253
G0 F6000 X120.8 Y124.415
G1 F1200 X129.134 Y138.85 E3.40867
G1 X129.238 Y139.03 E3.41835
G1 X129.054 Y139.126 E3.42451
G1 X127.882 Y139.736 E3.48603
G1 X127.774 Y139.781 E3.49148
G1 X125.884 Y140.564 E3.58674
G1 X125.794 Y140.591 E3.59111
G1 X123.856 Y141.203 E3.68575
G1 X121.762 Y141.666 E3.78561
G1 X121.025 Y141.764 E3.82023
G1 X120.8 Y141.793 E3.83079
G1 X120.8 Y141.567 E3.83736
G1 X120.8 Y141.566 E3.8374
G1 X120.8 Y124.415 E4.63603
G0 F6000 X120.674 Y123.854
G0 X123.382 Y121.445
G0 X123.815 Y121.84
G1 F1200 X124.459 Y122.211 E4.67063
G1 X138.249 Y130.172 E5.41208
G1 X138.429 Y130.276 E5.42176
G1 X138.318 Y130.451 E5.42792
G1 X137.604 Y131.573 E5.48985
G1 X136.291 Y133.282 E5.5902
G1 X134.86 Y134.847 E5.68894
G1 X133.276 Y136.296 E5.78891
G1 X132.685 Y136.75 E5.82361
G1 X132.505 Y136.888 E5.83417
G1 X132.392 Y136.692 E5.84074
G1 X124.187 Y122.484 E6.60472
G1 X123.815 Y121.84 E6.62262
G1 F2700 E1.62262
G0 F6000 X132.364 Y136.982
G0 X132.14 Y137.157
G0 X129.646 Y138.93
G0 X129.681 Y138.998
;TYPE:WALL-OUTER
G1 F2700 E6.62262
G1 F1200 X129.958 Y138.823 E6.63788
G1 X131.668 Y137.733 E6.7323
G1 X132.266 Y137.274 E6.7674
G1 X123.357 Y121.845 E7.59701
G1 X123.101 Y122.182 E7.61672
G1 X122.629 Y122.692 E7.64907
G1 X122.199 Y123.086 E7.67623
G1 X121.683 Y123.482 E7.70652
G1 X120.981 Y123.929 E7.74527
G1 X129.681 Y138.998 E8.55549
G0 F6000 X129.646 Y138.93
G0 X131.57 Y137.603
G0 X132.364 Y136.982
G0 X134.739 Y134.726
G0 X136.159 Y133.173
G0 X138.544 Y130.144
G0 X139.512 Y128.304
G0 X140.188 Y126.789
;TYPE:WALL-INNER
G1 F1200 X139.992 Y126.676 E8.56603
G1 X139.382 Y126.323 E8.59885
G1 X125.783 Y118.472 E9.33002
G1 X125.139 Y118.1 E9.36465
G1 X125.882 Y118.1 E9.38253
G1 X125.883 Y118.1 E9.38258
G1 X141.805 Y118.1 E10.12398
G1 X141.806 Y118.1 E10.12402
G1 X142.013 Y118.1 E10.13366
G1 X142.004 Y118.307 E10.13983
G1 X141.945 Y119.649 E10.20237
G1 X141.668 Y121.761 E10.30156
G1 X141.644 Y121.866 E10.30658
G1 X141.204 Y123.853 E10.40134
G1 X140.563 Y125.885 E10.50055
G1 X140.275 Y126.58 E10.53559
G1 X140.188 Y126.789 E10.54217
G1 F2700 E5.54217
G0 F6000 X140.062 Y127.095
G0 X138.734 Y129.986
G0 X138.799 Y130.028
;TYPE:WALL-OUTER
G1 F2700 E10.54217
G1 F1200 X139.886 Y127.939 E10.65183
G1 X140.175 Y127.243 E10.68692
G1 X139.182 Y126.669 E10.74033
G1 X124.744 Y118.334 E11.51661
G1 X124.691 Y118.758 E11.5365
G1 X124.562 Y119.345 E11.56449
G1 X124.372 Y119.96 E11.59446
G1 X124.13 Y120.552 E11.62424
G1 X123.726 Y121.326 E11.6649
G1 X138.799 Y130.028 E12.47533
G0 F6000 X138.734 Y129.986
G0 X139.74 Y127.871
G0 X140.115 Y126.943
G0 X124.603 Y117.929
G0 X123.861 Y114.378
G0 X125.159 Y114.2
;TYPE:WALL-INNER
G1 F1200 X124.416 Y114.2 E12.50992
G1 X125.06 Y113.828 E12.52782
G1 X138.85 Y105.867 E13.26926
G1 X139.03 Y105.763 E13.27894
G1 X139.126 Y105.947 E13.28511
G1 X139.737 Y107.118 E13.34661
G1 X140.565 Y109.119 E13.44745
G1 X140.591 Y109.206 E13.45167
G1 X141.204 Y111.147 E13.54645
G1 X141.665 Y113.231 E13.64584
G1 X141.764 Y113.975 E13.68079
G1 X141.793 Y114.2 E13.69135
G1 X141.567 Y114.2 E13.69792
G1 X141.566 Y114.2 E13.69797
G1 X125.16 Y114.2 E14.4619
G1 X125.159 Y114.2 E14.46194
G1 F2700 E9.46194
G0 F6000 X123.861 Y114.378
G0 X124.603 Y117.929
G0 X124.815 Y118
G0 X124.815 Y117.7
;TYPE:WALL-OUTER
G1 F2700 E14.46194
G1 F1200 X142.209 Y117.7 E15.27188
G1 X142.106 Y115.347 E15.38155
G1 X142.007 Y114.6 E15.41664
G1 X124.193 Y114.6 E16.24613
G1 X124.355 Y114.992 E16.26588
G1 X124.541 Y115.583 E16.29473
G1 X124.68 Y116.197 E16.32405
G1 X124.765 Y116.819 E16.35328
G1 X124.797 Y117.475 E16.38386
G1 X124.815 Y117.7 E16.39437
G0 F6000 X124.815 Y118
G0 X124.603 Y117.929
G0 X123.271 Y113.435
G0 X121.448 Y111.618
G0 X122.482 Y110.814
;TYPE:WALL-INNER
G1 F1200 X121.838 Y111.186 E16.429
G1 X122.21 Y110.542 E16.4469
G1 X130.172 Y96.75 E17.18845
G1 X130.276 Y96.57 E17.19813
G1 X130.451 Y96.681 E17.20429
G1 X131.569 Y97.393 E17.26601
G1 X133.282 Y98.709 E17.3666
G1 X134.847 Y100.14 E17.46534
G1 X136.296 Y101.724 E17.5653
G1 X136.751 Y102.315 E17.60003
G1 X136.889 Y102.495 E17.6106
G1 X136.693 Y102.608 E17.61717
G1 X136.081 Y102.962 E17.65009
G1 X122.482 Y110.814 E18.38129
G1 F2700 E13.38129
G0 F6000 X121.448 Y111.618
G0 X123.679 Y114.179
G0 X123.931 Y114.018
;TYPE:WALL-OUTER
G1 F2700 E18.38129
G1 F1200 X138.999 Y105.319 E19.19145
G1 X137.733 Y103.332 E19.30116
G1 X137.274 Y102.734 E19.33626
G1 X136.281 Y103.308 E19.38967
G1 X121.846 Y111.643 E20.16583
G1 X122.199 Y111.914 E20.18655
G1 X122.662 Y112.338 E20.21578
G1 X123.061 Y112.774 E20.2433
G1 X123.463 Y113.291 E20.2738
G1 X123.931 Y114.018 E20.31406
G0 F6000 X123.679 Y114.179
G0 X121.834 Y112.355
G0 X119.905 Y110.862
G0 X117.977 Y110.43
G0 X118.471 Y109.218
;TYPE:WALL-INNER
G1 F1200 X118.1 Y109.862 E20.34866
G1 X118.1 Y109.119 E20.36656
G1 X118.1 Y109.118 E20.3666
G1 X118.1 Y93.194 E21.10809
G1 X118.1 Y93.193 E21.10814
G1 X118.1 Y92.986 E21.11778
G1 X118.307 Y92.995 E21.12394
G1 X119.647 Y93.055 E21.1864
G1 X121.761 Y93.332 E21.28568
G1 X121.866 Y93.356 E21.29069
G1 X123.856 Y93.797 E21.3856
G1 X125.885 Y94.437 E21.48467
G1 X126.579 Y94.725 E21.51966
G1 X126.788 Y94.811 E21.53018
G1 X126.675 Y95.007 E21.53675
G1 X118.471 Y109.218 E22.30083
G1 F2700 E17.30083
G0 F6000 X117.977 Y110.43
G0 X121.415 Y111.575
G0 X121.585 Y111.421
G0 X121.327 Y111.271
;TYPE:WALL-OUTER
G1 F2700 E22.30083
G1 F1200 X130.028 Y96.201 E23.11112
G1 X127.939 Y95.114 E23.22077
G1 X127.242 Y94.825 E23.25591
G1 X118.972 Y109.153 E24.02624
G1 X118.335 Y110.254 E24.08547
G1 X118.767 Y110.311 E24.10576
G1 X119.383 Y110.448 E24.13514
G1 X119.995 Y110.64 E24.16501
G1 X120.593 Y110.888 E24.19515
G1 X121.327 Y111.271 E24.2337
G0 F6000 X121.585 Y111.421
G0 X121.415 Y111.575
G0 X118.675 Y110.875
G0 X117.794 Y110.759
G0 X116.326 Y110.875
G0 X115.197 Y111.178
G0 X114.392 Y111.511
G0 X112.031 Y113.018
G0 X111.618 Y113.555
G0 X111.185 Y113.16
;TYPE:WALL-INNER
G1 F1200 X96.751 Y104.827 E25.00977
G1 X96.571 Y104.724 E25.01943
G1 X96.682 Y104.549 E25.0256
G1 X97.396 Y103.427 E25.08752
G1 X98.709 Y101.718 E25.18788
G1 X100.141 Y100.152 E25.28669
G1 X101.724 Y98.704 E25.38658
G1 X102.315 Y98.25 E25.42129
G1 X102.495 Y98.112 E25.43185
G1 X102.608 Y98.308 E25.43842
G1 X111.185 Y113.16 E26.23703
G0 F6000 X111.578 Y113.586
G0 X110.434 Y117.025
G0 X109.217 Y116.528
G1 F1200 X109.861 Y116.9 E26.27166
G1 X109.118 Y116.9 E26.28954
G1 X109.117 Y116.9 E26.28959
G1 X93.194 Y116.9 E27.03103
G1 X93.193 Y116.9 E27.03107
G1 X92.986 Y116.9 E27.04071
G1 X92.995 Y116.693 E27.04688
G1 X93.055 Y115.351 E27.10943
G1 X93.331 Y113.245 E27.20833
G1 X93.356 Y113.135 E27.21358
G1 X93.796 Y111.147 E27.30839
G1 X94.437 Y109.115 E27.40761
G1 X94.725 Y108.42 E27.44264
G1 X94.812 Y108.211 E27.45318
G1 X95.008 Y108.324 E27.45976
G1 X95.618 Y108.677 E27.49258
G1 X109.217 Y116.528 E28.22376
G0 F6000 X110.434 Y117.025
G0 X110.553 Y116.703
G0 X110.256 Y116.666
;TYPE:WALL-OUTER
G1 F1200 X110.309 Y116.242 E28.24366
G1 X110.438 Y115.655 E28.27164
G1 X110.628 Y115.04 E28.30161
G1 X110.87 Y114.448 E28.33139
G1 X111.274 Y113.674 E28.37205
G1 X96.201 Y104.972 E29.18248
G1 X95.114 Y107.061 E29.29213
G1 X94.907 Y107.562 E29.31738
G1 X94.823 Y107.756 E29.32722
G1 X95.818 Y108.331 E29.38073
G1 X110.256 Y116.666 E30.15701
G0 F6000 X110.553 Y116.703
G0 X111.385 Y114.695
G0 X111.813 Y113.876
G0 X113.594 Y111.6
G0 X114.326 Y111.146
G0 X114.2 Y110.585
;TYPE:WALL-INNER
G1 F1200 X105.866 Y96.15 E30.93315
G1 X105.763 Y95.97 E30.9428
G1 X105.947 Y95.874 E30.94898
G1 X107.118 Y95.264 E31.01046
G1 X109.116 Y94.436 E31.11117
G1 X109.206 Y94.409 E31.11554
G1 X111.144 Y93.797 E31.21018
G1 X113.238 Y93.334 E31.31004
G1 X113.975 Y93.236 E31.34466
G1 X114.2 Y93.207 E31.35522
G1 X114.2 Y93.433 E31.36178
G1 X114.2 Y93.434 E31.36183
G1 X114.2 Y110.585 E32.16045
G1 F2700 E27.16045
G0 F6000 X114.326 Y111.146
G0 X111.881 Y113.336
G0 X111.643 Y113.155
;TYPE:WALL-OUTER
G1 F2700 E32.16045
G1 F1200 X111.899 Y112.818 E32.18016
G1 X112.371 Y112.308 E32.21252
G1 X112.801 Y111.914 E32.23967
G1 X113.317 Y111.518 E32.26996
G1 X114.019 Y111.071 E32.30871
G1 X105.319 Y96.001 E33.11898
G1 X103.332 Y97.267 E33.22868
G1 X102.734 Y97.726 E33.26379
G1 X111.643 Y113.155 E34.09339
G1 F2700 E29.09339
G0 F6000 X111.881 Y113.336
G0 X114.326 Y111.146
G0 X114.3 Y110.807
G0 X114.6 Y110.807
G1 F2700 E34.09339
G1 F1200 X115.005 Y110.64 E34.11379
G1 X115.617 Y110.448 E34.14366
G1 X116.233 Y110.311 E34.17304
G1 X116.858 Y110.229 E34.2024
G1 X117.7 Y110.191 E34.24164
G1 X117.7 Y92.791 E35.05186
G1 X115.347 Y92.894 E35.16153
G1 X114.6 Y92.993 E35.19662
G1 X114.6 Y110.807 E36.02611
G1 F2700 E31.02611
G0 F6000 X114.3 Y110.807
G0 X114.378 Y111.139
G0 X114.937 Y110.904
G0 X115.782 Y111.035
G0 X116.355 Y111.765
G0 X118.008 Y111.877
G0 X118.62 Y112.166
G0 X119.099 Y112.654
G0 X119.177 Y112.822
G0 X119.594 Y113.872
;TYPE:WALL-INNER
G1 F2700 E36.02611
G1 F1200 X119.597 Y113.8 E36.02947
G1 X119.599 Y113.765 E36.0311
G1 X119.599 Y113.731 E36.03268
G1 X119.594 Y113.581 E36.03967
G1 X119.586 Y113.517 E36.04267
G1 X119.571 Y113.399 E36.04821
G1 X119.534 Y113.218 E36.05682
G1 X119.477 Y113.041 E36.06547
G1 X119.409 Y112.872 E36.07396
G1 X119.325 Y112.709 E36.0825
G1 X119.227 Y112.554 E36.09103
G1 X119.117 Y112.411 E36.09944
G1 X118.995 Y112.273 E36.10801
G1 X118.85 Y112.141 E36.11714
G1 X118.705 Y112.03 E36.12565
G1 X118.549 Y111.93 E36.13427
G1 X118.388 Y111.847 E36.14271
G1 X118.22 Y111.776 E36.1512
G1 X118.041 Y111.72 E36.15993
G1 X117.862 Y111.681 E36.16847
G1 X117.684 Y111.658 E36.17682
G1 X117.5 Y111.65 E36.1854
G1 X117.316 Y111.658 E36.19397
G1 X117.138 Y111.681 E36.20233
G1 X116.959 Y111.72 E36.21086
G1 X116.78 Y111.776 E36.2196
G1 X116.612 Y111.847 E36.22809
G1 X116.451 Y111.93 E36.23652
G1 X116.295 Y112.029 E36.24513
G1 X116.151 Y112.14 E36.25359
G1 X116.013 Y112.265 E36.26226
G1 X115.898 Y112.393 E36.27027
G1 X115.786 Y112.536 E36.27873
G1 X115.687 Y112.692 E36.28734
G1 X115.603 Y112.85 E36.29567
G1 X115.53 Y113.02 E36.30428
G1 X115.474 Y113.199 E36.31302
G1 X115.435 Y113.376 E36.32146
G1 X115.417 Y113.502 E36.32738
G1 X115.41 Y113.554 E36.32983
G1 X115.401 Y113.735 E36.33826
G1 X115.402 Y113.8 E36.34129
G1 X115.405 Y113.871 E36.3446
G1 X115.341 Y113.83 E36.34537
G1 X115.3 Y113.804
G1 X115.287 Y113.797
G1 X115.141 Y113.723 E36.35001
G1 X115.093 Y113.703 E36.35243
G1 X114.972 Y113.651 E36.35856
G1 X114.794 Y113.596 E36.36724
G1 X114.616 Y113.557 E36.37572
G1 X114.436 Y113.533 E36.38418
G1 X114.252 Y113.525 E36.39275
G1 X114.069 Y113.533 E36.40128
G1 X113.89 Y113.556 E36.40969
G1 X113.711 Y113.595 E36.41822
G1 X113.532 Y113.651 E36.42695
G1 X113.364 Y113.722 E36.43544
G1 X113.203 Y113.805 E36.44388
G1 X113.047 Y113.905 E36.45251
G1 X112.901 Y114.017 E36.46107
G1 X112.767 Y114.14 E36.46954
G1 X112.65 Y114.268 E36.47762
G1 X112.54 Y114.41 E36.48598
G1 X112.439 Y114.565 E36.4946
G1 X112.354 Y114.729 E36.5032
G1 X112.283 Y114.897 E36.51169
G1 X112.228 Y115.071 E36.52019
G1 X112.187 Y115.249 E36.52869
G1 X112.162 Y115.429 E36.53716
G1 X112.153 Y115.61 E36.54559
G1 X112.158 Y115.794 E36.55417
G1 X112.181 Y115.978 E36.5628
G1 X112.22 Y116.159 E36.57142
G1 X112.275 Y116.332 E36.57987
G1 X112.342 Y116.499 E36.58825
G1 X112.428 Y116.667 E36.59704
G1 X112.527 Y116.821 E36.60557
G1 X112.635 Y116.965 E36.61395
G1 X112.759 Y117.103 E36.62259
G1 X112.901 Y117.233 E36.63155
G1 X113.047 Y117.345 E36.64012
G1 X113.187 Y117.435 E36.64787
G1 X113.203 Y117.445 E36.64875
G1 X113.247 Y117.467 E36.65104
G1 X113.31 Y117.5 E36.65435
G1 X113.248 Y117.532 E36.6549
G1 X113.203 Y117.555
G1 X113.188 Y117.564
G1 X113.047 Y117.655 E36.66026
G1 X112.901 Y117.767 E36.66883
G1 X112.767 Y117.89 E36.6773
G1 X112.65 Y118.018 E36.68537
G1 X112.54 Y118.16 E36.69374
G1 X112.439 Y118.315 E36.70235
G1 X112.354 Y118.479 E36.71095
G1 X112.283 Y118.647 E36.71945
G1 X112.228 Y118.821 E36.72794
G1 X112.187 Y118.999 E36.73645
G1 X112.162 Y119.179 E36.74491
G1 X112.153 Y119.36 E36.75335
G1 X112.158 Y119.544 E36.76192
G1 X112.181 Y119.728 E36.77056
G1 X112.22 Y119.909 E36.77918
