;FLAVOR:Marlin
;TIME:1700
;Filament used: 0.843272m
;Layer height: 0.16
;MINX:97.654
;MINY:97.651
;MINZ:0.2
;MAXX:137.352
;MAXY:137.343
;MAXZ:15.96
;Generated with Cura_SteamEngine 4.7.0
M140 S55
M105
M190 S55
M104 S210
M105
M109 S210
M82 ;absolute extrusion mode
; Ender 3 Custom Start G-code
G92 E0 ; Reset Extruder
G28 ; Home all axes
G1 Z2.0 F3000 ; Move Z Axis up little to prevent scratching of Heat Bed
G1 X0.1 Y20 Z0.3 F5000.0 ; Move to start position
G1 X0.1 Y200.0 Z0.3 F1500.0 E15 ; Draw the first line
G1 X0.4 Y200.0 Z0.3 F5000.0 ; Move to side a little
G1 X0.4 Y20 Z0.3 F1500.0 E30 ; Draw the second line
G92 E0 ; Reset Extruder
G1 Z2.0 F3000 ; Move Z Axis up little to prevent scratching of Heat Bed
G1 X5 Y20 Z0.3 F5000.0 ; Move over to prevent blob squish
G92 E0
G92 E0
G1 F2700 E-5
;LAYER_COUNT:90
;LAYER:0
M107
G0 F6000 X103.643 Y103.29 Z0.2
;TYPE:SKIRT
G1 F2700 E0
G1 F1200 X103.842 Y103.095 E0.00927
G1 X103.923 Y103.018 E0.01298
G1 X104.232 Y102.736 E0.0269
G1 X104.475 Y102.522 E0.03767
G1 X104.734 Y102.301 E0.04899
G1 X104.925 Y102.143 E0.05724
G1 X105.208 Y101.917 E0.06928
G1 X105.66 Y101.568 E0.08828
G1 X105.783 Y101.476 E0.09338
G1 X106.215 Y101.17 E0.11099
G1 X106.517 Y100.966 E0.12311
G1 X106.809 Y100.775 E0.13472
G1 X107.168 Y100.551 E0.14879
G1 X107.414 Y100.403 E0.15834
G1 X107.838 Y100.161 E0.17458
G1 X108.201 Y99.964 E0.18832
G1 X108.629 Y99.744 E0.20432
G1 X108.984 Y99.571 E0.21746
G1 X109.22 Y99.459 E0.22614
G1 X109.316 Y99.415 E0.22966
G1 X109.615 Y99.283 E0.24053
G1 X110.028 Y99.11 E0.25542
G1 X110.242 Y99.023 E0.2631
G1 X110.783 Y98.819 E0.28233
G1 X111.086 Y98.714 E0.293
G1 X111.389 Y98.614 E0.30361
G1 X111.688 Y98.52 E0.31404
G1 X112.124 Y98.393 E0.32914
G1 X112.443 Y98.307 E0.34013
G1 X112.705 Y98.24 E0.34912
G1 X113.005 Y98.167 E0.35939
G1 X113.563 Y98.046 E0.37838
G1 X113.965 Y97.97 E0.39199
G1 X114.334 Y97.905 E0.40445
G1 X114.862 Y97.827 E0.42221
G1 X115.244 Y97.78 E0.43501
G1 X115.635 Y97.739 E0.44808
G1 X115.992 Y97.708 E0.46
G1 X116.484 Y97.677 E0.4764
G1 X116.699 Y97.668 E0.48356
G1 X116.978 Y97.659 E0.49284
G1 X117.403 Y97.652 E0.50698
G1 X117.727 Y97.651 E0.51775
G1 X118.271 Y97.664 E0.53585
G1 X118.675 Y97.684 E0.54931
G1 X119.165 Y97.721 E0.56565
G1 X119.401 Y97.741 E0.57353
G1 X119.993 Y97.808 E0.59334
G1 X120.387 Y97.863 E0.60657
G1 X120.927 Y97.952 E0.62478
G1 X121.467 Y98.055 E0.64306
G1 X121.769 Y98.117 E0.65332
G1 X121.969 Y98.161 E0.66013
G1 X122.442 Y98.276 E0.67632
G1 X122.798 Y98.371 E0.68857
G1 X123.218 Y98.492 E0.70311
G1 X123.552 Y98.599 E0.71477
G1 X123.932 Y98.727 E0.72811
G1 X124.524 Y98.936 E0.74899
G1 X124.801 Y99.043 E0.75887
G1 X125.176 Y99.194 E0.77231
G1 X125.636 Y99.393 E0.78898
G1 X125.936 Y99.531 E0.79997
G1 X126.335 Y99.724 E0.81471
G1 X126.674 Y99.899 E0.8274
G1 X126.953 Y100.048 E0.83792
G1 X127.184 Y100.175 E0.84669
G1 X127.437 Y100.318 E0.85635
G1 X127.873 Y100.578 E0.87324
G1 X128.225 Y100.799 E0.88706
G1 X128.694 Y101.11 E0.90578
G1 X128.999 Y101.324 E0.91817
G1 X129.309 Y101.55 E0.93093
G1 X129.611 Y101.778 E0.94351
G1 X129.794 Y101.919 E0.9512
G1 X129.95 Y102.042 E0.95781
G1 X130.246 Y102.284 E0.97052
G1 X130.474 Y102.477 E0.98046
G1 X130.733 Y102.703 E0.99189
G1 X130.916 Y102.868 E1.00009
G1 X131.24 Y103.172 E1.01486
G1 X131.508 Y103.434 E1.02733
G1 X132.026 Y103.977 E1.05229
G1 X132.36 Y104.345 E1.06882
G1 X132.643 Y104.668 E1.0831
G1 X132.82 Y104.878 E1.09224
G1 X133.133 Y105.267 E1.10884
G1 X133.315 Y105.504 E1.11878
G1 X133.516 Y105.773 E1.12995
G1 X133.735 Y106.083 E1.14257
G1 X133.888 Y106.307 E1.1516
G1 X133.887 Y106.308 E1.15164
G1 X134.105 Y106.63 E1.16458
G1 X134.323 Y106.97 E1.17801
G1 X134.445 Y107.165 E1.18566
G1 X134.557 Y107.348 E1.1928
G1 X134.842 Y107.841 E1.21174
G1 X135.038 Y108.202 E1.2254
G1 X135.223 Y108.559 E1.23877
G1 X135.294 Y108.702 E1.24408
G1 X135.538 Y109.227 E1.26334
G1 X135.884 Y110.027 E1.29233
G1 X136.139 Y110.672 E1.3154
G1 X136.244 Y110.964 E1.32572
G1 X136.37 Y111.335 E1.33875
G1 X136.441 Y111.557 E1.3465
G1 X136.511 Y111.784 E1.3544
G1 X136.588 Y112.044 E1.36342
G1 X136.681 Y112.375 E1.37486
G1 X136.702 Y112.455 E1.37761
G1 X136.778 Y112.764 E1.38819
G1 X136.845 Y113.053 E1.39806
G1 X136.956 Y113.591 E1.41633
G1 X137.087 Y114.32 E1.44096
G1 X137.18 Y114.944 E1.46195
G1 X137.211 Y115.2 E1.47052
G1 X137.254 Y115.617 E1.48447
G1 X137.272 Y115.837 E1.49181
G1 X137.295 Y116.07 E1.4996
G1 X137.345 Y116.95 E1.52891
G1 X137.352 Y117.348 E1.54215
G1 X137.349 Y117.882 E1.55991
G1 X137.344 Y118.043 E1.56527
G1 X137.324 Y118.448 E1.57876
G1 X137.285 Y119.022 E1.59789
G1 X137.251 Y119.415 E1.61101
G1 X137.2 Y119.905 E1.6274
G1 X137.159 Y120.245 E1.63879
G1 X137.14 Y120.385 E1.64349
G1 X137.048 Y120.952 E1.66259
G1 X136.963 Y121.401 E1.67779
G1 X136.872 Y121.835 E1.69254
G1 X136.791 Y122.185 E1.70449
G1 X136.647 Y122.739 E1.72353
G1 X136.519 Y123.185 E1.73896
G1 X136.37 Y123.664 E1.75564
G1 X136.279 Y123.934 E1.76512
G1 X136.151 Y124.293 E1.7778
G1 X136.025 Y124.628 E1.7897
G1 X135.859 Y125.045 E1.80463
G1 X135.754 Y125.293 E1.81359
G1 X135.533 Y125.78 E1.83137
G1 X135.448 Y125.956 E1.83788
G1 X135.366 Y126.131 E1.8443
G1 X135.08 Y126.696 E1.86537
G1 X135.04 Y126.769 E1.86813
G1 X134.906 Y127.026 E1.87777
G1 X134.568 Y127.626 E1.90068
G1 X134.382 Y127.934 E1.91265
G1 X134.111 Y128.36 E1.92944
G1 X133.849 Y128.752 E1.94512
G1 X133.834 Y128.742 E1.94572
G1 X133.551 Y129.179 E1.96304
G1 X133.333 Y129.474 E1.97524
G1 X133.049 Y129.842 E1.9907
G1 X132.899 Y130.028 E1.99865
G1 X132.507 Y130.488 E2.01875
G1 X132.041 Y131.005 E2.0419
G1 X131.689 Y131.377 E2.05893
G1 X131.501 Y131.567 E2.06782
G1 X131.129 Y131.926 E2.08502
G1 X130.892 Y132.144 E2.09573
G1 X130.89 Y132.141 E2.09585
G1 X130.443 Y132.541 E2.1158
G1 X129.886 Y133.006 E2.13993
G1 X129.312 Y133.454 E2.16415
G1 X129.106 Y133.604 E2.17262
G1 X128.883 Y133.763 E2.18173
G1 X128.634 Y133.935 E2.1918
G1 X128.343 Y134.129 E2.20343
G1 X128.191 Y134.227 E2.20944
G1 X127.914 Y134.4 E2.22031
G1 X127.634 Y134.569 E2.23118
G1 X127.36 Y134.729 E2.24174
G1 X127.144 Y134.851 E2.24999
G1 X126.862 Y135.005 E2.26068
G1 X126.769 Y135.054 E2.26417
G1 X126.494 Y135.194 E2.27444
G1 X126.077 Y135.399 E2.28989
G1 X125.636 Y135.603 E2.30605
G1 X125.314 Y135.744 E2.31774
G1 X124.918 Y135.909 E2.33201
G1 X124.584 Y136.04 E2.34394
G1 X124.008 Y136.247 E2.3643
G1 X123.364 Y136.459 E2.38685
G1 X122.876 Y136.608 E2.40382
G1 X122.657 Y136.669 E2.41138
G1 X122.318 Y136.757 E2.42303
G1 X121.995 Y136.836 E2.43409
G1 X121.488 Y136.948 E2.45136
G1 X121.165 Y137.011 E2.46231
G1 X120.702 Y137.091 E2.47794
G1 X120.265 Y137.157 E2.49263
G1 X119.762 Y137.221 E2.5095
G1 X119.359 Y137.263 E2.52298
G1 X118.827 Y137.305 E2.54073
G1 X118.502 Y137.323 E2.55155
G1 X117.941 Y137.34 E2.57022
G1 X117.239 Y137.343 E2.59357
G1 X116.437 Y137.317 E2.62026
G1 X115.783 Y137.272 E2.64206
G1 X115.084 Y137.202 E2.66543
G1 X114.934 Y137.182 E2.67046
G1 X114.632 Y137.137 E2.68061
G1 X114.162 Y137.061 E2.69645
G1 X113.804 Y136.997 E2.70855
G1 X113.416 Y136.921 E2.7217
G1 X112.739 Y136.766 E2.74479
G1 X112.209 Y136.627 E2.76302
G1 X111.715 Y136.485 E2.78011
G1 X111.211 Y136.326 E2.79769
G1 X111.011 Y136.26 E2.8047
G1 X110.39 Y136.034 E2.82668
G1 X109.973 Y135.868 E2.84161
G1 X109.41 Y135.626 E2.86199
G1 X108.895 Y135.387 E2.88087
G1 X108.481 Y135.184 E2.89621
G1 X108.256 Y135.066 E2.90466
G1 X107.966 Y134.91 E2.91561
G1 X107.682 Y134.752 E2.92642
G1 X107.493 Y134.643 E2.93368
G1 X107.248 Y134.498 E2.94314
G1 X107.145 Y134.435 E2.94716
G1 X106.783 Y134.204 E2.96144
G1 X106.366 Y133.926 E2.97811
G1 X105.915 Y133.608 E2.99647
G1 X105.603 Y133.378 E3.00936
G1 X105.206 Y133.079 E3.02589
G1 X104.958 Y132.883 E3.0364
G1 X104.701 Y132.673 E3.04744
G1 X104.422 Y132.433 E3.05968
G1 X104.191 Y132.227 E3.06998
G1 X103.892 Y131.952 E3.08349
G1 X103.622 Y131.694 E3.09591
G1 X103.403 Y131.477 E3.10616
G1 X103.214 Y131.285 E3.11512
G1 X103.066 Y131.131 E3.12223
G1 X102.799 Y130.844 E3.13526
G1 X102.68 Y130.711 E3.1412
G1 X102.434 Y130.426 E3.15372
G1 X102.262 Y130.22 E3.16265
G1 X102.018 Y129.916 E3.17561
G1 X101.629 Y129.415 E3.19671
G1 X101.245 Y128.89 E3.21834
G1 X101.066 Y128.629 E3.22887
G1 X100.903 Y128.385 E3.23863
G1 X100.703 Y128.073 E3.25096
G1 X100.452 Y127.663 E3.26694
G1 X100.32 Y127.441 E3.27554
G1 X100.067 Y126.991 E3.29271
G1 X99.888 Y126.655 E3.30537
G1 X99.687 Y126.258 E3.32017
G1 X99.554 Y125.982 E3.33036
G1 X99.413 Y125.678 E3.3415
G1 X99.284 Y125.388 E3.35206
G1 X99.144 Y125.061 E3.36389
G1 X99.031 Y124.777 E3.37406
G1 X98.916 Y124.477 E3.38474
G1 X98.804 Y124.171 E3.39558
G1 X98.74 Y123.988 E3.40203
G1 X98.651 Y123.723 E3.41133
G1 X98.57 Y123.471 E3.42013
G1 X98.469 Y123.141 E3.43161
G1 X98.386 Y122.852 E3.44161
G1 X98.229 Y122.239 E3.46266
G1 X98.117 Y121.743 E3.47957
G1 X98.127 Y121.741 E3.47991
G1 X98.002 Y121.177 E3.49912
G1 X97.963 Y120.952 E3.50672
G1 X97.92 Y120.727 E3.51434
G1 X97.818 Y120.077 E3.53622
G1 X97.774 Y119.707 E3.54861
G1 X97.725 Y119.227 E3.56466
G1 X97.67 Y118.306 E3.59535
G1 X97.668 Y118.179 E3.59957
G1 X97.655 Y117.792 E3.61245
G1 X97.654 Y117.102 E3.6354
G1 X97.666 Y116.713 E3.64835
G1 X97.699 Y116.197 E3.66554
G1 X97.77 Y115.375 E3.69298
G1 X97.808 Y115.007 E3.70529
G1 X97.887 Y114.444 E3.7242
G1 X97.958 Y114.02 E3.7385
G1 X98.046 Y113.558 E3.75414
G1 X98.107 Y113.27 E3.76393
G1 X98.198 Y112.875 E3.77741
G1 X98.297 Y112.48 E3.79096
G1 X98.409 Y112.068 E3.80516
G1 X98.492 Y111.784 E3.815
G1 X98.611 Y111.401 E3.82834
G1 X98.721 Y111.07 E3.83994
G1 X98.825 Y110.771 E3.85047
G1 X98.998 Y110.311 E3.86681
G1 X99.143 Y109.95 E3.87975
G1 X99.286 Y109.611 E3.89199
G1 X99.402 Y109.344 E3.90167
G1 X99.47 Y109.194 E3.90715
G1 X99.633 Y108.852 E3.91975
G1 X99.799 Y108.517 E3.93219
G1 X99.962 Y108.2 E3.94404
G1 X100.006 Y108.118 E3.94714
G1 X100.165 Y107.832 E3.95802
G1 X100.367 Y107.481 E3.97149
G1 X100.65 Y107.016 E3.9896
G1 X100.733 Y106.887 E3.9947
G1 X100.839 Y106.717 E4.00136
G1 X101.168 Y106.222 E4.02113
G1 X101.37 Y105.935 E4.0328
G1 X101.565 Y105.666 E4.04385
G1 X101.7 Y105.486 E4.05134
G1 X101.873 Y105.262 E4.06075
G1 X101.979 Y105.128 E4.06643
G1 X102.186 Y104.874 E4.07733
G1 X102.455 Y104.554 E4.09123
G1 X102.68 Y104.294 E4.10267
G1 X102.834 Y104.122 E4.11035
G1 X103.251 Y103.682 E4.13051
G1 X103.643 Y103.29 E4.14895
G0 F6000 X103.926 Y103.573
G1 F1200 X104.118 Y103.385 E4.15789
G1 X104.199 Y103.308 E4.16161
G1 X104.496 Y103.036 E4.175
G1 X104.739 Y102.822 E4.18577
G1 X104.989 Y102.609 E4.19669
G1 X105.18 Y102.451 E4.20494
G1 X105.452 Y102.233 E4.21653
G1 X105.765 Y101.991 E4.22969
G1 X106.023 Y101.797 E4.24043
G1 X106.439 Y101.501 E4.25741
G1 X106.741 Y101.297 E4.26953
G1 X107.022 Y101.114 E4.28068
G1 X107.374 Y100.894 E4.29449
G1 X107.62 Y100.746 E4.30404
G1 X108.029 Y100.513 E4.31969
G1 X108.392 Y100.316 E4.33343
G1 X108.804 Y100.103 E4.34886
G1 X109.159 Y99.93 E4.36199
G1 X109.482 Y99.779 E4.37385
G1 X109.771 Y99.652 E4.38435
G1 X110.179 Y99.48 E4.39908
G1 X110.393 Y99.393 E4.40676
G1 X110.914 Y99.197 E4.42527
G1 X111.217 Y99.092 E4.43594
G1 X111.509 Y98.996 E4.44616
G1 X111.808 Y98.902 E4.45659
G1 X112.228 Y98.779 E4.47114
G1 X112.547 Y98.693 E4.48213
G1 X112.8 Y98.629 E4.49081
G1 X113.1 Y98.556 E4.50108
G1 X113.637 Y98.439 E4.51936
G1 X114.205 Y98.333 E4.53858
G1 X114.402 Y98.299 E4.54523
G1 X114.911 Y98.224 E4.56234
G1 X115.293 Y98.177 E4.57514
G1 X115.67 Y98.138 E4.58775
G1 X116.027 Y98.107 E4.59967
G1 X116.501 Y98.076 E4.61547
G1 X116.716 Y98.067 E4.62262
G1 X116.984 Y98.059 E4.63154
G1 X117.409 Y98.052 E4.64568
G1 X117.727 Y98.051 E4.65625
G1 X118.251 Y98.064 E4.67369
G1 X118.655 Y98.084 E4.68714
G1 X119.131 Y98.12 E4.70302
G1 X119.367 Y98.14 E4.7109
G1 X119.937 Y98.204 E4.72997
G1 X120.331 Y98.259 E4.74321
G1 X120.852 Y98.345 E4.76077
G1 X121.392 Y98.448 E4.77905
G1 X121.684 Y98.508 E4.78897
G1 X121.884 Y98.552 E4.79578
G1 X122.339 Y98.662 E4.81135
G1 X122.695 Y98.757 E4.8236
G1 X123.102 Y98.875 E4.8377
G1 X123.424 Y98.978 E4.84894
G1 X123.809 Y99.107 E4.86245
G1 X124.38 Y99.309 E4.88259
G1 X124.824 Y99.482 E4.89844
G1 X125.026 Y99.564 E4.90569
G1 X125.469 Y99.756 E4.92175
G1 X125.769 Y99.894 E4.93273
G1 X126.153 Y100.08 E4.94692
G1 X126.306 Y100.158 E4.95264
G1 X126.764 Y100.401 E4.96988
G1 X126.987 Y100.523 E4.97834
G1 X127.24 Y100.666 E4.988
G1 X127.66 Y100.917 E5.00428
G1 X128.012 Y101.138 E5.0181
G1 X128.464 Y101.438 E5.03614
G1 X128.769 Y101.652 E5.04853
G1 X129.068 Y101.869 E5.06082
G1 X129.37 Y102.097 E5.07341
G1 X129.546 Y102.233 E5.08081
G1 X129.702 Y102.356 E5.08741
G1 X129.988 Y102.589 E5.09968
G1 X130.216 Y102.782 E5.10962
G1 X130.465 Y103.001 E5.12065
G1 X130.648 Y103.166 E5.12884
G1 X130.96 Y103.458 E5.14306
G1 X131.228 Y103.72 E5.15552
G1 X131.728 Y104.244 E5.17961
G1 X132.064 Y104.614 E5.19623
G1 X132.337 Y104.926 E5.21002
G1 X132.514 Y105.136 E5.21916
G1 X132.816 Y105.511 E5.23517
G1 X132.998 Y105.748 E5.24511
G1 X133.193 Y106.01 E5.25597
G1 X133.405 Y106.308 E5.26814
G1 X133.558 Y106.532 E5.27716
G1 X133.557 Y106.533 E5.27721
G1 X133.768 Y106.846 E5.28976
G1 X133.986 Y107.186 E5.3032
G1 X134.104 Y107.374 E5.31058
G1 X134.216 Y107.557 E5.31771
G1 X134.491 Y108.032 E5.33597
G1 X134.687 Y108.393 E5.34963
G1 X134.865 Y108.737 E5.36251
G1 X134.936 Y108.88 E5.36782
G1 X135.171 Y109.386 E5.38638
G1 X135.517 Y110.186 E5.41537
G1 X135.763 Y110.807 E5.43759
G1 X135.868 Y111.099 E5.44791
G1 X135.989 Y111.457 E5.46048
G1 X136.128 Y111.898 E5.47586
G1 X136.205 Y112.158 E5.48487
G1 X136.294 Y112.477 E5.49589
G1 X136.315 Y112.557 E5.49864
G1 X136.388 Y112.854 E5.50881
G1 X136.455 Y113.143 E5.51868
G1 X136.562 Y113.662 E5.5363
G1 X136.693 Y114.391 E5.56094
G1 X136.783 Y114.992 E5.58115
G1 X136.814 Y115.248 E5.58973
G1 X136.855 Y115.65 E5.60317
G1 X136.876 Y115.908 E5.61178
G1 X136.896 Y116.109 E5.6185
G1 X136.945 Y116.957 E5.64675
G1 X136.952 Y117.355 E5.65999
G1 X136.949 Y117.87 E5.67712
G1 X136.944 Y118.031 E5.68247
G1 X136.925 Y118.421 E5.69546
G1 X136.886 Y118.995 E5.7146
G1 X136.853 Y119.373 E5.72722
G1 X136.802 Y119.863 E5.7436
G1 X136.763 Y120.192 E5.75462
G1 X136.744 Y120.332 E5.75932
G1 X136.655 Y120.878 E5.77772
G1 X136.57 Y121.327 E5.79292
G1 X136.482 Y121.745 E5.80713
G1 X136.401 Y122.095 E5.81908
G1 X136.263 Y122.629 E5.83742
G1 X136.135 Y123.075 E5.85285
G1 X135.991 Y123.536 E5.86892
G1 X135.9 Y123.806 E5.87839
G1 X135.776 Y124.153 E5.89065
G1 X135.65 Y124.488 E5.90255
G1 X135.49 Y124.889 E5.91691
G1 X135.385 Y125.137 E5.92587
G1 X135.173 Y125.606 E5.94299
G1 X135.066 Y125.828 E5.95119
G1 X135.004 Y125.961 E5.95607
G1 X134.729 Y126.506 E5.97637
G1 X134.641 Y126.669 E5.98253
G1 X134.551 Y126.841 E5.98899
G1 X134.226 Y127.42 E6.01107
G1 X134.04 Y127.728 E6.02304
G1 X133.779 Y128.138 E6.0392
G1 X133.517 Y128.53 E6.05489
G1 X133.504 Y128.521 E6.05541
G1 X133.229 Y128.942 E6.07214
G1 X133.011 Y129.237 E6.08434
G1 X132.737 Y129.591 E6.09923
G1 X132.587 Y129.777 E6.10717
G1 X132.21 Y130.22 E6.12652
G1 X131.744 Y130.737 E6.14967
G1 X131.405 Y131.096 E6.16609
G1 X131.217 Y131.286 E6.17498
G1 X130.858 Y131.632 E6.19157
G1 X130.621 Y131.85 E6.20228
G1 X130.619 Y131.848 E6.20237
G1 X130.187 Y132.234 E6.22164
G1 X129.63 Y132.699 E6.24577
G1 X129.077 Y133.131 E6.26911
G1 X128.871 Y133.281 E6.27759
G1 X128.656 Y133.434 E6.28636
G1 X128.407 Y133.606 E6.29643
G1 X128.126 Y133.793 E6.30766
G1 X127.974 Y133.891 E6.31367
G1 X127.707 Y134.057 E6.32413
G1 X127.427 Y134.226 E6.33501
G1 X127.163 Y134.381 E6.34519
G1 X126.947 Y134.503 E6.35344
G1 X126.675 Y134.651 E6.36374
G1 X126.582 Y134.7 E6.36724
G1 X126.317 Y134.835 E6.37713
G1 X125.9 Y135.04 E6.39258
G1 X125.476 Y135.237 E6.40813
G1 X125.154 Y135.378 E6.41982
G1 X124.772 Y135.536 E6.43357
G1 X124.438 Y135.667 E6.44551
G1 X123.882 Y135.867 E6.46516
G1 X123.238 Y136.079 E6.48771
G1 X122.768 Y136.222 E6.50405
G1 X122.549 Y136.283 E6.51161
G1 X122.223 Y136.369 E6.52282
G1 X121.9 Y136.448 E6.53388
G1 X121.411 Y136.555 E6.55053
G1 X121.088 Y136.618 E6.56148
G1 X120.642 Y136.695 E6.57653
G1 X120.205 Y136.761 E6.59123
G1 X119.721 Y136.823 E6.60746
G1 X119.318 Y136.865 E6.62094
G1 X118.805 Y136.906 E6.63805
