;FLAVOR:Marlin
;TIME:9468
;Filament used: 7.48419m
;Layer height: 0.28
;MINX:21.808
;MINY:17.529
;MINZ:0.28
;MAXX:209.187
;MAXY:217.465
;MAXZ:1.96
;Generated with Cura_SteamEngine 4.6.1
M140 S60
M105
M190 S60
M104 S210
M105
M109 S210
M82 ;absolute extrusion mode
; Ender 3 Custom Start G-code
G92 E0 ; Reset Extruder
G28 ; Home all axes
G1 Z2.0 F3000 ; Move Z Axis up little to prevent scratching of Heat Bed
G1 X0.1 Y20 Z0.3 F5000.0 ; Move to start position
G1 X0.1 Y200.0 Z0.3 F1500.0 E15 ; Draw the first line
G1 X0.4 Y200.0 Z0.3 F5000.0 ; Move to side a little
G1 X0.4 Y20 Z0.3 F1500.0 E30 ; Draw the second line
G92 E0 ; Reset Extruder
G1 Z2.0 F3000 ; Move Z Axis up little to prevent scratching of Heat Bed
G1 X5 Y20 Z0.3 F5000.0 ; Move over to prevent blob squish
G92 E0
G92 E0
G1 F2700 E-5
;LAYER_COUNT:7
;LAYER:0
M107
G0 F6000 X54.362 Y215.28 Z0.28
;TYPE:SKIRT
G1 F2700 E0
G1 F1200 X51.917 Y215.718 E0.11566
G1 X51.024 Y215.838 E0.15762
G1 X50.172 Y215.914 E0.19745
G1 X47.554 Y216.156 E0.31987
G1 X45.028 Y216.462 E0.43835
G1 X42.486 Y216.843 E0.55804
G1 X39.944 Y217.297 E0.67828
G1 X39.049 Y217.416 E0.72032
G1 X38.33 Y217.454 E0.75385
G1 X37.767 Y217.464 E0.78007
G1 X37.179 Y217.46 E0.80745
G1 X36.277 Y217.405 E0.84953
G1 X35.385 Y217.269 E0.89154
G1 X34.897 Y217.161 E0.91482
G1 X34.386 Y217.034 E0.93933
G1 X33.843 Y216.886 E0.96554
G1 X32.986 Y216.603 E1.00757
G1 X32.157 Y216.244 E1.04963
G1 X31.685 Y216 E1.07437
G1 X31.143 Y215.701 E1.1032
G1 X30.703 Y215.445 E1.1269
G1 X29.948 Y214.949 E1.16896
G1 X29.24 Y214.388 E1.21103
G1 X28.837 Y214.019 E1.23647
G1 X28.454 Y213.649 E1.26127
G1 X28.054 Y213.244 E1.28777
G1 X27.454 Y212.57 E1.32979
G1 X26.916 Y211.844 E1.37187
G1 X26.631 Y211.398 E1.39651
G1 X26.351 Y210.933 E1.42179
G1 X26.067 Y210.435 E1.44848
G1 X25.663 Y209.627 E1.49055
G1 X25.331 Y208.787 E1.53261
G1 X25.177 Y208.299 E1.55643
G1 X25.013 Y207.731 E1.58396
G1 X24.864 Y207.16 E1.61144
G1 X24.69 Y206.314 E1.65166
G1 X24.565 Y205.477 E1.69106
G1 X21.972 Y185.765 E2.61685
G1 X21.886 Y185.038 E2.65093
G1 X21.821 Y184.19 E2.69054
G1 X21.813 Y183.957 E2.70139
G1 X21.808 Y183.45 E2.725
G1 X21.816 Y182.929 E2.74926
G1 X21.87 Y182.028 E2.79129
G1 X22.003 Y181.135 E2.83333
G1 X22.117 Y180.621 E2.85785
G1 X22.255 Y180.067 E2.88443
G1 X22.34 Y179.748 E2.89981
G1 X22.727 Y178.384 E2.96583
G1 X23.382 Y175.943 E3.08351
G1 X23.974 Y173.459 E3.20242
G1 X24.496 Y170.963 E3.32115
G1 X24.943 Y168.454 E3.43982
G1 X25.316 Y165.979 E3.55637
G1 X25.624 Y163.435 E3.6757
G1 X25.858 Y160.915 E3.79354
G1 X26.022 Y158.369 E3.91234
G1 X26.112 Y155.863 E4.02911
G1 X26.132 Y153.293 E4.14878
G1 X26.08 Y150.768 E4.26638
G1 X25.953 Y148.193 E4.38643
G1 X25.873 Y147.118 E4.43662
G1 X25.821 Y146.188 E4.47999
G1 X25.813 Y145.953 E4.49094
G1 X25.808 Y145.455 E4.51413
G1 X25.816 Y144.916 E4.53923
G1 X25.869 Y144.014 E4.58131
G1 X25.937 Y143.495 E4.60568
G1 X26.137 Y142.215 E4.66601
G1 X26.242 Y141.596 E4.69524
G1 X26.589 Y139.145 E4.81051
G1 X26.879 Y136.573 E4.93103
G1 X27.089 Y134.068 E5.04808
G1 X27.23 Y131.53 E5.16644
G1 X27.299 Y128.996 E5.28448
G1 X27.296 Y126.457 E5.40271
G1 X27.222 Y123.897 E5.52196
G1 X27.076 Y121.365 E5.64006
G1 X26.859 Y118.854 E5.75742
G1 X26.534 Y116.049 E5.8889
G1 X25.964 Y111.711 E6.09264
G1 X25.884 Y111.029 E6.12461
G1 X25.821 Y110.188 E6.16388
G1 X25.813 Y109.953 E6.17483
G1 X25.808 Y109.454 E6.19807
G1 X25.816 Y108.916 E6.22312
G1 X25.87 Y108.015 E6.26515
G1 X25.937 Y107.497 E6.28947
G1 X26.137 Y106.215 E6.34989
G1 X26.242 Y105.596 E6.37912
G1 X26.589 Y103.145 E6.49439
G1 X26.879 Y100.573 E6.61491
G1 X27.089 Y98.068 E6.73196
G1 X27.23 Y95.53 E6.85033
G1 X27.299 Y92.996 E6.96836
G1 X27.296 Y90.457 E7.08659
G1 X27.222 Y87.897 E7.20585
G1 X27.076 Y85.365 E7.32394
G1 X26.859 Y82.854 E7.4413
G1 X26.534 Y80.049 E7.57279
G1 X25.964 Y75.711 E7.77652
G1 X25.884 Y75.029 E7.80849
G1 X25.817 Y74.065 E7.85349
G1 X25.805 Y73.398 E7.88455
G1 X25.802 Y71.174 E7.98811
G1 X25.729 Y68.602 E8.10792
G1 X25.586 Y66.107 E8.22429
G1 X25.368 Y63.554 E8.3436
G1 X25.083 Y61.059 E8.46053
G1 X24.572 Y57.526 E8.62676
G1 X21.97 Y37.756 E9.55527
G1 X21.884 Y37.023 E9.58964
G1 X21.821 Y36.175 E9.62923
G1 X21.813 Y35.936 E9.64037
G1 X21.808 Y35.435 E9.6637
G1 X21.816 Y34.925 E9.68745
G1 X21.87 Y34.024 E9.72948
G1 X22.004 Y33.13 E9.77157
G1 X22.12 Y32.611 E9.79633
G1 X22.338 Y31.756 E9.83742
G1 X22.396 Y31.551 E9.84734
G1 X22.68 Y30.694 E9.88938
G1 X23.039 Y29.865 E9.93145
G1 X23.279 Y29.402 E9.95573
G1 X23.536 Y28.936 E9.98051
G1 X23.839 Y28.417 E10.00849
G1 X24.337 Y27.664 E10.05053
G1 X24.899 Y26.957 E10.09258
G1 X25.262 Y26.561 E10.1176
G1 X26.039 Y25.773 E10.16913
G1 X26.715 Y25.174 E10.21119
G1 X27.441 Y24.636 E10.25326
G1 X27.879 Y24.357 E10.27744
G1 X28.344 Y24.077 E10.30272
G1 X28.83 Y23.799 E10.32879
G1 X29.637 Y23.394 E10.37083
G1 X30.477 Y23.062 E10.41289
G1 X30.977 Y22.904 E10.43731
G1 X31.57 Y22.733 E10.46605
G1 X32.218 Y22.567 E10.49719
G1 X33.104 Y22.395 E10.53922
G1 X33.815 Y22.315 E10.57254
G1 X34.405 Y22.269 E10.60009
G1 X36.948 Y22.037 E10.719
G1 X39.461 Y21.735 E10.83685
G1 X41.977 Y21.361 E10.9553
G1 X44.623 Y20.889 E11.08045
G1 X45.54 Y20.768 E11.12352
G1 X46.413 Y20.693 E11.16432
G1 X48.99 Y20.454 E11.28483
G1 X51.567 Y20.14 E11.40572
G1 X54.03 Y19.77 E11.52169
G1 X56.505 Y19.326 E11.63878
G1 X57.433 Y19.203 E11.68237
G1 X58.307 Y19.128 E11.72321
G1 X60.883 Y18.889 E11.84368
G1 X63.46 Y18.575 E11.96456
G1 X65.928 Y18.204 E12.08077
G1 X68.458 Y17.752 E12.20044
G1 X69.353 Y17.633 E12.24249
G1 X70.056 Y17.595 E12.27527
G1 X70.576 Y17.585 E12.29949
G1 X71.199 Y17.588 E12.3285
G1 X72.05 Y17.636 E12.36819
G1 X73.248 Y17.754 E12.42424
G1 X73.815 Y17.818 E12.45081
G1 X76.313 Y18.031 E12.56755
G1 X78.874 Y18.176 E12.68699
G1 X81.408 Y18.248 E12.80503
G1 X83.941 Y18.248 E12.92298
G1 X86.485 Y18.176 E13.04149
G1 X89.03 Y18.033 E13.16018
G1 X91.565 Y17.817 E13.27865
G1 X93.549 Y17.599 E13.37159
G1 X94.308 Y17.544 E13.40702
G1 X94.567 Y17.535 E13.41909
G1 X94.921 Y17.529 E13.43557
G1 X131.775 Y17.529 E15.15165
G1 X132.473 Y17.539 E15.18416
G1 X133.318 Y17.586 E15.22356
G1 X134.349 Y17.688 E15.2718
G1 X135.926 Y17.859 E15.34567
G1 X138.463 Y18.061 E15.46417
G1 X141.04 Y18.193 E15.58433
G1 X143.536 Y18.25 E15.70058
G1 X146.106 Y18.237 E15.82025
G1 X148.638 Y18.152 E15.93822
G1 X151.152 Y17.996 E16.05551
G1 X153.829 Y17.753 E16.18067
G1 X154.8 Y17.65 E16.22614
G1 X155.683 Y17.596 E16.26733
G1 X156.278 Y17.585 E16.29504
G1 X156.878 Y17.588 E16.32298
G1 X157.779 Y17.643 E16.36502
G1 X158.562 Y17.757 E16.40186
G1 X159.189 Y17.873 E16.43155
G1 X161.794 Y18.318 E16.55461
G1 X164.334 Y18.679 E16.67407
G1 X166.859 Y18.966 E16.7924
G1 X169.474 Y19.189 E16.91461
G1 X170.474 Y19.324 E16.96159
G1 X171.137 Y19.447 E16.99299
G1 X173.692 Y19.884 E17.11369
G1 X176.232 Y20.245 E17.23315
G1 X178.757 Y20.532 E17.35149
G1 X181.372 Y20.755 E17.47369
G1 X182.373 Y20.89 E17.52073
G1 X183.065 Y21.019 E17.5535
G1 X185.596 Y21.453 E17.67308
G1 X188.105 Y21.81 E17.79108
G1 X190.657 Y22.1 E17.91068
G1 X193.238 Y22.319 E18.03129
G1 X194.133 Y22.435 E18.07332
G1 X194.849 Y22.587 E18.1074
G1 X195.668 Y22.796 E18.14676
G1 X195.902 Y22.862 E18.15808
G1 X196.759 Y23.145 E18.2001
G1 X197.588 Y23.504 E18.24217
G1 X198.058 Y23.747 E18.26681
G1 X198.593 Y24.042 E18.29526
G1 X199.053 Y24.31 E18.32005
G1 X199.807 Y24.807 E18.3621
G1 X200.514 Y25.368 E18.40412
G1 X200.909 Y25.73 E18.42907
G1 X201.501 Y26.308 E18.4676
G1 X201.669 Y26.48 E18.47879
G1 X202.271 Y27.153 E18.52084
G1 X202.811 Y27.877 E18.56289
G1 X203.117 Y28.357 E18.5894
G1 X203.422 Y28.865 E18.61699
G1 X203.697 Y29.349 E18.64291
G1 X204.099 Y30.158 E18.68498
G1 X204.427 Y30.999 E18.72701
G1 X204.57 Y31.454 E18.74922
G1 X204.798 Y32.26 E18.78822
G1 X204.862 Y32.511 E18.80028
G1 X205.046 Y33.395 E18.84233
G1 X205.151 Y34.292 E18.88438
G1 X205.176 Y34.85 E18.91039
G1 X205.187 Y35.722 E18.951
G1 X205.184 Y35.962 E18.96217
G1 X205.16 Y36.55 E18.98958
G1 X205.09 Y37.546 E19.03607
G1 X204.946 Y40.071 E19.15384
G1 X204.874 Y42.63 E19.27304
G1 X204.874 Y45.164 E19.39103
G1 X204.946 Y47.704 E19.50935
G1 X205.089 Y50.254 E19.62828
G1 X205.303 Y52.76 E19.74539
G1 X205.594 Y55.321 E19.86541
G1 X205.946 Y57.8 E19.982
G1 X206.377 Y60.312 E20.10068
G1 X206.869 Y62.768 E20.21731
G1 X207.441 Y65.259 E20.33633
G1 X208.375 Y68.768 E20.50541
G1 X208.802 Y70.273 E20.57825
G1 X208.867 Y70.53 E20.5906
G1 X209.049 Y71.414 E20.63262
G1 X209.153 Y72.312 E20.67472
G1 X209.176 Y72.853 E20.69993
G1 X209.187 Y73.741 E20.74128
G1 X209.184 Y73.966 E20.75176
G1 X209.14 Y74.787 E20.79005
G1 X209.117 Y75.031 E20.80146
G1 X209.075 Y75.402 E20.81884
G1 X208.468 Y80.02 E21.03573
G1 X208.166 Y82.593 E21.15636
G1 X207.94 Y85.144 E21.27561
G1 X207.788 Y87.651 E21.39256
G1 X207.706 Y90.211 E21.51182
G1 X207.697 Y92.746 E21.62987
G1 X207.759 Y95.285 E21.74813
G1 X207.893 Y97.812 E21.86596
G1 X208.1 Y100.368 E21.98537
G1 X208.373 Y102.851 E22.10168
G1 X208.905 Y106.53 E22.27478
G1 X209.041 Y107.349 E22.31343
G1 X209.149 Y108.245 E22.35546
G1 X209.177 Y108.842 E22.38329
G1 X209.187 Y109.432 E22.41076
G1 X209.184 Y109.966 E22.43563
G1 X209.14 Y110.787 E22.47391
G1 X209.117 Y111.031 E22.48532
G1 X209.075 Y111.402 E22.50271
G1 X208.468 Y116.02 E22.71959
G1 X208.166 Y118.593 E22.84023
G1 X207.94 Y121.144 E22.95948
G1 X207.788 Y123.651 E23.07643
G1 X207.706 Y126.211 E23.19569
G1 X207.697 Y128.746 E23.31373
G1 X207.759 Y131.285 E23.432
G1 X207.893 Y133.812 E23.54983
G1 X208.1 Y136.368 E23.66924
G1 X208.373 Y138.851 E23.78555
G1 X208.905 Y142.53 E23.95864
G1 X209.041 Y143.349 E23.9973
G1 X209.149 Y144.245 E24.03932
G1 X209.177 Y144.842 E24.06715
G1 X209.187 Y145.432 E24.09463
G1 X209.184 Y145.967 E24.11954
G1 X209.139 Y146.797 E24.15825
G1 X209.047 Y147.636 E24.19755
G1 X206.435 Y167.464 E25.1288
G1 X206.14 Y169.488 E25.22404
G1 X205.794 Y172.116 E25.34747
G1 X205.537 Y174.628 E25.46505
G1 X205.346 Y177.186 E25.58449
G1 X205.231 Y179.705 E25.70191
G1 X205.188 Y182.235 E25.81973
G1 X205.193 Y183.369 E25.87254
G1 X205.184 Y183.982 E25.90109
G1 X205.139 Y184.797 E25.93909
G1 X205.049 Y185.617 E25.9775
G1 X202.437 Y205.453 E26.90913
G1 X202.334 Y206.158 E26.9423
G1 X202.176 Y206.994 E26.98192
G1 X202.119 Y207.239 E26.99363
G1 X202.007 Y207.674 E27.01455
G1 X201.872 Y208.157 E27.0379
G1 X201.591 Y209.015 E27.07994
G1 X201.235 Y209.845 E27.12199
G1 X200.969 Y210.357 E27.14886
G1 X200.528 Y211.143 E27.19083
G1 X200.425 Y211.316 E27.2002
G1 X199.929 Y212.071 E27.24227
G1 X199.369 Y212.779 E27.2843
G1 X198.997 Y213.185 E27.30994
G1 X198.627 Y213.568 E27.33474
G1 X198.222 Y213.968 E27.36124
G1 X197.548 Y214.568 E27.40326
G1 X196.822 Y215.106 E27.44534
G1 X196.376 Y215.391 E27.46998
G1 X195.911 Y215.671 E27.49526
G1 X195.425 Y215.949 E27.52133
G1 X194.618 Y216.354 E27.56337
G1 X193.778 Y216.686 E27.60543
G1 X193.278 Y216.844 E27.62985
G1 X192.685 Y217.015 E27.65858
G1 X192.161 Y217.152 E27.6838
G1 X191.276 Y217.332 E27.72586
G1 X190.378 Y217.434 E27.76794
G1 X189.867 Y217.455 E27.79176
G1 X189.032 Y217.465 E27.83064
G1 X188.749 Y217.461 E27.84382
G1 X187.847 Y217.408 E27.88589
G1 X187.052 Y217.294 E27.92329
G1 X186.431 Y217.18 E27.95269
G1 X183.773 Y216.725 E28.07826
G1 X181.264 Y216.368 E28.19626
G1 X178.754 Y216.084 E28.31388
G1 X176.132 Y215.86 E28.43642
G1 X175.141 Y215.726 E28.48299
G1 X174.505 Y215.608 E28.51311
G1 X171.912 Y215.165 E28.6356
G1 X169.372 Y214.804 E28.75506
G1 X166.847 Y214.517 E28.87339
G1 X164.232 Y214.294 E28.9956
G1 X163.231 Y214.159 E29.04263
G1 X162.539 Y214.03 E29.07541
G1 X160.008 Y213.596 E29.19498
G1 X157.499 Y213.239 E29.31299
G1 X154.95 Y212.949 E29.43244
G1 X152.356 Y212.729 E29.55367
G1 X151.461 Y212.613 E29.59569
G1 X150.751 Y212.463 E29.62948
G1 X149.93 Y212.253 E29.66894
G1 X149.685 Y212.184 E29.68079
G1 X148.845 Y211.908 E29.72196
G1 X148.362 Y211.724 E29.74603
G1 X146.49 Y210.989 E29.83968
G1 X144.074 Y210.119 E29.95925
G1 X141.649 Y209.322 E30.07811
G1 X139.262 Y208.611 E30.19408
G1 X136.764 Y207.945 E30.31446
G1 X134.307 Y207.363 E30.43204
G1 X131.814 Y206.846 E30.55059
G1 X129.325 Y206.404 E30.6683
G1 X126.787 Y206.026 E30.78779
G1 X124.305 Y205.728 E30.90419
G1 X121.759 Y205.496 E31.02323
G1 X119.219 Y205.336 E31.14174
G1 X116.64 Y205.246 E31.2619
G1 X114.872 Y205.228 E31.34423
G1 X112.274 Y205.227 E31.46521
G1 X109.667 Y205.263 E31.58661
G1 X107.136 Y205.37 E31.70457
G1 X104.594 Y205.549 E31.82323
G1 X102.053 Y205.8 E31.94212
G1 X99.562 Y206.118 E32.05906
G1 X97.026 Y206.514 E32.17857
G1 X94.537 Y206.976 E32.29645
G1 X92.052 Y207.511 E32.41482
G1 X89.602 Y208.11 E32.53226
G1 X87.139 Y208.787 E32.6512
G1 X84.723 Y209.525 E32.76883
G1 X82.311 Y210.338 E32.88735
G1 X79.93 Y211.216 E33.00552
G1 X79.487 Y211.393 E33.02773
G1 X78.319 Y211.845 E33.08605
G1 X77.454 Y212.135 E33.12853
G1 X76.817 Y212.318 E33.15939
G1 X76.244 Y212.467 E33.18696
G1 X75.358 Y212.644 E33.22903
G1 X74.592 Y212.733 E33.26494
G1 X74.033 Y212.776 E33.29105
G1 X71.423 Y213.014 E33.41308
G1 X68.919 Y213.315 E33.53052
G1 X66.411 Y213.688 E33.64859
G1 X63.799 Y214.154 E33.77213
G1 X62.91 Y214.273 E33.8139
G1 X62.033 Y214.351 E33.85489
G1 X59.424 Y214.593 E33.9769
G1 X56.859 Y214.905 E34.09722
G1 X54.362 Y215.28 E34.21479
G1 F2700 E29.21479
;MESH:Surgical_Mask_Strap_Remix.stl(4)
G0 F6000 X36.32 Y207.689
G0 X35.49 Y207.209
G0 X34.813 Y206.532
G0 X34.334 Y205.702
G0 X34.097 Y204.819
G0 X31.341 Y183.884
G0 X35.341 Y72.971
G0 X35.59 Y72.046
G0 X36.068 Y71.216
G0 X36.745 Y70.539
G0 X37.575 Y70.059
G0 X38.501 Y69.812
G0 X74.194 Y65.113
G0 X75.151 Y65.113
G0 X76.076 Y65.36
G0 X76.907 Y65.84
G0 X77.584 Y66.517
G0 X89.397 Y70.334
G0 X96.275 Y41.882
G0 X96.437 Y43.328
G0 X130.915 Y43.134
;TYPE:WALL-INNER
G1 F2700 E34.21479
G1 F1200 X130.97 Y43.141 E34.21738
G1 X131.147 Y43.141 E34.22562
G1 X131.347 Y43.121 E34.23498
G1 X131.551 Y43.071 E34.24476
G1 X131.765 Y42.987 E34.25546
G1 X131.924 Y42.898 E34.26395
G1 X132.088 Y42.78 E34.27335
G1 X132.237 Y42.64 E34.28287
G1 X132.368 Y42.483 E34.2924
G1 X132.477 Y42.307 E34.30204
G1 X132.563 Y42.125 E34.31141
G1 X132.626 Y41.928 E34.32104
G1 X132.667 Y41.697 E34.33196
G1 X132.67 Y41.517 E34.34035
G1 X132.66 Y41.321 E34.34949
G1 X132.61 Y41.089 E34.36054
G1 X132.568 Y40.974 E34.36624
G1 X132.168 Y39.859 E34.4214
G1 X129.69 Y32.91 E34.76493
G1 X129.599 Y32.729 E34.77436
G1 X129.486 Y32.56 E34.78383
G1 X129.351 Y32.405 E34.7934
G1 X129.197 Y32.269 E34.80297
G1 X129.028 Y32.154 E34.81248
G1 X128.843 Y32.062 E34.82211
G1 X128.653 Y31.995 E34.83149
G1 X128.418 Y31.943 E34.84269
G1 X128.177 Y31.936 E34.85392
G1 X99.238 Y31.936 E36.20144
G1 X99.115 Y31.929 E36.20718
G1 X98.913 Y31.941 E36.2166
G1 X98.739 Y31.977 E36.22487
G1 X98.546 Y32.034 E36.23425
G1 X98.336 Y32.133 E36.24506
G1 X98.182 Y32.232 E36.25358
G1 X98.026 Y32.36 E36.26298
G1 X97.887 Y32.509 E36.27247
G1 X97.765 Y32.675 E36.28206
G1 X97.665 Y32.861 E36.29189
G1 X97.601 Y33.032 E36.30039
G1 X94.726 Y41.072 E36.69798
G1 X94.679 Y41.265 E36.70723
G1 X94.657 Y41.461 E36.71642
G1 X94.656 Y41.667 E36.72601
G1 X94.69 Y41.9 E36.73698
G1 X94.743 Y42.079 E36.74567
G1 X94.822 Y42.261 E36.75491
G1 X94.922 Y42.437 E36.76433
G1 X95.048 Y42.602 E36.774
G1 X95.194 Y42.748 E36.78361
G1 X95.356 Y42.873 E36.79314
G1 X95.533 Y42.977 E36.8027
G1 X95.722 Y43.057 E36.81226
G1 X95.918 Y43.113 E36.82175
G1 X96.12 Y43.143 E36.83126
G1 X96.322 Y43.147 E36.84067
G1 X96.428 Y43.137 E36.84562
G1 X130.915 Y43.134 E38.45148
G0 F6000 X130.942 Y42.734
;TYPE:WALL-OUTER
G1 F1200 X130.996 Y42.741 E38.45402
G1 X131.127 Y42.741 E38.46012
G1 X131.279 Y42.726 E38.46723
G1 X131.43 Y42.689 E38.47447
G1 X131.593 Y42.625 E38.48262
G1 X131.709 Y42.56 E38.48882
G1 X131.833 Y42.471 E38.49592
G1 X131.945 Y42.365 E38.5031
G1 X132.043 Y42.248 E38.51021
G1 X132.125 Y42.116 E38.51745
G1 X132.19 Y41.978 E38.52455
G1 X132.237 Y41.831 E38.53173
G1 X132.268 Y41.658 E38.53992
G1 X132.27 Y41.525 E38.54611
G1 X132.262 Y41.374 E38.55315
G1 X132.225 Y41.201 E38.56139
G1 X132.191 Y41.109 E38.56596
G1 X131.791 Y39.994 E38.62112
G1 X129.322 Y33.068 E38.9635
G1 X129.253 Y32.931 E38.97064
G1 X129.168 Y32.804 E38.97776
