;FLAVOR:Marlin
;TIME:13287
;Filament used: 13.716m
;Layer height: 0.28
;MINX:20.004
;MINY:94.283
;MINZ:0.28
;MAXX:214.996
;MAXY:140.717
;MAXZ:29.96
;Generated with Cura_SteamEngine 4.7.0
M140 S55
M105
M190 S55
M104 S210
M105
M109 S210
M82 ;absolute extrusion mode
; Ender 3 Custom Start G-code
G92 E0 ; Reset Extruder
G28 ; Home all axes
G1 Z2.0 F3000 ; Move Z Axis up little to prevent scratching of Heat Bed
G1 X0.1 Y20 Z0.3 F5000.0 ; Move to start position
G1 X0.1 Y200.0 Z0.3 F1500.0 E15 ; Draw the first line
G1 X0.4 Y200.0 Z0.3 F5000.0 ; Move to side a little
G1 X0.4 Y20 Z0.3 F1500.0 E30 ; Draw the second line
G92 E0 ; Reset Extruder
G1 Z2.0 F3000 ; Move Z Axis up little to prevent scratching of Heat Bed
G1 X5 Y20 Z0.3 F5000.0 ; Move over to prevent blob squish
G92 E0
G92 E0
G1 F2700 E-5
;LAYER_COUNT:107
;LAYER:0
M107
G0 F6000 X28.991 Y94.734 Z0.28
;TYPE:SKIRT
G1 F2700 E0
G1 F1200 X29.903 Y94.512 E0.04371
G1 X30.829 Y94.369 E0.08734
G1 X31.843 Y94.303 E0.13465
G1 X32.81 Y94.285 E0.17969
G1 X33.006 Y94.283 E0.18881
G1 X34.441 Y94.283 E0.25563
G1 X35.112 Y94.293 E0.28688
G1 X36.048 Y94.347 E0.33054
G1 X37.295 Y94.545 E0.38933
G1 X37.46 Y94.581 E0.3972
G1 X39.96 Y95.082 E0.51592
G1 X42.465 Y95.51 E0.63425
G1 X44.964 Y95.864 E0.75178
G1 X47.442 Y96.144 E0.8679
G1 X49.978 Y96.359 E0.98641
G1 X52.437 Y96.497 E1.10109
G1 X56.35 Y96.579 E1.28334
G1 X96.656 Y96.579 E3.16015
G1 X165.109 Y96.58 E6.34761
G1 X201.401 Y96.581 E8.03752
G1 X202.099 Y96.591 E8.07003
G1 X203.035 Y96.645 E8.11368
G1 X203.963 Y96.777 E8.15733
G1 X204.877 Y96.989 E8.20102
G1 X205.769 Y97.278 E8.24468
G1 X206.634 Y97.641 E8.28836
G1 X207.464 Y98.077 E8.33202
G1 X208.255 Y98.582 E8.37571
G1 X209.123 Y99.258 E8.42694
G1 X209.297 Y99.408 E8.43764
G1 X209.981 Y100.051 E8.48135
G1 X210.789 Y100.975 E8.53851
G1 X210.867 Y101.075 E8.54441
G1 X211.411 Y101.838 E8.58805
G1 X211.889 Y102.645 E8.63172
G1 X212.24 Y103.361 E8.66885
G1 X212.364 Y103.639 E8.68303
G1 X213.439 Y105.971 E8.8026
G1 X213.655 Y106.412 E8.82546
G1 X213.747 Y106.605 E8.83542
G1 X213.944 Y107.027 E8.8571
G1 X214.305 Y107.893 E8.90079
G1 X214.59 Y108.786 E8.94444
G1 X214.771 Y109.563 E8.98159
G1 X214.781 Y109.614 E8.98401
G1 X214.923 Y110.542 E9.02772
G1 X214.986 Y111.586 E9.07643
G1 X214.996 Y112.414 E9.11498
G1 X214.995 Y122.726 E9.59515
G1 X214.985 Y123.431 E9.62798
G1 X214.932 Y124.367 E9.67164
G1 X214.799 Y125.296 E9.71534
G1 X214.598 Y126.169 E9.75705
G1 X214.586 Y126.213 E9.75918
G1 X214.301 Y127.107 E9.80287
G1 X213.939 Y127.976 E9.8467
G1 X213.507 Y128.9 E9.8942
G1 X213.107 Y129.724 E9.93685
G1 X212.358 Y131.386 E10.02173
G1 X212.15 Y131.832 E10.04465
G1 X211.715 Y132.663 E10.08833
G1 X211.212 Y133.454 E10.13197
G1 X210.831 Y133.967 E10.16173
G1 X210.671 Y134.17 E10.17376
G1 X210.06 Y134.881 E10.21742
G1 X209.39 Y135.538 E10.26111
G1 X208.667 Y136.135 E10.30477
G1 X207.895 Y136.668 E10.34845
G1 X206.911 Y137.22 E10.40099
G1 X206.812 Y137.269 E10.40613
G1 X205.955 Y137.648 E10.44977
G1 X205.068 Y137.954 E10.49346
G1 X204.159 Y138.182 E10.5371
G1 X203.233 Y138.333 E10.58078
G1 X202.268 Y138.405 E10.62584
G1 X201.973 Y138.414 E10.63959
G1 X201.638 Y138.419 E10.65519
G1 X141.344 Y138.421 E13.46273
G1 X72.891 Y138.42 E16.65019
G1 X56.307 Y138.42 E17.42241
G1 X53.699 Y138.457 E17.54386
G1 X51.178 Y138.564 E17.66135
G1 X48.683 Y138.741 E17.77782
G1 X46.183 Y138.989 E17.89481
G1 X43.69 Y139.308 E18.01184
G1 X41.197 Y139.699 E18.12934
G1 X38.699 Y140.164 E18.24766
G1 X37.559 Y140.405 E18.30191
G1 X37.061 Y140.502 E18.32554
G1 X36.134 Y140.64 E18.36918
G1 X35.175 Y140.699 E18.41392
G1 X34.273 Y140.715 E18.45592
G1 X34.086 Y140.717 E18.46463
G1 X32.576 Y140.717 E18.53494
G1 X31.921 Y140.708 E18.56545
G1 X30.984 Y140.655 E18.60915
G1 X30.056 Y140.523 E18.65279
G1 X29.142 Y140.312 E18.69647
G1 X28.25 Y140.024 E18.74012
G1 X27.363 Y139.65 E18.78494
G1 X27.287 Y139.614 E18.78886
G1 X26.457 Y139.177 E18.83254
G1 X25.668 Y138.671 E18.87618
G1 X24.924 Y138.099 E18.91988
G1 X24.232 Y137.466 E18.96355
G1 X23.565 Y136.738 E19.00953
G1 X23.353 Y136.485 E19.0249
G1 X22.782 Y135.741 E19.06857
G1 X22.276 Y134.951 E19.11225
G1 X21.839 Y134.121 E19.15593
G1 X21.475 Y133.257 E19.19958
G1 X21.186 Y132.365 E19.24325
G1 X21.019 Y131.682 E19.27599
G1 X20.759 Y130.443 E19.33494
G1 X20.539 Y129.467 E19.38152
G1 X20.257 Y128.148 E19.44433
G1 X20.1 Y127.223 E19.48802
G1 X20.031 Y126.458 E19.52378
G1 X20.013 Y125.952 E19.54736
G1 X20.004 Y125.182 E19.58322
G1 X20.005 Y119.908 E19.8288
G1 X20.017 Y119.044 E19.86903
G1 X20.018 Y117.493 E19.94125
G1 X20.024 Y117.353 E19.94778
G1 X20.017 Y116.139 E20.00431
G1 X20.004 Y115.005 E20.05711
G1 X20.005 Y109.69 E20.3046
G1 X20.016 Y108.984 E20.33748
G1 X20.071 Y108.047 E20.38119
G1 X20.258 Y106.856 E20.43732
G1 X20.512 Y105.669 E20.49385
G1 X20.572 Y105.352 E20.50887
G1 X20.953 Y103.65 E20.59008
G1 X21.001 Y103.41 E20.60148
G1 X21.224 Y102.499 E20.64515
G1 X21.524 Y101.61 E20.68884
G1 X21.899 Y100.75 E20.73253
G1 X22.346 Y99.926 E20.77618
G1 X22.861 Y99.142 E20.81986
G1 X23.239 Y98.648 E20.84882
G1 X23.431 Y98.411 E20.86302
G1 X24.052 Y97.708 E20.9067
G1 X24.73 Y97.06 E20.95037
G1 X25.461 Y96.473 E20.99403
G1 X26.24 Y95.95 E21.03772
G1 X27.172 Y95.44 E21.08719
G1 X27.242 Y95.406 E21.09081
G1 X28.102 Y95.033 E21.13446
G1 X28.991 Y94.734 E21.17814
G0 F6000 X29.135 Y95.109
G1 F1200 X30.03 Y94.895 E21.22098
G1 X30.941 Y94.759 E21.26387
G1 X31.851 Y94.703 E21.30633
G1 X32.818 Y94.685 E21.35136
G1 X33.007 Y94.683 E21.36016
G1 X34.435 Y94.683 E21.42666
G1 X35.106 Y94.693 E21.45791
G1 X36.025 Y94.747 E21.50077
G1 X37.21 Y94.936 E21.55665
G1 X37.419 Y94.982 E21.56661
G1 X39.846 Y95.468 E21.68187
G1 X42.414 Y95.906 E21.80317
G1 X44.899 Y96.259 E21.92005
G1 X47.434 Y96.545 E22.03884
G1 X49.956 Y96.759 E22.15669
G1 X52.407 Y96.896 E22.271
G1 X56.341 Y96.979 E22.45422
G1 X96.656 Y96.979 E24.33146
G1 X165.109 Y96.98 E27.51892
G1 X201.395 Y96.981 E29.20855
G1 X202.093 Y96.991 E29.24105
G1 X203.012 Y97.044 E29.28391
G1 X203.923 Y97.177 E29.32678
G1 X204.819 Y97.388 E29.36965
G1 X205.693 Y97.676 E29.4125
G1 X206.54 Y98.039 E29.45541
G1 X207.351 Y98.474 E29.49826
G1 X208.121 Y98.978 E29.54111
G1 X208.862 Y99.561 E29.58501
G1 X209.036 Y99.711 E29.59571
G1 X209.707 Y100.342 E29.6386
G1 X210.473 Y101.221 E29.69289
G1 X210.551 Y101.321 E29.6988
G1 X211.085 Y102.071 E29.74167
G1 X211.552 Y102.864 E29.78452
G1 X211.874 Y103.523 E29.81867
G1 X211.991 Y103.785 E29.83203
G1 X213.091 Y106.171 E29.95437
G1 X213.296 Y106.589 E29.97605
G1 X213.385 Y106.774 E29.98561
G1 X213.582 Y107.196 E30.0073
G1 X213.935 Y108.047 E30.0502
G1 X214.213 Y108.924 E30.09304
G1 X214.379 Y109.64 E30.12726
G1 X214.389 Y109.691 E30.12968
G1 X214.527 Y110.602 E30.17259
G1 X214.586 Y111.591 E30.21872
G1 X214.596 Y112.414 E30.25704
G1 X214.595 Y122.72 E30.73694
G1 X214.585 Y123.425 E30.76977
G1 X214.532 Y124.344 E30.81263
G1 X214.399 Y125.256 E30.85555
G1 X214.212 Y126.064 E30.89416
G1 X214.2 Y126.108 E30.89629
G1 X213.92 Y126.985 E30.93916
G1 X213.577 Y127.807 E30.98063
G1 X213.147 Y128.725 E31.02783
G1 X212.74 Y129.564 E31.07125
G1 X211.926 Y131.368 E31.16341
G1 X211.788 Y131.662 E31.17853
G1 X211.36 Y132.478 E31.22144
G1 X210.864 Y133.253 E31.26429
G1 X210.517 Y133.72 E31.29138
G1 X210.357 Y133.923 E31.30341
G1 X209.756 Y134.62 E31.34627
G1 X209.097 Y135.263 E31.38914
G1 X208.385 Y135.846 E31.43199
G1 X207.625 Y136.366 E31.47487
G1 X206.734 Y136.861 E31.52233
G1 X206.635 Y136.91 E31.52747
G1 X205.793 Y137.282 E31.57034
G1 X204.922 Y137.58 E31.6132
G1 X204.028 Y137.801 E31.65608
G1 X203.118 Y137.943 E31.69897
G1 X202.256 Y138.005 E31.73921
G1 X201.961 Y138.014 E31.75295
G1 X201.638 Y138.019 E31.768
G1 X141.344 Y138.021 E34.57554
G1 X72.891 Y138.02 E37.763
G1 X56.301 Y138.02 E38.5355
G1 X53.676 Y138.057 E38.65774
G1 X51.168 Y138.164 E38.77463
G1 X48.648 Y138.342 E38.89226
G1 X46.133 Y138.591 E39.00994
G1 X43.644 Y138.91 E39.12679
G1 X41.092 Y139.311 E39.24708
G1 X38.629 Y139.769 E39.36373
G1 X37.287 Y140.052 E39.4276
G1 X36.986 Y140.11 E39.44187
G1 X36.075 Y140.244 E39.48475
G1 X35.168 Y140.299 E39.52706
G1 X34.086 Y140.317 E39.57745
G1 X32.581 Y140.317 E39.64753
G1 X31.926 Y140.308 E39.67803
G1 X31.007 Y140.255 E39.72089
G1 X30.096 Y140.123 E39.76376
G1 X29.2 Y139.912 E39.80662
G1 X28.325 Y139.625 E39.8495
G1 X27.534 Y139.289 E39.88952
G1 X27.458 Y139.253 E39.89343
G1 X26.644 Y138.823 E39.9363
G1 X25.87 Y138.324 E39.97918
G1 X25.143 Y137.76 E40.02203
G1 X24.467 Y137.135 E40.06489
G1 X23.871 Y136.481 E40.1061
G1 X23.659 Y136.228 E40.12147
G1 X23.099 Y135.497 E40.16434
G1 X22.605 Y134.721 E40.20718
G1 X22.179 Y133.904 E40.25008
G1 X21.826 Y133.054 E40.29294
G1 X21.549 Y132.176 E40.33581
G1 X21.411 Y131.6 E40.36339
G1 X21.156 Y130.384 E40.42124
G1 X20.93 Y129.383 E40.46903
G1 X20.648 Y128.064 E40.53183
G1 X20.495 Y127.156 E40.57471
G1 X20.43 Y126.436 E40.60837
G1 X20.413 Y125.947 E40.63116
G1 X20.404 Y125.182 E40.66678
G1 X20.405 Y119.913 E40.91213
G1 X20.417 Y119.05 E40.95232
G1 X20.418 Y117.493 E41.02482
G1 X20.424 Y117.351 E41.03143
G1 X20.417 Y116.137 E41.08796
G1 X20.404 Y115.005 E41.14068
G1 X20.405 Y109.696 E41.38789
G1 X20.416 Y108.99 E41.42077
G1 X20.471 Y108.071 E41.46363
G1 X20.649 Y106.94 E41.51695
G1 X20.942 Y105.567 E41.58232
G1 X20.963 Y105.439 E41.58836
G1 X21.336 Y103.771 E41.66795
G1 X21.393 Y103.488 E41.68139
G1 X21.613 Y102.594 E41.72426
G1 X21.91 Y101.723 E41.76711
G1 X22.281 Y100.88 E41.81
G1 X22.724 Y100.073 E41.85286
G1 X23.235 Y99.308 E41.8957
G1 X23.55 Y98.9 E41.9197
G1 X23.742 Y98.663 E41.9339
G1 X24.352 Y97.973 E41.97679
G1 X25.019 Y97.339 E42.01964
G1 X25.739 Y96.765 E42.06252
G1 X26.506 Y96.256 E42.10538
G1 X27.347 Y95.8 E42.14993
G1 X27.417 Y95.766 E42.15355
G1 X28.262 Y95.4 E42.19643
G1 X29.135 Y95.109 E42.23928
G0 F6000 X29.278 Y95.484
G1 F1200 X30.157 Y95.278 E42.28132
G1 X31.051 Y95.15 E42.32337
G1 X31.858 Y95.103 E42.36101
G1 X32.825 Y95.085 E42.40605
G1 X33.007 Y95.083 E42.41452
G1 X34.429 Y95.083 E42.48074
G1 X35.1 Y95.093 E42.51198
G1 X36.002 Y95.147 E42.55406
G1 X37.124 Y95.327 E42.60697
G1 X37.3 Y95.365 E42.61536
G1 X39.777 Y95.862 E42.733
G1 X42.356 Y96.302 E42.85482
G1 X44.87 Y96.658 E42.97305
G1 X47.356 Y96.94 E43.08955
G1 X49.933 Y97.158 E43.20998
G1 X52.405 Y97.297 E43.32526
G1 X56.333 Y97.379 E43.50821
G1 X96.656 Y97.379 E45.38582
G1 X165.109 Y97.38 E48.57327
G1 X201.389 Y97.381 E50.26262
G1 X202.087 Y97.391 E50.29513
G1 X202.989 Y97.444 E50.3372
G1 X203.882 Y97.576 E50.37924
G1 X204.76 Y97.787 E50.42128
G1 X205.616 Y98.075 E50.46334
G1 X206.443 Y98.437 E50.50537
G1 X207.235 Y98.872 E50.54745
G1 X207.986 Y99.374 E50.58951
G1 X208.601 Y99.864 E50.62613
G1 X208.775 Y100.014 E50.63682
G1 X209.432 Y100.634 E50.67889
G1 X210.158 Y101.467 E50.73034
G1 X210.236 Y101.567 E50.73625
G1 X210.759 Y102.303 E50.77829
G1 X211.215 Y103.082 E50.82032
G1 X211.509 Y103.686 E50.8516
G1 X211.621 Y103.938 E50.86444
G1 X212.734 Y106.352 E50.98822
G1 X213.023 Y106.943 E51.01885
G1 X213.22 Y107.365 E51.04054
G1 X213.565 Y108.2 E51.08261
G1 X213.835 Y109.062 E51.12467
G1 X213.986 Y109.717 E51.15597
G1 X213.996 Y109.768 E51.15839
G1 X214.131 Y110.661 E51.20044
G1 X214.186 Y111.597 E51.2441
G1 X214.196 Y112.414 E51.28215
G1 X214.195 Y122.715 E51.7618
G1 X214.185 Y123.42 E51.79464
G1 X214.132 Y124.321 E51.83666
G1 X214 Y125.215 E51.87874
G1 X213.827 Y125.959 E51.91431
G1 X213.815 Y126.003 E51.91643
G1 X213.539 Y126.863 E51.95849
G1 X213.215 Y127.638 E51.9976
G1 X212.85 Y128.419 E52.03775
G1 X212.387 Y129.374 E52.08717
G1 X211.628 Y131.057 E52.17313
G1 X211.425 Y131.492 E52.19549
G1 X211.006 Y132.292 E52.23754
G1 X210.517 Y133.051 E52.27958
G1 X210.203 Y133.472 E52.30404
G1 X210.043 Y133.675 E52.31607
G1 X209.453 Y134.359 E52.35813
G1 X208.805 Y134.988 E52.40018
G1 X208.104 Y135.557 E52.44222
G1 X207.355 Y136.062 E52.48429
G1 X206.557 Y136.503 E52.52674
G1 X206.458 Y136.552 E52.53189
G1 X205.631 Y136.916 E52.57396
G1 X204.776 Y137.206 E52.616
G1 X203.898 Y137.419 E52.65807
G1 X203.005 Y137.553 E52.70012
G1 X202.244 Y137.605 E52.73564
G1 X201.949 Y137.614 E52.74938
G1 X201.638 Y137.619 E52.76386
G1 X141.344 Y137.621 E55.5714
G1 X72.891 Y137.62 E58.75886
G1 X56.295 Y137.62 E59.53164
G1 X53.689 Y137.657 E59.653
G1 X51.124 Y137.766 E59.77254
G1 X48.617 Y137.944 E59.88957
G1 X46.076 Y138.195 E60.00847
G1 X43.568 Y138.516 E60.1262
G1 X41.063 Y138.91 E60.24428
G1 X38.552 Y139.377 E60.36321
G1 X37.393 Y139.622 E60.41837
G1 X37.211 Y139.659 E60.42702
G1 X36.91 Y139.717 E60.44129
G1 X36.016 Y139.848 E60.48336
G1 X35.161 Y139.899 E60.52325
G1 X34.086 Y139.917 E60.57331
G1 X32.587 Y139.917 E60.64311
G1 X31.932 Y139.908 E60.67361
G1 X31.03 Y139.856 E60.71568
G1 X30.137 Y139.724 E60.75772
G1 X29.259 Y139.513 E60.79977
G1 X28.402 Y139.226 E60.84185
G1 X27.706 Y138.927 E60.87712
G1 X27.63 Y138.891 E60.88104
G1 X26.831 Y138.469 E60.92311
G1 X26.073 Y137.977 E60.96519
G1 X25.362 Y137.421 E61.00722
G1 X24.703 Y136.804 E61.04926
G1 X24.178 Y136.224 E61.08568
G1 X23.966 Y135.971 E61.10105
G1 X23.417 Y135.254 E61.1431
G1 X22.934 Y134.491 E61.18515
G1 X22.52 Y133.688 E61.22722
G1 X22.179 Y132.852 E61.26926
G1 X21.913 Y131.989 E61.31131
G1 X21.802 Y131.518 E61.33384
G1 X21.543 Y130.285 E61.39251
G1 X21.321 Y129.3 E61.43953
G1 X21.039 Y127.981 E61.50233
G1 X20.89 Y127.09 E61.5444
G1 X20.83 Y126.414 E61.576
G1 X20.813 Y125.942 E61.59799
G1 X20.804 Y125.182 E61.63338
G1 X20.805 Y119.919 E61.87845
G1 X20.817 Y119.056 E61.91864
G1 X20.818 Y117.494 E61.99137
G1 X20.824 Y117.362 E61.99753
G1 X20.817 Y116.135 E62.05466
G1 X20.804 Y115.005 E62.10728
G1 X20.805 Y109.702 E62.35421
G1 X20.816 Y108.996 E62.38709
G1 X20.87 Y108.095 E62.42912
G1 X21.04 Y107.023 E62.47966
G1 X21.323 Y105.697 E62.5428
G1 X21.353 Y105.527 E62.55083
G1 X21.728 Y103.851 E62.6308
G1 X21.785 Y103.567 E62.64429
G1 X22.002 Y102.69 E62.68636
G1 X22.295 Y101.836 E62.7284
G1 X22.663 Y101.011 E62.77047
G1 X23.102 Y100.222 E62.81251
G1 X23.86 Y99.151 E62.87361
G1 X24.052 Y98.914 E62.88781
G1 X24.651 Y98.238 E62.92987
G1 X25.308 Y97.618 E62.97193
G1 X26.017 Y97.058 E63.014
G1 X26.772 Y96.564 E63.05601
G1 X27.522 Y96.16 E63.09568
G1 X27.592 Y96.126 E63.0993
G1 X28.421 Y95.768 E63.14135
G1 X29.278 Y95.484 E63.18339
G1 F2700 E58.18339
G0 F6000 X39.697 Y110.914
G0 X39.697 Y111.379
G1 F2700 E63.18339
G1 F1200 X96.656 Y111.379 E65.83564
G1 X165.109 Y111.38 E69.0231
G1 X199.258 Y111.38 E70.61322
G1 X199.863 Y112.217 E70.66131
G1 X200.196 Y112.757 E70.69085
G1 X200.196 Y122.231 E71.132
G1 X199.847 Y122.795 E71.16288
G1 X199.247 Y123.62 E71.21038
G1 X141.344 Y123.621 E73.90659
G1 X72.891 Y123.62 E77.09405
G1 X39.698 Y123.62 E78.63965
G1 X39.988 Y122.695 E78.68479
G1 X40.022 Y122.581 E78.69033
G1 X40.066 Y122.413 E78.69842
G1 X40.093 Y122.299 E78.70387
G1 X40.164 Y121.908 E78.72238
G1 X40.173 Y121.838 E78.72566
G1 X40.204 Y121.353 E78.74829
G1 X40.204 Y113.646 E79.10716
G1 X40.175 Y113.181 E79.12886
G1 X40.166 Y113.108 E79.13228
G1 X40.102 Y112.753 E79.14908
G1 X40.097 Y112.735 E79.14995
G1 X40.082 Y112.651 E79.15392
G1 X40.06 Y112.563 E79.15815
G1 X40.054 Y112.564 E79.15843
G1 X39.994 Y112.326 E79.16986
G1 X39.697 Y111.379 E79.21607
G0 F6000 X39.288 Y111.41
G1 F1200 X39.224 Y111.23 E79.22497
G1 X39.225 Y111.229 E79.22503
G1 X39.132 Y110.979 E79.23745
G1 X96.656 Y110.979 E81.91601
G1 X165.109 Y110.98 E85.10347
G1 X199.466 Y110.98 E86.70328
G1 X199.492 Y111.022 E86.70558
G1 X200.202 Y112.004 E86.762
G1 X200.596 Y112.643 E86.79696
G1 X200.596 Y122.344 E87.24868
G1 X200.175 Y123.025 E87.28596
G1 X199.476 Y123.986 E87.34129
G1 X199.455 Y124.02 E87.34315
G1 X141.344 Y124.021 E90.04905
G1 X72.891 Y124.02 E93.2365
G1 X39.133 Y124.02 E94.80842
G1 X39.243 Y123.723 E94.82316
G1 X39.294 Y123.549 E94.83161
G1 X39.3 Y123.551 E94.8319
G1 X39.637 Y122.471 E94.88458
G1 X39.676 Y122.321 E94.8918
G1 X39.703 Y122.207 E94.89726
G1 X39.767 Y121.857 E94.91382
G1 X39.776 Y121.787 E94.91711
G1 X39.804 Y121.353 E94.93736
G1 X39.804 Y113.646 E95.29623
G1 X39.778 Y113.23 E95.31564
G1 X39.769 Y113.157 E95.31906
G1 X39.693 Y112.748 E95.33843
G1 X39.671 Y112.66 E95.34266
G1 X39.667 Y112.661 E95.34285
