;FLAVOR:Marlin
;TIME:3227
;Filament used: 2.66531m
;Layer height: 0.28
;MINX:67.5
;MINY:88.871
;MINZ:0.28
;MAXX:167.5
;MAXY:138.871
;MAXZ:21.28
;Generated with Cura_SteamEngine 4.6.1
M140 S60
M105
M190 S60
M104 S210
M105
M109 S210
M82 ;absolute extrusion mode
; Ender 3 Custom Start G-code
G92 E0 ; Reset Extruder
G28 ; Home all axes
G1 Z2.0 F3000 ; Move Z Axis up little to prevent scratching of Heat Bed
G1 X0.1 Y20 Z0.3 F5000.0 ; Move to start position
G1 X0.1 Y200.0 Z0.3 F1500.0 E15 ; Draw the first line
G1 X0.4 Y200.0 Z0.3 F5000.0 ; Move to side a little
G1 X0.4 Y20 Z0.3 F1500.0 E30 ; Draw the second line
G92 E0 ; Reset Extruder
G1 Z2.0 F3000 ; Move Z Axis up little to prevent scratching of Heat Bed
G1 X5 Y20 Z0.3 F5000.0 ; Move over to prevent blob squish
G92 E0
G92 E0
G1 F2700 E-5
;LAYER_COUNT:76
;LAYER:0
M107
G0 F6000 X153.639 Y89.682 Z0.28
;TYPE:SKIRT
G1 F2700 E0
G1 F1200 X154.541 Y89.735 E0.04207
G1 X155.434 Y89.867 E0.08411
G1 X156.313 Y90.078 E0.1262
G1 X157.169 Y90.366 E0.16825
G1 X157.996 Y90.728 E0.21029
G1 X158.788 Y91.162 E0.25234
G1 X159.538 Y91.665 E0.29439
G1 X160.517 Y92.484 E0.35383
G1 X161.023 Y92.97 E0.3865
G1 X163.332 Y95.279 E0.53855
G1 X163.79 Y95.75 E0.56914
G1 X164.39 Y96.425 E0.61119
G1 X164.928 Y97.15 E0.65323
G1 X165.4 Y97.92 E0.69529
G1 X165.802 Y98.729 E0.73735
G1 X166.131 Y99.57 E0.7794
G1 X166.385 Y100.437 E0.82147
G1 X166.56 Y101.322 E0.86348
G1 X166.669 Y102.451 E0.91629
G1 X166.692 Y103.023 E0.94295
G1 X166.7 Y103.433 E0.96204
G1 X166.699 Y124.31 E1.93416
G1 X166.689 Y125.008 E1.96667
G1 X166.636 Y125.91 E2.00874
G1 X166.504 Y126.803 E2.05078
G1 X166.293 Y127.681 E2.09282
G1 X166.005 Y128.537 E2.13488
G1 X165.643 Y129.364 E2.17691
G1 X165.208 Y130.156 E2.21899
G1 X164.706 Y130.907 E2.26105
G1 X164.057 Y131.702 E2.30884
G1 X163.916 Y131.858 E2.31863
G1 X163.459 Y132.336 E2.34942
G1 X161.103 Y134.692 E2.50457
G1 X160.619 Y135.163 E2.53602
G1 X159.944 Y135.764 E2.5781
G1 X159.219 Y136.302 E2.62014
G1 X158.449 Y136.774 E2.6622
G1 X157.641 Y137.177 E2.70424
G1 X156.8 Y137.506 E2.74629
G1 X155.933 Y137.76 E2.78836
G1 X155.047 Y137.936 E2.83042
G1 X153.829 Y138.048 E2.88737
G1 X153.262 Y138.066 E2.91379
G1 X152.938 Y138.071 E2.92888
G1 X82.207 Y138.071 E6.22241
G1 X82.061 Y138.07 E6.22921
G1 X81.363 Y138.06 E6.26171
G1 X80.461 Y138.007 E6.30379
G1 X79.568 Y137.875 E6.34582
G1 X78.69 Y137.664 E6.38787
G1 X77.834 Y137.376 E6.42992
G1 X77.007 Y137.014 E6.47196
G1 X76.215 Y136.579 E6.51403
G1 X75.464 Y136.077 E6.5561
G1 X74.669 Y135.428 E6.60388
G1 X74.513 Y135.287 E6.61367
G1 X74.216 Y135.007 E6.63268
G1 X74.021 Y134.816 E6.64539
G1 X71.671 Y132.465 E6.80018
G1 X71.202 Y131.983 E6.83149
G1 X70.601 Y131.309 E6.87354
G1 X70.063 Y130.584 E6.91558
G1 X69.59 Y129.814 E6.95766
G1 X69.188 Y129.005 E6.99972
G1 X68.859 Y128.164 E7.04177
G1 X68.605 Y127.298 E7.0838
G1 X68.429 Y126.412 E7.12586
G1 X68.314 Y125.088 E7.18774
G1 X68.3 Y124.309 E7.22402
G1 X68.301 Y103.432 E8.19614
G1 X68.311 Y102.734 E8.22865
G1 X68.364 Y101.832 E8.27072
G1 X68.496 Y100.939 E8.31275
G1 X68.707 Y100.061 E8.3548
G1 X68.995 Y99.205 E8.39686
G1 X69.357 Y98.378 E8.43889
G1 X69.792 Y97.586 E8.48097
G1 X70.294 Y96.835 E8.52303
G1 X70.943 Y96.04 E8.57082
G1 X71.084 Y95.884 E8.58061
G1 X71.541 Y95.406 E8.6114
G1 X73.906 Y93.042 E8.76711
G1 X74.389 Y92.572 E8.79849
G1 X75.063 Y91.971 E8.84054
G1 X75.788 Y91.433 E8.88258
G1 X76.558 Y90.96 E8.92466
G1 X77.366 Y90.558 E8.96668
G1 X78.207 Y90.229 E9.00873
G1 X79.074 Y89.975 E9.0508
G1 X79.96 Y89.799 E9.09286
G1 X81.302 Y89.684 E9.15558
G1 X82.062 Y89.671 E9.19097
G1 X152.793 Y89.671 E12.4845
G1 X152.938 Y89.672 E12.49126
G1 X153.639 Y89.682 E12.5239
G0 F6000 X153.645 Y89.282
G1 F1200 X154.564 Y89.335 E12.56676
G1 X155.475 Y89.468 E12.60963
G1 X156.371 Y89.679 E12.6525
G1 X157.246 Y89.967 E12.69539
G1 X158.092 Y90.33 E12.73826
G1 X158.903 Y90.765 E12.78111
G1 X159.674 Y91.269 E12.824
G1 X160.398 Y91.838 E12.86688
G1 X160.793 Y92.194 E12.89164
G1 X161.306 Y92.687 E12.92477
G1 X163.618 Y95 E13.07705
G1 X164.076 Y95.471 E13.10764
G1 X164.689 Y96.159 E13.15055
G1 X165.24 Y96.896 E13.1934
G1 X165.724 Y97.679 E13.23626
G1 X166.139 Y98.501 E13.27914
G1 X166.481 Y99.356 E13.32202
G1 X166.747 Y100.237 E13.36487
G1 X166.936 Y101.138 E13.40774
G1 X167.068 Y102.435 E13.46844
G1 X167.091 Y103.007 E13.4951
G1 X167.1 Y103.433 E13.51494
G1 X167.099 Y124.316 E14.48734
G1 X167.089 Y125.014 E14.51985
G1 X167.036 Y125.933 E14.56271
G1 X166.903 Y126.844 E14.60558
G1 X166.692 Y127.74 E14.64844
G1 X166.404 Y128.614 E14.69129
G1 X166.041 Y129.461 E14.7342
G1 X165.606 Y130.272 E14.77705
G1 X165.102 Y131.042 E14.81991
G1 X164.354 Y131.97 E14.87541
G1 X164.213 Y132.126 E14.8852
G1 X163.926 Y132.431 E14.9047
G1 X163.745 Y132.616 E14.91675
G1 X161.382 Y134.979 E15.07236
G1 X160.898 Y135.45 E15.10381
G1 X160.211 Y136.062 E15.14665
G1 X159.473 Y136.613 E15.18953
G1 X158.69 Y137.098 E15.23242
G1 X157.868 Y137.513 E15.2753
G1 X157.014 Y137.855 E15.31813
G1 X156.133 Y138.122 E15.361
G1 X155.232 Y138.311 E15.40387
G1 X154.318 Y138.422 E15.44674
G1 X153.841 Y138.448 E15.46898
G1 X153.274 Y138.466 E15.4954
G1 X152.938 Y138.471 E15.51105
G1 X82.207 Y138.471 E18.80458
G1 X82.055 Y138.47 E18.81166
G1 X81.357 Y138.46 E18.84416
G1 X80.438 Y138.407 E18.88702
G1 X79.527 Y138.274 E18.92989
G1 X78.631 Y138.063 E18.97276
G1 X77.757 Y137.775 E19.01561
G1 X76.91 Y137.412 E19.05852
G1 X76.099 Y136.977 E19.10137
G1 X75.329 Y136.473 E19.14422
G1 X74.401 Y135.725 E19.19972
G1 X74.245 Y135.584 E19.20951
G1 X73.936 Y135.293 E19.22928
G1 X73.741 Y135.102 E19.24199
G1 X71.384 Y132.744 E19.39723
G1 X70.915 Y132.262 E19.42855
G1 X70.302 Y131.575 E19.47142
G1 X69.751 Y130.837 E19.51431
G1 X69.267 Y130.055 E19.55713
G1 X68.852 Y129.233 E19.60001
G1 X68.509 Y128.378 E19.6429
G1 X68.243 Y127.497 E19.68576
G1 X68.053 Y126.596 E19.72863
G1 X67.943 Y125.682 E19.7715
G1 X67.914 Y125.097 E19.79877
G1 X67.9 Y124.309 E19.83547
G1 X67.901 Y103.426 E20.80787
G1 X67.911 Y102.728 E20.84038
G1 X67.964 Y101.809 E20.88324
G1 X68.097 Y100.898 E20.92611
G1 X68.308 Y100.002 E20.96897
G1 X68.596 Y99.128 E21.01182
G1 X68.959 Y98.281 E21.05473
G1 X69.394 Y97.47 E21.09758
G1 X69.898 Y96.7 E21.14044
G1 X70.646 Y95.772 E21.19594
G1 X70.787 Y95.616 E21.20573
G1 X71.074 Y95.311 E21.22523
G1 X71.255 Y95.126 E21.23728
G1 X73.627 Y92.755 E21.39345
G1 X74.11 Y92.285 E21.42483
G1 X74.797 Y91.672 E21.4677
G1 X75.534 Y91.121 E21.51055
G1 X76.317 Y90.637 E21.55342
G1 X77.139 Y90.222 E21.59629
G1 X77.994 Y89.879 E21.63919
G1 X78.875 Y89.613 E21.68204
G1 X79.776 Y89.424 E21.72491
G1 X80.69 Y89.313 E21.76778
G1 X81.294 Y89.284 E21.79594
G1 X82.062 Y89.271 E21.8317
G1 X152.793 Y89.271 E25.12524
G1 X152.944 Y89.272 E25.13227
G1 X153.645 Y89.282 E25.16491
G0 F6000 X153.651 Y88.882
G1 F1200 X154.587 Y88.935 E25.20857
G1 X155.516 Y89.068 E25.25227
G1 X156.429 Y89.28 E25.29591
G1 X157.322 Y89.568 E25.3396
G1 X158.186 Y89.932 E25.38326
G1 X159.017 Y90.368 E25.42695
G1 X159.807 Y90.873 E25.47061
G1 X160.551 Y91.443 E25.51426
G1 X161.068 Y91.904 E25.54651
G1 X161.589 Y92.404 E25.58013
G1 X163.905 Y94.721 E25.73268
G1 X164.363 Y95.192 E25.76327
G1 X164.988 Y95.892 E25.80697
G1 X165.551 Y96.642 E25.85064
G1 X166.047 Y97.438 E25.89431
G1 X166.474 Y98.273 E25.93798
G1 X166.829 Y99.141 E25.98164
G1 X167.108 Y100.036 E26.0253
G1 X167.31 Y100.952 E26.06897
G1 X167.433 Y101.882 E26.11266
G1 X167.468 Y102.419 E26.13771
G1 X167.491 Y102.991 E26.16437
G1 X167.5 Y103.433 E26.18496
G1 X167.499 Y124.322 E27.15764
G1 X167.489 Y125.02 E27.19014
G1 X167.435 Y125.956 E27.2338
G1 X167.303 Y126.884 E27.27744
G1 X167.091 Y127.798 E27.32113
G1 X166.802 Y128.69 E27.36479
G1 X166.439 Y129.555 E27.40848
G1 X166.003 Y130.385 E27.45213
G1 X165.498 Y131.176 E27.49583
G1 X164.651 Y132.238 E27.55908
G1 X164.51 Y132.394 E27.56887
G1 X164.212 Y132.711 E27.58913
G1 X164.031 Y132.896 E27.60119
G1 X161.661 Y135.265 E27.75722
G1 X161.177 Y135.736 E27.78867
G1 X160.477 Y136.361 E27.83236
G1 X159.727 Y136.924 E27.87603
G1 X158.932 Y137.421 E27.91969
G1 X158.097 Y137.849 E27.96338
G1 X157.229 Y138.204 E28.00705
G1 X156.334 Y138.483 E28.0507
G1 X155.418 Y138.685 E28.09438
G1 X154.488 Y138.809 E28.13807
G1 X153.854 Y138.847 E28.16764
G1 X153.287 Y138.865 E28.19406
G1 X152.938 Y138.871 E28.21031
G1 X82.207 Y138.871 E31.50384
G1 X82.049 Y138.87 E31.5112
G1 X81.351 Y138.86 E31.5437
G1 X80.415 Y138.806 E31.58736
G1 X79.487 Y138.674 E31.63101
G1 X78.573 Y138.462 E31.6747
G1 X77.681 Y138.173 E31.71836
G1 X76.816 Y137.81 E31.76204
G1 X75.986 Y137.374 E31.80569
G1 X75.195 Y136.869 E31.84939
G1 X74.133 Y136.022 E31.91265
G1 X73.977 Y135.881 E31.92244
G1 X73.656 Y135.578 E31.94299
G1 X73.38 Y135.307 E31.961
G1 X71.097 Y133.023 E32.11138
G1 X70.628 Y132.541 E32.14269
G1 X70.003 Y131.842 E32.18635
G1 X69.44 Y131.092 E32.23002
G1 X68.943 Y130.296 E32.27372
G1 X68.516 Y129.461 E32.31739
G1 X68.161 Y128.593 E32.36105
G1 X67.882 Y127.698 E32.40471
G1 X67.679 Y126.782 E32.44839
G1 X67.556 Y125.852 E32.49208
G1 X67.515 Y125.105 E32.52691
G1 X67.5 Y124.309 E32.56398
G1 X67.501 Y103.42 E33.53666
G1 X67.511 Y102.722 E33.56917
G1 X67.565 Y101.786 E33.61283
G1 X67.697 Y100.858 E33.65647
G1 X67.909 Y99.944 E33.70016
G1 X68.198 Y99.052 E33.74382
G1 X68.561 Y98.187 E33.7875
G1 X68.997 Y97.357 E33.83116
G1 X69.502 Y96.566 E33.87486
G1 X70.349 Y95.504 E33.93811
G1 X70.49 Y95.348 E33.9479
G1 X70.788 Y95.031 E33.96816
G1 X70.969 Y94.846 E33.98021
G1 X73.348 Y92.468 E34.13684
G1 X73.831 Y91.998 E34.16822
G1 X74.53 Y91.374 E34.21185
G1 X75.28 Y90.811 E34.25552
G1 X76.076 Y90.314 E34.29922
G1 X76.91 Y89.886 E34.34287
G1 X77.778 Y89.531 E34.38653
G1 X78.674 Y89.252 E34.43023
G1 X79.59 Y89.05 E34.47391
G1 X80.519 Y88.926 E34.51755
G1 X81.286 Y88.884 E34.55332
G1 X82.062 Y88.871 E34.58946
G1 X152.793 Y88.871 E37.88299
G1 X152.95 Y88.872 E37.8903
G1 X153.651 Y88.882 E37.92295
G1 F2700 E32.92295
;MESH:TMC_Molle_Mag_Pouch_v6.stl
G0 F6000 X153.328 Y99.206
G0 X153.328 Y100.291
G0 X155.726 Y103.19
G0 X155.726 Y124.552
G0 X153.181 Y127.097
G0 X141.279 Y127.089
G0 X128.069 Y126.799
G0 X127.897 Y125.471
;TYPE:WALL-INNER
G1 F2700 E37.92295
G1 F1200 X127.897 Y126.971 E37.99279
G1 X141.097 Y126.971 E38.60744
G1 X141.097 Y125.471 E38.67729
G1 X150.6 Y125.471 E39.11979
G1 X150.6 Y120.221 E39.36425
G1 X153.66 Y120.221 E39.50673
G1 X153.66 Y107.521 E40.0981
G1 X150.6 Y107.521 E40.24059
G1 X150.6 Y102.271 E40.48505
G1 X84.4 Y102.271 E43.5676
G1 X84.4 Y109.621 E43.90984
G1 X82.9 Y109.621 E43.97969
G1 X82.9 Y118.121 E44.37549
G1 X84.4 Y118.121 E44.44533
G1 X84.4 Y125.471 E44.78758
G1 X127.897 Y125.471 E46.81298
G0 F6000 X128.297 Y125.071
;TYPE:WALL-OUTER
G1 F1200 X128.297 Y126.571 E46.88283
G1 X140.697 Y126.571 E47.46022
G1 X140.697 Y125.071 E47.53007
G1 X150.2 Y125.071 E47.97257
G1 X150.2 Y119.821 E48.21703
G1 X153.26 Y119.821 E48.35952
G1 X153.26 Y107.921 E48.91363
G1 X150.2 Y107.921 E49.05612
G1 X150.2 Y102.671 E49.30058
G1 X84.8 Y102.671 E52.34588
G1 X84.8 Y110.021 E52.68812
G1 X83.3 Y110.021 E52.75797
G1 X83.3 Y117.721 E53.11651
G1 X84.8 Y117.721 E53.18636
G1 X84.8 Y125.071 E53.52861
G1 X128.297 Y125.071 E55.55401
G0 F6000 X128.027 Y125.341
G0 X128.069 Y126.799
G0 X135.559 Y126.962
G0 X153.252 Y127.271
;TYPE:WALL-INNER
G1 F1200 X141.097 Y127.271 E56.12
G1 X127.897 Y127.271 E56.58214
G1 X81.748 Y127.271 E58.73103
G1 X79.1 Y124.623 E58.90541
G1 X79.1 Y103.119 E59.90672
G1 X81.748 Y100.471 E60.0811
G1 X153.252 Y100.471 E63.41062
G1 X155.9 Y103.119 E63.585
G1 X155.9 Y124.623 E64.58631
G1 X153.252 Y127.271 E64.76069
G0 F6000 X153.418 Y127.671
;TYPE:WALL-OUTER
G1 F1200 X81.582 Y127.671 E68.10567
G1 X78.7 Y124.789 E68.29546
G1 X78.7 Y102.953 E69.31223
G1 X81.582 Y100.071 E69.50202
G1 X153.418 Y100.071 E72.847
G1 X156.3 Y102.953 E73.03679
G1 X156.3 Y124.789 E74.05356
G1 X153.418 Y127.671 E74.24335
G0 F6000 X153.25 Y127.265
G0 X153.092 Y126.881
;TYPE:SKIN
G1 F1200 X141.487 Y126.881 E74.78373
G1 X141.487 Y125.861 E74.83122
G1 X150.99 Y125.861 E75.27372
G1 X150.99 Y120.611 E75.51818
G1 X154.05 Y120.611 E75.66067
G1 X154.05 Y107.131 E76.28836
G1 X150.99 Y107.131 E76.43084
G1 X150.99 Y101.881 E76.6753
G1 X84.01 Y101.881 E79.79417
G1 X84.01 Y109.231 E80.13642
G1 X82.51 Y109.231 E80.20627
G1 X82.51 Y118.511 E80.63838
G1 X84.01 Y118.511 E80.70823
G1 X84.01 Y125.861 E81.05048
G1 X127.507 Y125.861 E83.07588
G1 X127.507 Y126.881 E83.12337
G1 X81.908 Y126.881 E85.24665
G1 X79.49 Y124.463 E85.40588
G1 X79.49 Y103.279 E86.3923
G1 X81.908 Y100.861 E86.55153
G1 X153.092 Y100.861 E89.86615
G1 X155.51 Y103.279 E90.02538
G1 X155.51 Y124.463 E91.0118
G1 X153.092 Y126.881 E91.17103
G0 F6000 X153.289 Y127.078
G0 X155.726 Y124.552
G0 X155.726 Y103.19
G0 X153.181 Y100.645
G0 X152.498 Y100.581
G0 X152.498 Y101.021
G1 F1200 X155.349 Y103.871 E91.35874
G0 F6000 X155.349 Y104.437
G1 F1200 X151.933 Y101.021 E91.58369
G0 F6000 X151.367 Y101.021
G1 F1200 X155.349 Y105.003 E91.84591
G0 F6000 X155.349 Y105.568
G1 F1200 X150.801 Y101.021 E92.14537
G0 F6000 X150.236 Y101.021
G1 F1200 X150.934 Y101.72 E92.19137
G0 F6000 X151.149 Y101.934
G1 F1200 X155.349 Y106.134 E92.46794
G0 F6000 X155.349 Y106.7
G1 F1200 X151.149 Y102.5 E92.74452
G0 F6000 X151.149 Y103.065
G1 F1200 X155.349 Y107.265 E93.0211
G0 F6000 X155.349 Y107.831
G1 F1200 X151.149 Y103.631 E93.29768
G0 F6000 X151.149 Y104.197
G1 F1200 X153.922 Y106.97 E93.48028
G0 F6000 X154.208 Y107.256
G1 F1200 X155.349 Y108.397 E93.55542
G0 F6000 X155.349 Y108.963
G1 F1200 X154.208 Y107.822 E93.63056
G0 F6000 X154.208 Y108.388
G1 F1200 X155.349 Y109.528 E93.70566
G0 F6000 X155.349 Y110.094
G1 F1200 X154.208 Y108.953 E93.7808
G0 F6000 X154.208 Y109.519
G1 F1200 X155.349 Y110.66 E93.85593
G0 F6000 X155.349 Y111.225
G1 F1200 X154.208 Y110.085 E93.93104
G0 F6000 X154.208 Y110.65
G1 F1200 X155.349 Y111.791 E94.00617
G0 F6000 X155.349 Y112.357
G1 F1200 X154.208 Y111.216 E94.08131
G0 F6000 X154.208 Y111.782
G1 F1200 X155.349 Y112.922 E94.15642
G0 F6000 X155.349 Y113.488
G1 F1200 X154.208 Y112.347 E94.23155
G0 F6000 X154.208 Y112.913
G1 F1200 X155.349 Y114.054 E94.30669
G0 F6000 X155.349 Y114.619
G1 F1200 X154.208 Y113.479 E94.38179
G0 F6000 X154.208 Y114.045
G1 F1200 X155.349 Y115.185 E94.4569
G0 F6000 X155.349 Y115.751
G1 F1200 X154.208 Y114.61 E94.53203
G0 F6000 X154.208 Y115.176
G1 F1200 X155.349 Y116.316 E94.60714
G0 F6000 X155.349 Y116.882
G1 F1200 X154.208 Y115.742 E94.68224
G0 F6000 X154.208 Y116.307
G1 F1200 X155.349 Y117.448 E94.75738
G0 F6000 X155.349 Y118.014
G1 F1200 X154.208 Y116.873 E94.83251
G0 F6000 X154.208 Y117.439
G1 F1200 X155.349 Y118.579 E94.90762
G0 F6000 X155.349 Y119.145
G1 F1200 X154.208 Y118.004 E94.98276
G0 F6000 X154.208 Y118.57
G1 F1200 X155.349 Y119.711 E95.05789
G0 F6000 X155.349 Y120.276
G1 F1200 X154.208 Y119.136 E95.133
G0 F6000 X154.208 Y119.701
G1 F1200 X155.349 Y120.842 E95.20813
G0 F6000 X155.349 Y121.408
G1 F1200 X154.208 Y120.267 E95.28327
G0 F6000 X154.146 Y120.771
G1 F1200 X155.349 Y121.973 E95.36246
G0 F6000 X155.349 Y122.539
G1 F1200 X153.58 Y120.771 E95.47892
G0 F6000 X153.015 Y120.771
G1 F1200 X155.349 Y123.105 E95.63261
G0 F6000 X155.349 Y123.67
G1 F1200 X152.449 Y120.771 E95.82355
G0 F6000 X151.883 Y120.771
G1 F1200 X155.349 Y124.236 E96.05176
G0 F6000 X155.147 Y124.599
G1 F1200 X151.318 Y120.771 E96.30387
G0 F6000 X151.149 Y121.167
G1 F1200 X154.864 Y124.882 E96.54851
G0 F6000 X154.581 Y125.165
G1 F1200 X151.149 Y121.733 E96.77451
G0 F6000 X151.149 Y122.299
G1 F1200 X154.298 Y125.448 E96.98188
G0 F6000 X154.015 Y125.731
G1 F1200 X151.149 Y122.864 E97.17065
G0 F6000 X151.149 Y123.43
G1 F1200 X153.732 Y126.014 E97.34077
G0 F6000 X153.449 Y126.297
G1 F1200 X151.149 Y123.996 E97.49227
G0 F6000 X151.149 Y124.561
G1 F1200 X153.167 Y126.579 E97.62515
G0 F6000 X152.742 Y126.72
G1 F1200 X151.149 Y125.127 E97.73006
G0 F6000 X151.149 Y125.693
G1 F1200 X152.176 Y126.72 E97.79769
G0 F6000 X151.61 Y126.72
G1 F1200 X150.911 Y126.021 E97.84372
G0 F6000 X150.345 Y126.021
G1 F1200 X151.045 Y126.72 E97.88978
G0 F6000 X150.479 Y126.72
G1 F1200 X149.78 Y126.021 E97.93581
G0 F6000 X149.214 Y126.021
G1 F1200 X149.913 Y126.72 E97.98184
