;FLAVOR:Marlin
;TIME:43317
;Filament used: 43.903m
;Layer height: 0.28
;MINX:46.782
;MINY:41.299
;MINZ:0.28
;MAXX:121.788
;MAXY:193.75
;MAXZ:119
;Generated with Cura_SteamEngine 4.7.0
M140 S55
M105
M190 S55
M104 S210
M105
M109 S210
M82 ;absolute extrusion mode
; Ender 3 Custom Start G-code
G92 E0 ; Reset Extruder
G28 ; Home all axes
G1 Z2.0 F3000 ; Move Z Axis up little to prevent scratching of Heat Bed
G1 X0.1 Y20 Z0.3 F5000.0 ; Move to start position
G1 X0.1 Y200.0 Z0.3 F1500.0 E15 ; Draw the first line
G1 X0.4 Y200.0 Z0.3 F5000.0 ; Move to side a little
G1 X0.4 Y20 Z0.3 F1500.0 E30 ; Draw the second line
G92 E0 ; Reset Extruder
G1 Z2.0 F3000 ; Move Z Axis up little to prevent scratching of Heat Bed
G1 X5 Y20 Z0.3 F5000.0 ; Move over to prevent blob squish
G92 E0
G92 E0
G1 F2700 E-5
;LAYER_COUNT:425
;LAYER:0
M107
G0 F6000 X49.982 Y49.529 Z0.28
;TYPE:SKIRT
G1 F2700 E0
G1 F1200 X50.092 Y49.418 E0.00728
G1 X50.78 Y48.781 E0.05094
G1 X51.519 Y48.204 E0.09459
G1 X52.306 Y47.693 E0.13829
G1 X53.133 Y47.25 E0.18197
G1 X53.994 Y46.88 E0.22561
G1 X54.884 Y46.584 E0.26928
G1 X55.796 Y46.365 E0.31296
G1 X56.723 Y46.225 E0.35661
G1 X57.508 Y46.168 E0.39326
G1 X58.13 Y46.146 E0.42224
G1 X60.694 Y46.018 E0.54178
G1 X63.183 Y45.822 E0.65804
G1 X65.701 Y45.554 E0.77595
G1 X68.207 Y45.215 E0.8937
G1 X70.681 Y44.808 E1.01045
G1 X73.143 Y44.332 E1.12721
G1 X75.661 Y43.77 E1.24735
G1 X78.049 Y43.165 E1.36206
G1 X80.468 Y42.479 E1.47914
G1 X82.415 Y41.869 E1.57414
G1 X82.779 Y41.76 E1.59183
G1 X83.688 Y41.53 E1.6355
G1 X84.614 Y41.379 E1.67918
G1 X85.9 Y41.301 E1.73918
G1 X86.887 Y41.299 E1.78513
G1 X87.093 Y41.301 E1.79473
G1 X90.541 Y41.359 E1.9553
G1 X91.288 Y41.382 E1.9901
G1 X92.223 Y41.451 E2.03376
G1 X93.149 Y41.599 E2.07742
G1 X94.488 Y41.962 E2.14202
G1 X97.005 Y42.817 E2.2658
G1 X99.4 Y43.556 E2.38251
G1 X101.856 Y44.239 E2.50121
G1 X104.271 Y44.837 E2.61706
G1 X106.693 Y45.367 E2.73251
G1 X109.229 Y45.844 E2.85267
G1 X111.794 Y46.252 E2.97361
G1 X112.267 Y46.322 E2.99587
G1 X113.189 Y46.498 E3.03958
G1 X114.092 Y46.752 E3.08326
G1 X114.97 Y47.081 E3.12692
G1 X115.816 Y47.485 E3.17057
G1 X116.626 Y47.959 E3.21427
G1 X117.392 Y48.5 E3.25794
G1 X118.109 Y49.104 E3.30159
G1 X118.747 Y49.741 E3.34357
G1 X118.856 Y49.859 E3.35105
G1 X119.463 Y50.575 E3.39476
G1 X120.006 Y51.339 E3.43841
G1 X120.482 Y52.147 E3.48207
G1 X120.888 Y52.993 E3.52577
G1 X121.22 Y53.87 E3.56943
G1 X121.476 Y54.772 E3.61309
G1 X121.655 Y55.693 E3.65678
G1 X121.772 Y57.01 E3.71835
G1 X121.781 Y57.326 E3.73307
G1 X121.785 Y57.636 E3.7475
G1 X121.785 Y61.95 E3.94838
G1 X121.788 Y61.996 E3.95053
G1 X121.784 Y63.023 E3.99835
G1 X121.785 Y170.798 E9.01681
G1 X121.774 Y171.679 E9.05783
G1 X121.721 Y172.616 E9.10153
G1 X121.589 Y173.544 E9.14518
G1 X121.378 Y174.458 E9.18886
G1 X121.09 Y175.351 E9.23255
G1 X120.727 Y176.215 E9.27619
G1 X120.291 Y177.046 E9.31989
G1 X119.787 Y177.837 E9.36356
G1 X119.217 Y178.581 E9.4072
G1 X118.585 Y179.275 E9.45091
G1 X117.897 Y179.912 E9.49457
G1 X117.157 Y180.488 E9.53823
G1 X116.142 Y181.131 E9.59418
G1 X115.251 Y181.629 E9.64171
G1 X114.62 Y181.971 E9.67513
G1 X112.457 Y183.221 E9.79146
G1 X110.319 Y184.539 E9.90841
G1 X108.352 Y185.828 E10.01791
G1 X108.104 Y185.986 E10.03161
G1 X107.947 Y186.083 E10.0402
G1 X107.129 Y186.541 E10.08385
G1 X106.418 Y186.869 E10.12031
G1 X105.223 Y187.37 E10.18065
G1 X102.854 Y188.403 E10.30099
G1 X100.538 Y189.491 E10.42014
G1 X98.325 Y190.609 E10.53559
G1 X96 Y191.865 E10.65864
G1 X95.154 Y192.339 E10.7038
G1 X94.316 Y192.762 E10.74751
G1 X93.446 Y193.112 E10.79117
G1 X92.549 Y193.386 E10.83485
G1 X91.632 Y193.583 E10.87852
G1 X90.702 Y193.701 E10.92217
G1 X90.13 Y193.734 E10.94885
G1 X89.846 Y193.743 E10.96208
G1 X89.498 Y193.749 E10.97829
G1 X88.283 Y193.748 E11.03486
G1 X87.622 Y193.738 E11.06565
G1 X87.013 Y193.712 E11.09403
G1 X86.682 Y193.689 E11.10948
G1 X84.115 Y193.542 E11.22921
G1 X81.629 Y193.471 E11.34501
G1 X79.106 Y193.471 E11.46249
G1 X76.58 Y193.542 E11.58016
G1 X73.98 Y193.688 E11.70142
G1 X73.426 Y193.722 E11.72726
G1 X73.084 Y193.737 E11.7432
G1 X72.764 Y193.746 E11.75811
G1 X72.455 Y193.75 E11.7725
G1 X58.35 Y193.749 E12.42929
G1 X57.652 Y193.74 E12.46179
G1 X56.716 Y193.688 E12.50544
G1 X55.787 Y193.556 E12.54914
G1 X54.873 Y193.346 E12.5928
G1 X53.98 Y193.059 E12.63648
G1 X53.115 Y192.696 E12.68016
G1 X52.284 Y192.262 E12.72382
G1 X51.493 Y191.758 E12.76749
G1 X50.748 Y191.188 E12.81117
G1 X50.054 Y190.557 E12.85484
G1 X49.417 Y189.87 E12.89847
G1 X48.84 Y189.13 E12.94216
G1 X48.328 Y188.344 E12.98584
G1 X47.885 Y187.517 E13.02953
G1 X47.514 Y186.656 E13.07318
G1 X47.218 Y185.766 E13.11686
G1 X46.999 Y184.854 E13.16053
G1 X46.858 Y183.927 E13.20419
G1 X46.798 Y183.038 E13.24568
G1 X46.789 Y182.705 E13.26119
G1 X46.785 Y182.408 E13.27503
G1 X46.784 Y62.753 E18.84666
G1 X46.782 Y62.71 E18.84867
G1 X46.786 Y61.683 E18.89649
G1 X46.786 Y57.774 E19.07851
G1 X46.796 Y57.107 E19.10957
G1 X46.85 Y56.171 E19.15323
G1 X46.984 Y55.242 E19.19693
G1 X47.196 Y54.329 E19.24058
G1 X47.485 Y53.437 E19.28424
G1 X47.849 Y52.572 E19.32794
G1 X48.286 Y51.742 E19.37162
G1 X48.791 Y50.952 E19.41527
G1 X49.363 Y50.208 E19.45897
G1 X49.982 Y49.529 E19.50176
G0 F6000 X50.266 Y49.811
G1 F1200 X50.376 Y49.7 E19.50903
G1 X51.052 Y49.074 E19.55193
G1 X51.779 Y48.51 E19.59478
G1 X52.553 Y48.011 E19.63766
G1 X53.367 Y47.581 E19.68053
G1 X54.215 Y47.224 E19.72337
G1 X55.092 Y46.941 E19.76628
G1 X55.989 Y46.736 E19.80913
G1 X56.901 Y46.609 E19.852
G1 X57.523 Y46.568 E19.88103
G1 X58.091 Y46.547 E19.90749
G1 X60.709 Y46.417 E20.02955
G1 X63.26 Y46.217 E20.1487
G1 X65.761 Y45.95 E20.26582
G1 X68.255 Y45.613 E20.383
G1 X70.75 Y45.202 E20.50075
G1 X73.241 Y44.721 E20.61888
G1 X75.733 Y44.164 E20.73778
G1 X78.151 Y43.552 E20.85393
G1 X80.592 Y42.86 E20.97207
G1 X82.675 Y42.208 E21.0737
G1 X82.893 Y42.143 E21.08429
G1 X83.786 Y41.918 E21.12718
G1 X84.695 Y41.772 E21.17005
G1 X85.901 Y41.701 E21.2263
G1 X86.888 Y41.699 E21.27226
G1 X87.086 Y41.7 E21.28148
G1 X90.379 Y41.755 E21.43484
G1 X91.275 Y41.782 E21.47658
G1 X92.193 Y41.85 E21.51944
G1 X93.102 Y41.998 E21.56232
G1 X94.36 Y42.341 E21.62304
G1 X96.874 Y43.195 E21.74667
G1 X99.313 Y43.948 E21.86553
G1 X101.725 Y44.618 E21.9821
G1 X104.196 Y45.23 E22.10063
G1 X106.638 Y45.764 E22.21703
G1 X109.129 Y46.233 E22.33506
G1 X111.753 Y46.651 E22.45878
G1 X112.209 Y46.718 E22.48024
G1 X113.113 Y46.891 E22.5231
G1 X113.999 Y47.142 E22.56598
G1 X114.86 Y47.469 E22.60887
G1 X115.689 Y47.87 E22.65175
G1 X116.48 Y48.341 E22.69462
G1 X117.227 Y48.879 E22.73748
G1 X117.925 Y49.479 E22.78034
G1 X118.453 Y50.012 E22.81528
G1 X118.562 Y50.13 E22.82276
G1 X119.157 Y50.833 E22.86564
G1 X119.689 Y51.585 E22.90853
G1 X120.153 Y52.38 E22.9514
G1 X120.546 Y53.212 E22.99424
G1 X120.866 Y54.076 E23.03714
G1 X121.11 Y54.963 E23.07998
G1 X121.276 Y55.869 E23.12287
G1 X121.372 Y57.021 E23.1767
G1 X121.381 Y57.337 E23.19142
G1 X121.385 Y57.637 E23.20539
G1 X121.386 Y61.95 E23.40622
G1 X121.388 Y61.994 E23.40827
G1 X121.384 Y63.021 E23.45609
G1 X121.385 Y170.798 E28.47464
G1 X121.374 Y171.674 E28.51544
G1 X121.321 Y172.593 E28.5583
G1 X121.189 Y173.504 E28.60116
G1 X120.979 Y174.4 E28.64401
G1 X120.691 Y175.275 E28.68691
G1 X120.329 Y176.121 E28.72976
G1 X119.894 Y176.933 E28.77265
G1 X119.391 Y177.704 E28.81552
G1 X118.822 Y178.428 E28.85839
G1 X118.193 Y179.1 E28.90125
G1 X117.508 Y179.716 E28.94415
G1 X116.773 Y180.269 E28.98698
G1 X115.947 Y180.782 E29.03226
G1 X115.056 Y181.28 E29.07979
G1 X114.436 Y181.616 E29.11262
G1 X112.253 Y182.877 E29.23001
G1 X110.086 Y184.213 E29.34855
G1 X108.133 Y185.493 E29.45728
G1 X107.893 Y185.646 E29.47054
G1 X107.736 Y185.743 E29.47913
G1 X106.933 Y186.192 E29.52197
G1 X106.264 Y186.501 E29.55628
G1 X105.032 Y187.018 E29.6185
G1 X102.673 Y188.046 E29.73832
G1 X100.367 Y189.13 E29.85697
G1 X98.133 Y190.258 E29.9735
G1 X95.792 Y191.524 E30.09743
G1 X94.958 Y191.99 E30.14191
G1 X94.136 Y192.405 E30.18479
G1 X93.281 Y192.746 E30.22765
G1 X92.4 Y193.012 E30.2705
G1 X91.498 Y193.2 E30.31341
G1 X90.584 Y193.31 E30.35627
G1 X90.118 Y193.335 E30.378
G1 X89.834 Y193.344 E30.39123
G1 X89.498 Y193.349 E30.40688
G1 X88.289 Y193.348 E30.46318
G1 X87.628 Y193.338 E30.49396
G1 X87.041 Y193.313 E30.52132
G1 X86.735 Y193.291 E30.5356
G1 X84.147 Y193.144 E30.65631
G1 X81.606 Y193.071 E30.77467
G1 X79.095 Y193.071 E30.8916
G1 X76.547 Y193.142 E31.01029
G1 X73.993 Y193.286 E31.1294
G1 X73.402 Y193.322 E31.15697
G1 X73.073 Y193.337 E31.17231
G1 X72.753 Y193.346 E31.18721
G1 X72.455 Y193.35 E31.20109
G1 X58.355 Y193.349 E31.85765
G1 X57.657 Y193.34 E31.89015
G1 X56.738 Y193.288 E31.93301
G1 X55.827 Y193.157 E31.97587
G1 X54.931 Y192.947 E32.01872
G1 X54.056 Y192.66 E32.0616
G1 X53.209 Y192.298 E32.10449
G1 X52.397 Y191.864 E32.14736
G1 X51.626 Y191.362 E32.1902
G1 X50.901 Y190.794 E32.23309
G1 X50.228 Y190.165 E32.27598
G1 X49.613 Y189.481 E32.31881
G1 X49.059 Y188.746 E32.36167
G1 X48.571 Y187.965 E32.40455
G1 X48.152 Y187.145 E32.44743
G1 X47.806 Y186.292 E32.4903
G1 X47.536 Y185.412 E32.53316
G1 X47.343 Y184.511 E32.57606
G1 X47.229 Y183.598 E32.61891
G1 X47.198 Y183.027 E32.64553
G1 X47.189 Y182.694 E32.66105
G1 X47.185 Y182.408 E32.67436
G1 X47.184 Y62.753 E38.246
G1 X47.182 Y62.712 E38.24791
G1 X47.186 Y61.685 E38.29574
G1 X47.186 Y57.78 E38.47757
G1 X47.196 Y57.113 E38.50863
G1 X47.25 Y56.194 E38.5515
G1 X47.383 Y55.283 E38.59437
G1 X47.595 Y54.387 E38.63724
G1 X47.884 Y53.513 E38.6801
G1 X48.247 Y52.667 E38.72297
G1 X48.683 Y51.856 E38.76585
G1 X49.187 Y51.086 E38.8087
G1 X49.757 Y50.362 E38.8516
G1 X50.266 Y49.811 E38.88653
G0 F6000 X50.55 Y50.092
G1 F1200 X50.66 Y49.981 E38.89381
G1 X51.323 Y49.369 E38.93582
G1 X52.038 Y48.817 E38.97788
G1 X52.8 Y48.331 E39.01997
G1 X53.601 Y47.914 E39.06202
G1 X54.435 Y47.569 E39.10404
G1 X55.297 Y47.3 E39.14609
G1 X56.18 Y47.108 E39.18817
G1 X57.076 Y46.995 E39.23022
G1 X57.537 Y46.968 E39.25172
G1 X58.127 Y46.947 E39.27921
G1 X60.724 Y46.817 E39.40029
G1 X63.297 Y46.615 E39.52047
G1 X65.785 Y46.35 E39.63698
G1 X68.307 Y46.009 E39.75548
G1 X70.82 Y45.596 E39.87407
G1 X73.333 Y45.11 E39.99325
G1 X75.847 Y44.549 E40.11319
G1 X78.253 Y43.939 E40.22877
G1 X80.705 Y43.244 E40.34744
G1 X82.79 Y42.591 E40.44918
G1 X83.008 Y42.526 E40.45977
G1 X83.884 Y42.307 E40.50182
G1 X84.776 Y42.166 E40.54387
G1 X85.901 Y42.101 E40.59634
G1 X86.888 Y42.099 E40.6423
G1 X87.079 Y42.1 E40.65119
G1 X90.372 Y42.155 E40.80455
G1 X91.263 Y42.182 E40.84606
G1 X92.163 Y42.25 E40.88809
G1 X93.055 Y42.397 E40.93018
G1 X94.231 Y42.719 E40.98696
G1 X96.764 Y43.58 E41.11153
G1 X99.193 Y44.329 E41.22989
G1 X101.627 Y45.006 E41.34753
G1 X104.128 Y45.625 E41.4675
G1 X106.544 Y46.154 E41.58267
G1 X109.063 Y46.627 E41.70201
G1 X111.711 Y47.049 E41.82687
G1 X112.151 Y47.114 E41.84758
G1 X113.038 Y47.284 E41.88963
G1 X113.906 Y47.533 E41.93168
G1 X114.749 Y47.857 E41.97373
G1 X115.56 Y48.255 E42.0158
G1 X116.332 Y48.723 E42.05784
G1 X117.06 Y49.257 E42.09988
G1 X117.738 Y49.854 E42.14194
G1 X118.16 Y50.284 E42.17
G1 X118.269 Y50.402 E42.17748
G1 X118.851 Y51.092 E42.21951
G1 X119.371 Y51.83 E42.26155
G1 X119.823 Y52.612 E42.30361
G1 X120.204 Y53.431 E42.34567
G1 X120.512 Y54.28 E42.38772
G1 X120.743 Y55.153 E42.42977
G1 X120.895 Y56.043 E42.47181
G1 X120.972 Y57.033 E42.51805
G1 X120.981 Y57.349 E42.53277
G1 X120.985 Y57.637 E42.54618
G1 X120.986 Y61.929 E42.74604
G1 X120.988 Y61.993 E42.74902
G1 X120.984 Y63.02 E42.79684
G1 X120.985 Y170.798 E47.81543
G1 X120.974 Y171.669 E47.856
G1 X120.922 Y172.57 E47.89802
G1 X120.79 Y173.464 E47.9401
G1 X120.579 Y174.342 E47.98215
G1 X120.292 Y175.198 E48.02419
G1 X119.93 Y176.025 E48.06622
G1 X119.497 Y176.818 E48.10829
G1 X118.995 Y177.568 E48.15032
G1 X118.428 Y178.272 E48.19241
G1 X117.802 Y178.922 E48.23443
G1 X117.12 Y179.515 E48.27651
G1 X116.389 Y180.045 E48.31856
G1 X115.751 Y180.433 E48.35333
G1 X114.86 Y180.931 E48.40086
G1 X114.252 Y181.26 E48.43305
G1 X112.023 Y182.548 E48.55292
G1 X109.904 Y183.854 E48.66882
G1 X107.914 Y185.159 E48.77963
G1 X107.683 Y185.305 E48.79236
G1 X107.526 Y185.402 E48.80095
G1 X106.738 Y185.843 E48.843
G1 X106.109 Y186.132 E48.87523
G1 X104.892 Y186.642 E48.93668
G1 X102.509 Y187.681 E49.05773
G1 X100.195 Y188.768 E49.17677
G1 X97.942 Y189.906 E49.2943
G1 X95.612 Y191.166 E49.41765
G1 X94.763 Y191.641 E49.46295
G1 X93.956 Y192.047 E49.50501
G1 X93.116 Y192.38 E49.54709
G1 X92.251 Y192.637 E49.58911
G1 X91.366 Y192.816 E49.63115
G1 X90.105 Y192.935 E49.69013
G1 X89.821 Y192.944 E49.70336
G1 X89.498 Y192.949 E49.7184
G1 X88.295 Y192.948 E49.77442
G1 X87.634 Y192.938 E49.8052
G1 X87.069 Y192.914 E49.83153
G1 X86.711 Y192.889 E49.84824
G1 X84.182 Y192.744 E49.9662
G1 X81.617 Y192.671 E50.08568
G1 X79.084 Y192.671 E50.20363
G1 X76.548 Y192.742 E50.32176
G1 X73.93 Y192.889 E50.44386
G1 X73.378 Y192.923 E50.46961
G1 X73.062 Y192.937 E50.48434
G1 X72.742 Y192.946 E50.49925
G1 X72.455 Y192.95 E50.51261
G1 X58.36 Y192.949 E51.16893
G1 X57.662 Y192.94 E51.20144
G1 X56.761 Y192.889 E51.24346
G1 X55.867 Y192.757 E51.28554
G1 X54.989 Y192.548 E51.32757
G1 X54.132 Y192.261 E51.36965
G1 X53.305 Y191.9 E51.41167
G1 X52.512 Y191.467 E51.45374
G1 X51.761 Y190.966 E51.49578
G1 X51.057 Y190.4 E51.53784
G1 X50.406 Y189.774 E51.57989
G1 X49.813 Y189.093 E51.62194
G1 X49.283 Y188.362 E51.66398
G1 X48.819 Y187.587 E51.70604
G1 X48.425 Y186.774 E51.74811
G1 X48.105 Y185.93 E51.79014
G1 X47.861 Y185.06 E51.83222
G1 X47.695 Y184.172 E51.87428
G1 X47.598 Y183.017 E51.92825
G1 X47.589 Y182.684 E51.94376
G1 X47.585 Y182.408 E51.95662
G1 X47.584 Y62.777 E57.52714
G1 X47.582 Y62.713 E57.53012
G1 X47.586 Y61.686 E57.57794
G1 X47.586 Y57.786 E57.75954
G1 X47.596 Y57.119 E57.7906
G1 X47.65 Y56.218 E57.83263
G1 X47.783 Y55.324 E57.87472
G1 X47.994 Y54.446 E57.91677
G1 X48.283 Y53.591 E57.95879
G1 X48.645 Y52.764 E58.00083
G1 X49.08 Y51.972 E58.0429
G1 X49.583 Y51.222 E58.08495
G1 X50.15 Y50.519 E58.12701
G1 X50.55 Y50.092 E58.15425
G1 F2700 E53.15425
G0 F6000 X88.306 Y57.371
G1 F2700 E58.15425
G1 F1200 X88.422 Y57.897 E58.17933
G1 X88.519 Y58.153 E58.19208
G1 X88.132 Y58.153 E58.2101
G1 X88.278 Y57.641 E58.23489
G1 X88.306 Y57.371 E58.24753
G0 F6000 X88.703 Y57.329
G1 F1200 X88.822 Y57.836 E58.27178
G1 X89.017 Y58.319 E58.29604
G1 X89.156 Y58.553 E58.30871
G1 X87.571 Y58.553 E58.38251
G1 X87.497 Y58.559 E58.38597
G1 X87.575 Y58.434 E58.39283
G1 X87.779 Y57.954 E58.41712
G1 X87.907 Y57.449 E58.44138
G1 X87.957 Y56.868 E58.46853
G1 X87.957 Y55.717 E58.52212
G1 X88.663 Y55.729 E58.555
G1 X88.663 Y56.809 E58.60529
G1 X88.703 Y57.329 E58.62958
G0 F6000 X89.503 Y57.263
G1 F1200 X89.621 Y57.703 E58.65079
G1 X89.815 Y58.115 E58.672
G1 X90.205 Y58.628 E58.702
G1 X90.484 Y58.913 E58.72057
G1 X90.83 Y59.209 E58.74178
G1 X91.074 Y59.353 E58.75497
G1 X87.571 Y59.353 E58.91808
G1 X87.117 Y59.393 E58.9393
G1 X86.677 Y59.511 E58.96052
G1 X86.265 Y59.705 E58.98172
G1 X85.733 Y60.115 E59.013
G1 X85.147 Y60.701 E59.05159
G1 X84.854 Y61.05 E59.0728
G1 X84.627 Y61.445 E59.09402
G1 X84.472 Y61.873 E59.11521
G1 X84.385 Y62.539 E59.14649
G1 X84.385 Y179.241 E64.58062
G1 X76.185 Y179.241 E64.96245
G1 X76.185 Y62.539 E70.39658
G1 X76.145 Y62.085 E70.41781
G1 X76.027 Y61.645 E70.43902
G1 X75.833 Y61.233 E70.46022
G1 X75.423 Y60.701 E70.4915
G1 X74.837 Y60.115 E70.53009
G1 X74.488 Y59.822 E70.55131
G1 X74.363 Y59.75 E70.55802
G1 X84.275 Y59.75 E71.01957
G1 X84.729 Y59.71 E71.04079
G1 X85.169 Y59.592 E71.062
G1 X85.581 Y59.398 E71.08321
G1 X86.113 Y58.988 E71.11448
G1 X86.395 Y58.706 E71.13305
G1 X86.688 Y58.357 E71.15427
G1 X86.915 Y57.962 E71.17548
G1 X87.07 Y57.534 E71.19668
G1 X87.157 Y56.868 E71.22796
G1 X87.157 Y54.904 E71.31941
G1 X89.463 Y54.942 E71.4268
G1 X89.463 Y56.809 E71.51373
G1 X89.503 Y57.263 E71.53496
G0 F6000 X87.531 Y57.263
G1 F1200 X87.557 Y56.868 E71.55339
G1 X87.557 Y55.311 E71.62589
G1 X89.063 Y55.336 E71.69602
G1 X89.063 Y56.809 E71.76461
G1 X89.103 Y57.297 E71.78741
G1 X89.222 Y57.772 E71.81022
G1 X89.416 Y58.221 E71.83299
G1 X89.681 Y58.633 E71.8558
G1 X89.919 Y58.908 E71.87274
