;FLAVOR:Marlin
;TIME:987
;Filament used: 0.824008m
;Layer height: 0.28
;MINX:85.489
;MINY:94.91
;MINZ:0.28
;MAXX:147.64
;MAXY:140.09
;MAXZ:7
;Generated with Cura_SteamEngine 4.6.1
M140 S50
M105
M190 S50
M104 S210
M105
M109 S210
M82 ;absolute extrusion mode
; Ender 3 Custom Start G-code
G92 E0 ; Reset Extruder
G28 ; Home all axes
G1 Z2.0 F3000 ; Move Z Axis up little to prevent scratching of Heat Bed
G1 X0.1 Y20 Z0.3 F5000.0 ; Move to start position
G1 X0.1 Y200.0 Z0.3 F1500.0 E15 ; Draw the first line
G1 X0.4 Y200.0 Z0.3 F5000.0 ; Move to side a little
G1 X0.4 Y20 Z0.3 F1500.0 E30 ; Draw the second line
G92 E0 ; Reset Extruder
G1 Z2.0 F3000 ; Move Z Axis up little to prevent scratching of Heat Bed
G1 X5 Y20 Z0.3 F5000.0 ; Move over to prevent blob squish
G92 E0
G92 E0
G1 F2700 E-5
;LAYER_COUNT:25
;LAYER:0
M107
G0 F6000 X136.777 Y95.721 Z0.28
;TYPE:SKIRT
G1 F2700 E0
G1 F1200 X137.679 Y95.774 E0.04207
G1 X138.572 Y95.906 E0.08411
G1 X139.45 Y96.117 E0.12615
G1 X140.306 Y96.405 E0.16821
G1 X141.133 Y96.767 E0.21025
G1 X141.925 Y97.202 E0.25232
G1 X142.676 Y97.704 E0.29438
G1 X143.379 Y98.271 E0.33644
G1 X144.029 Y98.898 E0.37849
G1 X144.621 Y99.58 E0.42054
G1 X145.151 Y100.311 E0.46259
G1 X145.613 Y101.087 E0.50464
G1 X146.006 Y101.9 E0.54669
G1 X146.324 Y102.745 E0.58873
G1 X146.567 Y103.615 E0.63079
G1 X146.732 Y104.503 E0.67285
G1 X146.827 Y105.634 E0.7257
G1 X146.84 Y106.241 E0.75397
G1 X146.84 Y128.496 E1.79025
G1 X146.831 Y129.21 E1.8235
G1 X146.78 Y130.111 E1.86552
G1 X146.649 Y131.005 E1.9076
G1 X146.44 Y131.883 E1.94962
G1 X146.153 Y132.74 E1.99171
G1 X145.792 Y133.568 E2.03377
G1 X145.359 Y134.36 E2.0758
G1 X144.858 Y135.112 E2.11787
G1 X144.293 Y135.816 E2.15991
G1 X143.667 Y136.467 E2.20196
G1 X142.986 Y137.06 E2.24401
G1 X142.255 Y137.591 E2.28608
G1 X141.481 Y138.055 E2.3281
G1 X140.668 Y138.449 E2.37017
G1 X139.823 Y138.769 E2.41224
G1 X138.954 Y139.013 E2.45427
G1 X138.066 Y139.18 E2.49634
G1 X136.926 Y139.277 E2.54962
G1 X136.319 Y139.29 E2.57789
G1 X97.497 Y139.287 E4.3856
G1 X96.797 Y139.277 E4.4182
G1 X95.896 Y139.224 E4.46023
G1 X95.002 Y139.092 E4.50231
G1 X94.124 Y138.881 E4.54436
G1 X93.544 Y138.695 E4.57272
G1 X93.213 Y138.578 E4.58907
G1 X92.375 Y138.24 E4.63114
G1 X91.571 Y137.828 E4.67321
G1 X90.807 Y137.348 E4.71522
G1 X90.322 Y136.992 E4.74324
G1 X89.628 Y136.413 E4.78532
G1 X88.988 Y135.776 E4.82737
G1 X88.407 Y135.085 E4.86941
G1 X87.89 Y134.345 E4.91144
G1 X87.439 Y133.562 E4.95352
G1 X87.06 Y132.742 E4.99558
G1 X86.755 Y131.892 E5.03763
G1 X86.527 Y131.018 E5.07969
G1 X86.376 Y130.128 E5.12172
G1 X86.304 Y129.189 E5.16558
G1 X86.289 Y128.367 E5.20386
G1 X86.291 Y106.645 E6.21532
G1 X86.301 Y105.972 E6.24667
G1 X86.355 Y105.071 E6.2887
G1 X86.487 Y104.178 E6.33073
G1 X86.699 Y103.3 E6.37279
G1 X86.987 Y102.444 E6.41484
G1 X87.35 Y101.617 E6.4569
G1 X87.784 Y100.825 E6.49895
G1 X88.287 Y100.075 E6.541
G1 X88.855 Y99.372 E6.58308
G1 X89.482 Y98.722 E6.62514
G1 X90.164 Y98.131 E6.66716
G1 X90.896 Y97.601 E6.70924
G1 X91.347 Y97.321 E6.73396
G1 X91.634 Y97.153 E6.74944
G1 X92.433 Y96.732 E6.7915
G1 X93.266 Y96.383 E6.83355
G1 X94.127 Y96.109 E6.87562
G1 X95.179 Y95.884 E6.92572
G1 X95.417 Y95.846 E6.93694
G1 X96.314 Y95.743 E6.97898
G1 X96.898 Y95.719 E7.0062
G1 X97.668 Y95.71 E7.04206
G1 X136.079 Y95.711 E8.83063
G1 X136.777 Y95.721 E8.86314
G0 F6000 X136.783 Y95.321
G1 F1200 X137.702 Y95.374 E8.906
G1 X138.613 Y95.507 E8.94887
G1 X139.509 Y95.718 E8.99173
G1 X140.383 Y96.006 E9.03458
G1 X141.23 Y96.369 E9.07749
G1 X142.041 Y96.804 E9.12035
G1 X142.811 Y97.308 E9.1632
G1 X143.535 Y97.877 E9.20608
G1 X144.207 Y98.507 E9.24897
G1 X144.822 Y99.192 E9.29183
G1 X145.375 Y99.928 E9.3347
G1 X145.862 Y100.709 E9.37756
G1 X146.279 Y101.53 E9.42044
G1 X146.624 Y102.384 E9.46332
G1 X146.893 Y103.264 E9.50617
G1 X147.085 Y104.165 E9.54907
G1 X147.198 Y105.078 E9.59191
G1 X147.227 Y105.623 E9.61732
G1 X147.24 Y106.241 E9.6461
G1 X147.24 Y128.501 E10.68262
G1 X147.231 Y129.215 E10.71587
G1 X147.18 Y130.134 E10.75873
G1 X147.048 Y131.045 E10.80159
G1 X146.839 Y131.942 E10.84448
G1 X146.552 Y132.816 E10.88731
G1 X146.19 Y133.663 E10.93021
G1 X145.757 Y134.475 E10.97306
G1 X145.254 Y135.247 E11.01596
G1 X144.687 Y135.972 E11.05882
G1 X144.059 Y136.645 E11.10168
G1 X143.374 Y137.26 E11.14455
G1 X142.639 Y137.815 E11.18743
G1 X141.859 Y138.303 E11.23027
G1 X141.039 Y138.722 E11.27315
G1 X140.185 Y139.068 E11.31606
G1 X139.306 Y139.338 E11.35888
G1 X138.405 Y139.532 E11.40179
G1 X137.492 Y139.646 E11.44463
G1 X136.938 Y139.677 E11.47047
G1 X136.319 Y139.69 E11.4993
G1 X97.492 Y139.687 E13.30725
G1 X96.792 Y139.677 E13.33985
G1 X95.872 Y139.624 E13.38276
G1 X94.961 Y139.491 E13.42563
G1 X94.065 Y139.28 E13.46849
G1 X93.41 Y139.072 E13.50049
G1 X93.079 Y138.955 E13.51684
G1 X92.225 Y138.611 E13.55971
G1 X91.405 Y138.194 E13.60254
G1 X90.623 Y137.707 E13.64544
G1 X90.079 Y137.31 E13.6768
G1 X89.372 Y136.721 E13.71965
G1 X88.718 Y136.073 E13.76252
G1 X88.123 Y135.371 E13.80537
G1 X87.59 Y134.619 E13.84829
G1 X87.126 Y133.825 E13.89111
G1 X86.731 Y132.993 E13.934
G1 X86.411 Y132.13 E13.97685
G1 X86.167 Y131.242 E14.01974
G1 X86 Y130.337 E14.06259
G1 X85.904 Y129.201 E14.11567
G1 X85.889 Y128.367 E14.15451
G1 X85.891 Y106.64 E15.16621
G1 X85.901 Y105.967 E15.19756
G1 X85.955 Y105.047 E15.24047
G1 X86.088 Y104.136 E15.28334
G1 X86.3 Y103.24 E15.32621
G1 X86.588 Y102.366 E15.36906
G1 X86.952 Y101.52 E15.41195
G1 X87.387 Y100.709 E15.4548
G1 X87.892 Y99.939 E15.49768
G1 X88.461 Y99.215 E15.54055
G1 X89.091 Y98.544 E15.58341
G1 X89.776 Y97.929 E15.62628
G1 X90.513 Y97.377 E15.66915
G1 X91.145 Y96.976 E15.70401
G1 X91.432 Y96.808 E15.71949
G1 X92.246 Y96.378 E15.76236
G1 X93.094 Y96.02 E15.80522
G1 X93.97 Y95.737 E15.84809
G1 X95.116 Y95.489 E15.90268
G1 X95.354 Y95.451 E15.91391
G1 X96.268 Y95.345 E15.95675
G1 X96.893 Y95.319 E15.98588
G1 X97.668 Y95.31 E16.02197
G1 X136.085 Y95.311 E17.81082
G1 X136.783 Y95.321 E17.84333
G0 F6000 X136.789 Y94.921
G1 F1200 X137.725 Y94.975 E17.88699
G1 X138.653 Y95.107 E17.93063
G1 X139.567 Y95.319 E17.97432
G1 X140.459 Y95.608 E18.01798
G1 X141.324 Y95.971 E18.06166
G1 X142.154 Y96.407 E18.10532
G1 X142.945 Y96.912 E18.14902
G1 X143.689 Y97.483 E18.19269
G1 X144.382 Y98.115 E18.23636
G1 X145.019 Y98.803 E18.28002
G1 X145.594 Y99.544 E18.3237
G1 X146.105 Y100.33 E18.36735
G1 X146.547 Y101.158 E18.41105
G1 X146.916 Y102.02 E18.45472
G1 X147.211 Y102.91 E18.49838
G1 X147.429 Y103.822 E18.54204
G1 X147.569 Y104.75 E18.58574
G1 X147.627 Y105.612 E18.62597
G1 X147.64 Y106.241 E18.65526
G1 X147.64 Y128.506 E19.69201
G1 X147.631 Y129.22 E19.72526
G1 X147.579 Y130.156 E19.76892
G1 X147.448 Y131.085 E19.8126
G1 X147.238 Y131.999 E19.85627
G1 X146.951 Y132.892 E19.89995
G1 X146.589 Y133.757 E19.94361
G1 X146.154 Y134.588 E19.98729
G1 X145.651 Y135.379 E20.03093
G1 X145.081 Y136.124 E20.07461
G1 X144.451 Y136.819 E20.11829
G1 X143.763 Y137.456 E20.16195
G1 X143.024 Y138.033 E20.20561
G1 X142.238 Y138.545 E20.24929
G1 X141.411 Y138.988 E20.29297
G1 X140.55 Y139.36 E20.33665
G1 X139.66 Y139.656 E20.38032
G1 X138.748 Y139.875 E20.424
G1 X137.821 Y140.017 E20.46766
G1 X136.949 Y140.076 E20.50836
G1 X136.319 Y140.09 E20.5377
G1 X97.486 Y140.087 E22.34593
G1 X96.786 Y140.077 E22.37853
G1 X95.85 Y140.024 E22.42218
G1 X94.921 Y139.891 E22.46588
G1 X94.007 Y139.679 E22.50957
G1 X93.277 Y139.449 E22.54521
G1 X92.946 Y139.332 E22.56156
G1 X92.076 Y138.982 E22.60522
G1 X91.239 Y138.559 E22.64889
G1 X90.441 Y138.067 E22.69255
G1 X89.837 Y137.628 E22.72731
G1 X89.116 Y137.029 E22.77096
G1 X88.448 Y136.37 E22.81466
G1 X87.839 Y135.657 E22.85832
G1 X87.293 Y134.895 E22.90197
G1 X86.813 Y134.089 E22.94565
G1 X86.404 Y133.245 E22.98932
G1 X86.069 Y132.369 E23.03299
G1 X85.809 Y131.468 E23.07666
G1 X85.627 Y130.548 E23.12033
G1 X85.504 Y129.213 E23.18275
G1 X85.489 Y128.366 E23.2222
G1 X85.491 Y106.634 E24.23413
G1 X85.501 Y105.961 E24.26547
G1 X85.555 Y105.024 E24.30918
G1 X85.689 Y104.096 E24.35284
G1 X85.901 Y103.182 E24.39653
G1 X86.19 Y102.29 E24.44019
G1 X86.554 Y101.426 E24.48384
G1 X86.99 Y100.596 E24.5275
G1 X87.496 Y99.806 E24.57118
G1 X88.067 Y99.062 E24.61486
G1 X88.699 Y98.369 E24.65853
G1 X89.388 Y97.733 E24.70219
G1 X90.128 Y97.157 E24.74586
G1 X90.943 Y96.631 E24.79102
G1 X91.23 Y96.463 E24.80651
G1 X92.059 Y96.024 E24.85019
G1 X92.922 Y95.657 E24.89386
G1 X93.813 Y95.366 E24.9375
G1 X95.053 Y95.094 E24.99661
G1 X95.291 Y95.056 E25.00784
G1 X96.222 Y94.947 E25.05148
G1 X96.888 Y94.919 E25.08252
G1 X97.668 Y94.91 E25.11884
G1 X136.091 Y94.911 E26.90798
G1 X136.789 Y94.921 E26.94049
G1 F2700 E21.94049
;MESH:Tippmann_TMC+TiPX_Mag_Loader_-_Slide.STL
G0 F6000 X123.473 Y112.814
G0 X124.706 Y112.041
G0 X125.714 Y115.372
G0 X125.939 Y117.066
G0 X125.865 Y118.772
G0 X125.497 Y120.44
G0 X124.843 Y122.018
G0 X123.928 Y123.46
G0 X122.774 Y124.721
G0 X121.419 Y125.76
G0 X119.906 Y126.55
G0 X118.588 Y126.965
G0 X116.244 Y127.459
;TYPE:WALL-INNER
G1 F2700 E26.94049
G1 F1200 X116.592 Y127.45 E26.9567
G1 X116.939 Y127.428 E26.97289
G1 X117.285 Y127.394 E26.98907
G1 X117.628 Y127.349 E27.00518
G1 X117.973 Y127.291 E27.02147
G1 X118.313 Y127.22 E27.03765
G1 X118.649 Y127.14 E27.05373
G1 X118.985 Y127.048 E27.06995
G1 X119.318 Y126.942 E27.08622
G1 X119.643 Y126.826 E27.10229
G1 X119.968 Y126.699 E27.11854
G1 X120.286 Y126.56 E27.1347
G1 X120.6 Y126.41 E27.1509
G1 X120.909 Y126.249 E27.16713
G1 X121.211 Y126.076 E27.18333
G1 X121.506 Y125.895 E27.19945
G1 X121.795 Y125.704 E27.21558
G1 X122.079 Y125.502 E27.23181
G1 X122.356 Y125.288 E27.24811
G1 X122.621 Y125.069 E27.26412
G1 X122.883 Y124.839 E27.28035
G1 X123.136 Y124.598 E27.29662
G1 X123.378 Y124.35 E27.31275
G1 X123.614 Y124.094 E27.32897
G1 X123.839 Y123.829 E27.34515
G1 X124.055 Y123.558 E27.36129
G1 X124.262 Y123.278 E27.37751
G1 X124.459 Y122.99 E27.39375
G1 X124.645 Y122.697 E27.40991
G1 X124.822 Y122.397 E27.42613
G1 X124.986 Y122.093 E27.44222
G1 X125.142 Y121.783 E27.45838
G1 X125.286 Y121.465 E27.47463
G1 X125.418 Y121.143 E27.49084
G1 X125.54 Y120.818 E27.507
G1 X125.65 Y120.489 E27.52315
G1 X125.748 Y120.155 E27.53936
G1 X125.836 Y119.818 E27.55558
G1 X125.91 Y119.479 E27.57174
G1 X125.974 Y119.138 E27.58789
G1 X126.025 Y118.793 E27.60413
G1 X126.063 Y118.448 E27.62029
G1 X126.091 Y118.102 E27.63646
G1 X126.106 Y117.754 E27.65268
G1 X126.109 Y117.406 E27.66888
G1 X126.1 Y117.058 E27.68509
G1 X126.078 Y116.711 E27.70128
G1 X126.044 Y116.365 E27.71747
G1 X125.999 Y116.022 E27.73358
G1 X125.941 Y115.677 E27.74987
G1 X125.87 Y115.337 E27.76604
G1 X125.79 Y115.001 E27.78213
G1 X125.698 Y114.665 E27.79835
G1 X125.592 Y114.332 E27.81462
G1 X125.476 Y114.007 E27.83069
G1 X125.349 Y113.682 E27.84694
G1 X125.21 Y113.364 E27.8631
G1 X125.06 Y113.05 E27.8793
G1 X124.899 Y112.741 E27.89552
G1 X124.726 Y112.439 E27.91173
G1 X124.545 Y112.144 E27.92785
G1 X124.354 Y111.855 E27.94398
G1 X124.152 Y111.571 E27.9602
G1 X123.938 Y111.294 E27.9765
G1 X123.719 Y111.029 E27.99251
G1 X123.489 Y110.767 E28.00875
G1 X123.248 Y110.514 E28.02502
G1 X123 Y110.272 E28.04115
G1 X122.744 Y110.036 E28.05736
G1 X122.479 Y109.811 E28.07355
G1 X122.208 Y109.595 E28.08969
G1 X121.928 Y109.388 E28.1059
G1 X121.64 Y109.191 E28.12215
G1 X121.347 Y109.005 E28.13831
G1 X121.047 Y108.828 E28.15453
G1 X120.743 Y108.664 E28.17061
G1 X120.433 Y108.508 E28.18677
G1 X120.115 Y108.364 E28.20303
G1 X119.793 Y108.232 E28.21923
G1 X119.468 Y108.11 E28.2354
G1 X119.139 Y108 E28.25155
G1 X118.805 Y107.901 E28.26777
G1 X118.469 Y107.815 E28.28392
G1 X118.218 Y107.758 E28.29591
G1 X117.79 Y107.677 E28.31619
G1 X117.442 Y107.625 E28.33257
G1 X117.098 Y107.587 E28.34869
G1 X116.752 Y107.559 E28.36485
G1 X116.404 Y107.544 E28.38107
G1 X116.056 Y107.541 E28.39728
G1 X115.708 Y107.55 E28.41349
G1 X115.361 Y107.572 E28.42968
G1 X115.015 Y107.606 E28.44587
G1 X114.672 Y107.651 E28.46197
G1 X114.327 Y107.709 E28.47826
G1 X113.987 Y107.78 E28.49444
G1 X113.651 Y107.86 E28.51052
G1 X113.315 Y107.952 E28.52674
G1 X112.982 Y108.058 E28.54301
G1 X112.657 Y108.174 E28.55908
G1 X112.332 Y108.301 E28.57533
G1 X112.014 Y108.44 E28.59149
G1 X111.7 Y108.59 E28.60769
G1 X111.391 Y108.751 E28.62392
G1 X111.089 Y108.924 E28.64013
G1 X110.794 Y109.105 E28.65624
G1 X110.505 Y109.296 E28.67237
G1 X110.221 Y109.498 E28.6886
G1 X109.944 Y109.712 E28.7049
G1 X109.679 Y109.931 E28.72091
G1 X109.417 Y110.161 E28.73714
G1 X109.164 Y110.402 E28.75341
G1 X108.922 Y110.65 E28.76955
G1 X108.686 Y110.906 E28.78576
G1 X108.461 Y111.171 E28.80195
G1 X108.245 Y111.442 E28.81808
G1 X108.038 Y111.722 E28.8343
G1 X107.841 Y112.01 E28.85054
G1 X107.655 Y112.303 E28.8667
G1 X107.478 Y112.603 E28.88292
G1 X107.314 Y112.907 E28.89901
G1 X107.158 Y113.217 E28.91517
G1 X107.014 Y113.535 E28.93142
G1 X106.882 Y113.857 E28.94763
G1 X106.76 Y114.182 E28.96379
G1 X106.65 Y114.511 E28.97994
G1 X106.552 Y114.845 E28.99615
G1 X106.464 Y115.182 E29.01237
G1 X106.39 Y115.521 E29.02853
G1 X106.326 Y115.862 E29.04468
G1 X106.275 Y116.207 E29.06092
G1 X106.237 Y116.552 E29.07708
G1 X106.209 Y116.898 E29.09325
G1 X106.194 Y117.246 E29.10947
G1 X106.191 Y117.594 E29.12567
G1 X106.2 Y117.942 E29.14188
G1 X106.222 Y118.289 E29.15807
G1 X106.256 Y118.635 E29.17426
G1 X106.301 Y118.978 E29.19037
G1 X106.359 Y119.323 E29.20666
G1 X106.43 Y119.663 E29.22283
G1 X106.51 Y119.999 E29.23892
G1 X106.602 Y120.335 E29.25514
G1 X106.708 Y120.668 E29.27141
G1 X106.824 Y120.993 E29.28748
G1 X106.951 Y121.318 E29.30373
G1 X107.09 Y121.636 E29.31989
G1 X107.24 Y121.95 E29.33609
G1 X107.401 Y122.259 E29.35231
G1 X107.574 Y122.561 E29.36852
G1 X107.755 Y122.856 E29.38464
G1 X107.946 Y123.145 E29.40077
G1 X108.148 Y123.429 E29.417
G1 X108.362 Y123.706 E29.43329
G1 X108.581 Y123.971 E29.4493
G1 X108.811 Y124.233 E29.46554
G1 X109.052 Y124.486 E29.48181
G1 X109.3 Y124.728 E29.49794
G1 X109.556 Y124.964 E29.51415
G1 X109.821 Y125.189 E29.53034
G1 X110.092 Y125.405 E29.54648
G1 X110.372 Y125.612 E29.56269
G1 X110.66 Y125.809 E29.57894
G1 X110.953 Y125.995 E29.5951
G1 X111.253 Y126.172 E29.61132
G1 X111.557 Y126.336 E29.6274
G1 X111.867 Y126.492 E29.64356
G1 X112.185 Y126.636 E29.65982
G1 X112.507 Y126.768 E29.67602
G1 X112.832 Y126.89 E29.69219
G1 X113.161 Y127 E29.70834
G1 X113.495 Y127.098 E29.72455
G1 X113.832 Y127.186 E29.74077
G1 X114.171 Y127.26 E29.75692
G1 X114.512 Y127.324 E29.77308
G1 X114.857 Y127.375 E29.78932
G1 X115.202 Y127.413 E29.80548
G1 X115.548 Y127.441 E29.82164
G1 X115.896 Y127.456 E29.83786
G1 X116.244 Y127.459 E29.85407
G0 F6000 X116.24 Y127.059
;TYPE:WALL-OUTER
G1 F1200 X116.574 Y127.05 E29.86963
G1 X116.907 Y127.029 E29.88516
G1 X117.239 Y126.997 E29.90069
G1 X117.569 Y126.953 E29.9162
G1 X117.899 Y126.898 E29.93177
G1 X118.226 Y126.83 E29.94733
G1 X118.549 Y126.753 E29.96279
G1 X118.871 Y126.664 E29.97834
G1 X119.19 Y126.563 E29.99393
G1 X119.503 Y126.451 E30.0094
G1 X119.815 Y126.329 E30.025
G1 X120.12 Y126.196 E30.0405
G1 X120.421 Y126.052 E30.05603
G1 X120.717 Y125.898 E30.07157
G1 X121.007 Y125.732 E30.08713
G1 X121.291 Y125.558 E30.10264
G1 X121.569 Y125.374 E30.11816
G1 X121.841 Y125.181 E30.13369
G1 X122.106 Y124.976 E30.14929
G1 X122.362 Y124.764 E30.16477
G1 X122.613 Y124.544 E30.18031
G1 X122.855 Y124.313 E30.19589
G1 X123.088 Y124.075 E30.2114
G1 X123.314 Y123.829 E30.22695
G1 X123.53 Y123.575 E30.24248
G1 X123.738 Y123.314 E30.25802
G1 X123.936 Y123.046 E30.27354
G1 X124.125 Y122.77 E30.28911
G1 X124.304 Y122.488 E30.30467
G1 X124.473 Y122.201 E30.32017
G1 X124.631 Y121.908 E30.33568
G1 X124.781 Y121.61 E30.35121
G1 X124.919 Y121.306 E30.36676
G1 X125.046 Y120.997 E30.38231
G1 X125.163 Y120.685 E30.39783
G1 X125.268 Y120.369 E30.41333
G1 X125.363 Y120.048 E30.42892
G1 X125.447 Y119.725 E30.44446
G1 X125.518 Y119.4 E30.45995
G1 X125.579 Y119.072 E30.47549
G1 X125.628 Y118.741 E30.49107
G1 X125.665 Y118.41 E30.50658
G1 X125.692 Y118.077 E30.52213
G1 X125.706 Y117.744 E30.53765
G1 X125.709 Y117.41 E30.55321
G1 X125.7 Y117.076 E30.56876
G1 X125.679 Y116.743 E30.5843
G1 X125.647 Y116.411 E30.59983
G1 X125.603 Y116.081 E30.61533
