;FLAVOR:Marlin
;TIME:4698
;Filament used: 2.89119m
;Layer height: 0.2
;MINX:60.578
;MINY:62.008
;MINZ:0.2
;MAXX:174.432
;MAXY:172.878
;MAXZ:5.2
;Generated with Cura_SteamEngine 4.7.0
M140 S55
M105
M190 S55
M104 S210
M105
M109 S210
M82 ;absolute extrusion mode
; Ender 3 Custom Start G-code
G92 E0 ; Reset Extruder
G28 ; Home all axes
G1 Z2.0 F3000 ; Move Z Axis up little to prevent scratching of Heat Bed
G1 X0.1 Y20 Z0.3 F5000.0 ; Move to start position
G1 X0.1 Y200.0 Z0.3 F1500.0 E15 ; Draw the first line
G1 X0.4 Y200.0 Z0.3 F5000.0 ; Move to side a little
G1 X0.4 Y20 Z0.3 F1500.0 E30 ; Draw the second line
G92 E0 ; Reset Extruder
G1 Z2.0 F3000 ; Move Z Axis up little to prevent scratching of Heat Bed
G1 X5 Y20 Z0.3 F5000.0 ; Move over to prevent blob squish
G92 E0
G92 E0
G1 F2700 E-5
;LAYER_COUNT:26
;LAYER:0
M107
G0 F6000 X110.172 Y67.682 Z0.2
;TYPE:SKIRT
G1 F2700 E0
G1 F1200 X110.725 Y66.924 E0.03121
G1 X111.339 Y66.215 E0.0624
G1 X112.012 Y65.562 E0.09359
G1 X112.738 Y64.968 E0.12479
G1 X113.512 Y64.439 E0.15597
G1 X114.328 Y63.977 E0.18716
G1 X115.181 Y63.586 E0.21837
G1 X116.064 Y63.27 E0.24956
G1 X116.97 Y63.029 E0.28074
G1 X117.494 Y62.928 E0.29849
G1 X117.73 Y62.888 E0.30645
G1 X117.971 Y62.85 E0.31457
G1 X118.274 Y62.806 E0.32475
G1 X123.029 Y62.162 E0.48435
G1 X123.712 Y62.08 E0.50723
G1 X124.647 Y62.008 E0.53842
G1 X125.585 Y62.016 E0.56962
G1 X126.518 Y62.104 E0.60079
G1 X127.441 Y62.271 E0.63199
G1 X128.347 Y62.516 E0.6632
G1 X129.228 Y62.837 E0.69439
G1 X129.768 Y63.078 E0.71406
G1 X130.314 Y63.34 E0.7342
G1 X131.815 Y64.083 E0.7899
G1 X134.122 Y65.146 E0.87439
G1 X136.416 Y66.125 E0.95734
G1 X138.728 Y67.035 E1.03998
G1 X141.149 Y67.911 E1.12562
G1 X143.511 Y68.688 E1.20832
G1 X145.951 Y69.417 E1.29302
G1 X148.339 Y70.056 E1.37524
G1 X150.827 Y70.649 E1.46031
G1 X153.242 Y71.153 E1.54236
G1 X155.749 Y71.602 E1.62707
G1 X158.263 Y71.978 E1.71162
G1 X160.719 Y72.276 E1.7939
G1 X163.276 Y72.51 E1.8793
G1 X163.471 Y72.53 E1.88582
G1 X164.399 Y72.666 E1.91702
G1 X165.313 Y72.88 E1.94824
G1 X166.204 Y73.171 E1.97942
G1 X167.068 Y73.537 E2.01062
G1 X167.897 Y73.975 E2.04181
G1 X168.686 Y74.482 E2.073
G1 X169.429 Y75.054 E2.10419
G1 X170.12 Y75.688 E2.13538
G1 X170.755 Y76.378 E2.16657
G1 X171.329 Y77.12 E2.19777
G1 X171.837 Y77.908 E2.22895
G1 X172.277 Y78.736 E2.26014
G1 X172.644 Y79.599 E2.29133
G1 X172.937 Y80.49 E2.32253
G1 X173.146 Y81.371 E2.35264
G1 X173.205 Y81.674 E2.36291
G1 X173.26 Y81.98 E2.37325
G1 X174.207 Y87.709 E2.56638
G1 X174.31 Y88.39 E2.58929
G1 X174.411 Y89.322 E2.62047
G1 X174.432 Y90.26 E2.65168
G1 X174.373 Y91.196 E2.68287
G1 X174.234 Y92.124 E2.71408
G1 X174.017 Y93.036 E2.74526
G1 X173.621 Y94.186 E2.78571
G1 X173.359 Y94.829 E2.80881
G1 X172.852 Y96.02 E2.85186
G1 X171.939 Y98.349 E2.93506
G1 X171.075 Y100.748 E3.01987
G1 X170.293 Y103.123 E3.10303
G1 X169.578 Y105.525 E3.18639
G1 X168.933 Y107.943 E3.26962
G1 X168.343 Y110.43 E3.35464
G1 X167.843 Y112.838 E3.43644
G1 X167.396 Y115.342 E3.52104
G1 X167.027 Y117.819 E3.60433
G1 X166.634 Y121.213 E3.71797
G1 X166.606 Y121.492 E3.7273
G1 X166.474 Y122.421 E3.75851
G1 X166.264 Y123.335 E3.7897
G1 X165.977 Y124.227 E3.82086
G1 X165.614 Y125.093 E3.85209
G1 X165.18 Y125.924 E3.88328
G1 X164.676 Y126.715 E3.91447
G1 X164.106 Y127.46 E3.94567
G1 X163.475 Y128.154 E3.97687
G1 X162.786 Y128.793 E4.00812
G1 X162.077 Y129.396 E4.03908
G1 X161.915 Y129.531 E4.04609
G1 X160.51 Y130.68 E4.10646
G1 X158.521 Y132.354 E4.19293
G1 X156.635 Y134.036 E4.27698
G1 X154.812 Y135.754 E4.36029
G1 X153.023 Y137.541 E4.4444
G1 X151.323 Y139.335 E4.5266
G1 X149.596 Y141.267 E4.61279
G1 X148.005 Y143.15 E4.69478
G1 X146.435 Y145.117 E4.77849
G1 X144.906 Y147.151 E4.86312
G1 X143.452 Y149.203 E4.94677
G1 X142.056 Y151.295 E5.03042
G1 X140.725 Y153.417 E5.11373
G1 X139.456 Y155.574 E5.19697
G1 X137.967 Y158.284 E5.29981
G1 X137.722 Y158.717 E5.31636
G1 X137.534 Y159.036 E5.32867
G1 X137.384 Y159.281 E5.33823
G1 X137.107 Y159.718 E5.35544
G1 X136.929 Y159.99 E5.36625
G1 X136.833 Y160.132 E5.37195
G1 X136.684 Y160.347 E5.38065
G1 X136.376 Y160.78 E5.39832
G1 X136.156 Y161.079 E5.41067
G1 X135.948 Y161.351 E5.42206
G1 X135.638 Y161.742 E5.43865
G1 X135.452 Y161.969 E5.44841
G1 X135.169 Y162.303 E5.46298
G1 X134.847 Y162.669 E5.47919
G1 X134.645 Y162.892 E5.4892
G1 X134.513 Y163.034 E5.49564
G1 X134.307 Y163.25 E5.50557
G1 X133.938 Y163.626 E5.52309
G1 X133.682 Y163.878 E5.53504
G1 X133.478 Y164.072 E5.54441
G1 X133.048 Y164.469 E5.56387
G1 X132.615 Y164.849 E5.58303
G1 X132.119 Y165.261 E5.60448
G1 X131.869 Y165.462 E5.61515
G1 X131.754 Y165.552 E5.62
G1 X131.551 Y165.707 E5.6285
G1 X131.138 Y166.015 E5.64563
G1 X130.833 Y166.234 E5.65812
G1 X130.566 Y166.418 E5.66891
G1 X130.137 Y166.704 E5.68606
G1 X129.875 Y166.873 E5.69643
G1 X129.709 Y166.977 E5.70294
G1 X129.481 Y167.116 E5.71182
G1 X129.041 Y167.377 E5.72884
G1 X128.682 Y167.581 E5.74257
G1 X128.444 Y167.71 E5.75158
G1 X127.941 Y167.974 E5.77047
G1 X127.639 Y168.127 E5.78173
G1 X127.327 Y168.276 E5.79323
G1 X126.889 Y168.478 E5.80927
G1 X126.582 Y168.614 E5.82044
G1 X126.396 Y168.693 E5.82716
G1 X126.177 Y168.783 E5.83504
G1 X125.734 Y168.96 E5.8509
G1 X125.461 Y169.065 E5.86063
G1 X125.274 Y169.134 E5.86726
G1 X124.989 Y169.235 E5.87732
G1 X124.498 Y169.401 E5.89456
G1 X124.158 Y169.509 E5.90642
G1 X123.943 Y169.574 E5.91389
G1 X123.941 Y169.568 E5.9141
G1 X123.649 Y169.661 E5.9243
G1 X123.114 Y169.807 E5.94274
G1 X122.886 Y169.867 E5.95058
G1 X122.312 Y170.01 E5.97026
G1 X119.789 Y170.678 E6.05706
G1 X117.445 Y171.371 E6.13836
G1 X116.222 Y171.776 E6.18121
G1 X116.094 Y171.812 E6.18563
G1 X114.729 Y172.25 E6.23331
G1 X113.964 Y172.465 E6.25974
G1 X113.692 Y172.531 E6.26905
G1 X112.453 Y172.757 E6.31094
G1 X112.179 Y172.791 E6.32013
G1 X111.084 Y172.872 E6.35664
G1 X110.83 Y172.878 E6.3651
G1 X110.009 Y172.867 E6.3924
G1 X109.872 Y172.86 E6.39697
G1 X108.99 Y172.779 E6.42643
G1 X108.718 Y172.743 E6.43555
G1 X107.65 Y172.548 E6.47166
G1 X107.441 Y172.499 E6.4788
G1 X106.265 Y172.153 E6.51957
G1 X106.161 Y172.116 E6.52324
G1 X105.897 Y172.018 E6.53261
G1 X105.619 Y171.911 E6.54252
G1 X104.666 Y171.492 E6.57714
G1 X104.417 Y171.368 E6.58639
G1 X103.597 Y170.914 E6.61757
G1 X103.186 Y170.652 E6.63378
G1 X102.93 Y170.48 E6.64404
G1 X102.441 Y170.131 E6.66402
G1 X101.53 Y169.444 E6.70197
G1 X99.444 Y167.916 E6.78797
G1 X97.332 Y166.461 E6.87327
G1 X95.253 Y165.112 E6.9557
G1 X93.114 Y163.809 E7.03901
G1 X90.901 Y162.546 E7.12376
G1 X88.692 Y161.365 E7.20707
G1 X86.45 Y160.249 E7.29036
G1 X83.879 Y159.063 E7.38454
G1 X83.707 Y158.982 E7.39086
G1 X83.475 Y158.869 E7.39944
G1 X83.055 Y158.659 E7.41506
G1 X82.759 Y158.505 E7.42616
G1 X82.603 Y158.421 E7.43205
G1 X82.363 Y158.288 E7.44118
G1 X81.864 Y158.003 E7.46029
G1 X81.394 Y157.719 E7.47856
G1 X80.967 Y157.446 E7.49541
G1 X80.698 Y157.268 E7.50614
G1 X80.368 Y157.04 E7.51948
G1 X79.919 Y156.718 E7.53786
G1 X79.488 Y156.392 E7.55583
G1 X79.094 Y156.079 E7.57257
G1 X78.87 Y155.896 E7.58219
G1 X78.734 Y155.782 E7.58809
G1 X78.498 Y155.579 E7.59844
G1 X78.089 Y155.216 E7.61663
G1 X77.684 Y154.838 E7.63506
G1 X77.353 Y154.513 E7.65049
G1 X77.134 Y154.292 E7.66084
G1 X77.006 Y154.159 E7.66698
G1 X76.833 Y153.974 E7.6754
G1 X76.481 Y153.591 E7.6927
G1 X76.112 Y153.169 E7.71135
G1 X75.748 Y152.73 E7.73031
G1 X75.586 Y152.53 E7.73887
G1 X75.326 Y152.194 E7.753
G1 X74.985 Y151.734 E7.77205
G1 X74.672 Y151.288 E7.79017
G1 X74.255 Y150.663 E7.81516
G1 X74.085 Y150.4 E7.82558
G1 X73.466 Y149.412 E7.86436
G1 X72.728 Y148.201 E7.91152
G1 X71.36 Y146.092 E7.99513
G1 X69.952 Y144.051 E8.0776
G1 X68.45 Y141.999 E8.16218
G1 X66.91 Y140.017 E8.24567
G1 X65.29 Y138.048 E8.33047
G1 X63.948 Y136.5 E8.39861
G1 X63.339 Y135.813 E8.42915
G1 X62.747 Y135.085 E8.46036
G1 X62.219 Y134.31 E8.49155
G1 X61.76 Y133.492 E8.52274
G1 X61.371 Y132.639 E8.55392
G1 X61.057 Y131.755 E8.58513
G1 X60.819 Y130.848 E8.61631
G1 X60.659 Y129.924 E8.6475
G1 X60.578 Y128.989 E8.67872
G1 X60.578 Y128.052 E8.70988
G1 X60.657 Y127.117 E8.74109
G1 X60.816 Y126.193 E8.77228
G1 X61.039 Y125.329 E8.80196
G1 X61.153 Y124.952 E8.81506
G1 X61.248 Y124.653 E8.82549
G1 X62.803 Y119.994 E8.98885
G1 X63.081 Y119.199 E9.01686
G1 X63.429 Y118.329 E9.04803
G1 X63.85 Y117.491 E9.07922
G1 X64.341 Y116.692 E9.11041
G1 X64.898 Y115.937 E9.14162
G1 X65.518 Y115.233 E9.17282
G1 X66.195 Y114.584 E9.20401
G1 X66.925 Y113.996 E9.23519
G1 X67.703 Y113.471 E9.26641
G1 X68.189 Y113.19 E9.28508
G1 X68.836 Y112.838 E9.30958
G1 X70.156 Y112.143 E9.35919
G1 X72.351 Y110.906 E9.44299
G1 X74.523 Y109.6 E9.52729
G1 X76.641 Y108.244 E9.61093
G1 X78.703 Y106.84 E9.6939
G1 X80.749 Y105.36 E9.77789
G1 X82.76 Y103.818 E9.86218
G1 X84.713 Y102.231 E9.94588
G1 X86.601 Y100.604 E10.02877
G1 X88.472 Y98.898 E10.11299
G1 X90.297 Y97.137 E10.19734
G1 X92.024 Y95.375 E10.2794
G1 X93.745 Y93.515 E10.36368
G1 X95.407 Y91.613 E10.44769
G1 X97.021 Y89.658 E10.53201
G1 X98.558 Y87.687 E10.61514
G1 X100.045 Y85.662 E10.6987
G1 X101.49 Y83.573 E10.78319
G1 X102.863 Y81.463 E10.86691
G1 X104.156 Y79.348 E10.94936
G1 X105.433 Y77.12 E11.03478
G1 X106.618 Y74.909 E11.11821
G1 X107.725 Y72.696 E11.20051
G1 X109.082 Y69.752 E11.30833
G1 X109.271 Y69.325 E11.32386
G1 X109.687 Y68.484 E11.35507
G1 X110.172 Y67.682 E11.38624
G0 F6000 X110.524 Y67.875
G1 F1200 X111.069 Y67.133 E11.41686
G1 X111.677 Y66.441 E11.4475
G1 X112.342 Y65.805 E11.4781
G1 X113.059 Y65.228 E11.50871
G1 X113.824 Y64.716 E11.53933
G1 X114.631 Y64.272 E11.56997
G1 X115.473 Y63.9 E11.60058
G1 X116.344 Y63.603 E11.63119
G1 X117.561 Y63.322 E11.67273
G1 X117.797 Y63.282 E11.68069
G1 X118.029 Y63.245 E11.68851
G1 X118.328 Y63.202 E11.69856
G1 X122.916 Y62.58 E11.85255
G1 X123.759 Y62.478 E11.88079
G1 X124.677 Y62.408 E11.91141
G1 X125.598 Y62.418 E11.94205
G1 X126.514 Y62.507 E11.97266
G1 X127.419 Y62.676 E12.00328
G1 X128.306 Y62.923 E12.0339
G1 X129.168 Y63.246 E12.06452
G1 X129.596 Y63.439 E12.08013
G1 X130.136 Y63.698 E12.10005
G1 X131.678 Y64.461 E12.15728
G1 X133.934 Y65.5 E12.23989
G1 X136.28 Y66.501 E12.32472
G1 X138.586 Y67.41 E12.40716
G1 X140.994 Y68.281 E12.49233
G1 X143.387 Y69.069 E12.57613
G1 X145.838 Y69.801 E12.66121
G1 X148.247 Y70.446 E12.74415
G1 X150.758 Y71.044 E12.83
G1 X153.155 Y71.544 E12.91144
G1 X155.691 Y71.998 E12.99713
G1 X158.192 Y72.373 E13.08125
G1 X160.701 Y72.677 E13.16531
G1 X163.236 Y72.908 E13.24997
G1 X163.431 Y72.928 E13.25649
G1 X164.341 Y73.062 E13.28708
G1 X165.237 Y73.274 E13.31771
G1 X166.111 Y73.563 E13.34832
G1 X166.957 Y73.927 E13.37896
G1 X167.768 Y74.363 E13.40958
G1 X168.538 Y74.867 E13.44019
G1 X169.261 Y75.437 E13.47081
G1 X169.933 Y76.067 E13.50145
G1 X170.547 Y76.753 E13.53207
G1 X171.099 Y77.49 E13.56269
G1 X171.585 Y78.272 E13.59332
G1 X172.002 Y79.093 E13.62394
G1 X172.345 Y79.947 E13.65455
G1 X172.614 Y80.827 E13.68516
G1 X172.754 Y81.447 E13.7063
G1 X172.813 Y81.75 E13.71657
G1 X172.866 Y82.046 E13.72657
G1 X173.812 Y87.769 E13.9195
G1 X173.915 Y88.45 E13.94241
G1 X174.013 Y89.365 E13.97301
G1 X174.031 Y90.286 E14.00365
G1 X173.969 Y91.204 E14.03426
G1 X173.828 Y92.114 E14.06488
G1 X173.609 Y93.008 E14.0955
G1 X173.25 Y94.035 E14.13168
G1 X172.988 Y94.678 E14.15478
G1 X172.923 Y94.834 E14.1604
G1 X172.488 Y95.854 E14.19728
G1 X171.566 Y98.204 E14.28124
G1 X170.694 Y100.625 E14.36683
G1 X169.913 Y103 E14.44998
G1 X169.194 Y105.413 E14.53372
G1 X168.535 Y107.887 E14.61888
G1 X167.96 Y110.309 E14.70167
G1 X167.446 Y112.785 E14.78578
G1 X167 Y115.285 E14.87025
G1 X166.629 Y117.775 E14.95398
G1 X166.24 Y121.127 E15.06621
G1 X166.208 Y121.453 E15.07711
G1 X166.078 Y122.364 E15.10772
G1 X165.869 Y123.261 E15.13835
G1 X165.584 Y124.136 E15.16896
G1 X165.224 Y124.983 E15.19957
G1 X164.791 Y125.796 E15.2302
G1 X164.289 Y126.568 E15.26083
G1 X163.723 Y127.294 E15.29145
G1 X163.095 Y127.968 E15.32209
G1 X162.526 Y128.489 E15.34775
G1 X161.817 Y129.092 E15.37871
G1 X161.661 Y129.222 E15.38546
G1 X160.234 Y130.39 E15.44679
G1 X158.284 Y132.031 E15.53156
G1 X156.358 Y133.748 E15.61738
G1 X154.538 Y135.463 E15.70055
G1 X152.733 Y137.266 E15.78541
G1 X151 Y139.095 E15.86921
G1 X149.326 Y140.968 E15.95276
G1 X147.689 Y142.905 E16.03711
G1 X146.115 Y144.878 E16.12106
G1 X144.575 Y146.925 E16.20626
G1 X143.125 Y148.972 E16.28969
G1 X141.744 Y151.041 E16.37243
G1 X140.376 Y153.223 E16.45809
G1 X139.089 Y155.41 E16.54249
G1 X137.799 Y157.755 E16.6315
G1 X137.619 Y158.087 E16.64407
G1 X137.374 Y158.52 E16.66061
G1 X137.191 Y158.831 E16.67261
G1 X137.046 Y159.067 E16.68183
G1 X136.769 Y159.504 E16.69904
G1 X136.597 Y159.766 E16.70946
G1 X136.501 Y159.908 E16.71516
G1 X136.358 Y160.115 E16.72353
G1 X136.05 Y160.548 E16.7412
G1 X135.835 Y160.841 E16.75329
G1 X135.634 Y161.102 E16.76425
G1 X135.324 Y161.493 E16.78084
G1 X135.146 Y161.713 E16.79025
G1 X135.038 Y161.842 E16.79585
G1 X134.868 Y162.039 E16.80451
G1 X134.546 Y162.405 E16.82072
G1 X134.352 Y162.62 E16.83035
G1 X134.22 Y162.762 E16.8368
G1 X134.021 Y162.97 E16.84637
G1 X133.652 Y163.346 E16.8639
G1 X133.475 Y163.523 E16.87222
G1 X133.404 Y163.592 E16.87551
G1 X133.207 Y163.778 E16.88453
G1 X132.777 Y164.175 E16.90399
G1 X132.359 Y164.541 E16.92247
G1 X131.863 Y164.953 E16.94392
G1 X131.623 Y165.147 E16.95418
G1 X131.508 Y165.237 E16.95904
G1 X131.312 Y165.386 E16.96723
G1 X130.899 Y165.694 E16.98436
G1 X130.605 Y165.906 E16.99642
G1 X130.344 Y166.085 E17.00694
G1 X129.915 Y166.371 E17.02409
G1 X129.663 Y166.534 E17.03407
G1 X129.497 Y166.638 E17.04059
G1 X129.277 Y166.772 E17.04916
G1 X128.837 Y167.033 E17.06617
G1 X128.585 Y167.178 E17.07584
G1 X128.488 Y167.232 E17.07953
G1 X128.258 Y167.356 E17.08823
G1 X127.755 Y167.62 E17.10712
G1 X127.464 Y167.767 E17.11796
G1 X127.159 Y167.913 E17.12921
G1 X126.721 Y168.115 E17.14525
G1 X126.426 Y168.245 E17.15597
G1 X126.24 Y168.324 E17.1627
G1 X126.029 Y168.411 E17.17029
G1 X125.586 Y168.588 E17.18615
G1 X125.322 Y168.69 E17.19557
G1 X125.135 Y168.759 E17.2022
G1 X124.861 Y168.856 E17.21186
G1 X124.37 Y169.022 E17.2291
G1 X124.043 Y169.126 E17.24052
G1 X123.828 Y169.191 E17.24799
G1 X123.826 Y169.186 E17.24817
G1 X123.544 Y169.275 E17.258
G1 X123.009 Y169.421 E17.27645
G1 X122.789 Y169.479 E17.28401
G1 X122.193 Y169.628 E17.30445
G1 X119.712 Y170.285 E17.38981
G1 X117.296 Y170.998 E17.47359
G1 X116.096 Y171.396 E17.51564
G1 X115.968 Y171.432 E17.52006
G1 X114.606 Y171.869 E17.56764
G1 X113.87 Y172.076 E17.59307
G1 X113.598 Y172.142 E17.60238
G1 X112.403 Y172.36 E17.64278
G1 X112.129 Y172.394 E17.65196
G1 X111.074 Y172.472 E17.68715
G1 X110.82 Y172.478 E17.6956
G1 X110.029 Y172.467 E17.72191
G1 X109.892 Y172.46 E17.72647
G1 X109.042 Y172.382 E17.75486
G1 X108.77 Y172.346 E17.76399
G1 X107.741 Y172.158 E17.79878
G1 X107.532 Y172.109 E17.80592
G1 X106.399 Y171.776 E17.8452
G1 X106.04 Y171.645 E17.85791
G1 X105.762 Y171.538 E17.86781
G1 X104.845 Y171.134 E17.90114
G1 X104.596 Y171.01 E17.91039
G1 X103.409 Y170.32 E17.95606
G1 X103.153 Y170.148 E17.96632
G1 X102.681 Y169.811 E17.98561
G1 X101.734 Y169.097 E18.02505
G1 X99.678 Y167.591 E18.10982
G1 X97.596 Y166.156 E18.19392
G1 X95.457 Y164.769 E18.27871
G1 X93.289 Y163.448 E18.36315
G1 X91.121 Y162.211 E18.44617
G1 X88.853 Y160.998 E18.53172
G1 X86.644 Y159.898 E18.61379
G1 X84.05 Y158.701 E18.70881
G1 X83.878 Y158.62 E18.71514
G1 X83.654 Y158.511 E18.72342
G1 X83.234 Y158.301 E18.73904
G1 X82.949 Y158.153 E18.74972
G1 X82.793 Y158.069 E18.75561
G1 X82.561 Y157.941 E18.76443
G1 X82.062 Y157.656 E18.78354
G1 X81.609 Y157.382 E18.80115
G1 X81.182 Y157.109 E18.81801
G1 X80.923 Y156.938 E18.82833
G1 X80.81 Y156.861 E18.83288
G1 X80.602 Y156.715 E18.84133
G1 X80.153 Y156.393 E18.85971
G1 X79.737 Y156.079 E18.87704
G1 X79.343 Y155.766 E18.89378
G1 X79.127 Y155.59 E18.90304
G1 X78.991 Y155.476 E18.90895
G1 X78.764 Y155.28 E18.91892
G1 X78.355 Y154.917 E18.93711
G1 X77.965 Y154.553 E18.95485
G1 X77.634 Y154.228 E18.97028
G1 X77.422 Y154.014 E18.9803
G1 X77.294 Y153.881 E18.98644
G1 X77.127 Y153.704 E18.99453
G1 X76.775 Y153.321 E19.01184
G1 X76.42 Y152.914 E19.0298
G1 X76.056 Y152.475 E19.04877
