;FLAVOR:Marlin
;TIME:1336
;Filament used: 0.94959m
;Layer height: 0.28
;MINX:94
;MINY:95.128
;MINZ:0.28
;MAXX:141
;MAXY:140.183
;MAXZ:15.96
;Generated with Cura_SteamEngine 4.7.0
M140 S55
M105
M190 S55
M104 S210
M105
M109 S210
M82 ;absolute extrusion mode
; Ender 3 Custom Start G-code
G92 E0 ; Reset Extruder
G28 ; Home all axes
G1 Z2.0 F3000 ; Move Z Axis up little to prevent scratching of Heat Bed
G1 X0.1 Y20 Z0.3 F5000.0 ; Move to start position
G1 X0.1 Y200.0 Z0.3 F1500.0 E15 ; Draw the first line
G1 X0.4 Y200.0 Z0.3 F5000.0 ; Move to side a little
G1 X0.4 Y20 Z0.3 F1500.0 E30 ; Draw the second line
G92 E0 ; Reset Extruder
G1 Z2.0 F3000 ; Move Z Axis up little to prevent scratching of Heat Bed
G1 X5 Y20 Z0.3 F5000.0 ; Move over to prevent blob squish
G92 E0
G92 E0
G1 F2700 E-5
;LAYER_COUNT:57
;LAYER:0
M107
G0 F6000 X99.802 Y98.527 Z0.28
;TYPE:SKIRT
G1 F2700 E0
G1 F1200 X99.939 Y98.389 E0.00905
G1 X100.627 Y97.752 E0.05271
G1 X101.367 Y97.177 E0.09635
G1 X102.154 Y96.666 E0.14004
G1 X102.981 Y96.224 E0.18371
G1 X103.843 Y95.854 E0.22739
G1 X104.733 Y95.559 E0.27105
G1 X105.646 Y95.341 E0.31475
G1 X106.573 Y95.202 E0.3584
G1 X107.376 Y95.145 E0.39589
G1 X107.525 Y95.14 E0.40283
G1 X107.764 Y95.135 E0.41396
G1 X108.305 Y95.129 E0.43915
G1 X109.366 Y95.129 E0.48856
G1 X110.05 Y95.139 E0.52041
G1 X110.671 Y95.166 E0.54936
G1 X111.126 Y95.198 E0.57059
G1 X113.673 Y95.343 E0.68939
G1 X116.223 Y95.414 E0.80817
G1 X118.746 Y95.414 E0.92565
G1 X121.258 Y95.342 E1.04267
G1 X123.209 Y95.238 E1.13364
G1 X124.401 Y95.161 E1.18926
G1 X124.768 Y95.143 E1.20637
G1 X124.929 Y95.138 E1.21387
G1 X125.545 Y95.129 E1.24256
G1 X126.872 Y95.128 E1.30435
G1 X127.029 Y95.129 E1.31166
G1 X127.731 Y95.139 E1.34435
G1 X128.667 Y95.192 E1.38801
G1 X129.595 Y95.325 E1.43166
G1 X130.509 Y95.537 E1.47535
G1 X131.402 Y95.825 E1.51904
G1 X132.266 Y96.189 E1.5627
G1 X133.097 Y96.625 E1.60639
G1 X133.887 Y97.13 E1.65005
G1 X134.631 Y97.7 E1.6937
G1 X135.317 Y98.325 E1.73691
G1 X135.428 Y98.435 E1.74419
G1 X136.065 Y99.123 E1.78784
G1 X136.642 Y99.862 E1.8315
G1 X137.153 Y100.649 E1.8752
G1 X137.596 Y101.476 E1.91888
G1 X137.966 Y102.337 E1.96252
G1 X138.262 Y103.227 E2.00619
G1 X138.451 Y103.992 E2.04288
G1 X138.561 Y104.519 E2.06795
G1 X138.887 Y105.979 E2.13761
G1 X139.124 Y107.12 E2.19187
G1 X139.495 Y109.038 E2.28284
G1 X140.05 Y111.538 E2.40208
G1 X140.61 Y113.761 E2.50883
G1 X140.689 Y114.092 E2.52468
G1 X140.868 Y115.013 E2.56836
G1 X140.984 Y116.277 E2.62747
G1 X140.989 Y116.426 E2.63441
G1 X140.994 Y116.661 E2.64536
G1 X141 Y117.204 E2.67064
G1 X140.999 Y128.483 E3.19584
G1 X140.989 Y129.212 E3.22979
G1 X140.936 Y130.148 E3.27344
G1 X140.804 Y131.077 E3.31713
G1 X140.593 Y131.991 E3.36081
G1 X140.305 Y132.883 E3.40446
G1 X139.942 Y133.748 E3.44814
G1 X139.506 Y134.579 E3.49184
G1 X139.002 Y135.369 E3.53547
G1 X138.431 Y136.114 E3.57918
G1 X137.768 Y136.839 E3.62493
G1 X137.656 Y136.951 E3.6323
G1 X136.965 Y137.585 E3.67597
G1 X136.223 Y138.159 E3.71965
G1 X135.434 Y138.666 E3.76332
G1 X134.606 Y139.105 E3.80696
G1 X133.742 Y139.472 E3.85067
G1 X132.851 Y139.764 E3.89433
G1 X131.938 Y139.978 E3.938
G1 X131.01 Y140.115 E3.98168
G1 X130.249 Y140.167 E4.01719
G1 X130.101 Y140.172 E4.02409
G1 X129.873 Y140.177 E4.03471
G1 X129.489 Y140.182 E4.05259
G1 X129.184 Y140.182 E4.06679
G1 X128.505 Y140.172 E4.09841
G1 X127.59 Y140.12 E4.14109
G1 X126.605 Y140.023 E4.18718
G1 X123.947 Y139.798 E4.31139
G1 X121.486 Y139.658 E4.42617
G1 X118.936 Y139.587 E4.54495
G1 X116.411 Y139.587 E4.66253
G1 X113.916 Y139.659 E4.77875
G1 X111.399 Y139.801 E4.89614
G1 X108.878 Y140.016 E5.01395
G1 X108.321 Y140.076 E5.04004
G1 X107.788 Y140.125 E5.06496
G1 X107.295 Y140.159 E5.08797
G1 X107.124 Y140.167 E5.09595
G1 X106.715 Y140.178 E5.115
G1 X106.191 Y140.183 E5.1394
G1 X105.667 Y140.182 E5.1638
G1 X104.965 Y140.172 E5.19649
G1 X104.029 Y140.119 E5.24014
G1 X103.101 Y139.986 E5.2838
G1 X102.187 Y139.774 E5.32749
G1 X101.294 Y139.486 E5.37118
G1 X100.43 Y139.122 E5.41483
G1 X99.599 Y138.686 E5.45853
G1 X98.809 Y138.181 E5.50219
G1 X98.065 Y137.611 E5.54583
G1 X97.344 Y136.951 E5.59135
G1 X97.232 Y136.839 E5.59872
G1 X96.598 Y136.148 E5.64239
G1 X96.024 Y135.406 E5.68607
G1 X95.517 Y134.617 E5.72974
G1 X95.078 Y133.789 E5.77338
G1 X94.711 Y132.925 E5.81709
G1 X94.419 Y132.034 E5.86075
G1 X94.205 Y131.121 E5.90442
G1 X94.068 Y130.193 E5.9481
G1 X94.016 Y129.432 E5.98361
G1 X94.011 Y129.284 E5.99051
G1 X94.006 Y129.035 E6.00211
G1 X94 Y128.461 E6.02884
G1 X94.001 Y117.178 E6.55422
G1 X94.012 Y116.471 E6.58714
G1 X94.067 Y115.535 E6.6308
G1 X94.164 Y114.816 E6.66459
G1 X94.332 Y114 E6.70338
G1 X94.59 Y112.952 E6.75364
G1 X94.821 Y112.06 E6.79654
G1 X95.389 Y109.579 E6.91506
G1 X95.972 Y106.634 E7.05485
G1 X95.975 Y106.635 E7.055
G1 X96.009 Y106.434 E7.06449
G1 X96.332 Y105.244 E7.1219
G1 X96.449 Y104.893 E7.13913
G1 X96.965 Y103.417 E7.21194
G1 X97.181 Y102.773 E7.24357
G1 X97.518 Y101.897 E7.28727
G1 X97.927 Y101.054 E7.3309
G1 X98.407 Y100.248 E7.37459
G1 X98.954 Y99.486 E7.41826
G1 X99.802 Y98.527 E7.47787
G0 F6000 X100.085 Y98.809
G1 F1200 X100.222 Y98.671 E7.48693
G1 X100.899 Y98.046 E7.52983
G1 X101.627 Y97.483 E7.57268
G1 X102.401 Y96.985 E7.61554
G1 X103.216 Y96.555 E7.65845
G1 X104.064 Y96.199 E7.70127
G1 X104.941 Y95.917 E7.74417
G1 X105.838 Y95.712 E7.78701
G1 X106.75 Y95.586 E7.82988
G1 X107.389 Y95.545 E7.8597
G1 X107.538 Y95.54 E7.86664
G1 X107.769 Y95.535 E7.8774
G1 X108.305 Y95.529 E7.90236
G1 X109.36 Y95.529 E7.95149
G1 X110.044 Y95.539 E7.98334
G1 X110.643 Y95.565 E8.01126
G1 X111.075 Y95.596 E8.03142
G1 X113.675 Y95.743 E8.15268
G1 X116.212 Y95.814 E8.27086
G1 X118.723 Y95.814 E8.38779
G1 X121.291 Y95.74 E8.50741
G1 X123.254 Y95.636 E8.59895
G1 X124.427 Y95.56 E8.65368
G1 X124.78 Y95.543 E8.67014
G1 X125.14 Y95.534 E8.68691
G1 X125.679 Y95.528 E8.71201
G1 X126.872 Y95.528 E8.76756
G1 X127.725 Y95.539 E8.80728
G1 X128.644 Y95.592 E8.85014
G1 X129.555 Y95.725 E8.89301
G1 X130.451 Y95.936 E8.93588
G1 X131.326 Y96.224 E8.97877
G1 X132.172 Y96.587 E9.02164
G1 X132.983 Y97.022 E9.06449
G1 X133.754 Y97.526 E9.10738
G1 X134.478 Y98.094 E9.15023
G1 X135.035 Y98.609 E9.18555
G1 X135.146 Y98.719 E9.19283
G1 X135.772 Y99.395 E9.23573
G1 X136.336 Y100.122 E9.27857
G1 X136.835 Y100.896 E9.32146
G1 X137.265 Y101.71 E9.36432
G1 X137.622 Y102.558 E9.40717
G1 X137.905 Y103.435 E9.45008
G1 X138.06 Y104.074 E9.48069
G1 X138.194 Y104.715 E9.51119
G1 X138.496 Y106.066 E9.57565
G1 X138.531 Y106.229 E9.58341
G1 X138.76 Y107.341 E9.63628
G1 X139.106 Y109.136 E9.7214
G1 X139.657 Y111.617 E9.83974
G1 X140.221 Y113.854 E9.94716
G1 X140.3 Y114.185 E9.96301
G1 X140.475 Y115.089 E10.00588
G1 X140.584 Y116.29 E10.06204
G1 X140.589 Y116.439 E10.06898
G1 X140.594 Y116.665 E10.0795
G1 X140.6 Y117.204 E10.1046
G1 X140.599 Y128.477 E10.62952
G1 X140.589 Y129.206 E10.66347
G1 X140.536 Y130.126 E10.70638
G1 X140.404 Y131.037 E10.74924
G1 X140.194 Y131.933 E10.7921
G1 X139.906 Y132.807 E10.83495
G1 X139.543 Y133.654 E10.87785
G1 X139.109 Y134.465 E10.92069
G1 X138.605 Y135.236 E10.96358
G1 X138.037 Y135.961 E11.00646
G1 X137.485 Y136.556 E11.04425
G1 X137.373 Y136.668 E11.05163
G1 X136.695 Y137.29 E11.09447
G1 X135.965 Y137.851 E11.13734
G1 X135.189 Y138.347 E11.18023
G1 X134.373 Y138.773 E11.22309
G1 X133.523 Y139.127 E11.26597
G1 X132.645 Y139.405 E11.30885
G1 X131.747 Y139.607 E11.35171
G1 X130.834 Y139.73 E11.39461
G1 X130.236 Y139.767 E11.4225
G1 X129.868 Y139.777 E11.43965
G1 X129.484 Y139.782 E11.45753
G1 X129.19 Y139.782 E11.47122
G1 X128.511 Y139.772 E11.50284
G1 X127.629 Y139.722 E11.54397
G1 X126.602 Y139.621 E11.59203
G1 X124.005 Y139.401 E11.71339
G1 X121.484 Y139.258 E11.83096
G1 X118.947 Y139.187 E11.94914
G1 X116.435 Y139.187 E12.06611
G1 X113.883 Y139.26 E12.18499
G1 X111.38 Y139.402 E12.30173
G1 X108.837 Y139.619 E12.42057
G1 X108.48 Y139.658 E12.4373
G1 X107.751 Y139.726 E12.47139
G1 X107.276 Y139.759 E12.49356
G1 X107.105 Y139.767 E12.50153
G1 X106.711 Y139.779 E12.51989
G1 X106.292 Y139.783 E12.5394
G1 X105.673 Y139.782 E12.56822
G1 X104.971 Y139.772 E12.60091
G1 X104.052 Y139.719 E12.64378
G1 X103.141 Y139.586 E12.68665
G1 X102.245 Y139.375 E12.72951
G1 X101.37 Y139.087 E12.7724
G1 X100.524 Y138.724 E12.81527
G1 X99.713 Y138.289 E12.85812
G1 X98.942 Y137.785 E12.90101
G1 X98.218 Y137.217 E12.94386
G1 X97.627 Y136.668 E12.98142
G1 X97.515 Y136.556 E12.9888
G1 X96.893 Y135.878 E13.03164
G1 X96.332 Y135.148 E13.07451
G1 X95.836 Y134.372 E13.1174
G1 X95.41 Y133.556 E13.16026
G1 X95.056 Y132.706 E13.20313
G1 X94.778 Y131.828 E13.24602
G1 X94.576 Y130.93 E13.28888
G1 X94.453 Y130.017 E13.33177
G1 X94.416 Y129.419 E13.35967
G1 X94.411 Y129.271 E13.36657
G1 X94.406 Y129.03 E13.37779
G1 X94.4 Y128.461 E13.40429
G1 X94.401 Y117.184 E13.92939
G1 X94.412 Y116.477 E13.96232
G1 X94.467 Y115.558 E14.00519
G1 X94.558 Y114.881 E14.03699
G1 X94.72 Y114.095 E14.07436
G1 X94.977 Y113.053 E14.12434
G1 X95.21 Y112.153 E14.16763
G1 X95.776 Y109.68 E14.28576
G1 X96.364 Y106.711 E14.42669
G1 X96.368 Y106.712 E14.42688
G1 X96.404 Y106.501 E14.43685
G1 X96.712 Y105.371 E14.49139
G1 X96.88 Y104.871 E14.51595
G1 X97.325 Y103.598 E14.57874
G1 X97.56 Y102.9 E14.61304
G1 X97.891 Y102.041 E14.6559
G1 X98.295 Y101.214 E14.69876
G1 X98.77 Y100.425 E14.74164
G1 X99.311 Y99.68 E14.78452
G1 X100.085 Y98.809 E14.83877
G0 F6000 X100.369 Y99.091
G1 F1200 X100.506 Y98.953 E14.84783
G1 X101.17 Y98.341 E14.88988
G1 X101.886 Y97.79 E14.93194
G1 X102.647 Y97.304 E14.97399
G1 X103.449 Y96.888 E15.01606
G1 X104.284 Y96.544 E15.05811
G1 X105.146 Y96.276 E15.10014
G1 X106.029 Y96.084 E15.14222
G1 X106.925 Y95.972 E15.18427
G1 X107.403 Y95.945 E15.20656
G1 X107.773 Y95.935 E15.2238
G1 X108.306 Y95.929 E15.24862
G1 X109.354 Y95.929 E15.29741
G1 X110.038 Y95.939 E15.32927
G1 X110.614 Y95.964 E15.35611
G1 X111.023 Y95.993 E15.37521
G1 X113.675 Y96.143 E15.49889
G1 X116.201 Y96.214 E15.61656
G1 X118.734 Y96.214 E15.73451
G1 X121.324 Y96.14 E15.85516
G1 X123.214 Y96.039 E15.94329
G1 X124.453 Y95.959 E16.0011
G1 X124.792 Y95.943 E16.01691
G1 X125.145 Y95.934 E16.03335
G1 X125.679 Y95.928 E16.05821
G1 X126.872 Y95.928 E16.11377
G1 X127.719 Y95.939 E16.15321
G1 X128.621 Y95.992 E16.19528
G1 X129.514 Y96.124 E16.23732
G1 X130.392 Y96.335 E16.27936
G1 X131.248 Y96.623 E16.32142
G1 X132.076 Y96.985 E16.3635
G1 X132.868 Y97.419 E16.40555
G1 X133.618 Y97.922 E16.4476
G1 X134.321 Y98.488 E16.48963
G1 X134.754 Y98.893 E16.51723
G1 X134.865 Y99.003 E16.52451
G1 X135.477 Y99.666 E16.56652
G1 X136.029 Y100.381 E16.60858
G1 X136.515 Y101.143 E16.65067
G1 X136.932 Y101.944 E16.69272
G1 X137.277 Y102.778 E16.73474
G1 X137.546 Y103.64 E16.77679
G1 X137.668 Y104.156 E16.80148
G1 X137.789 Y104.733 E16.82893
G1 X138.14 Y106.31 E16.90416
G1 X138.368 Y107.417 E16.95679
G1 X138.716 Y109.219 E17.04225
G1 X139.265 Y111.696 E17.16039
G1 X139.801 Y113.817 E17.26226
G1 X139.911 Y114.278 E17.28432
G1 X140.082 Y115.165 E17.32639
G1 X140.184 Y116.304 E17.37964
G1 X140.194 Y116.67 E17.39668
G1 X140.2 Y117.204 E17.42155
G1 X140.199 Y128.472 E17.94624
G1 X140.189 Y129.201 E17.98019
G1 X140.137 Y130.102 E18.02221
G1 X140.005 Y130.996 E18.06429
G1 X139.794 Y131.874 E18.10634
G1 X139.507 Y132.73 E18.14838
G1 X139.145 Y133.558 E18.19046
G1 X138.712 Y134.35 E18.23249
G1 X138.21 Y135.101 E18.27455
G1 X137.643 Y135.804 E18.3166
G1 X137.202 Y136.273 E18.34658
G1 X137.09 Y136.385 E18.35396
G1 X136.424 Y136.995 E18.39601
G1 X135.707 Y137.544 E18.43806
G1 X134.943 Y138.026 E18.48012
G1 X134.14 Y138.44 E18.52219
G1 X133.304 Y138.78 E18.56421
G1 X132.441 Y139.046 E18.60626
G1 X131.558 Y139.234 E18.6483
G1 X130.222 Y139.367 E18.71082
G1 X129.863 Y139.377 E18.72754
G1 X129.479 Y139.382 E18.74542
G1 X129.196 Y139.382 E18.7586
G1 X128.517 Y139.372 E18.79022
G1 X127.669 Y139.324 E18.82977
G1 X126.679 Y139.227 E18.87609
G1 X124.026 Y139.002 E19.00007
G1 X121.484 Y138.858 E19.11863
G1 X118.958 Y138.787 E19.23629
G1 X116.423 Y138.787 E19.35433
G1 X113.884 Y138.86 E19.47261
G1 X111.324 Y139.005 E19.592
G1 X108.799 Y139.22 E19.71
G1 X108.436 Y139.26 E19.72701
G1 X108.248 Y139.279 E19.73581
G1 X107.715 Y139.328 E19.76073
G1 X107.258 Y139.36 E19.78206
G1 X107.087 Y139.368 E19.79003
G1 X106.707 Y139.379 E19.80774
G1 X106.288 Y139.383 E19.82725
G1 X105.679 Y139.382 E19.85561
G1 X104.977 Y139.372 E19.8883
G1 X104.075 Y139.319 E19.93037
G1 X103.182 Y139.187 E19.9724
G1 X102.304 Y138.976 E20.01445
G1 X101.448 Y138.688 E20.05651
G1 X100.62 Y138.326 E20.09858
G1 X99.828 Y137.892 E20.14064
G1 X99.078 Y137.389 E20.18269
G1 X98.375 Y136.823 E20.22471
G1 X97.91 Y136.385 E20.25446
G1 X97.798 Y136.273 E20.26183
G1 X97.188 Y135.607 E20.30389
G1 X96.639 Y134.89 E20.34594
G1 X96.157 Y134.126 E20.388
G1 X95.743 Y133.323 E20.43007
G1 X95.403 Y132.487 E20.47209
G1 X95.137 Y131.624 E20.51414
G1 X94.949 Y130.741 E20.55618
G1 X94.816 Y129.405 E20.6187
G1 X94.811 Y129.257 E20.62559
G1 X94.806 Y129.026 E20.63635
G1 X94.8 Y128.461 E20.66266
G1 X94.801 Y117.19 E21.18749
G1 X94.812 Y116.483 E21.22041
G1 X94.866 Y115.582 E21.26244
G1 X94.953 Y114.947 E21.29229
G1 X95.108 Y114.191 E21.32822
G1 X95.364 Y113.153 E21.378
G1 X95.601 Y112.237 E21.42206
G1 X96.165 Y109.775 E21.53967
G1 X96.756 Y106.789 E21.68141
G1 X96.76 Y106.79 E21.6816
G1 X96.798 Y106.568 E21.69209
G1 X97.091 Y105.497 E21.74379
G1 X97.257 Y105.003 E21.76806
G1 X97.719 Y103.683 E21.83318
G1 X97.939 Y103.028 E21.86535
G1 X98.265 Y102.185 E21.90744
G1 X98.663 Y101.375 E21.94946
G1 X99.132 Y100.603 E21.99152
G1 X99.667 Y99.875 E22.03359
G1 X100.369 Y99.091 E22.08259
G0 F6000 X124.819 Y113.44
G1 F1200 X125.264 Y113.085 E22.1091
G1 X125.644 Y112.703 E22.13419
G1 X125.651 Y112.768 E22.13724
G1 X125.561 Y113.036 E22.1504
G1 X125.474 Y113.754 E22.18408
G1 X125.474 Y115.963 E22.28694
G1 X124.829 Y115.963 E22.31697
G1 X124.851 Y115.863 E22.32174
G1 X124.871 Y115.717 E22.3286
G1 X124.899 Y115.31 E22.3476
G1 X124.899 Y114.146 E22.4018
G1 X124.869 Y113.722 E22.42159
G1 X124.849 Y113.582 E22.42818
G1 X124.819 Y113.44 E22.43493
G0 F6000 X124.541 Y113.158
G1 F1200 X124.981 Y112.803 E22.46126
G1 X125.956 Y111.824 E22.5256
G1 X126.057 Y112.799 E22.57124
G1 X125.929 Y113.224 E22.59191
G1 X125.874 Y113.754 E22.61672
G1 X125.874 Y116.243 E22.73262
G1 X125.885 Y116.363 E22.73823
G1 X124.321 Y116.363 E22.81105
G1 X124.366 Y116.214 E22.8183
G1 X124.455 Y115.809 E22.83761
G1 X124.475 Y115.663 E22.84447
G1 X124.499 Y115.31 E22.86095
G1 X124.499 Y114.146 E22.91515
G1 X124.473 Y113.778 E22.93233
G1 X124.453 Y113.638 E22.93891
G1 X124.377 Y113.286 E22.95568
G1 X124.366 Y113.249 E22.95748
G1 X124.541 Y113.158 E22.96666
G0 F6000 X124.353 Y112.802
G1 F1200 X124.698 Y112.521 E22.98738
G1 X126.268 Y110.945 E23.09097
G1 X126.467 Y112.875 E23.18131
G1 X126.407 Y112.999 E23.18773
G1 X126.302 Y113.405 E23.20725
G1 X126.274 Y113.754 E23.22356
G1 X126.274 Y116.243 E23.33945
G1 X126.314 Y116.66 E23.35896
G1 X126.344 Y116.763 E23.36396
G1 X123.781 Y116.763 E23.4833
G1 X123.984 Y116.097 E23.51572
G1 X124.059 Y115.755 E23.53202
G1 X124.079 Y115.609 E23.53889
G1 X124.099 Y115.31 E23.55284
G1 X124.099 Y114.146 E23.60704
G1 X124.077 Y113.835 E23.62156
G1 X124.057 Y113.695 E23.62814
G1 X123.993 Y113.397 E23.64234
G1 X123.918 Y113.136 E23.65498
G1 X123.888 Y113.039 E23.65971
G1 X123.984 Y112.999 E23.66455
G1 X124.353 Y112.802 E23.68403
G0 F6000 X124.163 Y112.449
G1 F1200 X124.414 Y112.238 E23.6993
G1 X126.275 Y110.37 E23.82208
G1 X126.513 Y110.075 E23.83973
G1 X126.569 Y109.965 E23.84548
G1 X126.875 Y112.944 E23.98492
G1 X126.76 Y113.205 E23.9982
G1 X126.674 Y113.754 E24.02408
G1 X126.674 Y116.243 E24.13997
G1 X126.714 Y116.62 E24.15763
G1 X126.832 Y116.98 E24.17527
G1 X126.938 Y117.163 E24.18512
G1 X123.235 Y117.163 E24.35754
G1 X123.262 Y117.093 E24.36104
G1 X123.601 Y115.98 E24.41521
G1 X123.662 Y115.7 E24.42856
G1 X123.682 Y115.554 E24.43542
G1 X123.699 Y115.31 E24.44681
G1 X123.699 Y114.146 E24.50101
G1 X123.681 Y113.891 E24.51291
G1 X123.661 Y113.751 E24.5195
G1 X123.609 Y113.507 E24.53111
G1 X123.535 Y113.254 E24.54339
G1 X123.396 Y112.804 E24.56532
