;FLAVOR:Marlin
;TIME:4416
;Filament used: 4.27378m
;Layer height: 0.28
;MINX:75.5
;MINY:76.5
;MINZ:0.28
;MAXX:159.5
;MAXY:158.5
;MAXZ:13.16
;Generated with Cura_SteamEngine 4.7.0
M140 S55
M105
M190 S55
M104 S220
M105
M109 S220
M82 ;absolute extrusion mode
; Ender 3 Custom Start G-code
G92 E0 ; Reset Extruder
G28 ; Home all axes
G1 Z2.0 F3000 ; Move Z Axis up little to prevent scratching of Heat Bed
G1 X0.1 Y20 Z0.3 F5000.0 ; Move to start position
G1 X0.1 Y200.0 Z0.3 F1500.0 E15 ; Draw the first line
G1 X0.4 Y200.0 Z0.3 F5000.0 ; Move to side a little
G1 X0.4 Y20 Z0.3 F1500.0 E30 ; Draw the second line
G92 E0 ; Reset Extruder
G1 Z2.0 F3000 ; Move Z Axis up little to prevent scratching of Heat Bed
G1 X5 Y20 Z0.3 F5000.0 ; Move over to prevent blob squish
G92 E0
G92 E0
G1 F2700 E-5
;LAYER_COUNT:47
;LAYER:0
M107
G0 F6000 X94.05 Y80.648 Z0.28
;TYPE:SKIRT
G1 F2700 E0
G1 F1200 X94.688 Y79.96 E0.04369
G1 X95.54 Y79.199 E0.09688
G1 X95.586 Y79.162 E0.09963
G1 X96.594 Y78.44 E0.15737
G1 X96.804 Y78.307 E0.16894
G1 X97.617 Y77.839 E0.21262
G1 X98.24 Y77.54 E0.2448
G1 X99.113 Y77.196 E0.28849
G1 X100.006 Y76.929 E0.33189
G1 X100.302 Y76.854 E0.34611
G1 X101.22 Y76.663 E0.38977
G1 X102.204 Y76.546 E0.43592
G1 X102.3 Y76.539 E0.4404
G1 X102.947 Y76.511 E0.47055
G1 X103.82 Y76.5 E0.51121
G1 X131.193 Y76.5 E1.78581
G1 X132.055 Y76.511 E1.82595
G1 X132.639 Y76.535 E1.85317
G1 X132.728 Y76.541 E1.85732
G1 X133.66 Y76.644 E1.90098
G1 X134.265 Y76.754 E1.92962
G1 X134.506 Y76.805 E1.94109
G1 X135.415 Y77.038 E1.98478
G1 X136.3 Y77.348 E2.02845
G1 X137.218 Y77.764 E2.07538
G1 X137.442 Y77.878 E2.08708
G1 X138.259 Y78.338 E2.13074
G1 X139.034 Y78.867 E2.17443
G1 X139.545 Y79.272 E2.20479
G1 X139.711 Y79.412 E2.2149
G1 X140.401 Y80.047 E2.25857
G1 X140.971 Y80.662 E2.29761
G1 X140.989 Y80.683 E2.2989
G1 X141.795 Y81.748 E2.36109
G1 X141.984 Y82.032 E2.37698
G1 X142.274 Y82.493 E2.40234
G1 X142.499 Y82.883 E2.4233
G1 X142.736 Y83.317 E2.44633
G1 X157.81 Y111.582 E3.93794
G1 X158.149 Y112.24 E3.9724
G1 X158.587 Y113.202 E4.02162
G1 X158.666 Y113.4 E4.03155
G1 X158.976 Y114.285 E4.07521
G1 X159.209 Y115.193 E4.11886
G1 X159.313 Y115.752 E4.14534
G1 X159.353 Y116.004 E4.15722
G1 X159.46 Y116.935 E4.20086
G1 X159.488 Y117.57 E4.23045
G1 X159.499 Y118.336 E4.26613
G1 X159.5 Y145.794 E5.54469
G1 X159.499 Y145.952 E5.55204
G1 X159.489 Y146.649 E5.5845
G1 X159.381 Y148.036 E5.64928
G1 X159.341 Y148.318 E5.66254
G1 X159.17 Y149.24 E5.70621
G1 X158.921 Y150.144 E5.74987
G1 X158.706 Y150.749 E5.77977
G1 X158.637 Y150.927 E5.78866
G1 X158.261 Y151.786 E5.83232
G1 X157.574 Y152.992 E5.89695
G1 X157.459 Y153.167 E5.9067
G1 X156.911 Y153.928 E5.95037
G1 X156.15 Y154.797 E6.00415
G1 X156.042 Y154.908 E6.01136
G1 X155.36 Y155.552 E6.05504
G1 X154.625 Y156.135 E6.09872
G1 X154.121 Y156.481 E6.12719
G1 X153.859 Y156.65 E6.14171
G1 X153.05 Y157.124 E6.18537
G1 X151.971 Y157.623 E6.24072
G1 X150.737 Y158.034 E6.30129
G1 X150.465 Y158.107 E6.3144
G1 X149.55 Y158.311 E6.35805
G1 X148.621 Y158.437 E6.40171
G1 X148.086 Y158.473 E6.42668
G1 X147.76 Y158.487 E6.44187
G1 X147.409 Y158.496 E6.45822
G1 X147.015 Y158.5 E6.47657
G1 X88.05 Y158.499 E9.22222
G1 X87.344 Y158.489 E9.2551
G1 X86.309 Y158.425 E9.30339
G1 X86.107 Y158.403 E9.31285
G1 X85.18 Y158.262 E9.35651
G1 X84.262 Y158.041 E9.40048
G1 X83.306 Y157.719 E9.44745
G1 X83.025 Y157.61 E9.46149
G1 X82.166 Y157.234 E9.50515
G1 X81.342 Y156.786 E9.54882
G1 X80.889 Y156.5 E9.57377
G1 X79.988 Y155.83 E9.62605
G1 X79.816 Y155.688 E9.63644
G1 X79.119 Y155.06 E9.68012
G1 X78.582 Y154.495 E9.71642
G1 X78.428 Y154.321 E9.72724
G1 X77.837 Y153.593 E9.7709
G1 X77.31 Y152.817 E9.81458
G1 X76.773 Y151.842 E9.86641
G1 X76.684 Y151.659 E9.87588
G1 X76.31 Y150.799 E9.91955
G1 X75.935 Y149.635 E9.9765
G1 X75.88 Y149.425 E9.98661
G1 X75.681 Y148.508 E10.0303
G1 X75.543 Y147.329 E10.08557
G1 X75.526 Y147.059 E10.09817
G1 X75.504 Y146.466 E10.1258
G1 X75.5 Y146.018 E10.14666
G1 X75.501 Y118.3 E11.43733
G1 X75.511 Y117.593 E11.47025
G1 X75.61 Y116.271 E11.53198
G1 X75.642 Y116.035 E11.54307
G1 X75.807 Y115.112 E11.58673
G1 X76.051 Y114.206 E11.63042
G1 X76.334 Y113.415 E11.66954
G1 X76.442 Y113.146 E11.68304
G1 X76.858 Y112.233 E11.72976
G1 X77.292 Y111.387 E11.77403
G1 X92.179 Y83.477 E13.24696
G1 X92.614 Y82.688 E13.28891
G1 X93.01 Y82.027 E13.32479
G1 X93.045 Y81.973 E13.32779
G1 X93.589 Y81.209 E13.37146
G1 X93.892 Y80.834 E13.39391
G1 X94.05 Y80.648 E13.40527
G0 F6000 X94.355 Y80.907
G1 F1200 X94.981 Y80.232 E13.44814
G1 X95.79 Y79.51 E13.49863
G1 X95.836 Y79.473 E13.50138
G1 X96.808 Y78.778 E13.55702
G1 X97.018 Y78.645 E13.56859
G1 X97.817 Y78.187 E13.61148
G1 X98.403 Y77.906 E13.64174
G1 X99.26 Y77.569 E13.68462
G1 X100.104 Y77.317 E13.72563
G1 X100.4 Y77.242 E13.73985
G1 X101.302 Y77.055 E13.78274
G1 X102.233 Y76.945 E13.8264
G1 X102.329 Y76.938 E13.83088
G1 X102.953 Y76.911 E13.85996
G1 X103.82 Y76.9 E13.90034
G1 X131.193 Y76.9 E15.17494
G1 X132.049 Y76.911 E15.2148
G1 X132.612 Y76.934 E15.24104
G1 X132.701 Y76.94 E15.24519
G1 X133.616 Y77.042 E15.28806
G1 X134.183 Y77.146 E15.3149
G1 X134.424 Y77.197 E15.32637
G1 X135.315 Y77.426 E15.36921
G1 X136.183 Y77.732 E15.41207
G1 X137.037 Y78.12 E15.45574
G1 X137.261 Y78.234 E15.46745
G1 X138.062 Y78.687 E15.5103
G1 X138.822 Y79.208 E15.5532
G1 X139.287 Y79.578 E15.58087
G1 X139.453 Y79.718 E15.59099
G1 X140.13 Y80.342 E15.63386
G1 X140.667 Y80.923 E15.6707
G1 X140.685 Y80.944 E15.67199
G1 X141.462 Y81.969 E15.73188
G1 X141.651 Y82.253 E15.74776
G1 X141.931 Y82.698 E15.77224
G1 X142.148 Y83.075 E15.7925
G1 X142.383 Y83.505 E15.81532
G1 X157.454 Y111.765 E17.30665
G1 X157.793 Y112.423 E17.34112
G1 X158.215 Y113.35 E17.38855
G1 X158.294 Y113.548 E17.39847
G1 X158.598 Y114.417 E17.44134
G1 X158.825 Y115.309 E17.4842
G1 X158.918 Y115.814 E17.50811
G1 X158.958 Y116.066 E17.51999
G1 X159.063 Y116.981 E17.56288
G1 X159.088 Y117.576 E17.59061
G1 X159.1 Y118.494 E17.63336
G1 X159.099 Y145.946 E18.91164
G1 X159.089 Y146.643 E18.9441
G1 X158.985 Y147.98 E19.00654
G1 X158.945 Y148.262 E19.0198
G1 X158.776 Y149.167 E19.06267
G1 X158.53 Y150.054 E19.10553
G1 X158.333 Y150.604 E19.13274
G1 X158.264 Y150.782 E19.14163
G1 X157.895 Y151.625 E19.18448
G1 X157.239 Y152.772 E19.246
G1 X157.124 Y152.947 E19.25575
G1 X156.586 Y153.694 E19.29862
G1 X155.863 Y154.518 E19.34966
G1 X155.755 Y154.629 E19.35688
G1 X155.085 Y155.26 E19.39973
G1 X154.363 Y155.831 E19.44259
G1 X153.904 Y156.145 E19.46849
G1 X153.642 Y156.314 E19.48301
G1 X152.847 Y156.779 E19.52589
G1 X151.823 Y157.252 E19.57842
G1 X150.634 Y157.648 E19.63677
G1 X150.362 Y157.721 E19.64988
G1 X149.463 Y157.921 E19.69277
G1 X148.55 Y158.042 E19.73565
G1 X148.069 Y158.073 E19.7581
G1 X147.743 Y158.087 E19.77329
G1 X147.404 Y158.096 E19.78908
G1 X147.015 Y158.1 E19.8072
G1 X88.056 Y158.099 E22.55257
G1 X87.35 Y158.089 E22.58545
G1 X86.352 Y158.028 E22.63201
G1 X86.15 Y158.006 E22.64147
G1 X85.24 Y157.866 E22.68434
G1 X84.372 Y157.656 E22.72593
G1 X83.451 Y157.347 E22.77116
G1 X83.17 Y157.238 E22.7852
G1 X82.326 Y156.868 E22.82811
G1 X81.519 Y156.426 E22.87095
G1 X81.111 Y156.167 E22.89345
G1 X80.243 Y155.521 E22.94384
G1 X80.071 Y155.379 E22.95422
G1 X79.387 Y154.763 E22.99709
G1 X78.881 Y154.23 E23.03131
G1 X78.727 Y154.056 E23.04213
G1 X78.148 Y153.341 E23.08497
G1 X77.632 Y152.578 E23.12786
G1 X77.133 Y151.667 E23.17622
G1 X77.044 Y151.484 E23.1857
G1 X76.677 Y150.639 E23.2286
G1 X76.322 Y149.534 E23.28264
G1 X76.267 Y149.324 E23.29275
G1 X76.072 Y148.424 E23.33563
G1 X75.942 Y147.304 E23.38813
G1 X75.925 Y147.034 E23.40073
G1 X75.904 Y146.463 E23.42733
G1 X75.9 Y146.015 E23.4482
G1 X75.901 Y118.306 E24.73844
G1 X75.911 Y117.599 E24.77137
G1 X76.006 Y116.325 E24.83086
G1 X76.038 Y116.089 E24.84194
G1 X76.201 Y115.183 E24.88481
G1 X76.443 Y114.294 E24.92771
G1 X76.705 Y113.564 E24.96383
G1 X76.813 Y113.295 E24.97732
G1 X77.214 Y112.415 E25.02235
G1 X77.645 Y111.575 E25.06632
G1 X92.532 Y83.665 E26.53924
G1 X92.964 Y82.882 E26.58088
G1 X93.346 Y82.245 E26.61547
G1 X93.381 Y82.191 E26.61846
G1 X94.197 Y81.093 E26.68216
G1 X94.355 Y80.907 E26.69353
G0 F6000 X94.66 Y81.166
G1 F1200 X95.275 Y80.505 E26.73557
G1 X96.041 Y79.822 E26.78336
G1 X96.087 Y79.785 E26.7861
G1 X97.022 Y79.116 E26.83964
G1 X97.232 Y78.983 E26.85121
G1 X98.016 Y78.534 E26.89328
G1 X98.565 Y78.271 E26.92163
G1 X99.406 Y77.941 E26.9637
G1 X100.203 Y77.704 E27.00241
G1 X100.499 Y77.629 E27.01663
G1 X101.383 Y77.447 E27.05866
G1 X102.262 Y77.344 E27.09987
G1 X102.358 Y77.337 E27.10435
G1 X102.958 Y77.311 E27.13232
G1 X103.82 Y77.3 E27.17246
G1 X131.193 Y77.3 E28.44706
G1 X132.043 Y77.311 E28.48664
G1 X132.585 Y77.333 E28.5119
G1 X132.674 Y77.339 E28.51605
G1 X133.572 Y77.44 E28.55813
G1 X134.1 Y77.537 E28.58313
G1 X134.341 Y77.588 E28.5946
G1 X135.215 Y77.814 E28.63664
G1 X136.066 Y78.116 E28.67868
G1 X136.855 Y78.477 E28.71908
G1 X137.079 Y78.591 E28.73079
G1 X137.865 Y79.035 E28.77282
G1 X138.609 Y79.548 E28.8149
G1 X139.029 Y79.884 E28.83995
G1 X139.195 Y80.024 E28.85006
G1 X139.859 Y80.636 E28.89211
G1 X140.381 Y81.204 E28.92803
G1 X141.129 Y82.191 E28.9857
G1 X141.318 Y82.475 E29.00158
G1 X141.587 Y82.903 E29.02512
G1 X141.797 Y83.268 E29.04473
G1 X142.03 Y83.693 E29.0673
G1 X157.031 Y111.82 E30.55163
G1 X157.437 Y112.607 E30.59287
G1 X157.844 Y113.498 E30.63848
G1 X157.923 Y113.696 E30.64841
G1 X158.22 Y114.549 E30.69047
G1 X158.441 Y115.425 E30.73253
G1 X158.523 Y115.877 E30.75393
G1 X158.563 Y116.129 E30.76581
G1 X158.665 Y117.026 E30.80784
G1 X158.688 Y117.582 E30.83376
G1 X158.7 Y118.494 E30.87623
G1 X158.699 Y145.94 E32.15423
G1 X158.689 Y146.637 E32.18668
G1 X158.589 Y147.923 E32.24675
G1 X158.549 Y148.205 E32.26001
G1 X158.383 Y149.093 E32.30208
G1 X158.138 Y149.963 E32.34416
G1 X157.96 Y150.46 E32.36874
G1 X157.891 Y150.638 E32.37763
G1 X157.528 Y151.464 E32.41965
G1 X156.905 Y152.553 E32.47807
G1 X156.79 Y152.728 E32.48782
G1 X156.261 Y153.46 E32.52987
G1 X155.577 Y154.239 E32.57814
G1 X155.469 Y154.35 E32.58535
G1 X154.811 Y154.969 E32.62742
G1 X154.101 Y155.527 E32.66947
G1 X153.687 Y155.809 E32.69279
G1 X153.425 Y155.978 E32.70731
G1 X152.645 Y156.433 E32.74936
G1 X151.674 Y156.88 E32.79913
G1 X150.53 Y157.261 E32.85528
G1 X150.258 Y157.334 E32.86839
G1 X149.376 Y157.53 E32.91046
G1 X148.052 Y157.674 E32.97248
G1 X147.726 Y157.688 E32.98767
G1 X147.4 Y157.696 E33.00286
G1 X147.015 Y157.7 E33.02079
G1 X88.062 Y157.699 E35.76588
G1 X87.356 Y157.689 E35.79876
G1 X86.396 Y157.63 E35.84355
G1 X86.194 Y157.608 E35.85301
G1 X85.301 Y157.471 E35.89508
G1 X84.482 Y157.272 E35.93432
G1 X83.595 Y156.974 E35.97789
G1 X83.314 Y156.865 E35.99193
G1 X82.488 Y156.501 E36.03396
G1 X81.333 Y155.834 E36.09607
G1 X80.497 Y155.213 E36.14456
G1 X80.325 Y155.071 E36.15494
G1 X79.655 Y154.466 E36.19698
G1 X79.181 Y153.965 E36.22909
G1 X79.027 Y153.791 E36.23991
G1 X78.459 Y153.089 E36.28196
G1 X77.955 Y152.339 E36.32404
G1 X77.492 Y151.492 E36.36898
G1 X77.403 Y151.309 E36.37846
G1 X77.045 Y150.48 E36.42051
G1 X76.709 Y149.432 E36.47175
G1 X76.654 Y149.222 E36.48186
G1 X76.464 Y148.339 E36.52392
G1 X76.341 Y147.279 E36.57361
G1 X76.324 Y147.009 E36.58621
G1 X76.304 Y146.459 E36.61183
G1 X76.3 Y146.011 E36.63269
G1 X76.301 Y118.312 E37.92248
G1 X76.311 Y117.605 E37.9554
G1 X76.402 Y116.378 E38.01269
G1 X76.434 Y116.142 E38.02378
G1 X76.595 Y115.254 E38.0658
G1 X76.834 Y114.383 E38.10786
G1 X77.076 Y113.713 E38.14103
G1 X77.184 Y113.444 E38.15453
G1 X77.57 Y112.597 E38.19787
G1 X77.918 Y111.917 E38.23344
G1 X77.998 Y111.764 E38.24148
G1 X92.958 Y83.719 E39.72155
G1 X93.314 Y83.075 E39.75581
G1 X93.682 Y82.462 E39.78911
G1 X93.717 Y82.408 E39.7921
G1 X94.502 Y81.352 E39.85337
G1 X94.66 Y81.166 E39.86474
G1 F2700 E34.86474
;MESH:LED_remote_holder.STL
G0 F6000 X101.661 Y87.667
G0 X102.574 Y88.251
G0 X87.106 Y117.688
;TYPE:WALL-INNER
G1 F2700 E39.86474
G1 F1200 X87.124 Y117.621 E39.86797
G1 X87.161 Y117.533 E39.87241
G1 X102.734 Y88.335 E41.41329
G1 X102.781 Y88.263 E41.41729
G1 X102.821 Y88.217 E41.42013
G1 X102.876 Y88.171 E41.42347
G1 X102.92 Y88.145 E41.42585
G1 X102.976 Y88.122 E41.42867
G1 X103.047 Y88.106 E41.43206
G1 X103.117 Y88.1 E41.43533
G1 X131.877 Y88.1 E42.77451
G1 X131.963 Y88.107 E42.77853
G1 X132.026 Y88.121 E42.78154
G1 X132.072 Y88.14 E42.78385
G1 X132.128 Y88.174 E42.7869
G1 X132.18 Y88.218 E42.79008
G1 X132.217 Y88.26 E42.79268
G1 X132.266 Y88.336 E42.79689
G1 X147.839 Y117.535 E44.33781
G1 X147.875 Y117.62 E44.34211
G1 X147.893 Y117.693 E44.34561
G1 X147.9 Y117.766 E44.34902
G1 X147.9 Y146.481 E45.68611
G1 X147.893 Y146.564 E45.68999
G1 X147.879 Y146.625 E45.69291
G1 X147.858 Y146.677 E45.69552
G1 X147.824 Y146.733 E45.69857
G1 X147.777 Y146.787 E45.7019
G1 X147.739 Y146.819 E45.70422
G1 X147.686 Y146.852 E45.70712
G1 X147.619 Y146.879 E45.71049
G1 X147.559 Y146.894 E45.71337
G1 X147.479 Y146.9 E45.7171
G1 X87.52 Y146.9 E48.50904
G1 X87.436 Y146.893 E48.51297
G1 X87.378 Y146.879 E48.51575
G1 X87.318 Y146.855 E48.51876
G1 X87.27 Y146.825 E48.52139
G1 X87.215 Y146.777 E48.52479
G1 X87.177 Y146.734 E48.52746
G1 X87.144 Y146.678 E48.53049
G1 X87.12 Y146.622 E48.53333
G1 X87.107 Y146.564 E48.53609
G1 X87.1 Y146.48 E48.54002
G1 X87.1 Y117.767 E49.87702
G1 X87.106 Y117.688 E49.88071
G0 F6000 X86.71 Y117.621
;TYPE:WALL-OUTER
G1 F1200 X86.744 Y117.492 E49.88692
G1 X86.798 Y117.364 E49.89339
G1 X102.389 Y88.132 E51.43605
G1 X102.462 Y88.019 E51.44232
G1 X102.541 Y87.929 E51.44789
G1 X102.642 Y87.845 E51.45401
G1 X102.739 Y87.786 E51.4593
G1 X102.858 Y87.738 E51.46527
G1 X102.98 Y87.711 E51.47109
G1 X103.105 Y87.7 E51.47693
G1 X131.897 Y87.7 E52.81761
G1 X132.02 Y87.71 E52.82336
G1 X132.148 Y87.739 E52.82947
G1 X132.255 Y87.783 E52.83485
G1 X132.362 Y87.848 E52.84068
G1 X132.46 Y87.93 E52.84663
G1 X132.536 Y88.016 E52.85198
G1 X132.613 Y88.137 E52.85866
G1 X148.201 Y117.364 E54.40105
G1 X148.257 Y117.495 E54.40769
G1 X148.288 Y117.622 E54.41377
G1 X148.3 Y117.75 E54.41976
G1 X148.3 Y146.501 E55.75853
G1 X148.29 Y146.625 E55.76432
G1 X148.261 Y146.747 E55.77016
G1 X148.215 Y146.86 E55.77584
G1 X148.148 Y146.969 E55.7818
G1 X148.062 Y147.069 E55.78794
G1 X147.974 Y147.144 E55.79332
G1 X147.861 Y147.213 E55.79949
G1 X147.743 Y147.261 E55.80542
G1 X147.624 Y147.29 E55.81112
G1 X147.498 Y147.3 E55.81701
G1 X87.501 Y147.3 E58.61072
G1 X87.375 Y147.29 E58.6166
G1 X87.254 Y147.261 E58.6224
G1 X87.135 Y147.212 E58.62839
G1 X87.03 Y147.147 E58.63414
G1 X86.934 Y147.064 E58.64005
G1 X86.853 Y146.97 E58.64583
G1 X86.786 Y146.859 E58.65187
G1 X86.739 Y146.746 E58.65756
G1 X86.71 Y146.623 E58.66345
G1 X86.7 Y146.5 E58.6692
G1 X86.7 Y117.749 E60.00796
G1 X86.71 Y117.621 E60.01394
G0 F6000 X87.143 Y117.694
G0 X87.492 Y117.754
;TYPE:SKIN
G1 F1200 X87.517 Y117.693 E60.01701
G1 X103.065 Y88.541 E61.55545
G1 X103.096 Y88.495 E61.55803
G1 X103.129 Y88.49 E61.55958
G1 X131.869 Y88.49 E62.89784
G1 X131.9 Y88.493 E62.89929
G1 X131.908 Y88.499 E62.89975
G1 X131.927 Y88.528 E62.90137
G1 X147.489 Y117.707 E64.44122
G1 X147.502 Y117.736 E64.4427
G1 X147.507 Y117.757 E64.44371
G1 X147.51 Y117.78 E64.44479
G1 X147.51 Y146.472 E65.78081
G1 X147.507 Y146.503 E65.78226
G1 X147.493 Y146.508 E65.78295
G1 X147.465 Y146.51 E65.78426
G1 X87.529 Y146.51 E68.57513
G1 X87.499 Y146.507 E68.57653
G1 X87.493 Y146.501 E68.57693
G1 X87.49 Y146.472 E68.57828
G1 X87.49 Y117.78 E69.9143
G1 X87.492 Y117.754 E69.91552
G1 F2700 E64.91552
G0 F6000 X87.223 Y117.676
G0 X87.296 Y146.599
G0 X87.431 Y146.699
G0 X88.083 Y146.79
G0 X88.083 Y146.349
G1 F2700 E69.91552
G1 F1200 X87.649 Y145.915 E69.9441
G0 F6000 X87.649 Y145.349
G1 F1200 X88.649 Y146.349 E70.00995
G0 F6000 X89.214 Y146.349
G1 F1200 X87.649 Y144.783 E70.11304
G0 F6000 X87.649 Y144.217
G1 F1200 X89.78 Y146.349 E70.2534
G0 F6000 X90.346 Y146.349
G1 F1200 X87.649 Y143.652 E70.43101
G0 F6000 X87.649 Y143.086
G1 F1200 X90.912 Y146.349 E70.64588
G0 F6000 X91.477 Y146.349
G1 F1200 X87.649 Y142.52 E70.89799
G0 F6000 X87.649 Y141.955
G1 F1200 X92.043 Y146.349 E71.18735
G0 F6000 X92.609 Y146.349
G1 F1200 X87.649 Y141.389 E71.51397
G0 F6000 X87.649 Y140.823
