;FLAVOR:Marlin
;TIME:11585
;Filament used: 9.05189m
;Layer height: 0.28
;MINX:2.184
;MINY:11.642
;MINZ:0.28
;MAXX:233.368
;MAXY:224.528
;MAXZ:1.96
;Generated with Cura_SteamEngine 4.5.0
M140 S65
M105
M190 S65
M104 S215
M105
M109 S215
M82 ;absolute extrusion mode
; Ender 3 Custom Start G-code
G92 E0 ; Reset Extruder
G28 ; Home all axes
G1 Z2.0 F3000 ; Move Z Axis up little to prevent scratching of Heat Bed
G1 X0.1 Y20 Z0.3 F5000.0 ; Move to start position
G1 X0.1 Y200.0 Z0.3 F1500.0 E15 ; Draw the first line
G1 X0.4 Y200.0 Z0.3 F5000.0 ; Move to side a little
G1 X0.4 Y20 Z0.3 F1500.0 E30 ; Draw the second line
G92 E0 ; Reset Extruder
G1 Z2.0 F3000 ; Move Z Axis up little to prevent scratching of Heat Bed
G1 X5 Y20 Z0.3 F5000.0 ; Move over to prevent blob squish
G92 E0
G92 E0
G1 F2700 E-5
;LAYER_COUNT:7
;LAYER:0
M107
G0 F6000 X38.529 Y30.853 Z0.28
;TYPE:SKIRT
G1 F2700 E0
G1 F1200 X40.059 Y28.843 E0.11762
G1 X41.541 Y26.778 E0.23598
G1 X42.95 Y24.692 E0.35319
G1 X44.274 Y22.607 E0.4682
G1 X45.596 Y20.386 E0.58855
G1 X46.775 Y18.302 E0.70005
G1 X46.873 Y18.139 E0.7089
G1 X47.39 Y17.357 E0.75255
G1 X47.972 Y16.621 E0.79625
G1 X48.391 Y16.161 E0.82522
G1 X48.769 Y15.77 E0.85054
G1 X49.186 Y15.358 E0.87784
G1 X49.887 Y14.734 E0.92154
G1 X50.637 Y14.173 E0.96515
G1 X51.172 Y13.83 E0.99474
G1 X51.637 Y13.55 E1.02002
G1 X52.145 Y13.259 E1.04728
G1 X52.983 Y12.837 E1.09097
G1 X53.853 Y12.488 E1.13462
G1 X54.46 Y12.294 E1.16429
G1 X55.053 Y12.123 E1.19303
G1 X55.605 Y11.977 E1.21962
G1 X56.524 Y11.789 E1.26329
G1 X57.455 Y11.679 E1.30695
G1 X58.079 Y11.651 E1.33603
G1 X58.59 Y11.642 E1.35983
G1 X59.222 Y11.645 E1.38926
G1 X60.159 Y11.698 E1.43296
G1 X61.053 Y11.825 E1.47501
G1 X61.733 Y11.95 E1.5072
G1 X64.292 Y12.388 E1.62809
G1 X66.795 Y12.744 E1.74581
G1 X69.291 Y13.027 E1.86278
G1 X71.896 Y13.249 E1.98452
G1 X72.965 Y13.393 E2.03475
G1 X73.663 Y13.522 E2.0678
G1 X76.157 Y13.949 E2.18562
G1 X78.682 Y14.308 E2.30438
G1 X81.199 Y14.594 E2.42233
G1 X83.796 Y14.815 E2.5437
G1 X84.876 Y14.961 E2.59445
G1 X85.504 Y15.078 E2.62419
G1 X88.092 Y15.522 E2.74646
G1 X90.561 Y15.873 E2.86258
G1 X93.064 Y16.157 E2.97988
G1 X95.671 Y16.379 E3.10171
G1 X96.602 Y16.499 E3.14542
G1 X97.403 Y16.667 E3.18353
G1 X97.928 Y16.798 E3.20873
G1 X98.492 Y16.952 E3.23595
G1 X99.389 Y17.247 E3.27992
G1 X99.877 Y17.432 E3.30422
G1 X101.762 Y18.173 E3.39853
G1 X104.119 Y19.022 E3.51519
G1 X106.505 Y19.807 E3.63215
G1 X108.9 Y20.52 E3.74851
G1 X111.384 Y21.183 E3.86822
G1 X113.804 Y21.757 E3.98403
G1 X116.265 Y22.269 E4.10108
G1 X118.753 Y22.709 E4.21873
G1 X121.251 Y23.082 E4.33634
G1 X123.739 Y23.381 E4.45302
G1 X126.244 Y23.611 E4.57016
G1 X128.759 Y23.769 E4.6875
G1 X131.299 Y23.858 E4.80584
G1 X133.124 Y23.877 E4.89083
G1 X135.711 Y23.877 E5.01129
G1 X138.319 Y23.84 E5.13274
G1 X140.841 Y23.733 E5.25028
G1 X143.335 Y23.556 E5.3667
G1 X145.835 Y23.308 E5.48369
G1 X148.328 Y22.989 E5.60072
G1 X150.821 Y22.598 E5.71822
G1 X153.311 Y22.135 E5.83615
G1 X155.774 Y21.605 E5.95347
G1 X158.17 Y21.017 E6.06834
G1 X160.64 Y20.338 E6.18762
G1 X163.043 Y19.602 E6.30465
G1 X165.435 Y18.795 E6.4222
G1 X167.791 Y17.927 E6.53911
G1 X168.456 Y17.661 E6.57246
G1 X169.383 Y17.304 E6.61872
G1 X170.297 Y16.997 E6.66361
G1 X170.885 Y16.828 E6.6921
G1 X171.484 Y16.671 E6.72094
G1 X172.403 Y16.483 E6.76461
G1 X173.307 Y16.376 E6.807
G1 X173.786 Y16.339 E6.82937
G1 X176.438 Y16.097 E6.95337
G1 X178.966 Y15.794 E7.07193
G1 X181.42 Y15.429 E7.18746
G1 X184.027 Y14.963 E7.31077
G1 X185.004 Y14.833 E7.35667
G1 X185.812 Y14.762 E7.39444
G1 X188.474 Y14.514 E7.51893
G1 X190.989 Y14.209 E7.63689
G1 X193.475 Y13.836 E7.75395
G1 X195.905 Y13.4 E7.86891
G1 X196.877 Y13.27 E7.91457
G1 X197.679 Y13.199 E7.95206
G1 X200.344 Y12.952 E8.07669
G1 X202.825 Y12.651 E8.19306
G1 X205.352 Y12.273 E8.31204
G1 X207.875 Y11.822 E8.43138
G1 X208.805 Y11.696 E8.47508
G1 X209.616 Y11.652 E8.5129
G1 X210.179 Y11.642 E8.53912
G1 X210.795 Y11.646 E8.5678
G1 X211.731 Y11.702 E8.61146
G1 X212.659 Y11.838 E8.65514
G1 X213.262 Y11.97 E8.68388
G1 X213.772 Y12.097 E8.70835
G1 X214.334 Y12.25 E8.73548
G1 X215.225 Y12.543 E8.77915
G1 X216.088 Y12.911 E8.82284
G1 X216.659 Y13.204 E8.85272
G1 X217.194 Y13.499 E8.88117
G1 X217.659 Y13.769 E8.90621
G1 X218.444 Y14.282 E8.94987
G1 X219.182 Y14.861 E8.99355
G1 X219.679 Y15.312 E9.0248
G1 X220.062 Y15.682 E9.0496
G1 X220.48 Y16.104 E9.07726
G1 X221.104 Y16.804 E9.12092
G1 X221.667 Y17.554 E9.16459
G1 X222.013 Y18.092 E9.19437
G1 X222.289 Y18.55 E9.21927
G1 X222.579 Y19.058 E9.24651
G1 X223.002 Y19.895 E9.29018
G1 X223.353 Y20.764 E9.33382
G1 X223.552 Y21.385 E9.36418
G1 X223.711 Y21.936 E9.39089
G1 X223.858 Y22.49 E9.41758
G1 X224.058 Y23.449 E9.46319
G1 X224.181 Y24.272 E9.50194
G1 X226.784 Y44.055 E10.43106
G1 X226.869 Y44.778 E10.46496
G1 X226.936 Y45.646 E10.5055
G1 X226.945 Y45.884 E10.51659
G1 X226.952 Y46.464 E10.5436
G1 X226.944 Y47.002 E10.56865
G1 X226.868 Y48.139 E10.62171
G1 X226.84 Y48.374 E10.63273
G1 X226.546 Y50.963 E10.75406
G1 X226.334 Y53.472 E10.87131
G1 X226.191 Y55.994 E10.98893
G1 X226.121 Y58.517 E11.10646
G1 X226.121 Y61.041 E11.22399
G1 X226.192 Y63.526 E11.33974
G1 X226.337 Y66.061 E11.45798
G1 X226.55 Y68.56 E11.57476
G1 X226.833 Y71.05 E11.69145
G1 X227.19 Y73.557 E11.80937
G1 X227.614 Y76.025 E11.92597
G1 X228.111 Y78.497 E12.04338
G1 X228.67 Y80.926 E12.15944
G1 X229.586 Y84.368 E12.3253
G1 X229.662 Y84.634 E12.33818
G1 X229.797 Y85.147 E12.36288
G1 X229.998 Y86.114 E12.40887
G1 X230.119 Y86.926 E12.4471
G1 X232.722 Y106.706 E13.37608
G1 X232.807 Y107.429 E13.40997
G1 X232.874 Y108.297 E13.45051
G1 X232.883 Y108.535 E13.4616
G1 X232.89 Y109.119 E13.4888
G1 X232.882 Y109.642 E13.51315
G1 X232.827 Y110.579 E13.55686
G1 X232.694 Y111.507 E13.60051
G1 X232.555 Y112.14 E13.63069
G1 X232.285 Y113.22 E13.68253
G1 X231.695 Y115.736 E13.80286
G1 X231.18 Y118.243 E13.92204
G1 X230.758 Y120.661 E14.03633
G1 X230.39 Y123.176 E14.15469
G1 X230.097 Y125.664 E14.27134
G1 X229.872 Y128.192 E14.38952
G1 X229.72 Y130.707 E14.50684
G1 X229.638 Y133.203 E14.62313
G1 X229.629 Y135.721 E14.74038
G1 X229.69 Y138.243 E14.85785
G1 X229.824 Y140.776 E14.97596
G1 X230.024 Y143.247 E15.09139
G1 X230.306 Y145.825 E15.21215
G1 X230.589 Y147.925 E15.31082
G1 X233.2 Y167.762 E16.24248
G1 X233.285 Y168.486 E16.27643
G1 X233.352 Y169.352 E16.31687
G1 X233.361 Y169.589 E16.32791
G1 X233.368 Y170.175 E16.3552
G1 X233.36 Y170.696 E16.37947
G1 X233.305 Y171.632 E16.42313
G1 X233.171 Y172.56 E16.46678
G1 X233.033 Y173.195 E16.49704
G1 X232.895 Y173.747 E16.52354
G1 X232.75 Y174.279 E16.54921
G1 X232.456 Y175.169 E16.59286
G1 X232.088 Y176.032 E16.63654
G1 X231.797 Y176.596 E16.6661
G1 X231.54 Y177.062 E16.69088
G1 X231.223 Y177.605 E16.72015
G1 X230.708 Y178.389 E16.76383
G1 X230.128 Y179.126 E16.8075
G1 X229.693 Y179.603 E16.83756
G1 X229.292 Y180.018 E16.86443
G1 X228.905 Y180.402 E16.88982
G1 X228.206 Y181.026 E16.93345
G1 X227.455 Y181.589 E16.97716
G1 X226.91 Y181.94 E17.00734
G1 X226.176 Y182.377 E17.04712
G1 X225.956 Y182.501 E17.05888
G1 X225.095 Y182.937 E17.10382
G1 X224.061 Y183.406 E17.15669
G1 X221.675 Y184.527 E17.27944
G1 X219.4 Y185.677 E17.39814
G1 X217.22 Y186.857 E17.51356
G1 X215.042 Y188.116 E17.63071
G1 X212.909 Y189.432 E17.74741
G1 X210.78 Y190.829 E17.86598
G1 X208.732 Y192.258 E17.98226
G1 X206.699 Y193.764 E18.10007
G1 X204.709 Y195.327 E18.2179
G1 X202.788 Y196.926 E18.33428
G1 X200.908 Y198.582 E18.45094
G1 X199.053 Y200.312 E18.56905
G1 X197.274 Y202.069 E18.68548
G1 X195.504 Y203.917 E18.80464
G1 X193.848 Y205.748 E18.91959
G1 X192.195 Y207.681 E19.03802
G1 X190.63 Y209.624 E19.1542
G1 X189.093 Y211.644 E19.27239
G1 X187.62 Y213.697 E19.39005
G1 X186.239 Y215.741 E19.50491
G1 X185.358 Y217.15 E19.58229
G1 X184.587 Y218.341 E19.64835
G1 X184.044 Y219.106 E19.69204
G1 X183.265 Y220.005 E19.74743
G1 X182.896 Y220.387 E19.77216
G1 X182.473 Y220.806 E19.79988
G1 X181.773 Y221.43 E19.84355
G1 X181.023 Y221.993 E19.88721
G1 X180.481 Y222.34 E19.91718
G1 X180.016 Y222.62 E19.94246
G1 X179.508 Y222.911 E19.96972
G1 X178.67 Y223.333 E20.01341
G1 X177.8 Y223.682 E20.05706
G1 X177.193 Y223.876 E20.08673
G1 X176.6 Y224.047 E20.11547
G1 X176.048 Y224.193 E20.14205
G1 X175.129 Y224.381 E20.18573
G1 X174.198 Y224.491 E20.22938
G1 X173.574 Y224.519 E20.25847
G1 X173.063 Y224.528 E20.28227
G1 X172.431 Y224.525 E20.3117
G1 X171.494 Y224.472 E20.3554
G1 X170.6 Y224.345 E20.39744
G1 X169.92 Y224.22 E20.42964
G1 X167.361 Y223.782 E20.55053
G1 X164.858 Y223.426 E20.66825
G1 X162.362 Y223.143 E20.78522
G1 X159.757 Y222.921 E20.90696
G1 X158.688 Y222.777 E20.95719
G1 X157.99 Y222.648 E20.99024
G1 X155.496 Y222.221 E21.10806
G1 X152.971 Y221.862 E21.22682
G1 X150.454 Y221.576 E21.34477
G1 X147.857 Y221.355 E21.46614
G1 X146.777 Y221.209 E21.51688
G1 X146.149 Y221.092 E21.54663
G1 X143.561 Y220.648 E21.6689
G1 X141.092 Y220.297 E21.78502
G1 X138.589 Y220.013 E21.90232
G1 X135.982 Y219.791 E22.02415
G1 X135.051 Y219.671 E22.06786
G1 X134.25 Y219.503 E22.10597
G1 X133.725 Y219.372 E22.13117
G1 X133.161 Y219.218 E22.15839
G1 X132.256 Y218.92 E22.20276
G1 X131.762 Y218.733 E22.22735
G1 X129.861 Y217.987 E22.32244
G1 X127.53 Y217.147 E22.43782
G1 X125.107 Y216.351 E22.55657
G1 X122.731 Y215.644 E22.672
G1 X120.252 Y214.982 E22.79148
G1 X117.83 Y214.408 E22.90738
G1 X115.342 Y213.892 E23.0257
G1 X112.903 Y213.46 E23.14104
G1 X110.404 Y213.088 E23.25868
G1 X107.899 Y212.787 E23.37617
G1 X105.366 Y212.556 E23.4946
G1 X102.87 Y212.398 E23.61106
G1 X100.339 Y212.311 E23.72898
G1 X98.557 Y212.292 E23.81197
G1 X95.977 Y212.291 E23.9321
G1 X93.37 Y212.327 E24.05351
G1 X90.883 Y212.432 E24.16941
G1 X88.353 Y212.61 E24.28751
G1 X85.823 Y212.86 E24.40589
G1 X83.367 Y213.173 E24.52118
G1 X80.851 Y213.567 E24.63976
G1 X78.401 Y214.022 E24.7558
G1 X75.925 Y214.554 E24.87372
G1 X73.519 Y215.143 E24.98906
G1 X71.035 Y215.825 E25.10901
G1 X68.653 Y216.554 E25.225
G1 X66.283 Y217.352 E25.34145
G1 X63.907 Y218.228 E25.45936
G1 X63.469 Y218.403 E25.48133
G1 X62.301 Y218.855 E25.53964
G1 X61.368 Y219.168 E25.58547
G1 X60.731 Y219.351 E25.61633
G1 X60.128 Y219.508 E25.64534
G1 X59.209 Y219.693 E25.68899
G1 X58.347 Y219.794 E25.72941
G1 X57.853 Y219.832 E25.75248
G1 X55.215 Y220.073 E25.87583
G1 X52.687 Y220.376 E25.99438
G1 X50.253 Y220.738 E26.10897
G1 X47.632 Y221.206 E26.23294
G1 X46.673 Y221.334 E26.27799
G1 X45.841 Y221.408 E26.31689
G1 X43.179 Y221.656 E26.44138
G1 X40.664 Y221.961 E26.55934
G1 X38.206 Y222.33 E26.67508
G1 X35.751 Y222.77 E26.79122
G1 X34.788 Y222.898 E26.83645
G1 X33.974 Y222.971 E26.87451
G1 X31.309 Y223.218 E26.99913
G1 X28.828 Y223.519 E27.11551
G1 X26.301 Y223.897 E27.23448
G1 X23.778 Y224.348 E27.35383
G1 X22.848 Y224.474 E27.39753
G1 X22.037 Y224.518 E27.43535
G1 X21.474 Y224.528 E27.46157
G1 X20.858 Y224.524 E27.49025
G1 X19.922 Y224.468 E27.53391
G1 X18.994 Y224.332 E27.57759
G1 X18.397 Y224.201 E27.60605
G1 X17.886 Y224.074 E27.63057
G1 X17.319 Y223.92 E27.65792
G1 X16.428 Y223.627 E27.7016
G1 X15.565 Y223.259 E27.74528
G1 X14.992 Y222.965 E27.77527
G1 X14.45 Y222.666 E27.8041
G1 X13.986 Y222.397 E27.82907
G1 X13.202 Y221.883 E27.87272
G1 X12.464 Y221.304 E27.9164
G1 X11.974 Y220.858 E27.94725
G1 X11.591 Y220.488 E27.97205
G1 X11.173 Y220.066 E27.99971
G1 X10.549 Y219.366 E28.04337
G1 X9.986 Y218.616 E28.08704
G1 X9.639 Y218.074 E28.11701
G1 X9.359 Y217.609 E28.14228
G1 X9.061 Y217.088 E28.17023
G1 X8.64 Y216.25 E28.2139
G1 X8.292 Y215.379 E28.25757
G1 X8.102 Y214.785 E28.28661
G1 X7.938 Y214.217 E28.31414
G1 X7.78 Y213.618 E28.34299
G1 X7.593 Y212.706 E28.38634
G1 X7.465 Y211.845 E28.42687
G1 X4.87 Y192.123 E29.35313
G1 X4.784 Y191.396 E29.38721
G1 X4.714 Y190.481 E29.42994
G1 X4.706 Y190.248 E29.4408
G1 X4.701 Y189.708 E29.46595
G1 X4.709 Y189.169 E29.49105
G1 X4.763 Y188.232 E29.53475
G1 X4.889 Y187.345 E29.57647
G1 X5.044 Y186.498 E29.61656
G1 X5.477 Y183.972 E29.7359
G1 X5.835 Y181.452 E29.85442
G1 X6.118 Y178.961 E29.97116
G1 X6.331 Y176.449 E30.08854
G1 X6.472 Y173.933 E30.20588
G1 X6.543 Y171.408 E30.32351
G1 X6.543 Y168.883 E30.44108
G1 X6.472 Y166.397 E30.55689
G1 X6.327 Y163.865 E30.67498
G1 X6.114 Y161.364 E30.79186
G1 X5.83 Y158.87 E30.90874
G1 X5.479 Y156.404 E31.02472
G1 X5.308 Y155.417 E31.07137
G1 X5.004 Y153.535 E31.16014
G1 X4.955 Y153.183 E31.17669
G1 X2.353 Y133.411 E32.10529
G1 X2.267 Y132.684 E32.13938
G1 X2.197 Y131.769 E32.18211
G1 X2.189 Y131.536 E32.19297
G1 X2.184 Y130.99 E32.21839
G1 X2.192 Y130.469 E32.24265
G1 X2.247 Y129.533 E32.28631
G1 X2.381 Y128.605 E32.32997
G1 X2.518 Y127.975 E32.35999
G1 X2.656 Y127.422 E32.38653
G1 X2.816 Y126.839 E32.41468
G1 X2.999 Y126.243 E32.44372
G1 X3.731 Y123.795 E32.56269
G1 X4.394 Y121.324 E32.68182
G1 X4.977 Y118.878 E32.79891
G1 X5.49 Y116.424 E32.91565
G1 X5.931 Y113.958 E33.0323
G1 X6.307 Y111.454 E33.1502
G1 X6.612 Y108.949 E33.2677
G1 X6.843 Y106.452 E33.38447
G1 X7.004 Y103.956 E33.50094
G1 X7.095 Y101.434 E33.61845
G1 X7.115 Y98.911 E33.73593
G1 X7.063 Y96.387 E33.85349
G1 X6.94 Y93.867 E33.97097
G1 X6.75 Y91.408 E34.08581
G1 X6.343 Y87.763 E34.25659
G1 X3.851 Y68.823 E35.14612
G1 X3.765 Y68.09 E35.18048
G1 X3.696 Y67.181 E35.22293
G1 X3.688 Y66.945 E35.23393
G1 X3.683 Y66.4 E35.25931
G1 X3.691 Y65.887 E35.2832
G1 X3.746 Y64.951 E35.32686
G1 X3.88 Y64.023 E35.37052
G1 X4.018 Y63.391 E35.40064
G1 X4.156 Y62.839 E35.42713
G1 X4.301 Y62.307 E35.45281
G1 X4.595 Y61.417 E35.49645
G1 X4.963 Y60.554 E35.54014
G1 X5.254 Y59.99 E35.56969
G1 X5.511 Y59.524 E35.59447
G1 X5.828 Y58.981 E35.62375
G1 X6.343 Y58.197 E35.66743
G1 X6.923 Y57.46 E35.7111
G1 X7.358 Y56.983 E35.74116
G1 X7.759 Y56.568 E35.76803
G1 X8.146 Y56.184 E35.79341
G1 X8.845 Y55.56 E35.83705
G1 X9.596 Y54.997 E35.88075
G1 X10.147 Y54.642 E35.91127
G1 X10.601 Y54.369 E35.93594
G1 X10.898 Y54.197 E35.95192
G1 X11.849 Y53.665 E36.00266
G1 X14.116 Y52.354 E36.1246
G1 X16.272 Y51.025 E36.24254
G1 X18.37 Y49.649 E36.35936
G1 X20.421 Y48.218 E36.47582
G1 X22.466 Y46.704 E36.5943
G1 X24.428 Y45.163 E36.71047
G1 X26.37 Y43.547 E36.82811
G1 X28.269 Y41.875 E36.94592
G1 X30.088 Y40.181 E37.06166
G1 X31.884 Y38.407 E37.17921
G1 X33.62 Y36.594 E37.29609
G1 X35.327 Y34.708 E37.41454
G1 X36.977 Y32.78 E37.53271
G1 X38.529 Y30.853 E37.64792
G0 F6000 X38.861 Y31.078
G1 F1200 X40.37 Y29.096 E37.76391
G1 X41.865 Y27.013 E37.8833
G1 X43.263 Y24.943 E37.99961
G1 X44.637 Y22.779 E38.11897
G1 X45.934 Y20.601 E38.23701
G1 X47.117 Y18.508 E38.34896
G1 X47.215 Y18.345 E38.35781
G1 X47.724 Y17.577 E38.40072
G1 X48.297 Y16.857 E38.44356
G1 X48.679 Y16.439 E38.46993
G1 X49.057 Y16.048 E38.49526
G1 X49.465 Y15.645 E38.52196
G1 X50.153 Y15.034 E38.5648
G1 X50.891 Y14.484 E38.60766
G1 X51.378 Y14.172 E38.63459
G1 X51.843 Y13.892 E38.65987
G1 X52.34 Y13.608 E38.68652
G1 X53.163 Y13.195 E38.7294
G1 X54.018 Y12.854 E38.77226
G1 X54.571 Y12.678 E38.79928
G1 X55.164 Y12.507 E38.82802
G1 X55.702 Y12.365 E38.85393
G1 X56.604 Y12.181 E38.8968
G1 X57.519 Y12.076 E38.93968
G1 X58.086 Y12.051 E38.96611
G1 X58.934 Y12.041 E39.0056
G1 X59.217 Y12.045 E39.01878
G1 X60.136 Y12.098 E39.06164
G1 X60.981 Y12.218 E39.10138
G1 X61.687 Y12.348 E39.13481
G1 X64.239 Y12.784 E39.25536
G1 X66.726 Y13.139 E39.37234
G1 X69.248 Y13.424 E39.49053
G1 X71.862 Y13.647 E39.61269
G1 X72.892 Y13.786 E39.66108
G1 X73.588 Y13.915 E39.69404
G1 X76.106 Y14.346 E39.813
G1 X78.652 Y14.708 E39.93274
G1 X81.121 Y14.988 E40.04845
G1 X83.762 Y15.213 E40.17187
G1 X84.802 Y15.354 E40.22074
G1 X85.428 Y15.471 E40.25039
G1 X88.034 Y15.917 E40.3735
G1 X90.531 Y16.273 E40.49095
G1 X93.021 Y16.556 E40.60764
G1 X95.637 Y16.778 E40.72989
G1 X96.551 Y16.896 E40.7728
G1 X97.306 Y17.055 E40.80873
G1 X98.139 Y17.268 E40.84877
G1 X98.384 Y17.337 E40.86062
G1 X99.248 Y17.621 E40.90297
G1 X99.731 Y17.804 E40.92702
G1 X101.617 Y18.545 E41.02137
G1 X103.996 Y19.402 E41.13912
G1 X106.382 Y20.187 E41.25608
G1 X108.829 Y20.916 E41.37497
G1 X111.252 Y21.563 E41.49175
G1 X113.702 Y22.144 E41.60899
G1 X116.218 Y22.667 E41.72865
G1 X118.695 Y23.106 E41.84579
G1 X121.181 Y23.476 E41.96282
G1 X123.688 Y23.778 E42.0804
