;FLAVOR:Marlin
;TIME:2013
;Filament used: 1.04028m
;Layer height: 0.2
;MINX:69.013
;MINY:97.126
;MINZ:0.2
;MAXX:137.987
;MAXY:137.871
;MAXZ:12.4
;Generated with Cura_SteamEngine 4.7.0
M140 S55
M105
M190 S55
M104 S210
M105
M109 S210
M82 ;absolute extrusion mode
; Ender 3 Custom Start G-code
G92 E0 ; Reset Extruder
G28 ; Home all axes
G1 Z2.0 F3000 ; Move Z Axis up little to prevent scratching of Heat Bed
G1 X0.1 Y20 Z0.3 F5000.0 ; Move to start position
G1 X0.1 Y200.0 Z0.3 F1500.0 E15 ; Draw the first line
G1 X0.4 Y200.0 Z0.3 F5000.0 ; Move to side a little
G1 X0.4 Y20 Z0.3 F1500.0 E30 ; Draw the second line
G92 E0 ; Reset Extruder
G1 Z2.0 F3000 ; Move Z Axis up little to prevent scratching of Heat Bed
G1 X5 Y20 Z0.3 F5000.0 ; Move over to prevent blob squish
G92 E0
G92 E0
G1 F2700 E-5
;LAYER_COUNT:62
;LAYER:0
M107
G0 F6000 X77.216 Y101.101 Z0.2
;TYPE:SKIRT
G1 F2700 E0
G1 F1200 X77.378 Y100.98 E0.00673
G1 X77.754 Y100.711 E0.0221
G1 X77.893 Y100.616 E0.0277
G1 X78.689 Y100.121 E0.05888
G1 X79.399 Y99.753 E0.08548
G1 X80.067 Y99.437 E0.11005
G1 X81.1 Y98.93 E0.14833
G1 X81.999 Y98.502 E0.18144
G1 X82.862 Y98.135 E0.21264
G1 X83.558 Y97.901 E0.23706
G1 X83.851 Y97.813 E0.24723
G1 X84.202 Y97.714 E0.25936
G1 X84.512 Y97.632 E0.27003
G1 X84.825 Y97.554 E0.28076
G1 X85.005 Y97.512 E0.2869
G1 X85.443 Y97.419 E0.3018
G1 X85.925 Y97.327 E0.31812
G1 X86.701 Y97.207 E0.34423
G1 X87.637 Y97.135 E0.37546
G1 X88.132 Y97.13 E0.39192
G1 X88.306 Y97.132 E0.39771
G1 X90.771 Y97.126 E0.4797
G1 X91.162 Y97.13 E0.4927
G1 X92.212 Y97.196 E0.52769
G1 X94.958 Y97.501 E0.61959
G1 X97.475 Y97.708 E0.70359
G1 X99.992 Y97.843 E0.78742
G1 X102.48 Y97.907 E0.8702
G1 X105.005 Y97.899 E0.95418
G1 X107.527 Y97.821 E1.03811
G1 X110.041 Y97.671 E1.12187
G1 X112.55 Y97.45 E1.20564
G1 X114.371 Y97.239 E1.26662
G1 X114.871 Y97.187 E1.28333
G1 X116.114 Y97.13 E1.32472
G1 X116.298 Y97.132 E1.33084
G1 X118.771 Y97.126 E1.41309
G1 X119.094 Y97.129 E1.42384
G1 X120.03 Y97.182 E1.45502
G1 X120.661 Y97.263 E1.47618
G1 X120.971 Y97.312 E1.48662
G1 X121.34 Y97.377 E1.49908
G1 X121.516 Y97.411 E1.50504
G1 X121.839 Y97.478 E1.51601
G1 X122.093 Y97.535 E1.52467
G1 X122.504 Y97.636 E1.53875
G1 X123.047 Y97.78 E1.55743
G1 X123.942 Y98.058 E1.5886
G1 X125.146 Y98.573 E1.63216
G1 X125.268 Y98.634 E1.63669
G1 X127.489 Y99.696 E1.71857
G1 X127.763 Y99.832 E1.72875
G1 X128.584 Y100.284 E1.75992
G1 X129.114 Y100.627 E1.78092
G1 X129.233 Y100.709 E1.78572
G1 X129.576 Y100.956 E1.79978
G1 X130.047 Y101.308 E1.81934
G1 X130.595 Y101.745 E1.84265
G1 X131.027 Y102.113 E1.86153
G1 X131.715 Y102.751 E1.89273
G1 X132.55 Y103.7 E1.93478
G1 X132.896 Y104.142 E1.95345
G1 X133.907 Y105.393 E2.00694
G1 X134.369 Y105.98 E2.03179
G1 X134.917 Y106.741 E2.06298
G1 X135.281 Y107.335 E2.08615
G1 X135.411 Y107.563 E2.09488
G1 X135.612 Y107.931 E2.10883
G1 X135.788 Y108.269 E2.1215
G1 X135.909 Y108.51 E2.13047
G1 X136.054 Y108.806 E2.14143
G1 X136.279 Y109.293 E2.15928
G1 X136.426 Y109.646 E2.17199
G1 X136.523 Y109.89 E2.18073
G1 X136.832 Y110.776 E2.21194
G1 X137.014 Y111.457 E2.23538
G1 X137.392 Y113.082 E2.29087
G1 X137.701 Y114.457 E2.33775
G1 X137.868 Y115.38 E2.36894
G1 X137.936 Y116.017 E2.39025
G1 X137.965 Y116.531 E2.40737
G1 X137.981 Y117.015 E2.42348
G1 X137.987 Y117.378 E2.43556
G1 X137.987 Y117.577 E2.44217
G1 X137.981 Y117.933 E2.45402
G1 X137.963 Y118.489 E2.47252
G1 X137.893 Y119.424 E2.5037
G1 X137.662 Y120.712 E2.54723
G1 X137.609 Y120.931 E2.55472
G1 X137.179 Y122.807 E2.61874
G1 X137.049 Y123.401 E2.63896
G1 X136.809 Y124.308 E2.67016
G1 X136.431 Y125.337 E2.70663
G1 X136.305 Y125.634 E2.71736
G1 X136.139 Y126.008 E2.73097
G1 X135.981 Y126.345 E2.74334
G1 X135.761 Y126.788 E2.7598
G1 X135.498 Y127.289 E2.77862
G1 X135.027 Y128.1 E2.80981
G1 X134.272 Y129.142 E2.85261
G1 X134.104 Y129.347 E2.86142
G1 X132.771 Y131.03 E2.93283
G1 X132.469 Y131.402 E2.94877
G1 X131.847 Y132.104 E2.97996
G1 X131.36 Y132.579 E3.00259
G1 X131.133 Y132.787 E3.01283
G1 X130.838 Y133.048 E3.02593
G1 X130.655 Y133.204 E3.03393
G1 X130.368 Y133.441 E3.04631
G1 X130.05 Y133.694 E3.05982
G1 X129.784 Y133.899 E3.07099
G1 X129.622 Y134.02 E3.07772
G1 X129.23 Y134.3 E3.09374
G1 X129.089 Y134.396 E3.09941
G1 X128.292 Y134.89 E3.1306
G1 X127.597 Y135.249 E3.15662
G1 X126.978 Y135.542 E3.1794
G1 X125.887 Y136.077 E3.21981
G1 X125.007 Y136.496 E3.25223
G1 X124.144 Y136.862 E3.28341
G1 X123.46 Y137.093 E3.30742
G1 X123.155 Y137.185 E3.31802
G1 X122.786 Y137.29 E3.33078
G1 X122.483 Y137.37 E3.3412
G1 X122.175 Y137.446 E3.35175
G1 X121.995 Y137.488 E3.3579
G1 X121.557 Y137.581 E3.37279
G1 X121.075 Y137.673 E3.38911
G1 X120.413 Y137.779 E3.41141
G1 X119.478 Y137.86 E3.44262
G1 X118.86 Y137.87 E3.46318
G1 X118.691 Y137.868 E3.4688
G1 X116.418 Y137.868 E3.5444
G1 X116.139 Y137.871 E3.55368
G1 X115.443 Y137.857 E3.57684
G1 X114.859 Y137.812 E3.59632
G1 X114.343 Y137.758 E3.61357
G1 X112.578 Y137.553 E3.67267
G1 X110.044 Y137.33 E3.75728
G1 X107.526 Y137.18 E3.84118
G1 X105.002 Y137.101 E3.92517
G1 X102.478 Y137.093 E4.00912
G1 X99.992 Y137.157 E4.09183
G1 X97.46 Y137.293 E4.17616
G1 X94.996 Y137.495 E4.25839
G1 X92.806 Y137.744 E4.3317
G1 X92.093 Y137.816 E4.35554
G1 X90.867 Y137.87 E4.39635
G1 X90.695 Y137.868 E4.40207
G1 X88.42 Y137.868 E4.47774
G1 X88.143 Y137.871 E4.48695
G1 X87.206 Y137.842 E4.51813
G1 X86.286 Y137.734 E4.54894
G1 X86.136 Y137.71 E4.554
G1 X85.778 Y137.647 E4.56609
G1 X85.474 Y137.588 E4.57639
G1 X85.139 Y137.517 E4.58778
G1 X84.883 Y137.459 E4.59651
G1 X84.503 Y137.366 E4.60952
G1 X83.962 Y137.223 E4.62813
G1 X83.066 Y136.945 E4.65933
G1 X81.854 Y136.427 E4.70317
G1 X81.77 Y136.385 E4.70629
G1 X79.839 Y135.464 E4.77745
G1 X79.283 Y135.191 E4.79805
G1 X78.459 Y134.742 E4.82926
G1 X77.894 Y134.378 E4.85162
G1 X77.756 Y134.283 E4.85719
G1 X77.396 Y134.024 E4.87194
G1 X76.941 Y133.683 E4.89085
G1 X76.407 Y133.256 E4.91359
G1 X75.976 Y132.889 E4.93242
G1 X75.288 Y132.251 E4.96363
G1 X74.446 Y131.296 E5.00598
G1 X74.108 Y130.864 E5.02422
G1 X73.184 Y129.722 E5.07308
G1 X72.644 Y129.037 E5.10209
G1 X72.096 Y128.276 E5.13328
G1 X71.734 Y127.688 E5.15625
G1 X71.575 Y127.41 E5.1669
G1 X71.365 Y127.025 E5.18148
G1 X71.21 Y126.727 E5.19266
G1 X71.083 Y126.475 E5.20204
G1 X70.941 Y126.184 E5.21281
G1 X70.746 Y125.762 E5.22827
G1 X70.715 Y125.691 E5.23085
G1 X70.583 Y125.374 E5.24227
G1 X70.485 Y125.129 E5.25105
G1 X70.174 Y124.244 E5.28225
G1 X69.992 Y123.572 E5.3054
G1 X69.627 Y122.026 E5.35824
G1 X69.574 Y121.748 E5.36765
G1 X69.304 Y120.558 E5.40824
G1 X69.135 Y119.636 E5.43941
G1 X69.061 Y118.943 E5.46259
G1 X69.035 Y118.468 E5.47841
G1 X69.019 Y117.991 E5.49429
G1 X69.013 Y117.622 E5.50656
G1 X69.013 Y117.421 E5.51325
G1 X69.019 Y117.063 E5.52516
G1 X69.037 Y116.51 E5.54356
G1 X69.107 Y115.575 E5.57474
G1 X69.339 Y114.285 E5.61834
G1 X69.402 Y114.023 E5.6273
G1 X69.865 Y111.998 E5.69639
G1 X69.944 Y111.633 E5.70881
G1 X70.182 Y110.725 E5.74003
G1 X70.485 Y109.868 E5.77027
G1 X70.562 Y109.676 E5.77715
G1 X70.726 Y109.29 E5.7911
G1 X70.867 Y108.979 E5.80245
G1 X71.054 Y108.585 E5.81696
G1 X71.257 Y108.181 E5.832
G1 X71.51 Y107.7 E5.85007
G1 X71.981 Y106.89 E5.88124
G1 X72.728 Y105.86 E5.92356
G1 X72.83 Y105.736 E5.9289
G1 X74.169 Y104.043 E6.00069
G1 X74.551 Y103.574 E6.02081
G1 X75.175 Y102.873 E6.05202
G1 X75.6 Y102.459 E6.07176
G1 X75.826 Y102.25 E6.08199
G1 X76.169 Y101.946 E6.09724
G1 X76.356 Y101.787 E6.1054
G1 X76.632 Y101.559 E6.11731
G1 X76.95 Y101.306 E6.13082
G1 X77.216 Y101.101 E6.14199
G0 F6000 X77.456 Y101.421
G1 F1200 X77.618 Y101.3 E6.14872
G1 X77.98 Y101.042 E6.1635
G1 X78.119 Y100.947 E6.1691
G1 X78.901 Y100.461 E6.19973
G1 X79.57 Y100.115 E6.22478
G1 X80.208 Y99.813 E6.24826
G1 X81.396 Y99.231 E6.29226
G1 X82.17 Y98.863 E6.32076
G1 X83.018 Y98.504 E6.35139
G1 X83.673 Y98.284 E6.37437
G1 X83.966 Y98.196 E6.38454
G1 X84.304 Y98.1 E6.39623
G1 X84.614 Y98.018 E6.4069
G1 X84.916 Y97.943 E6.41725
G1 X85.096 Y97.901 E6.42339
G1 X85.518 Y97.812 E6.43774
G1 X86 Y97.72 E6.45406
G1 X86.749 Y97.605 E6.47926
G1 X87.667 Y97.535 E6.50988
G1 X88.128 Y97.53 E6.52522
G1 X88.302 Y97.532 E6.53101
G1 X90.772 Y97.526 E6.61316
G1 X91.156 Y97.53 E6.62593
G1 X92.168 Y97.594 E6.65966
G1 X94.918 Y97.899 E6.75168
G1 X97.42 Y98.105 E6.83518
G1 X99.961 Y98.242 E6.91982
G1 X102.506 Y98.307 E7.00449
G1 X105.018 Y98.299 E7.08804
G1 X107.562 Y98.22 E7.1727
G1 X110.066 Y98.071 E7.25613
G1 X112.595 Y97.849 E7.34057
G1 X114.553 Y97.622 E7.40613
G1 X114.912 Y97.585 E7.41813
G1 X116.109 Y97.53 E7.45798
G1 X116.294 Y97.532 E7.46414
G1 X118.772 Y97.526 E7.54656
G1 X119.088 Y97.529 E7.55707
G1 X120.007 Y97.581 E7.58768
G1 X120.599 Y97.658 E7.60754
G1 X120.909 Y97.707 E7.61798
G1 X121.265 Y97.769 E7.63
G1 X121.441 Y97.803 E7.63596
G1 X121.751 Y97.868 E7.64649
G1 X122.005 Y97.925 E7.65515
G1 X122.401 Y98.022 E7.66871
G1 X122.944 Y98.166 E7.6874
G1 X123.823 Y98.441 E7.71803
G1 X124.967 Y98.931 E7.75942
G1 X125.073 Y98.984 E7.76336
G1 X127.311 Y100.054 E7.84587
G1 X127.585 Y100.19 E7.85604
G1 X128.391 Y100.635 E7.88667
G1 X128.887 Y100.957 E7.90633
G1 X129.006 Y101.039 E7.91114
G1 X129.337 Y101.276 E7.92468
G1 X129.808 Y101.628 E7.94424
G1 X130.336 Y102.05 E7.96672
G1 X130.768 Y102.418 E7.98559
G1 X131.442 Y103.045 E8.01621
G1 X132.236 Y103.946 E8.05616
G1 X132.641 Y104.463 E8.078
G1 X133.593 Y105.64 E8.12835
G1 X134.055 Y106.227 E8.15319
G1 X134.592 Y106.975 E8.18382
G1 X134.933 Y107.533 E8.20557
G1 X135.063 Y107.761 E8.2143
G1 X135.257 Y108.115 E8.22773
G1 X135.433 Y108.453 E8.2404
G1 X135.55 Y108.686 E8.24907
G1 X135.695 Y108.982 E8.26003
G1 X135.911 Y109.451 E8.27721
G1 X136.054 Y109.794 E8.28957
G1 X136.151 Y110.038 E8.2983
G1 X136.454 Y110.908 E8.32894
G1 X136.624 Y111.547 E8.35094
G1 X137.002 Y113.17 E8.40636
G1 X137.311 Y114.545 E8.45323
G1 X137.474 Y115.451 E8.48385
G1 X137.537 Y116.049 E8.50385
G1 X137.565 Y116.544 E8.52034
G1 X137.581 Y117.028 E8.53645
G1 X137.587 Y117.378 E8.54809
G1 X137.587 Y117.577 E8.55471
G1 X137.581 Y117.92 E8.56612
G1 X137.563 Y118.476 E8.58462
G1 X137.494 Y119.394 E8.61524
G1 X137.274 Y120.618 E8.6566
G1 X137.192 Y120.958 E8.66824
G1 X136.789 Y122.717 E8.72826
G1 X136.658 Y123.315 E8.74862
G1 X136.422 Y124.205 E8.77924
G1 X136.063 Y125.181 E8.81383
G1 X135.937 Y125.478 E8.82456
G1 X135.777 Y125.838 E8.83766
G1 X135.619 Y126.175 E8.85004
G1 X135.406 Y126.602 E8.86592
G1 X135.143 Y127.103 E8.88473
G1 X134.68 Y127.899 E8.91536
G1 X133.962 Y128.888 E8.95601
G1 X133.817 Y129.065 E8.96362
G1 X132.461 Y130.778 E9.03629
G1 X132.159 Y131.15 E9.05222
G1 X131.548 Y131.839 E9.08285
G1 X131.09 Y132.284 E9.10409
G1 X130.863 Y132.492 E9.11433
G1 X130.579 Y132.744 E9.12696
G1 X130.396 Y132.9 E9.13496
G1 X130.118 Y133.128 E9.14692
G1 X129.8 Y133.381 E9.16043
G1 X129.544 Y133.579 E9.1712
G1 X129.382 Y133.7 E9.17792
G1 X129.005 Y133.969 E9.19333
G1 X128.864 Y134.065 E9.199
G1 X128.081 Y134.55 E9.22963
G1 X127.426 Y134.887 E9.25413
G1 X126.782 Y135.191 E9.27782
G1 X125.592 Y135.775 E9.32191
G1 X124.835 Y136.135 E9.34979
G1 X123.988 Y136.494 E9.38039
G1 X123.344 Y136.71 E9.40298
G1 X123.039 Y136.802 E9.41357
G1 X122.684 Y136.903 E9.42585
G1 X122.381 Y136.983 E9.43627
G1 X122.084 Y137.057 E9.44645
G1 X121.904 Y137.099 E9.4526
G1 X121.482 Y137.188 E9.46694
G1 X121 Y137.28 E9.48327
G1 X120.361 Y137.382 E9.50479
G1 X119.444 Y137.461 E9.5354
G1 X118.864 Y137.47 E9.55469
G1 X118.695 Y137.468 E9.56031
G1 X116.414 Y137.468 E9.63618
G1 X116.135 Y137.471 E9.64546
G1 X115.464 Y137.457 E9.66778
G1 X114.9 Y137.415 E9.68659
G1 X114.53 Y137.377 E9.69897
G1 X112.591 Y137.152 E9.76389
G1 X110.069 Y136.93 E9.8481
G1 X107.561 Y136.781 E9.93166
G1 X105.015 Y136.702 E10.01638
G1 X102.504 Y136.694 E10.0999
G1 X99.961 Y136.758 E10.1845
G1 X97.442 Y136.894 E10.26841
G1 X94.918 Y137.101 E10.35264
G1 X92.621 Y137.361 E10.42953
G1 X92.053 Y137.418 E10.44851
G1 X90.872 Y137.47 E10.48783
G1 X90.7 Y137.468 E10.49355
G1 X88.416 Y137.468 E10.56952
G1 X88.139 Y137.471 E10.57873
G1 X87.219 Y137.441 E10.60935
G1 X86.349 Y137.339 E10.63848
G1 X86.199 Y137.315 E10.64353
G1 X85.854 Y137.254 E10.65519
G1 X85.55 Y137.195 E10.66549
G1 X85.228 Y137.127 E10.67643
G1 X84.972 Y137.069 E10.68516
G1 X84.605 Y136.979 E10.69773
G1 X84.064 Y136.836 E10.71634
G1 X83.185 Y136.562 E10.74697
G1 X82.033 Y136.069 E10.78864
G1 X81.964 Y136.034 E10.79122
G1 X80.015 Y135.105 E10.86303
G1 X79.459 Y134.832 E10.88363
G1 X78.651 Y134.391 E10.91425
G1 X78.12 Y134.048 E10.93527
G1 X77.982 Y133.953 E10.94084
G1 X77.636 Y133.704 E10.95502
G1 X77.181 Y133.363 E10.97393
G1 X76.666 Y132.952 E10.99585
G1 X76.235 Y132.585 E11.01468
G1 X75.56 Y131.958 E11.04532
G1 X74.761 Y131.049 E11.08557
G1 X74.421 Y130.615 E11.10391
G1 X73.586 Y129.584 E11.14803
G1 X72.959 Y128.789 E11.18171
G1 X72.421 Y128.042 E11.21233
G1 X72.082 Y127.49 E11.23387
G1 X71.923 Y127.212 E11.24453
G1 X71.72 Y126.84 E11.25862
G1 X71.565 Y126.542 E11.26979
G1 X71.443 Y126.3 E11.27881
G1 X71.301 Y126.009 E11.28958
G1 X71.113 Y125.602 E11.30449
G1 X70.954 Y125.226 E11.31807
G1 X70.856 Y124.981 E11.32684
G1 X70.552 Y124.112 E11.35746
G1 X70.382 Y123.48 E11.37923
G1 X70.017 Y121.934 E11.43206
G1 X69.968 Y121.679 E11.4407
G1 X69.694 Y120.47 E11.48193
G1 X69.529 Y119.564 E11.51256
G1 X69.46 Y118.912 E11.53437
G1 X69.435 Y118.454 E11.54962
G1 X69.419 Y117.977 E11.5655
G1 X69.413 Y117.622 E11.57731
G1 X69.413 Y117.421 E11.58399
G1 X69.419 Y117.076 E11.59547
G1 X69.437 Y116.523 E11.61387
G1 X69.506 Y115.605 E11.64449
G1 X69.727 Y114.379 E11.68592
G1 X69.806 Y114.052 E11.69711
G1 X70.253 Y112.094 E11.76391
G1 X70.335 Y111.717 E11.77674
G1 X70.569 Y110.827 E11.80735
G1 X70.857 Y110.016 E11.83598
G1 X70.934 Y109.824 E11.84286
G1 X71.091 Y109.453 E11.85626
G1 X71.229 Y109.151 E11.8673
G1 X71.416 Y108.757 E11.8818
G1 X71.611 Y108.367 E11.89631
G1 X71.864 Y107.886 E11.91438
G1 X72.327 Y107.091 E11.94498
G1 X73.038 Y106.113 E11.9852
G1 X73.166 Y105.957 E11.99191
G1 X74.483 Y104.292 E12.06252
G1 X74.588 Y104.161 E12.0681
G1 X74.861 Y103.827 E12.08245
G1 X75.474 Y103.14 E12.11307
G1 X75.871 Y102.753 E12.13151
G1 X76.097 Y102.544 E12.14175
G1 X76.428 Y102.251 E12.15645
G1 X76.615 Y102.092 E12.16462
G1 X76.882 Y101.872 E12.17612
G1 X77.2 Y101.619 E12.18964
G1 X77.456 Y101.421 E12.2004
G0 F6000 X77.695 Y101.742
G1 F1200 X77.857 Y101.621 E12.20713
G1 X78.206 Y101.372 E12.22139
G1 X78.345 Y101.277 E12.22699
G1 X79.112 Y100.801 E12.25701
G1 X79.741 Y100.476 E12.28056
G1 X80.404 Y100.163 E12.30495
G1 X81.568 Y99.592 E12.34807
G1 X82.342 Y99.224 E12.37657
G1 X83.174 Y98.873 E12.40661
G1 X83.788 Y98.667 E12.42815
G1 X84.081 Y98.579 E12.43832
G1 X84.407 Y98.487 E12.44959
G1 X84.717 Y98.405 E12.46026
G1 X85.007 Y98.333 E12.47019
G1 X85.187 Y98.291 E12.47634
G1 X85.593 Y98.205 E12.49014
G1 X86.075 Y98.113 E12.50647
G1 X86.797 Y98.002 E12.53076
G1 X88.123 Y97.93 E12.57493
G1 X88.299 Y97.932 E12.58078
G1 X90.773 Y97.926 E12.66307
G1 X91.15 Y97.93 E12.67561
G1 X92.123 Y97.991 E12.70803
G1 X94.873 Y98.296 E12.80006
G1 X97.436 Y98.507 E12.88559
G1 X99.928 Y98.641 E12.9686
G1 X102.497 Y98.707 E13.05407
G1 X105.032 Y98.699 E13.13839
G1 X107.563 Y98.621 E13.22261
G1 X110.089 Y98.47 E13.30677
G1 X112.64 Y98.246 E13.39195
G1 X114.463 Y98.034 E13.45299
G1 X114.953 Y97.983 E13.46937
G1 X116.105 Y97.93 E13.50773
G1 X116.291 Y97.932 E13.51392
G1 X118.773 Y97.926 E13.59647
G1 X119.083 Y97.929 E13.60678
G1 X119.984 Y97.981 E13.6368
G1 X120.536 Y98.053 E13.65531
G1 X120.846 Y98.102 E13.66575
G1 X121.189 Y98.162 E13.67733
G1 X121.365 Y98.196 E13.68329
G1 X121.663 Y98.259 E13.69342
G1 X121.917 Y98.316 E13.70208
G1 X122.299 Y98.409 E13.71516
G1 X122.842 Y98.553 E13.73384
G1 X123.703 Y98.823 E13.76386
G1 X124.789 Y99.289 E13.80316
G1 X124.923 Y99.356 E13.80814
G1 X127.133 Y100.413 E13.88962
G1 X127.407 Y100.549 E13.8998
G1 X128.197 Y100.985 E13.92981
G1 X128.66 Y101.286 E13.94818
G1 X128.779 Y101.368 E13.95298
G1 X129.097 Y101.597 E13.96602
G1 X129.568 Y101.949 E13.98557
G1 X130.076 Y102.354 E14.00718
G1 X130.508 Y102.722 E14.02606
G1 X131.169 Y103.338 E14.05611
G1 X131.921 Y104.193 E14.09398
G1 X132.302 Y104.679 E14.11452
