;FLAVOR:Marlin
;TIME:2859
;Filament used: 2.71325m
;Layer height: 0.28
;MINX:90.701
;MINY:44.001
;MINZ:0.28
;MAXX:144.3
;MAXY:190.999
;MAXZ:2.24
;Generated with Cura_SteamEngine 4.6.1
M140 S50
M105
M190 S50
M104 S210
M105
M109 S210
M82 ;absolute extrusion mode
; Ender 3 Custom Start G-code
G92 E0 ; Reset Extruder
G28 ; Home all axes
G1 Z2.0 F3000 ; Move Z Axis up little to prevent scratching of Heat Bed
G1 X0.1 Y20 Z0.3 F5000.0 ; Move to start position
G1 X0.1 Y200.0 Z0.3 F1500.0 E15 ; Draw the first line
G1 X0.4 Y200.0 Z0.3 F5000.0 ; Move to side a little
G1 X0.4 Y20 Z0.3 F1500.0 E30 ; Draw the second line
G92 E0 ; Reset Extruder
G1 Z2.0 F3000 ; Move Z Axis up little to prevent scratching of Heat Bed
G1 X5 Y20 Z0.3 F5000.0 ; Move over to prevent blob squish
G92 E0
G92 E0
G1 F2700 E-5
;LAYER_COUNT:8
;LAYER:0
M107
G0 F6000 X125.349 Y44.814 Z0.28
;TYPE:SKIRT
G1 F2700 E0
G1 F1200 X126.251 Y44.868 E0.04208
G1 X127.144 Y45.001 E0.08412
G1 X128.083 Y45.23 E0.12912
G1 X128.449 Y45.338 E0.14689
G1 X129.303 Y45.632 E0.18895
G1 X130.127 Y46 E0.23097
G1 X130.916 Y46.439 E0.27301
G1 X131.663 Y46.947 E0.31508
G1 X132.187 Y47.365 E0.34629
G1 X132.379 Y47.529 E0.35805
G1 X133.039 Y48.146 E0.40012
G1 X133.642 Y48.818 E0.44216
G1 X134.262 Y49.659 E0.49081
G1 X134.943 Y50.694 E0.5485
G1 X141.136 Y60.507 E1.08882
G1 X141.454 Y61.028 E1.11724
G1 X141.759 Y61.563 E1.14592
G1 X141.864 Y61.761 E1.15636
G1 X142.252 Y62.577 E1.19843
G1 X142.565 Y63.424 E1.24048
G1 X142.803 Y64.295 E1.28252
G1 X142.971 Y65.245 E1.32744
G1 X142.998 Y65.456 E1.33735
G1 X143.072 Y66.356 E1.3794
G1 X143.067 Y67.259 E1.42144
G1 X142.982 Y68.159 E1.46354
G1 X142.831 Y68.992 E1.50296
G1 X142.729 Y69.445 E1.52458
G1 X142.154 Y72.041 E1.64839
G1 X141.674 Y74.537 E1.76674
G1 X141.273 Y77.018 E1.88377
G1 X140.932 Y79.563 E2.00333
G1 X140.669 Y82.068 E2.12062
G1 X140.475 Y84.606 E2.23914
G1 X140.355 Y87.106 E2.35569
G1 X140.3 Y90.308 E2.50481
G1 X140.3 Y141.471 E4.88717
G1 X140.337 Y144.076 E5.00848
G1 X140.446 Y146.642 E5.12808
G1 X140.624 Y149.149 E5.24511
G1 X140.872 Y151.658 E5.3625
G1 X141.2 Y154.221 E5.48282
G1 X141.591 Y156.706 E5.59996
G1 X142.052 Y159.189 E5.71755
G1 X142.59 Y161.69 E5.83667
G1 X143.195 Y164.163 E5.95522
G1 X143.371 Y165.049 E5.99728
G1 X143.48 Y166.201 E6.05117
G1 X143.493 Y166.546 E6.06724
G1 X143.5 Y166.93 E6.08513
G1 X143.499 Y178.411 E6.61973
G1 X143.489 Y179.138 E6.65358
G1 X143.403 Y180.324 E6.70895
G1 X143.371 Y180.568 E6.72041
G1 X143.214 Y181.458 E6.7625
G1 X142.979 Y182.33 E6.80455
G1 X142.625 Y183.279 E6.85171
G1 X142.5 Y183.569 E6.86642
G1 X142.106 Y184.382 E6.90848
G1 X141.642 Y185.157 E6.95055
G1 X141.111 Y185.887 E6.99258
G1 X140.735 Y186.332 E7.01971
G1 X140.54 Y186.55 E7.03333
G1 X139.909 Y187.196 E7.07537
G1 X139.223 Y187.784 E7.11745
G1 X138.682 Y188.182 E7.14872
G1 X137.923 Y188.672 E7.19079
G1 X137.124 Y189.093 E7.23284
G1 X135.891 Y189.579 E7.29455
G1 X135.561 Y189.685 E7.31069
G1 X134.69 Y189.923 E7.35274
G1 X133.801 Y190.083 E7.3948
G1 X132.654 Y190.172 E7.44837
G1 X131.29 Y190.198 E7.51189
G1 X103.266 Y190.199 E8.81681
G1 X102.564 Y190.189 E8.8495
G1 X101.361 Y190.101 E8.90567
G1 X101.106 Y190.067 E8.91764
G1 X100.217 Y189.908 E8.9597
G1 X99.345 Y189.671 E9.00177
G1 X98.424 Y189.326 E9.04757
G1 X98.138 Y189.203 E9.06207
G1 X97.325 Y188.81 E9.10411
G1 X96.55 Y188.346 E9.14617
G1 X95.819 Y187.816 E9.18822
G1 X95.368 Y187.435 E9.21571
G1 X95.15 Y187.24 E9.22933
G1 X94.504 Y186.609 E9.27138
G1 X93.916 Y185.923 E9.31345
G1 X93.614 Y185.516 E9.33705
G1 X93.492 Y185.343 E9.34691
G1 X93.005 Y184.583 E9.38894
G1 X92.587 Y183.783 E9.43097
G1 X92.101 Y182.537 E9.49324
G1 X91.999 Y182.214 E9.50901
G1 X91.766 Y181.341 E9.55109
G1 X91.61 Y180.452 E9.59312
G1 X91.528 Y179.352 E9.64448
G1 X91.502 Y177.978 E9.70847
G1 X91.501 Y167.172 E10.21164
G1 X91.511 Y166.459 E10.24485
G1 X91.564 Y165.557 E10.28692
G1 X91.696 Y164.664 E10.32895
G1 X91.804 Y164.17 E10.3525
G1 X92.111 Y162.921 E10.41239
G1 X92.69 Y160.401 E10.53279
G1 X93.191 Y157.916 E10.65083
G1 X93.616 Y155.413 E10.76905
G1 X93.974 Y152.904 E10.88706
G1 X94.259 Y150.389 E11.00492
G1 X94.475 Y147.841 E11.12399
G1 X94.617 Y145.344 E11.24045
G1 X94.7 Y141.392 E11.42451
G1 X94.7 Y92.33 E13.70904
G1 X94.663 Y89.724 E13.8304
G1 X94.554 Y87.158 E13.94999
G1 X94.376 Y84.651 E14.06702
G1 X94.125 Y82.11 E14.18592
G1 X93.804 Y79.603 E14.30361
G1 X93.41 Y77.098 E14.42168
G1 X92.948 Y74.611 E14.53947
G1 X92.413 Y72.127 E14.65779
G1 X91.805 Y69.637 E14.77714
G1 X91.63 Y68.751 E14.81919
G1 X91.534 Y67.853 E14.86125
G1 X91.517 Y66.95 E14.9033
G1 X91.581 Y66.049 E14.94536
G1 X91.724 Y65.157 E14.98743
G1 X91.945 Y64.282 E15.02945
G1 X92.243 Y63.429 E15.07152
G1 X92.616 Y62.606 E15.1136
G1 X92.98 Y61.949 E15.14857
G1 X93.624 Y60.885 E15.20648
G1 X100.198 Y50.473 E15.77986
G1 X100.599 Y49.857 E15.81409
G1 X101.124 Y49.123 E15.85611
G1 X101.713 Y48.438 E15.89817
G1 X102.36 Y47.808 E15.94022
G1 X103.06 Y47.237 E15.98229
G1 X103.808 Y46.731 E16.02434
G1 X104.597 Y46.293 E16.06636
G1 X105.423 Y45.926 E16.10845
G1 X106.277 Y45.634 E16.15047
G1 X107.154 Y45.419 E16.19252
G1 X108.047 Y45.281 E16.23459
G1 X108.777 Y45.229 E16.26867
G1 X109.61 Y45.211 E16.30747
G1 X112.036 Y45.209 E16.42043
G1 X114.643 Y45.17 E16.54184
G1 X117.184 Y45.061 E16.66027
G1 X118.923 Y44.927 E16.74148
G1 X120.306 Y44.833 E16.80603
G1 X120.862 Y44.811 E16.83194
G1 X121.679 Y44.801 E16.86999
G1 X124.538 Y44.803 E17.00311
G1 X125.349 Y44.814 E17.04088
G0 F6000 X125.355 Y44.414
G1 F1200 X126.274 Y44.468 E17.08375
G1 X127.185 Y44.601 E17.12662
G1 X128.196 Y44.846 E17.17506
G1 X128.562 Y44.954 E17.19283
G1 X129.433 Y45.253 E17.23571
G1 X130.275 Y45.626 E17.27859
G1 X131.081 Y46.071 E17.32146
G1 X131.845 Y46.584 E17.36431
G1 X132.447 Y47.061 E17.40007
G1 X132.639 Y47.225 E17.41183
G1 X133.312 Y47.853 E17.45469
G1 X133.928 Y48.537 E17.49756
G1 X134.596 Y49.439 E17.54982
G1 X135.282 Y50.48 E17.60787
G1 X141.478 Y60.299 E18.14851
G1 X141.796 Y60.82 E18.17693
G1 X142.113 Y61.376 E18.20673
G1 X142.218 Y61.574 E18.21716
G1 X142.613 Y62.405 E18.26001
G1 X142.935 Y63.268 E18.3029
G1 X143.181 Y64.155 E18.34576
G1 X143.367 Y65.195 E18.39496
G1 X143.394 Y65.406 E18.40486
G1 X143.471 Y66.323 E18.44771
G1 X143.469 Y67.244 E18.4906
G1 X143.386 Y68.161 E18.53347
G1 X143.221 Y69.079 E18.5769
G1 X143.128 Y69.494 E18.5967
G1 X142.546 Y72.124 E18.72213
G1 X142.067 Y74.611 E18.84006
G1 X141.665 Y77.099 E18.95742
G1 X141.332 Y79.587 E19.0743
G1 X141.068 Y82.104 E19.19215
G1 X140.875 Y84.621 E19.30969
G1 X140.753 Y87.165 E19.42829
G1 X140.7 Y90.257 E19.57229
G1 X140.7 Y141.465 E21.95675
G1 X140.737 Y144.089 E22.07894
G1 X140.844 Y146.598 E22.19588
G1 X141.022 Y149.114 E22.31333
G1 X141.272 Y151.638 E22.43143
G1 X141.593 Y154.146 E22.54917
G1 X141.98 Y156.608 E22.66522
G1 X142.449 Y159.13 E22.78466
G1 X142.978 Y161.589 E22.90178
G1 X143.584 Y164.068 E23.02062
G1 X143.763 Y164.971 E23.06348
G1 X143.879 Y166.186 E23.12031
G1 X143.892 Y166.531 E23.13639
G1 X143.9 Y166.93 E23.15497
G1 X143.899 Y178.417 E23.68986
G1 X143.889 Y179.144 E23.72371
G1 X143.8 Y180.376 E23.78123
G1 X143.768 Y180.62 E23.79269
G1 X143.609 Y181.527 E23.83556
G1 X143.371 Y182.417 E23.87846
G1 X142.992 Y183.438 E23.92917
G1 X142.867 Y183.728 E23.94388
G1 X142.466 Y184.557 E23.98676
G1 X141.995 Y185.348 E24.02963
G1 X141.457 Y186.095 E24.07249
G1 X141.034 Y186.599 E24.10313
G1 X140.839 Y186.817 E24.11675
G1 X140.195 Y187.476 E24.15966
G1 X139.498 Y188.076 E24.20248
G1 X139.079 Y188.39 E24.22686
G1 X138.913 Y188.508 E24.23635
G1 X138.141 Y189.008 E24.27917
G1 X137.327 Y189.439 E24.32206
G1 X136.48 Y189.798 E24.3649
G1 X136.014 Y189.96 E24.38787
G1 X135.684 Y190.066 E24.40401
G1 X134.796 Y190.309 E24.44688
G1 X133.89 Y190.475 E24.48977
G1 X132.663 Y190.572 E24.54708
G1 X131.29 Y190.598 E24.61103
G1 X103.26 Y190.599 E25.91622
G1 X102.558 Y190.589 E25.94891
G1 X101.308 Y190.497 E26.00727
G1 X101.053 Y190.463 E26.01925
G1 X100.147 Y190.302 E26.0621
G1 X99.258 Y190.063 E26.10497
G1 X98.266 Y189.694 E26.15425
G1 X97.98 Y189.571 E26.16875
G1 X97.151 Y189.171 E26.21161
G1 X96.36 Y188.7 E26.25447
G1 X95.612 Y188.163 E26.29735
G1 X95.101 Y187.734 E26.32842
G1 X94.883 Y187.539 E26.34204
G1 X94.224 Y186.895 E26.38494
G1 X93.624 Y186.198 E26.42777
G1 X93.287 Y185.747 E26.45398
G1 X93.165 Y185.574 E26.46384
G1 X92.668 Y184.799 E26.50671
G1 X92.24 Y183.984 E26.54958
G1 X91.884 Y183.135 E26.59244
G1 X91.72 Y182.657 E26.61597
G1 X91.618 Y182.334 E26.63175
G1 X91.379 Y181.445 E26.67461
G1 X91.218 Y180.538 E26.71751
G1 X91.128 Y179.36 E26.77252
G1 X91.102 Y177.978 E26.83688
G1 X91.101 Y167.166 E27.34033
G1 X91.111 Y166.453 E27.37354
G1 X91.164 Y165.534 E27.4164
G1 X91.296 Y164.623 E27.45926
G1 X91.416 Y164.074 E27.48543
G1 X91.717 Y162.85 E27.54412
G1 X92.3 Y160.312 E27.66538
G1 X92.799 Y157.835 E27.78304
G1 X93.22 Y155.362 E27.89985
G1 X93.58 Y152.832 E28.01884
G1 X93.862 Y150.347 E28.1353
G1 X94.076 Y147.82 E28.25339
G1 X94.217 Y145.34 E28.36905
G1 X94.3 Y141.384 E28.5533
G1 X94.3 Y92.336 E30.83718
G1 X94.263 Y89.711 E30.95942
G1 X94.156 Y87.202 E31.07636
G1 X93.978 Y84.682 E31.19399
G1 X93.729 Y82.168 E31.31163
G1 X93.41 Y79.679 E31.42847
G1 X93.009 Y77.127 E31.54876
G1 X92.558 Y74.704 E31.66353
G1 X92.018 Y72.193 E31.78312
G1 X91.417 Y69.732 E31.90109
G1 X91.237 Y68.829 E31.94396
G1 X91.137 Y67.913 E31.98687
G1 X91.116 Y66.993 E32.02972
G1 X91.176 Y66.074 E32.0726
G1 X91.315 Y65.164 E32.11547
G1 X91.532 Y64.27 E32.1583
G1 X91.826 Y63.397 E32.2012
G1 X92.195 Y62.554 E32.24405
G1 X92.637 Y61.742 E32.28709
G1 X93.286 Y60.672 E32.34537
G1 X99.862 Y50.255 E32.91899
G1 X100.263 Y49.639 E32.95322
G1 X100.799 Y48.89 E32.9961
G1 X101.397 Y48.19 E33.03897
G1 X102.054 Y47.545 E33.08184
G1 X102.764 Y46.959 E33.12471
G1 X103.522 Y46.437 E33.16757
G1 X104.323 Y45.983 E33.21044
G1 X105.16 Y45.6 E33.2533
G1 X106.028 Y45.291 E33.2962
G1 X106.919 Y45.059 E33.33907
G1 X107.826 Y44.905 E33.38191
G1 X108.763 Y44.829 E33.42569
G1 X109.61 Y44.811 E33.46513
G1 X112.03 Y44.809 E33.57782
G1 X114.655 Y44.77 E33.70006
G1 X117.137 Y44.663 E33.81574
G1 X118.896 Y44.528 E33.89789
G1 X120.279 Y44.434 E33.96244
G1 X120.856 Y44.411 E33.98933
G1 X121.679 Y44.401 E34.02765
G1 X124.538 Y44.403 E34.16078
G1 X125.355 Y44.414 E34.19883
G0 F6000 X125.361 Y44.014
G1 F1200 X126.298 Y44.068 E34.24253
G1 X127.226 Y44.202 E34.28619
G1 X128.309 Y44.463 E34.33806
G1 X128.675 Y44.571 E34.35583
G1 X129.563 Y44.874 E34.39952
G1 X130.421 Y45.252 E34.44318
G1 X131.244 Y45.702 E34.48685
G1 X132.026 Y46.22 E34.53053
G1 X132.706 Y46.757 E34.57088
G1 X132.898 Y46.921 E34.58264
G1 X133.585 Y47.56 E34.62632
G1 X134.214 Y48.255 E34.66997
G1 X134.93 Y49.218 E34.72585
G1 X135.62 Y50.267 E34.78432
G1 X141.819 Y60.09 E35.32518
G1 X142.137 Y60.611 E35.3536
G1 X142.466 Y61.188 E35.38453
G1 X142.571 Y61.386 E35.39497
G1 X142.975 Y62.233 E35.43866
G1 X143.305 Y63.111 E35.48234
G1 X143.559 Y64.014 E35.52602
G1 X143.764 Y65.144 E35.57949
G1 X143.791 Y65.355 E35.5894
G1 X143.87 Y66.289 E35.63305
G1 X143.87 Y67.227 E35.67672
G1 X143.789 Y68.162 E35.72042
G1 X143.611 Y69.167 E35.76795
G1 X143.509 Y69.62 E35.78957
G1 X142.943 Y72.181 E35.9117
G1 X142.461 Y74.685 E36.03044
G1 X142.063 Y77.144 E36.14643
G1 X141.728 Y79.649 E36.26411
G1 X141.467 Y82.139 E36.38069
G1 X141.273 Y84.669 E36.49884
G1 X141.153 Y87.158 E36.61488
G1 X141.1 Y90.264 E36.75952
G1 X141.1 Y141.459 E39.14338
G1 X141.137 Y144.067 E39.26483
G1 X141.244 Y146.589 E39.38237
G1 X141.421 Y149.083 E39.49879
G1 X141.669 Y151.581 E39.61568
G1 X141.987 Y154.07 E39.73252
G1 X142.381 Y156.579 E39.85078
G1 X142.84 Y159.045 E39.96758
G1 X143.366 Y161.49 E40.08404
G1 X143.973 Y163.974 E40.20311
G1 X144.156 Y164.893 E40.24674
G1 X144.279 Y166.171 E40.30652
G1 X144.292 Y166.516 E40.3226
G1 X144.3 Y166.93 E40.34188
G1 X144.299 Y178.422 E40.877
G1 X144.289 Y179.149 E40.91085
G1 X144.197 Y180.428 E40.97056
G1 X144.165 Y180.672 E40.98202
G1 X144.003 Y181.596 E41.0257
G1 X143.764 Y182.503 E41.06938
G1 X143.36 Y183.596 E41.12364
G1 X143.235 Y183.886 E41.13834
G1 X142.827 Y184.731 E41.18204
G1 X142.349 Y185.538 E41.22571
G1 X141.804 Y186.301 E41.26937
G1 X141.332 Y186.866 E41.30365
G1 X141.137 Y187.084 E41.31727
G1 X140.482 Y187.755 E41.36093
G1 X139.773 Y188.369 E41.40461
G1 X139.311 Y188.716 E41.43151
G1 X139.145 Y188.834 E41.441
G1 X138.358 Y189.344 E41.48466
G1 X137.531 Y189.785 E41.5283
G1 X136.669 Y190.155 E41.57198
G1 X136.136 Y190.341 E41.59827
G1 X135.806 Y190.447 E41.61441
G1 X134.902 Y190.695 E41.65806
G1 X133.979 Y190.866 E41.70177
G1 X132.671 Y190.972 E41.76288
G1 X131.29 Y190.998 E41.82719
G1 X103.254 Y190.999 E43.13267
G1 X102.552 Y190.989 E43.16536
G1 X101.255 Y190.894 E43.22591
G1 X101 Y190.86 E43.23789
G1 X100.077 Y190.696 E43.28154
G1 X99.17 Y190.454 E43.32525
G1 X98.108 Y190.061 E43.37798
G1 X97.822 Y189.938 E43.39248
G1 X96.977 Y189.531 E43.43615
G1 X96.17 Y189.054 E43.4798
G1 X95.406 Y188.509 E43.5235
G1 X94.834 Y188.032 E43.55818
G1 X94.616 Y187.837 E43.5718
G1 X93.945 Y187.182 E43.61547
G1 X93.331 Y186.473 E43.65914
G1 X92.96 Y185.977 E43.68798
G1 X92.838 Y185.804 E43.69784
G1 X92.331 Y185.016 E43.74147
G1 X91.893 Y184.186 E43.78517
G1 X91.527 Y183.323 E43.82882
G1 X91.339 Y182.777 E43.85571
G1 X91.237 Y182.454 E43.87148
G1 X90.993 Y181.549 E43.91512
G1 X90.827 Y180.626 E43.95879
G1 X90.728 Y179.368 E44.01755
G1 X90.702 Y177.978 E44.08229
G1 X90.701 Y167.161 E44.58597
G1 X90.711 Y166.448 E44.61918
G1 X90.764 Y165.511 E44.66288
G1 X90.897 Y164.583 E44.70653
G1 X91.027 Y163.979 E44.7353
G1 X91.33 Y162.745 E44.79446
G1 X91.904 Y160.249 E44.91372
G1 X92.413 Y157.723 E45.03371
G1 X92.822 Y155.316 E45.14739
G1 X93.18 Y152.804 E45.26555
G1 X93.464 Y150.304 E45.38271
G1 X93.679 Y147.762 E45.50149
G1 X93.817 Y145.338 E45.61455
G1 X93.9 Y141.376 E45.79908
G1 X93.9 Y92.342 E48.0823
G1 X93.863 Y89.733 E48.2038
G1 X93.756 Y87.211 E48.32134
G1 X93.579 Y84.717 E48.43777
G1 X93.332 Y82.222 E48.55451
G1 X93.012 Y79.721 E48.67192
G1 X92.621 Y77.232 E48.78924
G1 X92.159 Y74.749 E48.90684
G1 X91.632 Y72.301 E49.02344
G1 X91.028 Y69.827 E49.14203
G1 X90.845 Y68.907 E49.1857
G1 X90.74 Y67.975 E49.22938
G1 X90.715 Y67.037 E49.27307
G1 X90.771 Y66.101 E49.31673
G1 X90.906 Y65.173 E49.3604
G1 X91.119 Y64.26 E49.40405
G1 X91.409 Y63.368 E49.44773
G1 X91.775 Y62.504 E49.49142
G1 X92.295 Y61.536 E49.54259
G1 X92.947 Y60.458 E49.60125
G1 X99.527 Y50.037 E50.17513
G1 X99.928 Y49.421 E50.20936
G1 X100.473 Y48.657 E50.25305
G1 X101.081 Y47.943 E50.29672
G1 X101.747 Y47.283 E50.34038
G1 X102.467 Y46.682 E50.38405
G1 X103.236 Y46.145 E50.42773
G1 X104.048 Y45.675 E50.47141
G1 X104.897 Y45.276 E50.5151
G1 X105.776 Y44.951 E50.55873
G1 X106.68 Y44.702 E50.6024
G1 X107.603 Y44.531 E50.64611
G1 X108.748 Y44.429 E50.69963
G1 X109.609 Y44.411 E50.73973
G1 X112.023 Y44.409 E50.85214
G1 X114.633 Y44.37 E50.97369
G1 X117.118 Y44.263 E51.0895
G1 X118.869 Y44.129 E51.17128
G1 X120.252 Y44.035 E51.23582
G1 X120.851 Y44.011 E51.26374
G1 X121.68 Y44.001 E51.30234
G1 X124.539 Y44.003 E51.43547
G1 X125.361 Y44.014 E51.47375
G1 F2700 E46.47375
;MESH:molle_clip_v3.stl
G0 F6000 X125.345 Y174.167
G0 X125.345 Y172.711
G0 X127.006 Y173.152
G0 X127.436 Y173.406
G0 X127.755 Y173.793
G0 X127.922 Y174.265
G0 X127.914 Y176.263
G0 X127.739 Y176.733
G0 X127.477 Y177.04
G0 X126.762 Y177.581
;TYPE:WALL-INNER
G1 F2700 E51.47375
G1 F1200 X127.033 Y177.512 E51.48677
G1 X127.287 Y177.395 E51.49979
G1 X127.516 Y177.238 E51.51272
G1 X127.716 Y177.042 E51.52576
G1 X127.877 Y176.816 E51.53868
G1 X127.999 Y176.564 E51.55172
G1 X128.073 Y176.293 E51.5648
G1 X128.098 Y176.041 E51.57659
G1 X128.1 Y174.476 E51.64946
G1 X128.081 Y174.238 E51.66058
G1 X128.012 Y173.967 E51.6736
G1 X127.895 Y173.713 E51.68662
G1 X127.738 Y173.484 E51.69955
G1 X127.542 Y173.284 E51.71259
G1 X127.316 Y173.123 E51.72551
G1 X127.064 Y173.001 E51.73855
G1 X126.793 Y172.927 E51.75163
G1 X126.541 Y172.902 E51.76342
G1 X108.476 Y172.9 E52.6046
G1 X108.238 Y172.919 E52.61572
G1 X107.967 Y172.988 E52.62874
G1 X107.713 Y173.105 E52.64177
G1 X107.484 Y173.262 E52.65469
G1 X107.284 Y173.458 E52.66773
