;FLAVOR:Marlin
;TIME:4468
;Filament used: 3.7214m
;Layer height: 0.28
;MINX:56.774
;MINY:92.773
;MINZ:0.28
;MAXX:178.222
;MAXY:142.224
;MAXZ:10.08
;Generated with Cura_SteamEngine 4.7.0
M140 S55
M105
M190 S55
M104 S210
M105
M109 S210
M82 ;absolute extrusion mode
; Ender 3 Custom Start G-code
G92 E0 ; Reset Extruder
G28 ; Home all axes
G1 Z2.0 F3000 ; Move Z Axis up little to prevent scratching of Heat Bed
G1 X0.1 Y20 Z0.3 F5000.0 ; Move to start position
G1 X0.1 Y200.0 Z0.3 F1500.0 E15 ; Draw the first line
G1 X0.4 Y200.0 Z0.3 F5000.0 ; Move to side a little
G1 X0.4 Y20 Z0.3 F1500.0 E30 ; Draw the second line
G92 E0 ; Reset Extruder
G1 Z2.0 F3000 ; Move Z Axis up little to prevent scratching of Heat Bed
G1 X5 Y20 Z0.3 F5000.0 ; Move over to prevent blob squish
G92 E0
G92 E0
G1 F2700 E-5
;LAYER_COUNT:36
;LAYER:0
M107
G0 F6000 X67.429 Y97.154 Z0.28
;TYPE:SKIRT
G1 F2700 E0
G1 F1200 X67.96 Y96.794 E0.02987
G1 X68.227 Y96.624 E0.04461
G1 X68.49 Y96.462 E0.05899
G1 X68.915 Y96.209 E0.08203
G1 X69.378 Y95.941 E0.10694
G1 X69.982 Y95.616 E0.13887
G1 X70.919 Y95.149 E0.18762
G1 X71.27 Y94.982 E0.20572
G1 X71.77 Y94.756 E0.23127
G1 X71.855 Y94.719 E0.23559
G1 X72.282 Y94.544 E0.25708
G1 X72.66 Y94.398 E0.27595
G1 X72.943 Y94.293 E0.29
G1 X73.227 Y94.193 E0.30402
G1 X73.913 Y93.958 E0.33779
G1 X74.486 Y93.779 E0.36574
G1 X74.815 Y93.686 E0.38166
G1 X75.146 Y93.598 E0.39761
G1 X75.668 Y93.469 E0.42265
G1 X76.238 Y93.336 E0.4499
G1 X76.878 Y93.206 E0.48031
G1 X77.729 Y93.06 E0.52051
G1 X78.06 Y93.009 E0.53611
G1 X78.58 Y92.936 E0.56056
G1 X79.181 Y92.868 E0.58872
G1 X79.37 Y92.852 E0.59756
G1 X79.696 Y92.829 E0.61277
G1 X80.207 Y92.801 E0.6366
G1 X80.453 Y92.791 E0.64807
G1 X80.978 Y92.774 E0.67253
G1 X81.664 Y92.773 E0.70447
G1 X82.665 Y92.803 E0.7511
G1 X83.038 Y92.821 E0.76849
G1 X83.397 Y92.844 E0.78524
G1 X84.066 Y92.907 E0.81653
G1 X85.259 Y93.057 E0.87252
G1 X85.495 Y93.089 E0.88361
G1 X87.75 Y93.422 E0.98975
G1 X90.224 Y93.716 E1.10576
G1 X92.762 Y93.945 E1.22442
G1 X95.262 Y94.1 E1.34105
G1 X97.775 Y94.184 E1.45813
G1 X100.304 Y94.197 E1.5759
G1 X102.818 Y94.139 E1.69299
G1 X105.317 Y94.01 E1.80951
G1 X107.821 Y93.81 E1.92648
G1 X110.351 Y93.536 E2.04497
G1 X112.844 Y93.194 E2.16215
G1 X113.174 Y93.141 E2.17771
G1 X113.957 Y93.023 E2.21458
G1 X114.587 Y92.935 E2.2442
G1 X115.181 Y92.868 E2.27203
G1 X115.37 Y92.852 E2.28087
G1 X115.696 Y92.829 E2.29608
G1 X116.207 Y92.801 E2.31991
G1 X116.453 Y92.791 E2.33138
G1 X116.978 Y92.774 E2.35584
G1 X117.664 Y92.773 E2.38778
G1 X118.665 Y92.803 E2.43441
G1 X119.038 Y92.821 E2.4518
G1 X119.397 Y92.844 E2.46855
G1 X120.066 Y92.907 E2.49984
G1 X121.259 Y93.057 E2.55583
G1 X121.495 Y93.089 E2.56692
G1 X123.75 Y93.422 E2.67306
G1 X126.224 Y93.716 E2.78907
G1 X128.762 Y93.945 E2.90773
G1 X131.262 Y94.1 E3.02436
G1 X133.775 Y94.184 E3.14145
G1 X136.304 Y94.197 E3.25921
G1 X138.818 Y94.139 E3.3763
G1 X141.317 Y94.01 E3.49282
G1 X143.821 Y93.81 E3.60979
G1 X146.351 Y93.536 E3.72828
G1 X148.844 Y93.194 E3.84546
G1 X149.174 Y93.141 E3.86102
G1 X149.957 Y93.023 E3.89789
G1 X150.587 Y92.935 E3.92751
G1 X151.181 Y92.868 E3.95535
G1 X151.37 Y92.852 E3.96418
G1 X151.696 Y92.829 E3.9794
G1 X152.207 Y92.801 E4.00323
G1 X152.453 Y92.791 E4.01469
G1 X152.978 Y92.774 E4.03915
G1 X153.664 Y92.773 E4.07109
G1 X154.665 Y92.803 E4.11772
G1 X155.038 Y92.821 E4.13511
G1 X155.397 Y92.844 E4.15186
G1 X156.069 Y92.907 E4.18329
G1 X157.101 Y93.037 E4.23173
G1 X157.486 Y93.093 E4.24984
G1 X157.961 Y93.17 E4.27225
G1 X158.587 Y93.29 E4.30193
G1 X158.848 Y93.348 E4.31438
G1 X159.097 Y93.406 E4.32628
G1 X159.405 Y93.482 E4.34105
G1 X159.61 Y93.535 E4.35091
G1 X160.362 Y93.736 E4.38716
G1 X160.911 Y93.898 E4.41381
G1 X161.297 Y94.023 E4.43271
G1 X161.6 Y94.126 E4.44761
G1 X161.99 Y94.266 E4.4669
G1 X162.403 Y94.419 E4.48741
G1 X162.607 Y94.497 E4.49758
G1 X162.813 Y94.578 E4.50789
G1 X163.151 Y94.717 E4.52491
G1 X163.481 Y94.864 E4.54173
G1 X163.953 Y95.082 E4.56594
G1 X164.2 Y95.199 E4.57866
G1 X164.72 Y95.455 E4.60565
G1 X165.333 Y95.781 E4.63798
G1 X166.137 Y96.242 E4.68114
G1 X166.44 Y96.423 E4.69757
G1 X166.902 Y96.708 E4.72285
G1 X167.427 Y97.053 E4.7521
G1 X167.845 Y97.347 E4.7759
G1 X168.233 Y97.634 E4.79837
G1 X168.794 Y98.063 E4.83125
G1 X169.335 Y98.504 E4.86375
G1 X170.084 Y99.156 E4.90999
G1 X170.402 Y99.444 E4.92997
G1 X170.607 Y99.637 E4.94308
G1 X171.066 Y100.096 E4.97331
G1 X171.789 Y100.862 E5.02235
G1 X172.06 Y101.159 E5.04107
G1 X172.381 Y101.525 E5.06374
G1 X172.753 Y101.973 E5.09086
G1 X172.916 Y102.18 E5.10313
G1 X173.132 Y102.463 E5.1197
G1 X173.565 Y103.053 E5.15378
G1 X173.894 Y103.516 E5.18023
G1 X174.263 Y104.071 E5.21126
G1 X174.744 Y104.843 E5.25362
G1 X174.949 Y105.186 E5.27222
G1 X175.093 Y105.437 E5.2857
G1 X175.397 Y106.005 E5.3157
G1 X175.837 Y106.888 E5.36163
G1 X175.997 Y107.223 E5.37892
G1 X176.124 Y107.501 E5.39315
G1 X176.394 Y108.145 E5.42567
G1 X176.772 Y109.134 E5.47497
G1 X176.904 Y109.497 E5.49296
G1 X177.054 Y109.935 E5.51451
G1 X177.239 Y110.531 E5.54357
G1 X177.327 Y110.845 E5.55876
G1 X177.413 Y111.171 E5.57446
G1 X177.471 Y111.411 E5.58595
G1 X177.631 Y112.097 E5.61875
G1 X177.755 Y112.703 E5.64756
G1 X177.878 Y113.407 E5.68083
G1 X177.951 Y113.865 E5.70243
G1 X178.047 Y114.526 E5.73353
G1 X178.12 Y115.158 E5.76316
G1 X178.131 Y115.285 E5.76909
G1 X178.15 Y115.546 E5.78128
G1 X178.181 Y116.041 E5.80437
G1 X178.196 Y116.336 E5.81813
G1 X178.219 Y116.979 E5.84809
G1 X178.222 Y117.665 E5.88003
G1 X178.196 Y118.642 E5.92554
G1 X178.18 Y119.014 E5.94288
G1 X178.149 Y119.526 E5.96676
G1 X178.092 Y120.158 E5.99631
G1 X178.054 Y120.478 E6.01131
G1 X178.017 Y120.759 E6.02451
G1 X177.968 Y121.097 E6.04041
G1 X177.939 Y121.286 E6.04932
G1 X177.829 Y121.962 E6.08121
G1 X177.718 Y122.543 E6.10875
G1 X177.64 Y122.9 E6.12577
G1 X177.566 Y123.22 E6.14106
G1 X177.464 Y123.622 E6.16037
G1 X177.324 Y124.147 E6.18567
G1 X177.131 Y124.792 E6.21702
G1 X176.817 Y125.734 E6.26326
G1 X176.7 Y126.064 E6.27956
G1 X176.535 Y126.511 E6.30175
G1 X176.232 Y127.25 E6.33894
G1 X175.94 Y127.893 E6.37183
G1 X175.8 Y128.188 E6.38703
G1 X175.545 Y128.708 E6.414
G1 X175.228 Y129.308 E6.4456
G1 X174.814 Y130.035 E6.48455
G1 X174.653 Y130.308 E6.49931
G1 X174.49 Y130.576 E6.51392
G1 X174.096 Y131.18 E6.5475
G1 X173.465 Y132.079 E6.59864
G1 X173.229 Y132.402 E6.61727
G1 X172.882 Y132.86 E6.64402
G1 X172.88 Y132.858 E6.64415
G1 X172.493 Y133.346 E6.67316
G1 X172.201 Y133.687 E6.69406
G1 X171.947 Y133.972 E6.71184
G1 X171.786 Y134.148 E6.72294
G1 X171.365 Y134.601 E6.75174
G1 X170.869 Y135.101 E6.78453
G1 X170.175 Y135.758 E6.82903
G1 X169.895 Y136.014 E6.8467
G1 X169.638 Y136.241 E6.86267
G1 X169.119 Y136.672 E6.89408
G1 X168.298 Y137.312 E6.94255
G1 X167.992 Y137.542 E6.96038
G1 X167.621 Y137.811 E6.98172
G1 X167.095 Y138.17 E7.01137
G1 X166.881 Y138.307 E7.0232
G1 X166.679 Y138.433 E7.03429
G1 X166.417 Y138.593 E7.04858
G1 X166.212 Y138.715 E7.05969
G1 X165.591 Y139.073 E7.09307
G1 X165.01 Y139.385 E7.12378
G1 X164.124 Y139.827 E7.16988
G1 X163.757 Y140.002 E7.18881
G1 X163.413 Y140.158 E7.2064
G1 X162.813 Y140.409 E7.23669
G1 X161.912 Y140.755 E7.28163
G1 X161.549 Y140.887 E7.29961
G1 X161.334 Y140.961 E7.3102
G1 X161.013 Y141.066 E7.32593
G1 X160.797 Y141.133 E7.33646
G1 X160.386 Y141.252 E7.35638
G1 X159.487 Y141.493 E7.39972
G1 X159.189 Y141.568 E7.41403
G1 X158.912 Y141.634 E7.42729
G1 X158.182 Y141.782 E7.46197
G1 X157.145 Y141.956 E7.51093
G1 X156.776 Y142.012 E7.52831
G1 X156.528 Y142.045 E7.53996
G1 X155.835 Y142.115 E7.5724
G1 X154.735 Y142.191 E7.62374
G1 X154.337 Y142.211 E7.64229
G1 X154.001 Y142.222 E7.65795
G1 X153.339 Y142.224 E7.68877
G1 X152.357 Y142.197 E7.73452
G1 X151.973 Y142.18 E7.75242
G1 X151.397 Y142.144 E7.77929
G1 X150.802 Y142.09 E7.80711
G1 X150.529 Y142.058 E7.81991
G1 X150.195 Y142.014 E7.83559
G1 X149.269 Y141.877 E7.87918
G1 X149.233 Y141.873 E7.88087
G1 X147.571 Y141.621 E7.95914
G1 X145.083 Y141.316 E8.07586
G1 X142.534 Y141.076 E8.19508
G1 X140.057 Y140.913 E8.31067
G1 X137.569 Y140.821 E8.4266
G1 X135.007 Y140.797 E8.5459
G1 X132.486 Y140.846 E8.66331
G1 X129.99 Y140.966 E8.77967
G1 X127.484 Y141.156 E8.8967
G1 X125.008 Y141.415 E9.01262
G1 X122.446 Y141.756 E9.13297
G1 X121.247 Y141.946 E9.18949
G1 X120.979 Y141.985 E9.2021
G1 X120.528 Y142.045 E9.22329
G1 X119.835 Y142.115 E9.25572
G1 X118.735 Y142.191 E9.30707
G1 X118.337 Y142.211 E9.32562
G1 X118.001 Y142.222 E9.34128
G1 X117.339 Y142.224 E9.3721
G1 X116.357 Y142.197 E9.41784
G1 X115.973 Y142.18 E9.43574
G1 X115.397 Y142.144 E9.46262
G1 X114.802 Y142.09 E9.49044
G1 X114.529 Y142.058 E9.50324
G1 X114.195 Y142.014 E9.51892
G1 X113.269 Y141.877 E9.56251
G1 X113.233 Y141.873 E9.5642
G1 X111.571 Y141.621 E9.64247
G1 X109.083 Y141.316 E9.75919
G1 X106.534 Y141.076 E9.87841
G1 X104.057 Y140.913 E9.994
G1 X101.569 Y140.821 E10.10993
G1 X99.007 Y140.797 E10.22923
G1 X96.486 Y140.846 E10.34664
G1 X93.99 Y140.966 E10.463
G1 X91.484 Y141.156 E10.58002
G1 X89.008 Y141.415 E10.69594
G1 X86.446 Y141.756 E10.81629
G1 X85.247 Y141.946 E10.87282
G1 X84.979 Y141.985 E10.88543
G1 X84.528 Y142.045 E10.90662
G1 X83.835 Y142.115 E10.93905
G1 X82.735 Y142.191 E10.99039
G1 X82.337 Y142.211 E11.00895
G1 X82.001 Y142.222 E11.0246
G1 X81.339 Y142.224 E11.05543
G1 X80.357 Y142.197 E11.10117
G1 X79.973 Y142.18 E11.11907
G1 X79.397 Y142.144 E11.14594
G1 X78.802 Y142.09 E11.17376
G1 X78.529 Y142.058 E11.18656
G1 X78.2 Y142.014 E11.20202
G1 X77.773 Y141.95 E11.22212
G1 X77.196 Y141.855 E11.24935
G1 X76.548 Y141.728 E11.2801
G1 X75.636 Y141.521 E11.32365
G1 X75.265 Y141.43 E11.34143
G1 X74.704 Y141.282 E11.36845
G1 X74.361 Y141.186 E11.38504
G1 X73.8 Y141.009 E11.41243
G1 X73.346 Y140.852 E11.4348
G1 X73.105 Y140.765 E11.44673
G1 X72.546 Y140.557 E11.4745
G1 X72.232 Y140.435 E11.49019
G1 X71.809 Y140.256 E11.51157
G1 X71.001 Y139.893 E11.55282
G1 X70.705 Y139.755 E11.56803
G1 X70.223 Y139.521 E11.59298
G1 X69.619 Y139.204 E11.62474
G1 X69.273 Y139.006 E11.6433
G1 X68.851 Y138.756 E11.66614
G1 X68.637 Y138.626 E11.6778
G1 X68.188 Y138.346 E11.70244
G1 X67.616 Y137.964 E11.73447
G1 X66.71 Y137.317 E11.78631
G1 X66.503 Y137.165 E11.79827
G1 X66.275 Y136.994 E11.81154
G1 X65.61 Y136.453 E11.85146
G1 X64.887 Y135.817 E11.89629
G1 X64.598 Y135.554 E11.91449
G1 X64.308 Y135.28 E11.93307
G1 X63.866 Y134.838 E11.96217
G1 X63.251 Y134.187 E12.00387
G1 X62.99 Y133.9 E12.02194
G1 X62.623 Y133.483 E12.0478
G1 X62.277 Y133.071 E12.07286
G1 X62.179 Y132.948 E12.08018
G1 X61.958 Y132.661 E12.09705
G1 X61.667 Y132.269 E12.11978
G1 X61.48 Y132.011 E12.13462
G1 X61.113 Y131.494 E12.16414
G1 X60.73 Y130.917 E12.19639
G1 X60.236 Y130.119 E12.24009
G1 X60.049 Y129.806 E12.25707
G1 X59.894 Y129.536 E12.27156
G1 X59.574 Y128.935 E12.30327
G1 X59.164 Y128.106 E12.34633
G1 X59.012 Y127.786 E12.36283
G1 X58.855 Y127.441 E12.38048
G1 X58.593 Y126.814 E12.41212
G1 X58.25 Y125.917 E12.45684
G1 X58.123 Y125.567 E12.47417
G1 X57.942 Y125.041 E12.50008
G1 X57.764 Y124.475 E12.5277
G1 X57.717 Y124.31 E12.53569
G1 X57.639 Y124.024 E12.5495
G1 X57.534 Y123.609 E12.56943
G1 X57.458 Y123.293 E12.58456
G1 X57.323 Y122.706 E12.61261
G1 X57.197 Y122.076 E12.64253
G1 X57.061 Y121.272 E12.6805
G1 X57.005 Y120.9 E12.69801
G1 X56.934 Y120.371 E12.72287
G1 X56.869 Y119.758 E12.75157
G1 X56.839 Y119.371 E12.76965
G1 X56.819 Y119.051 E12.78458
G1 X56.794 Y118.508 E12.80989
G1 X56.776 Y117.958 E12.83551
G1 X56.774 Y117.304 E12.86596
G1 X56.799 Y116.369 E12.90952
G1 X56.815 Y115.993 E12.92704
G1 X56.848 Y115.452 E12.95228
G1 X56.903 Y114.843 E12.98075
G1 X56.927 Y114.638 E12.99036
G1 X56.963 Y114.361 E13.00337
G1 X57.051 Y113.752 E13.03202
G1 X57.14 Y113.198 E13.05815
G1 X57.283 Y112.467 E13.09283
G1 X57.521 Y111.437 E13.14206
G1 X57.625 Y111.025 E13.16184
G1 X57.702 Y110.742 E13.1755
G1 X57.896 Y110.105 E13.20651
G1 X58.214 Y109.165 E13.25271
G1 X58.336 Y108.824 E13.26958
G1 X58.443 Y108.539 E13.28375
G1 X58.715 Y107.879 E13.31699
G1 X59.124 Y106.973 E13.36328
G1 X59.272 Y106.659 E13.37944
G1 X59.443 Y106.31 E13.39754
G1 X59.768 Y105.697 E13.42985
G1 X60.199 Y104.942 E13.47033
G1 X60.373 Y104.648 E13.48624
G1 X60.555 Y104.351 E13.50246
G1 X60.936 Y103.771 E13.53477
G1 X61.507 Y102.959 E13.58099
G1 X61.715 Y102.673 E13.59746
G1 X62.11 Y102.148 E13.62805
G1 X62.501 Y101.658 E13.65724
G1 X62.66 Y101.47 E13.66871
G1 X62.881 Y101.216 E13.68438
G1 X63.224 Y100.836 E13.70822
G1 X63.731 Y100.289 E13.74295
G1 X64.181 Y99.832 E13.77281
G1 X64.406 Y99.616 E13.78734
G1 X64.653 Y99.386 E13.80305
G1 X64.997 Y99.077 E13.82458
G1 X65.42 Y98.706 E13.85078
G1 X65.944 Y98.274 E13.88241
G1 X66.729 Y97.667 E13.92861
G1 X67.019 Y97.45 E13.94548
G1 X67.429 Y97.154 E13.96902
G0 F6000 X67.663 Y97.479
G1 F1200 X68.175 Y97.132 E13.99782
G1 X68.442 Y96.962 E14.01256
G1 X68.695 Y96.805 E14.02643
G1 X68.986 Y96.631 E14.04222
G1 X69.579 Y96.287 E14.07414
G1 X70.161 Y95.974 E14.10491
G1 X71.098 Y95.507 E14.15366
G1 X71.435 Y95.346 E14.17105
G1 X71.769 Y95.194 E14.18814
G1 X72.014 Y95.086 E14.2006
G1 X72.426 Y94.917 E14.22134
G1 X72.804 Y94.771 E14.24021
G1 X73.077 Y94.67 E14.25376
G1 X73.357 Y94.571 E14.26759
G1 X74.043 Y94.336 E14.30136
G1 X74.595 Y94.164 E14.32828
G1 X74.924 Y94.071 E14.3442
G1 X75.243 Y93.986 E14.35957
G1 X75.759 Y93.858 E14.38433
G1 X76.329 Y93.725 E14.41158
G1 X76.946 Y93.601 E14.44089
G1 X77.797 Y93.455 E14.48109
G1 X78.115 Y93.405 E14.49608
G1 X78.635 Y93.332 E14.52053
G1 X79.215 Y93.267 E14.54771
G1 X79.404 Y93.251 E14.55654
G1 X79.718 Y93.229 E14.5712
G1 X80.229 Y93.201 E14.59503
G1 X80.466 Y93.191 E14.60607
G1 X80.991 Y93.174 E14.63053
G1 X81.652 Y93.173 E14.66131
G1 X82.653 Y93.203 E14.70794
G1 X83.013 Y93.22 E14.72472
G1 X83.372 Y93.243 E14.74147
G1 X84.016 Y93.304 E14.7716
G1 X85.209 Y93.454 E14.82758
G1 X85.437 Y93.485 E14.8383
G1 X87.681 Y93.817 E14.94393
G1 X90.213 Y94.118 E15.06266
G1 X92.702 Y94.342 E15.17902
G1 X95.259 Y94.501 E15.29832
G1 X97.758 Y94.584 E15.41475
G1 X100.311 Y94.597 E15.53363
G1 X102.814 Y94.54 E15.65021
G1 X105.369 Y94.408 E15.76934
G1 X107.864 Y94.209 E15.88588
G1 X110.373 Y93.936 E16.0034
G1 X112.922 Y93.587 E16.1232
G1 X113.234 Y93.536 E16.13792
G1 X113.885 Y93.437 E16.16858
G1 X114.643 Y93.331 E16.20422
G1 X115.215 Y93.267 E16.23102
G1 X115.404 Y93.251 E16.23986
G1 X115.718 Y93.229 E16.25451
G1 X116.229 Y93.201 E16.27834
G1 X116.466 Y93.191 E16.28939
G1 X116.991 Y93.174 E16.31385
G1 X117.652 Y93.173 E16.34463
G1 X118.653 Y93.203 E16.39126
G1 X119.013 Y93.22 E16.40804
G1 X119.372 Y93.243 E16.42479
G1 X120.016 Y93.304 E16.45491
G1 X121.209 Y93.454 E16.5109
G1 X121.437 Y93.485 E16.52162
G1 X123.681 Y93.817 E16.62724
G1 X126.213 Y94.118 E16.74597
G1 X128.702 Y94.342 E16.86234
G1 X131.259 Y94.501 E16.98164
G1 X133.758 Y94.584 E17.09806
G1 X136.311 Y94.597 E17.21694
G1 X138.814 Y94.54 E17.33352
G1 X141.369 Y94.408 E17.45265
G1 X143.864 Y94.209 E17.5692
G1 X146.373 Y93.936 E17.68672
G1 X148.922 Y93.587 E17.80652
G1 X149.234 Y93.536 E17.82124
G1 X149.885 Y93.437 E17.8519
G1 X150.643 Y93.331 E17.88754
G1 X151.215 Y93.267 E17.91434
G1 X151.404 Y93.251 E17.92317
G1 X151.718 Y93.229 E17.93783
G1 X152.229 Y93.201 E17.96166
G1 X152.466 Y93.191 E17.97271
G1 X152.991 Y93.174 E17.99717
G1 X153.652 Y93.173 E18.02794
G1 X154.653 Y93.203 E18.07458
G1 X155.013 Y93.22 E18.09136
G1 X155.372 Y93.243 E18.10811
G1 X156.019 Y93.304 E18.13837
G1 X157.051 Y93.434 E18.1868
G1 X157.422 Y93.488 E18.20426
G1 X157.897 Y93.565 E18.22667
G1 X158.5 Y93.68 E18.25525
G1 X158.761 Y93.738 E18.2677
G1 X159.001 Y93.795 E18.27919
G1 X159.507 Y93.921 E18.30347
G1 X160.259 Y94.122 E18.33971
G1 X160.788 Y94.279 E18.36541
G1 X161.174 Y94.404 E18.3843
G1 X161.466 Y94.503 E18.39866
G1 X161.851 Y94.641 E18.4177
G1 X162.264 Y94.794 E18.43821
G1 X162.461 Y94.869 E18.44803
G1 X162.667 Y94.95 E18.45833
G1 X162.993 Y95.085 E18.47476
G1 X163.314 Y95.227 E18.49111
G1 X163.786 Y95.445 E18.51532
G1 X164.023 Y95.558 E18.52754
G1 X164.543 Y95.814 E18.55453
G1 X165.134 Y96.128 E18.58569
G1 X165.938 Y96.589 E18.62885
G1 X166.23 Y96.763 E18.64468
G1 X166.692 Y97.048 E18.66995
G1 X167.198 Y97.381 E18.69816
