;FLAVOR:Marlin
;TIME:7073
;Filament used: 5.98268m
;Layer height: 0.28
;MINX:101.27
;MINY:86.5
;MINZ:0.28
;MAXX:132.047
;MAXY:148.5
;MAXZ:99.96
;Generated with Cura_SteamEngine 4.5.0
M140 S65
M105
M190 S65
M104 S215
M105
M109 S215
M82 ;absolute extrusion mode
; Ender 3 Custom Start G-code
G92 E0 ; Reset Extruder
G28 ; Home all axes
G1 Z2.0 F3000 ; Move Z Axis up little to prevent scratching of Heat Bed
G1 X0.1 Y20 Z0.3 F5000.0 ; Move to start position
G1 X0.1 Y200.0 Z0.3 F1500.0 E15 ; Draw the first line
G1 X0.4 Y200.0 Z0.3 F5000.0 ; Move to side a little
G1 X0.4 Y20 Z0.3 F1500.0 E30 ; Draw the second line
G92 E0 ; Reset Extruder
G1 Z2.0 F3000 ; Move Z Axis up little to prevent scratching of Heat Bed
G1 X5 Y20 Z0.3 F5000.0 ; Move over to prevent blob squish
G92 E0
G92 E0
G1 F2700 E-5
;LAYER_COUNT:357
;LAYER:0
M107
G0 F6000 X103.836 Y90.458 Z0.28
;TYPE:SKIRT
G1 F2700 E0
G1 F1200 X104.468 Y89.764 E0.04371
G1 X105.156 Y89.127 E0.08737
G1 X105.896 Y88.551 E0.13103
G1 X106.682 Y88.039 E0.17471
G1 X107.509 Y87.597 E0.21838
G1 X108.371 Y87.227 E0.26205
G1 X109.261 Y86.931 E0.30573
G1 X110.173 Y86.713 E0.34939
G1 X111.1 Y86.572 E0.39305
G1 X111.971 Y86.513 E0.4337
G1 X112.6 Y86.5 E0.463
G1 X120.486 Y86.501 E0.8302
G1 X121.175 Y86.511 E0.86229
G1 X122.111 Y86.565 E0.90595
G1 X123.039 Y86.698 E0.9496
G1 X123.953 Y86.91 E0.99329
G1 X124.845 Y87.198 E1.03694
G1 X125.71 Y87.562 E1.08063
G1 X126.54 Y87.998 E1.12429
G1 X127.33 Y88.503 E1.16795
G1 X128.074 Y89.074 E1.21162
G1 X128.767 Y89.706 E1.25529
G1 X129.404 Y90.395 E1.29899
G1 X129.98 Y91.135 E1.34265
G1 X130.49 Y91.922 E1.38632
G1 X130.932 Y92.75 E1.43003
G1 X131.301 Y93.612 E1.47369
G1 X131.596 Y94.502 E1.51735
G1 X131.814 Y95.414 E1.56101
G1 X131.953 Y96.342 E1.6047
G1 X132.007 Y97.092 E1.63972
G1 X132.039 Y97.933 E1.6789
G1 X132.047 Y98.351 E1.69837
G1 X132.046 Y136.915 E3.49407
G1 X132.036 Y137.642 E3.52793
G1 X131.983 Y138.579 E3.57163
G1 X131.851 Y139.507 E3.61528
G1 X131.64 Y140.421 E3.65895
G1 X131.351 Y141.313 E3.70262
G1 X130.988 Y142.178 E3.7463
G1 X130.553 Y143.009 E3.78997
G1 X130.048 Y143.799 E3.83363
G1 X129.478 Y144.544 E3.87731
G1 X128.847 Y145.238 E3.92099
G1 X128.158 Y145.875 E3.96468
G1 X127.418 Y146.451 E4.00835
G1 X126.632 Y146.962 E4.052
G1 X125.805 Y147.404 E4.09566
G1 X124.943 Y147.774 E4.13934
G1 X124.053 Y148.069 E4.183
G1 X123.141 Y148.288 E4.22668
G1 X122.214 Y148.428 E4.27033
G1 X121.346 Y148.487 E4.31084
G1 X120.717 Y148.5 E4.34014
G1 X112.835 Y148.499 E4.70716
G1 X112.137 Y148.49 E4.73966
G1 X111.201 Y148.438 E4.78331
G1 X110.272 Y148.306 E4.827
G1 X109.358 Y148.096 E4.87067
G1 X108.465 Y147.809 E4.91435
G1 X107.6 Y147.446 E4.95803
G1 X106.769 Y147.012 E5.00168
G1 X105.978 Y146.508 E5.04536
G1 X105.233 Y145.938 E5.08904
G1 X104.539 Y145.307 E5.13271
G1 X103.902 Y144.62 E5.17634
G1 X103.325 Y143.88 E5.22003
G1 X102.813 Y143.094 E5.26371
G1 X102.37 Y142.267 E5.3074
G1 X101.999 Y141.406 E5.35105
G1 X101.703 Y140.516 E5.39473
G1 X101.484 Y139.604 E5.4384
G1 X101.343 Y138.677 E5.48206
G1 X101.283 Y137.788 E5.52355
G1 X101.27 Y137.158 E5.55289
G1 X101.271 Y98.025 E7.37509
G1 X101.28 Y97.36 E7.40606
G1 X101.333 Y96.424 E7.44971
G1 X101.465 Y95.495 E7.4934
G1 X101.676 Y94.581 E7.53708
G1 X101.964 Y93.689 E7.58073
G1 X102.327 Y92.824 E7.62441
G1 X102.762 Y91.993 E7.66809
G1 X103.266 Y91.203 E7.71172
G1 X103.836 Y90.458 E7.7554
G0 F6000 X104.231 Y90.611
G1 F1200 X104.859 Y89.939 E7.79823
G1 X105.544 Y89.323 E7.84113
G1 X106.28 Y88.77 E7.88399
G1 X107.061 Y88.282 E7.92687
G1 X107.881 Y87.864 E7.96973
G1 X108.735 Y87.519 E8.01262
G1 X109.615 Y87.249 E8.05548
G1 X110.515 Y87.057 E8.09833
G1 X111.429 Y86.943 E8.14122
G1 X111.982 Y86.913 E8.16701
G1 X112.6 Y86.9 E8.19579
G1 X120.48 Y86.901 E8.56272
G1 X121.169 Y86.911 E8.5948
G1 X122.088 Y86.964 E8.63767
G1 X122.999 Y87.097 E8.68054
G1 X123.895 Y87.309 E8.72341
G1 X124.769 Y87.597 E8.76626
G1 X125.615 Y87.96 E8.80913
G1 X126.427 Y88.395 E8.85202
G1 X127.197 Y88.899 E8.89487
G1 X127.921 Y89.468 E8.93775
G1 X128.593 Y90.098 E8.98064
G1 X129.207 Y90.783 E9.02348
G1 X129.76 Y91.52 E9.06638
G1 X130.247 Y92.301 E9.10924
G1 X130.664 Y93.122 E9.15212
G1 X131.008 Y93.976 E9.19499
G1 X131.277 Y94.856 E9.23784
G1 X131.469 Y95.757 E9.28073
G1 X131.607 Y97.107 E9.34392
G1 X131.639 Y97.948 E9.38311
G1 X131.647 Y98.351 E9.40188
G1 X131.646 Y136.91 E11.19735
G1 X131.636 Y137.637 E11.2312
G1 X131.583 Y138.556 E11.27407
G1 X131.451 Y139.467 E11.31693
G1 X131.24 Y140.363 E11.35979
G1 X130.953 Y141.238 E11.40267
G1 X130.59 Y142.084 E11.44554
G1 X130.156 Y142.896 E11.48841
G1 X129.652 Y143.667 E11.5313
G1 X129.084 Y144.391 E11.57415
G1 X128.455 Y145.063 E11.61701
G1 X127.77 Y145.678 E11.65988
G1 X127.034 Y146.231 E11.70274
G1 X126.253 Y146.719 E11.74563
G1 X125.433 Y147.137 E11.78848
G1 X124.579 Y147.482 E11.83137
G1 X123.699 Y147.751 E11.87422
G1 X122.798 Y147.944 E11.91713
G1 X121.885 Y148.057 E11.95996
G1 X121.335 Y148.087 E11.98561
G1 X120.717 Y148.1 E12.01439
G1 X112.84 Y148.099 E12.38118
G1 X112.142 Y148.09 E12.41369
G1 X111.223 Y148.038 E12.45655
G1 X110.312 Y147.907 E12.4994
G1 X109.416 Y147.697 E12.54225
G1 X108.541 Y147.41 E12.58513
G1 X107.694 Y147.048 E12.62802
G1 X106.882 Y146.614 E12.6709
G1 X106.111 Y146.112 E12.71374
G1 X105.386 Y145.544 E12.75662
G1 X104.713 Y144.915 E12.79952
G1 X104.098 Y144.231 E12.84235
G1 X103.544 Y143.496 E12.88521
G1 X103.056 Y142.715 E12.92809
G1 X102.637 Y141.895 E12.97097
G1 X102.291 Y141.042 E13.01383
G1 X102.021 Y140.162 E13.05669
G1 X101.828 Y139.261 E13.0996
G1 X101.714 Y138.348 E13.14244
G1 X101.683 Y137.777 E13.16907
G1 X101.67 Y137.158 E13.1979
G1 X101.671 Y98.031 E15.01981
G1 X101.68 Y97.366 E15.05078
G1 X101.732 Y96.446 E15.09369
G1 X101.864 Y95.535 E15.13655
G1 X102.075 Y94.639 E15.17941
G1 X102.362 Y93.764 E15.22229
G1 X102.725 Y92.918 E15.26516
G1 X103.159 Y92.106 E15.30803
G1 X103.662 Y91.335 E15.3509
G1 X104.231 Y90.611 E15.39378
G0 F6000 X104.625 Y90.767
G1 F1200 X105.251 Y90.117 E15.4358
G1 X105.932 Y89.524 E15.47784
G1 X106.664 Y88.994 E15.51993
G1 X107.439 Y88.531 E15.56196
G1 X108.252 Y88.138 E15.60401
G1 X109.097 Y87.818 E15.64608
G1 X109.966 Y87.575 E15.6881
G1 X110.854 Y87.409 E15.73017
G1 X111.993 Y87.313 E15.78339
G1 X112.6 Y87.3 E15.81166
G1 X120.474 Y87.301 E16.17831
G1 X121.163 Y87.311 E16.21039
G1 X122.065 Y87.364 E16.25247
G1 X122.958 Y87.497 E16.29451
G1 X123.836 Y87.708 E16.33656
G1 X124.692 Y87.996 E16.37861
G1 X125.519 Y88.358 E16.42065
G1 X126.311 Y88.793 E16.46272
G1 X127.061 Y89.295 E16.50475
G1 X127.764 Y89.862 E16.5468
G1 X128.414 Y90.489 E16.58885
G1 X129.006 Y91.171 E16.63091
G1 X129.536 Y91.903 E16.67299
G1 X129.998 Y92.679 E16.71504
G1 X130.39 Y93.492 E16.75707
G1 X130.709 Y94.337 E16.79912
G1 X130.952 Y95.207 E16.84119
G1 X131.116 Y96.095 E16.88323
G1 X131.208 Y97.122 E16.93125
G1 X131.24 Y97.963 E16.97044
G1 X131.247 Y98.351 E16.98851
G1 X131.246 Y136.904 E18.78369
G1 X131.236 Y137.631 E18.81755
G1 X131.184 Y138.533 E18.85962
G1 X131.052 Y139.426 E18.90165
G1 X130.841 Y140.305 E18.94375
G1 X130.554 Y141.161 E18.98579
G1 X130.192 Y141.988 E19.02782
G1 X129.758 Y142.78 E19.06988
G1 X129.256 Y143.531 E19.11194
G1 X128.69 Y144.234 E19.15396
G1 X128.063 Y144.885 E19.19605
G1 X127.382 Y145.477 E19.23807
G1 X126.651 Y146.007 E19.28011
G1 X125.875 Y146.47 E19.32219
G1 X125.062 Y146.863 E19.36424
G1 X124.217 Y147.183 E19.40631
G1 X123.348 Y147.426 E19.44833
G1 X122.46 Y147.591 E19.49038
G1 X121.324 Y147.687 E19.54347
G1 X120.717 Y147.7 E19.57174
G1 X112.845 Y147.699 E19.93829
G1 X112.147 Y147.69 E19.9708
G1 X111.246 Y147.639 E20.01282
G1 X110.352 Y147.507 E20.0549
G1 X109.474 Y147.298 E20.09692
G1 X108.617 Y147.011 E20.13901
G1 X107.79 Y146.65 E20.18103
G1 X106.997 Y146.217 E20.2231
G1 X106.246 Y145.716 E20.26513
G1 X105.542 Y145.15 E20.3072
G1 X104.891 Y144.524 E20.34925
G1 X104.298 Y143.843 E20.3913
G1 X103.768 Y143.112 E20.43334
G1 X103.304 Y142.337 E20.4754
G1 X102.91 Y141.524 E20.51747
G1 X102.59 Y140.68 E20.5595
G1 X102.346 Y139.81 E20.60157
G1 X102.18 Y138.922 E20.64364
G1 X102.083 Y137.767 E20.69761
G1 X102.07 Y137.158 E20.72597
G1 X102.071 Y98.036 E22.54766
G1 X102.08 Y97.371 E22.57863
G1 X102.132 Y96.469 E22.6207
G1 X102.264 Y95.576 E22.66273
G1 X102.474 Y94.698 E22.70477
G1 X102.761 Y93.841 E22.74685
G1 X103.123 Y93.014 E22.78889
G1 X103.556 Y92.222 E22.83092
G1 X104.058 Y91.471 E22.87298
G1 X104.625 Y90.767 E22.91507
G1 F2700 E17.91507
;MESH:minigrip.stl
G0 F6000 X111.605 Y100
G0 X112.69 Y100
G0 X113.052 Y136.718
G0 X120.447 Y136.9
;TYPE:WALL-INNER
G1 F2700 E22.91507
G1 F1200 X112.87 Y136.9 E23.26789
G1 X112.87 Y99.999 E24.98615
G1 X112.869 Y99.644 E25.00268
G1 X112.87 Y98.1 E25.07458
G1 X120.447 Y98.1 E25.4274
G1 X120.447 Y136.9 E27.23409
G0 F6000 X120.847 Y137.3
;TYPE:WALL-OUTER
G1 F1200 X112.47 Y137.3 E27.62415
G1 X112.47 Y100 E29.361
G1 X112.469 Y99.644 E29.37758
G1 X112.47 Y97.7 E29.4681
G1 X120.847 Y97.7 E29.85816
G1 X120.847 Y137.3 E31.70211
G0 F6000 X120.577 Y137.03
G0 X120.337 Y136.51
G0 X120.057 Y136.51
;TYPE:SKIN
G1 F1200 X113.26 Y136.51 E32.0186
G1 X113.26 Y99.999 E33.71871
G1 X113.26 Y98.49 E33.78897
G1 X120.057 Y98.49 E34.10547
G1 X120.057 Y136.51 E35.87584
G0 F6000 X120.337 Y136.51
G0 X120.273 Y136.697
G0 X113.721 Y136.79
G0 X113.721 Y136.349
G1 F1200 X113.419 Y136.047 E35.89573
G0 F6000 X113.419 Y135.481
G1 F1200 X114.287 Y136.349 E35.95289
G0 F6000 X114.853 Y136.349
G1 F1200 X113.419 Y134.915 E36.04732
G0 F6000 X113.419 Y134.35
G1 F1200 X115.418 Y136.349 E36.17896
G0 F6000 X115.984 Y136.349
G1 F1200 X113.419 Y133.784 E36.34787
G0 F6000 X113.419 Y133.218
G1 F1200 X116.55 Y136.349 E36.55405
G0 F6000 X117.115 Y136.349
G1 F1200 X113.419 Y132.653 E36.79744
G0 F6000 X113.419 Y132.087
G1 F1200 X117.681 Y136.349 E37.0781
G0 F6000 X118.247 Y136.349
G1 F1200 X113.419 Y131.521 E37.39603
G0 F6000 X113.419 Y130.956
G1 F1200 X118.813 Y136.349 E37.7512
G0 F6000 X119.378 Y136.349
G1 F1200 X113.419 Y130.39 E38.14361
G0 F6000 X113.419 Y129.824
G1 F1200 X119.896 Y136.301 E38.57013
G0 F6000 X119.896 Y135.735
G1 F1200 X113.419 Y129.259 E38.99662
G0 F6000 X113.419 Y128.693
G1 F1200 X119.896 Y135.169 E39.42311
G0 F6000 X119.896 Y134.604
G1 F1200 X113.419 Y128.127 E39.84963
G0 F6000 X113.419 Y127.562
G1 F1200 X119.896 Y134.038 E40.27612
G0 F6000 X119.896 Y133.472
G1 F1200 X113.419 Y126.996 E40.70261
G0 F6000 X113.419 Y126.43
G1 F1200 X119.896 Y132.907 E41.12913
G0 F6000 X119.896 Y132.341
G1 F1200 X113.419 Y125.865 E41.55562
G0 F6000 X113.419 Y125.299
G1 F1200 X119.896 Y131.775 E41.98211
G0 F6000 X119.896 Y131.21
G1 F1200 X113.419 Y124.733 E42.40863
G0 F6000 X113.419 Y124.167
G1 F1200 X119.896 Y130.644 E42.83515
G0 F6000 X119.896 Y130.078
G1 F1200 X113.419 Y123.602 E43.26164
G0 F6000 X113.419 Y123.036
G1 F1200 X119.896 Y129.512 E43.68813
G0 F6000 X119.896 Y128.947
G1 F1200 X113.419 Y122.47 E44.11465
G0 F6000 X113.419 Y121.905
G1 F1200 X119.896 Y128.381 E44.54114
G0 F6000 X119.896 Y127.815
G1 F1200 X113.419 Y121.339 E44.96762
G0 F6000 X113.419 Y120.773
G1 F1200 X119.896 Y127.25 E45.39415
G0 F6000 X119.896 Y126.684
G1 F1200 X113.419 Y120.208 E45.82063
G0 F6000 X113.419 Y119.642
G1 F1200 X119.896 Y126.118 E46.24712
G0 F6000 X119.896 Y125.553
G1 F1200 X113.419 Y119.076 E46.67364
G0 F6000 X113.419 Y118.511
G1 F1200 X119.896 Y124.987 E47.10013
G0 F6000 X119.896 Y124.421
G1 F1200 X113.419 Y117.945 E47.52662
G0 F6000 X113.419 Y117.379
G1 F1200 X119.896 Y123.856 E47.95314
G0 F6000 X119.896 Y123.29
G1 F1200 X113.419 Y116.813 E48.37966
G0 F6000 X113.419 Y116.247
G1 F1200 X119.896 Y122.724 E48.80619
G0 F6000 X119.896 Y122.159
G1 F1200 X113.419 Y115.681 E49.23274
G0 F6000 X113.419 Y115.116
G1 F1200 X119.896 Y121.593 E49.65926
G0 F6000 X119.896 Y121.027
G1 F1200 X113.419 Y114.55 E50.08578
G0 F6000 X113.419 Y113.984
G1 F1200 X119.896 Y120.462 E50.51234
G0 F6000 X119.896 Y119.896
G1 F1200 X113.419 Y113.419 E50.93886
G0 F6000 X113.419 Y112.853
G1 F1200 X119.896 Y119.33 E51.36538
G0 F6000 X119.896 Y118.764
G1 F1200 X113.419 Y112.287 E51.7919
G0 F6000 X113.419 Y111.722
G1 F1200 X119.896 Y118.199 E52.21842
G0 F6000 X119.896 Y117.633
G1 F1200 X113.419 Y111.156 E52.64495
G0 F6000 X113.419 Y110.59
G1 F1200 X119.896 Y117.067 E53.07147
G0 F6000 X119.896 Y116.502
G1 F1200 X113.419 Y110.025 E53.49799
G0 F6000 X113.419 Y109.459
G1 F1200 X119.896 Y115.936 E53.92451
G0 F6000 X119.896 Y115.37
G1 F1200 X113.419 Y108.893 E54.35103
G0 F6000 X113.419 Y108.328
G1 F1200 X119.896 Y114.805 E54.77755
G0 F6000 X119.896 Y114.239
G1 F1200 X113.419 Y107.762 E55.20407
G0 F6000 X113.419 Y107.196
G1 F1200 X119.896 Y113.673 E55.6306
G0 F6000 X119.896 Y113.108
G1 F1200 X113.419 Y106.63 E56.05715
G0 F6000 X113.419 Y106.065
G1 F1200 X119.896 Y112.542 E56.48367
G0 F6000 X119.896 Y111.976
G1 F1200 X113.419 Y105.499 E56.91019
G0 F6000 X113.419 Y104.933
G1 F1200 X119.896 Y111.411 E57.33675
G0 F6000 X119.896 Y110.845
G1 F1200 X113.419 Y104.368 E57.76327
G0 F6000 X113.419 Y103.802
G1 F1200 X119.896 Y110.279 E58.18979
G0 F6000 X119.896 Y109.713
G1 F1200 X113.419 Y103.236 E58.61631
G0 F6000 X113.419 Y102.671
G1 F1200 X119.896 Y109.148 E59.04283
G0 F6000 X119.896 Y108.582
G1 F1200 X113.419 Y102.105 E59.46936
G0 F6000 X113.419 Y101.539
G1 F1200 X119.896 Y108.016 E59.89588
G0 F6000 X119.896 Y107.451
G1 F1200 X113.419 Y100.974 E60.3224
G0 F6000 X113.419 Y100.408
G1 F1200 X119.896 Y106.885 E60.74892
G0 F6000 X119.896 Y106.319
G1 F1200 X113.419 Y99.842 E61.17544
G0 F6000 X113.419 Y99.277
G1 F1200 X119.896 Y105.754 E61.60196
G0 F6000 X119.896 Y105.188
G1 F1200 X113.419 Y98.711 E62.02848
G0 F6000 X113.924 Y98.65
G1 F1200 X119.896 Y104.622 E62.42175
G0 F6000 X119.896 Y104.057
G1 F1200 X114.489 Y98.65 E62.77781
G0 F6000 X115.055 Y98.65
G1 F1200 X119.896 Y103.491 E63.0966
G0 F6000 X119.896 Y102.925
G1 F1200 X115.621 Y98.65 E63.37812
G0 F6000 X116.186 Y98.65
M104 S210
G1 F1200 X119.896 Y102.36 E63.62243
G0 F6000 X119.896 Y101.794
G1 F1200 X116.752 Y98.65 E63.82946
G0 F6000 X117.318 Y98.65
G1 F1200 X119.896 Y101.228 E63.99923
G0 F6000 X119.896 Y100.663
G1 F1200 X117.883 Y98.65 E64.13179
G0 F6000 X118.449 Y98.65
G1 F1200 X119.896 Y100.097 E64.22708
G0 F6000 X119.896 Y99.531
G1 F1200 X119.015 Y98.65 E64.28509
G0 F6000 X119.58 Y98.65
G1 F1200 X119.896 Y98.965 E64.30587
G0 F6000 X120.247 Y98.965
G1 F2700 E59.30587
;MESH:NONMESH
G0 F300 X120.247 Y98.965 Z0.56
G0 F6000 X120.337 Y98.965
G0 X120.547 Y136.9
G0 X121.166 Y136.9
;TIME_ELAPSED:82.029543
;LAYER:1
M140 S60
M106 S85
;TYPE:WALL-INNER
;MESH:minigrip.stl
G1 F2700 E64.30587
G1 F1350 X112.377 Y136.9 E64.71512
G1 X112.374 Y134.999 E64.80364
G1 X112.373 Y100.6 E66.4054
G1 X112.44 Y100.6 E66.40852
G1 X112.374 Y99.878 E66.44228
G1 X112.373 Y98.299 E66.5158
G1 X112.373 Y98.1 E66.52507
G1 X112.572 Y98.1 E66.53107
G1 X121.166 Y98.1 E66.93124
G1 X121.166 Y136.9 E68.73793
G0 F7500 X121.566 Y137.3
;TYPE:WALL-OUTER
G1 F1350 X111.978 Y137.3 E69.18439
G1 X111.974 Y135 E69.29148
G1 X111.973 Y100.2 E70.91192
G1 X112.002 Y100.2 E70.91327
G1 X111.974 Y99.892 E70.92767
G1 X111.973 Y97.7 E71.02974
G1 X121.566 Y97.7 E71.47643
G1 X121.566 Y137.3 E73.32037
G0 F7500 X121.296 Y137.03
G0 X121.056 Y136.51
G0 X120.776 Y136.51
;TYPE:SKIN
G1 F1350 X112.767 Y136.51 E73.6933
G1 X112.764 Y134.999 E73.76366
G1 X112.763 Y100.99 E75.34726
G1 X112.867 Y100.99 E75.35211
G1 X112.764 Y99.865 E75.40471
G1 X112.763 Y98.49 E75.46874
G1 X120.776 Y98.49 E75.84185
G1 X120.776 Y136.51 E77.61222
G0 F7500 X120.471 Y136.349
G1 F1350 X120.615 Y136.205 E77.62171
G0 F7500 X120.615 Y135.64
G1 F1350 X119.906 Y136.349 E77.6684
G0 F7500 X119.34 Y136.349
G1 F1350 X120.615 Y135.074 E77.75236
G0 F7500 X120.615 Y134.508
G1 F1350 X118.774 Y136.349 E77.87359
G0 F7500 X118.209 Y136.349
G1 F1350 X120.615 Y133.942 E78.03206
G0 F7500 X120.615 Y133.377
G1 F1350 X117.643 Y136.349 E78.22777
G0 F7500 X117.077 Y136.349
G1 F1350 X120.615 Y132.811 E78.46076
G0 F7500 X120.615 Y132.245
G1 F1350 X116.512 Y136.349 E78.73098
G0 F7500 X115.946 Y136.349
G1 F1350 X120.615 Y131.68 E79.03844
G0 F7500 X120.615 Y131.114
G1 F1350 X115.38 Y136.349 E79.38317
G0 F7500 X114.815 Y136.349
G1 F1350 X120.615 Y130.548 E79.76515
