;FLAVOR:Marlin
;TIME:9536
;Filament used: 7.55307m
;Layer height: 0.28
;MINX:21.008
;MINY:16.729
;MINZ:0.28
;MAXX:209.987
;MAXY:218.264
;MAXZ:1.96
;Generated with Cura_SteamEngine 4.5.0
M140 S65
M105
M190 S65
M104 S215
M105
M109 S215
M82 ;absolute extrusion mode
; Ender 3 Custom Start G-code
G92 E0 ; Reset Extruder
G28 ; Home all axes
G1 Z2.0 F3000 ; Move Z Axis up little to prevent scratching of Heat Bed
G1 X0.1 Y20 Z0.3 F5000.0 ; Move to start position
G1 X0.1 Y200.0 Z0.3 F1500.0 E15 ; Draw the first line
G1 X0.4 Y200.0 Z0.3 F5000.0 ; Move to side a little
G1 X0.4 Y20 Z0.3 F1500.0 E30 ; Draw the second line
G92 E0 ; Reset Extruder
G1 Z2.0 F3000 ; Move Z Axis up little to prevent scratching of Heat Bed
G1 X5 Y20 Z0.3 F5000.0 ; Move over to prevent blob squish
G92 E0
G92 E0
G1 F2700 E-5
;LAYER_COUNT:7
;LAYER:0
M107
G0 F6000 X25.102 Y25.576 Z0.28
;TYPE:SKIRT
G1 F2700 E0
G1 F1200 X25.482 Y25.199 E0.02493
G1 X26.183 Y24.575 E0.06863
G1 X26.934 Y24.014 E0.11227
G1 X27.467 Y23.672 E0.14176
G1 X27.932 Y23.392 E0.16704
G1 X28.44 Y23.101 E0.1943
G1 X29.278 Y22.679 E0.23799
G1 X30.148 Y22.33 E0.28164
G1 X30.755 Y22.136 E0.31131
G1 X31.348 Y21.965 E0.34005
G1 X32.031 Y21.789 E0.37289
G1 X32.951 Y21.609 E0.41654
G1 X33.754 Y21.518 E0.45417
G1 X34.267 Y21.478 E0.47813
G1 X36.848 Y21.242 E0.59881
G1 X39.396 Y20.936 E0.71831
G1 X41.85 Y20.571 E0.83384
G1 X44.482 Y20.102 E0.95833
G1 X45.471 Y19.971 E1.00478
G1 X46.321 Y19.898 E1.04451
G1 X48.927 Y19.655 E1.16638
G1 X51.421 Y19.353 E1.28336
G1 X53.947 Y18.972 E1.40231
G1 X56.364 Y18.539 E1.51665
G1 X57.365 Y18.406 E1.56367
G1 X58.191 Y18.335 E1.60227
G1 X60.82 Y18.09 E1.72522
G1 X63.314 Y17.788 E1.8422
G1 X65.812 Y17.412 E1.95983
G1 X68.317 Y16.964 E2.07832
G1 X69.247 Y16.839 E2.12201
G1 X70.041 Y16.795 E2.15904
G1 X70.561 Y16.785 E2.18326
G1 X71.21 Y16.788 E2.21348
G1 X72.128 Y16.839 E2.25629
G1 X73.338 Y16.959 E2.31291
G1 X73.904 Y17.023 E2.33943
G1 X76.388 Y17.235 E2.45552
G1 X78.872 Y17.376 E2.57137
G1 X81.43 Y17.448 E2.69053
G1 X83.919 Y17.448 E2.80643
G1 X86.452 Y17.376 E2.92442
G1 X88.989 Y17.233 E3.04274
G1 X91.49 Y17.02 E3.15962
G1 X93.462 Y16.804 E3.252
G1 X94.28 Y16.745 E3.29019
G1 X94.539 Y16.736 E3.30225
G1 X94.921 Y16.729 E3.32004
G1 X131.787 Y16.729 E5.03668
G1 X132.485 Y16.739 E5.06918
G1 X133.396 Y16.79 E5.11167
G1 X134.435 Y16.892 E5.16028
G1 X136.04 Y17.066 E5.23546
G1 X138.495 Y17.261 E5.35013
G1 X141.063 Y17.393 E5.46987
G1 X143.551 Y17.45 E5.58575
G1 X146.074 Y17.437 E5.70323
G1 X148.596 Y17.352 E5.82073
G1 X151.102 Y17.197 E5.93765
G1 X153.806 Y16.951 E6.06408
G1 X154.716 Y16.855 E6.10668
G1 X155.669 Y16.796 E6.15114
G1 X156.264 Y16.785 E6.17885
G1 X156.891 Y16.788 E6.20805
G1 X157.827 Y16.844 E6.25171
G1 X158.708 Y16.97 E6.29315
G1 X159.4 Y17.098 E6.32592
G1 X161.903 Y17.526 E6.44416
G1 X164.428 Y17.885 E6.56292
G1 X166.945 Y18.171 E6.68088
G1 X169.542 Y18.392 E6.80224
G1 X170.62 Y18.538 E6.8529
G1 X171.275 Y18.66 E6.88392
G1 X173.801 Y19.092 E7.00325
G1 X176.326 Y19.451 E7.12201
G1 X178.843 Y19.737 E7.23996
G1 X181.44 Y19.958 E7.36133
G1 X182.52 Y20.104 E7.41207
G1 X183.148 Y20.221 E7.44182
G1 X185.736 Y20.665 E7.56409
G1 X188.205 Y21.016 E7.68021
G1 X190.71 Y21.301 E7.79761
G1 X193.305 Y21.521 E7.91887
G1 X194.236 Y21.641 E7.96258
G1 X195.043 Y21.81 E8.00098
G1 X195.567 Y21.941 E8.02613
G1 X196.119 Y22.092 E8.05277
G1 X197.01 Y22.385 E8.09645
G1 X197.873 Y22.753 E8.14013
G1 X198.444 Y23.046 E8.17002
G1 X198.979 Y23.341 E8.19847
G1 X199.463 Y23.623 E8.22455
G1 X200.247 Y24.138 E8.26823
G1 X200.985 Y24.717 E8.31191
G1 X201.464 Y25.154 E8.3421
G1 X202.073 Y25.749 E8.38174
G1 X202.241 Y25.921 E8.39294
G1 X202.867 Y26.619 E8.4366
G1 X203.432 Y27.368 E8.48028
G1 X203.803 Y27.945 E8.51223
G1 X204.108 Y28.453 E8.53982
G1 X204.397 Y28.962 E8.56707
G1 X204.816 Y29.802 E8.61078
G1 X205.161 Y30.673 E8.65441
G1 X205.339 Y31.232 E8.68172
G1 X205.482 Y31.727 E8.70571
G1 X205.637 Y32.313 E8.73394
G1 X205.83 Y33.231 E8.77762
G1 X205.944 Y34.162 E8.82129
G1 X205.976 Y34.836 E8.85271
G1 X205.987 Y35.732 E8.89444
G1 X205.984 Y35.972 E8.90562
G1 X205.958 Y36.606 E8.93516
G1 X205.892 Y37.547 E8.97909
G1 X205.746 Y40.104 E9.09835
G1 X205.674 Y42.652 E9.21704
G1 X205.674 Y45.141 E9.33294
G1 X205.746 Y47.673 E9.45088
G1 X205.889 Y50.213 E9.56934
G1 X206.098 Y52.672 E9.68426
G1 X206.384 Y55.187 E9.80212
G1 X206.74 Y57.695 E9.92008
G1 X207.163 Y60.163 E10.03667
G1 X207.66 Y62.643 E10.15445
G1 X208.213 Y65.047 E10.26931
G1 X209.145 Y68.551 E10.43815
G1 X209.486 Y69.738 E10.49565
G1 X209.642 Y70.334 E10.52434
G1 X209.833 Y71.252 E10.568
G1 X209.945 Y72.183 E10.61166
G1 X209.976 Y72.839 E10.64225
G1 X209.987 Y73.752 E10.68476
G1 X209.984 Y73.977 E10.69524
G1 X209.936 Y74.862 E10.73651
G1 X209.913 Y75.106 E10.74792
G1 X209.868 Y75.506 E10.76666
G1 X209.273 Y80.035 E10.97937
G1 X208.961 Y82.688 E11.10375
G1 X208.739 Y85.191 E11.22076
G1 X208.585 Y87.725 E11.33897
G1 X208.506 Y90.203 E11.45442
G1 X208.497 Y92.729 E11.57204
G1 X208.559 Y95.259 E11.68988
G1 X208.692 Y97.774 E11.80715
G1 X208.896 Y100.288 E11.9246
G1 X209.165 Y102.734 E12.03918
G1 X209.7 Y106.432 E12.21317
G1 X209.83 Y107.218 E12.25027
G1 X209.944 Y108.149 E12.29394
G1 X209.976 Y108.829 E12.32564
G1 X209.987 Y109.752 E12.36862
G1 X209.984 Y109.977 E12.3791
G1 X209.936 Y110.862 E12.42037
G1 X209.913 Y111.106 E12.43178
G1 X209.868 Y111.506 E12.45052
G1 X209.273 Y116.035 E12.66323
G1 X208.961 Y118.688 E12.78761
G1 X208.739 Y121.191 E12.90462
G1 X208.585 Y123.725 E13.02283
G1 X208.506 Y126.203 E13.13828
G1 X208.497 Y128.729 E13.2559
G1 X208.559 Y131.259 E13.37374
G1 X208.692 Y133.774 E13.49101
G1 X208.896 Y136.288 E13.60846
G1 X209.165 Y138.734 E13.72304
G1 X209.7 Y142.432 E13.89703
G1 X209.83 Y143.218 E13.93413
G1 X209.944 Y144.149 E13.9778
G1 X209.976 Y144.829 E14.0095
G1 X209.987 Y145.75 E14.05239
G1 X209.984 Y145.977 E14.06296
G1 X209.936 Y146.873 E14.10474
G1 X209.84 Y147.741 E14.14541
G1 X207.227 Y167.579 E15.07712
G1 X206.927 Y169.635 E15.17387
G1 X206.59 Y172.194 E15.29406
G1 X206.334 Y174.697 E15.41122
G1 X206.147 Y177.213 E15.5287
G1 X206.031 Y179.757 E15.64728
G1 X205.988 Y182.211 E15.76157
G1 X205.993 Y183.38 E15.816
G1 X205.984 Y183.993 E15.84455
G1 X205.936 Y184.873 E15.88558
G1 X205.842 Y185.722 E15.92536
G1 X203.228 Y205.568 E16.85745
G1 X203.125 Y206.273 E16.89063
G1 X202.955 Y207.176 E16.93342
G1 X202.898 Y207.421 E16.94513
G1 X202.778 Y207.889 E16.96763
G1 X202.643 Y208.372 E16.99098
G1 X202.352 Y209.264 E17.03467
G1 X201.987 Y210.127 E17.0783
G1 X201.669 Y210.745 E17.11066
G1 X201.216 Y211.552 E17.15376
G1 X201.113 Y211.725 E17.16313
G1 X200.599 Y212.51 E17.20682
G1 X200.02 Y213.248 E17.2505
G1 X199.572 Y213.741 E17.28152
G1 X199.202 Y214.124 E17.30632
G1 X198.78 Y214.542 E17.33397
G1 X198.08 Y215.166 E17.37764
G1 X197.33 Y215.729 E17.42131
G1 X196.788 Y216.076 E17.45127
G1 X196.323 Y216.356 E17.47655
G1 X195.815 Y216.647 E17.50381
G1 X194.977 Y217.069 E17.5475
G1 X194.107 Y217.418 E17.59115
G1 X193.5 Y217.612 E17.62082
G1 X192.907 Y217.783 E17.64956
G1 X192.355 Y217.929 E17.67615
G1 X191.436 Y218.117 E17.71982
G1 X190.505 Y218.227 E17.76348
G1 X189.881 Y218.255 E17.79256
G1 X189.37 Y218.264 E17.81636
G1 X188.738 Y218.261 E17.84579
G1 X187.801 Y218.208 E17.88949
G1 X186.907 Y218.081 E17.93154
G1 X186.227 Y217.956 E17.96373
G1 X183.668 Y217.518 E18.08462
G1 X181.165 Y217.162 E18.20234
G1 X178.669 Y216.879 E18.31931
G1 X176.064 Y216.657 E18.44105
G1 X174.995 Y216.513 E18.49128
G1 X174.297 Y216.384 E18.52433
G1 X171.803 Y215.957 E18.64215
G1 X169.278 Y215.598 E18.76091
G1 X166.761 Y215.312 E18.87887
G1 X164.164 Y215.091 E19.00023
G1 X163.084 Y214.945 E19.05098
G1 X162.456 Y214.828 E19.08072
G1 X159.868 Y214.384 E19.20299
G1 X157.399 Y214.033 E19.31911
G1 X154.896 Y213.749 E19.43641
G1 X152.289 Y213.527 E19.55824
G1 X151.358 Y213.407 E19.60195
G1 X150.557 Y213.239 E19.64006
G1 X150.032 Y213.108 E19.66526
G1 X149.468 Y212.954 E19.69248
G1 X148.563 Y212.656 E19.73685
G1 X148.069 Y212.469 E19.76144
G1 X146.168 Y211.723 E19.85653
G1 X143.837 Y210.883 E19.97191
G1 X141.414 Y210.087 E20.09067
G1 X139.038 Y209.38 E20.2061
G1 X136.559 Y208.718 E20.32557
G1 X134.137 Y208.144 E20.44148
G1 X131.649 Y207.628 E20.55979
G1 X129.21 Y207.196 E20.67513
G1 X126.711 Y206.824 E20.79278
G1 X124.206 Y206.523 E20.91026
G1 X121.673 Y206.292 E21.0287
G1 X119.177 Y206.134 E21.14515
G1 X116.646 Y206.047 E21.26308
G1 X114.864 Y206.028 E21.34606
G1 X112.284 Y206.027 E21.46619
G1 X109.677 Y206.063 E21.5876
G1 X107.19 Y206.168 E21.70351
G1 X104.66 Y206.346 E21.82161
G1 X102.13 Y206.596 E21.93999
G1 X99.674 Y206.909 E22.05527
G1 X97.158 Y207.303 E22.17386
G1 X94.708 Y207.758 E22.28989
G1 X92.232 Y208.29 E22.40781
G1 X89.826 Y208.879 E22.52316
G1 X87.342 Y209.561 E22.6431
G1 X84.96 Y210.29 E22.7591
G1 X82.59 Y211.088 E22.87554
G1 X80.214 Y211.964 E22.99346
G1 X79.776 Y212.139 E23.01542
G1 X78.608 Y212.591 E23.07374
G1 X77.675 Y212.904 E23.11956
G1 X77.038 Y213.087 E23.15042
G1 X76.435 Y213.244 E23.17944
G1 X75.516 Y213.429 E23.22309
G1 X74.654 Y213.53 E23.2635
G1 X74.16 Y213.568 E23.28657
G1 X71.522 Y213.809 E23.40992
G1 X68.994 Y214.112 E23.52848
G1 X66.56 Y214.474 E23.64306
G1 X63.939 Y214.942 E23.76703
G1 X62.98 Y215.07 E23.81209
G1 X62.148 Y215.144 E23.85098
G1 X59.486 Y215.392 E23.97547
G1 X56.971 Y215.697 E24.09344
G1 X54.513 Y216.066 E24.20917
G1 X52.058 Y216.506 E24.32531
G1 X51.095 Y216.634 E24.37055
G1 X50.281 Y216.707 E24.4086
G1 X47.616 Y216.954 E24.53323
G1 X45.135 Y217.255 E24.6496
G1 X42.608 Y217.633 E24.76858
G1 X40.085 Y218.084 E24.88792
G1 X39.155 Y218.21 E24.93162
G1 X38.344 Y218.254 E24.96944
G1 X37.781 Y218.264 E24.99566
G1 X37.165 Y218.26 E25.02434
G1 X36.229 Y218.204 E25.06801
G1 X35.301 Y218.068 E25.11168
G1 X34.704 Y217.937 E25.14014
G1 X34.193 Y217.81 E25.16466
G1 X33.626 Y217.656 E25.19202
G1 X32.735 Y217.363 E25.23569
G1 X31.872 Y216.995 E25.27938
G1 X31.299 Y216.701 E25.30936
G1 X30.757 Y216.402 E25.33819
G1 X30.293 Y216.133 E25.36316
G1 X29.509 Y215.619 E25.40681
G1 X28.771 Y215.04 E25.45049
G1 X28.281 Y214.594 E25.48135
G1 X27.898 Y214.224 E25.50614
G1 X27.48 Y213.802 E25.5338
G1 X26.856 Y213.102 E25.57747
G1 X26.293 Y212.352 E25.62113
G1 X25.946 Y211.81 E25.6511
G1 X25.666 Y211.345 E25.67638
G1 X25.368 Y210.824 E25.70432
G1 X24.947 Y209.986 E25.74799
G1 X24.599 Y209.115 E25.79167
G1 X24.409 Y208.521 E25.82071
G1 X24.245 Y207.953 E25.84824
G1 X24.087 Y207.354 E25.87708
G1 X23.9 Y206.442 E25.92043
G1 X23.772 Y205.581 E25.96096
G1 X21.177 Y185.859 E26.88722
G1 X21.091 Y185.132 E26.92131
G1 X21.021 Y184.217 E26.96404
G1 X21.013 Y183.984 E26.97489
G1 X21.008 Y183.438 E27.00032
G1 X21.016 Y182.917 E27.02458
G1 X21.071 Y181.981 E27.06824
G1 X21.205 Y181.053 E27.1119
G1 X21.341 Y180.427 E27.14173
G1 X21.479 Y179.873 E27.16831
G1 X21.571 Y179.53 E27.18485
G1 X21.931 Y178.262 E27.24623
G1 X22.609 Y175.735 E27.36806
G1 X23.193 Y173.287 E27.48524
G1 X23.715 Y170.79 E27.60403
G1 X24.144 Y168.38 E27.71801
G1 X24.528 Y165.833 E27.83795
G1 X24.826 Y163.373 E27.95334
G1 X25.063 Y160.824 E28.07254
G1 X25.221 Y158.361 E28.18746
G1 X25.312 Y155.828 E28.30549
G1 X25.332 Y153.304 E28.42302
G1 X25.28 Y150.79 E28.54011
G1 X25.155 Y148.252 E28.65843
G1 X25.075 Y147.166 E28.70914
G1 X25.021 Y146.215 E28.75349
G1 X25.013 Y145.98 E28.76444
G1 X25.008 Y145.443 E28.78944
G1 X25.016 Y144.904 E28.81454
G1 X25.07 Y143.967 E28.85825
G1 X25.146 Y143.371 E28.88623
G1 X25.349 Y142.081 E28.94703
G1 X25.443 Y141.528 E28.97315
G1 X25.799 Y139.012 E29.09147
G1 X26.08 Y136.521 E29.2082
G1 X26.291 Y133.994 E29.32628
G1 X26.43 Y131.499 E29.44264
G1 X26.499 Y128.976 E29.56016
G1 X26.496 Y126.445 E29.67802
G1 X26.424 Y123.967 E29.79345
G1 X26.277 Y121.411 E29.91266
G1 X26.064 Y118.945 E30.02792
G1 X25.737 Y116.122 E30.16025
G1 X25.17 Y111.805 E30.36299
G1 X25.09 Y111.123 E30.39497
G1 X25.021 Y110.215 E30.43737
G1 X25.013 Y109.98 E30.44832
G1 X25.008 Y109.442 E30.47337
G1 X25.016 Y108.904 E30.49843
G1 X25.07 Y107.968 E30.54208
G1 X25.146 Y107.374 E30.56997
G1 X25.349 Y106.081 E30.63091
G1 X25.443 Y105.528 E30.65703
G1 X25.799 Y103.012 E30.77535
G1 X26.08 Y100.521 E30.89208
G1 X26.291 Y97.994 E31.01016
G1 X26.43 Y95.499 E31.12652
G1 X26.499 Y92.976 E31.24404
G1 X26.496 Y90.445 E31.3619
G1 X26.424 Y87.967 E31.47733
G1 X26.277 Y85.411 E31.59654
G1 X26.064 Y82.945 E31.7118
G1 X25.737 Y80.122 E31.84413
G1 X25.17 Y75.805 E32.04687
G1 X25.09 Y75.123 E32.07885
G1 X25.018 Y74.082 E32.12744
G1 X25.005 Y73.399 E32.15925
G1 X25.002 Y71.161 E32.26346
G1 X24.931 Y68.667 E32.37963
G1 X24.787 Y66.151 E32.49698
G1 X24.573 Y63.644 E32.61414
G1 X24.286 Y61.133 E32.73183
G1 X23.779 Y57.631 E32.89659
G1 X21.176 Y37.849 E33.82567
G1 X21.09 Y37.116 E33.86003
G1 X21.021 Y36.202 E33.90271
G1 X21.013 Y35.963 E33.91385
G1 X21.008 Y35.422 E33.93904
G1 X21.016 Y34.912 E33.96279
G1 X21.071 Y33.976 E34.00645
G1 X21.205 Y33.048 E34.05011
G1 X21.343 Y32.417 E34.08019
G1 X21.481 Y31.865 E34.10668
G1 X21.626 Y31.333 E34.13236
G1 X21.92 Y30.443 E34.176
G1 X22.288 Y29.58 E34.21969
G1 X22.579 Y29.016 E34.24924
G1 X22.836 Y28.55 E34.27402
G1 X23.153 Y28.007 E34.3033
G1 X23.668 Y27.223 E34.34698
G1 X24.248 Y26.486 E34.39065
G1 X24.687 Y26.005 E34.42097
G1 X25.102 Y25.576 E34.44876
G0 F6000 X25.389 Y25.854
G1 F1200 X25.761 Y25.486 E34.47313
G1 X26.449 Y24.874 E34.51601
G1 X27.188 Y24.325 E34.55887
G1 X27.673 Y24.014 E34.5857
G1 X28.138 Y23.734 E34.61098
G1 X28.635 Y23.45 E34.63763
G1 X29.458 Y23.037 E34.68051
G1 X30.313 Y22.696 E34.72337
G1 X30.866 Y22.52 E34.75039
G1 X31.459 Y22.349 E34.77913
G1 X32.124 Y22.178 E34.8111
G1 X33.028 Y22.002 E34.85399
G1 X33.784 Y21.916 E34.88942
G1 X34.335 Y21.873 E34.91515
G1 X36.935 Y21.635 E35.03672
G1 X39.396 Y21.34 E35.15214
G1 X41.942 Y20.961 E35.272
G1 X44.552 Y20.496 E35.39544
G1 X45.506 Y20.37 E35.44025
G1 X46.379 Y20.295 E35.48105
G1 X48.941 Y20.057 E35.60086
G1 X51.496 Y19.746 E35.72071
G1 X53.966 Y19.375 E35.83702
G1 X56.434 Y18.932 E35.95377
G1 X57.399 Y18.805 E35.9991
G1 X58.263 Y18.731 E36.03947
G1 X60.834 Y18.492 E36.15971
G1 X63.389 Y18.181 E36.27956
G1 X65.87 Y17.808 E36.39638
G1 X68.388 Y17.358 E36.51549
G1 X69.3 Y17.236 E36.55833
G1 X70.048 Y17.195 E36.59321
G1 X70.568 Y17.185 E36.61743
G1 X71.205 Y17.188 E36.64709
G1 X72.089 Y17.238 E36.68832
G1 X73.293 Y17.357 E36.74466
G1 X73.823 Y17.417 E36.76949
G1 X76.369 Y17.634 E36.88848
G1 X78.874 Y17.776 E37.00531
G1 X81.419 Y17.848 E37.12386
G1 X83.93 Y17.848 E37.24078
G1 X86.485 Y17.776 E37.3598
G1 X88.975 Y17.636 E37.47593
G1 X91.527 Y17.418 E37.59519
G1 X93.505 Y17.201 E37.68785
G1 X94.294 Y17.144 E37.72469
G1 X94.553 Y17.135 E37.73675
G1 X94.921 Y17.129 E37.75389
G1 X131.781 Y17.129 E39.47025
G1 X132.479 Y17.139 E39.50275
G1 X133.357 Y17.188 E39.5437
G1 X134.392 Y17.29 E39.59213
G1 X135.964 Y17.461 E39.66576
G1 X138.517 Y17.663 E39.78501
G1 X141.032 Y17.793 E39.90227
G1 X143.544 Y17.85 E40.01927
G1 X146.091 Y17.837 E40.13787
G1 X148.599 Y17.752 E40.25472
G1 X151.127 Y17.596 E40.37266
G1 X153.884 Y17.345 E40.50157
G1 X154.758 Y17.253 E40.54249
G1 X155.676 Y17.196 E40.58532
G1 X156.271 Y17.185 E40.61303
G1 X156.884 Y17.188 E40.64157
G1 X157.803 Y17.244 E40.68445
G1 X158.635 Y17.363 E40.72358
G1 X159.325 Y17.49 E40.75625
G1 X161.852 Y17.923 E40.87563
G1 X164.398 Y18.285 E40.99538
G1 X166.867 Y18.565 E41.11108
G1 X169.508 Y18.79 E41.2345
G1 X170.547 Y18.931 E41.28333
G1 X171.2 Y19.053 E41.31426
G1 X173.75 Y19.489 E41.43472
G1 X176.296 Y19.851 E41.55447
G1 X178.765 Y20.131 E41.67017
G1 X181.406 Y20.356 E41.79359
G1 X182.446 Y20.497 E41.84246
G1 X183.072 Y20.614 E41.87212
G1 X185.678 Y21.06 E41.99523
G1 X188.175 Y21.416 E42.11267
G1 X190.665 Y21.699 E42.22936
G1 X193.272 Y21.92 E42.35119
G1 X194.185 Y22.038 E42.39406
G1 X194.946 Y22.198 E42.43027
G1 X195.47 Y22.329 E42.45542
G1 X196.01 Y22.477 E42.48149
G1 X196.885 Y22.765 E42.52439
G1 X197.731 Y23.128 E42.56725
G1 X198.251 Y23.397 E42.59451
G1 X198.786 Y23.692 E42.62296
G1 X199.258 Y23.966 E42.64837
G1 X200.027 Y24.472 E42.69124
G1 X200.75 Y25.043 E42.73414
G1 X201.186 Y25.442 E42.76166
G1 X201.787 Y26.028 E42.80074
