;FLAVOR:Marlin
;TIME:5096
;Filament used: 3.07858m
;Layer height: 0.2
;MINX:62.131
;MINY:66.06
;MINZ:0.2
;MAXX:175.985
;MAXY:176.93
;MAXZ:5.2
;Generated with Cura_SteamEngine 4.7.0
M140 S55
M105
M190 S55
M104 S210
M105
M109 S210
M82 ;absolute extrusion mode
; Ender 3 Custom Start G-code
G92 E0 ; Reset Extruder
G28 ; Home all axes
G1 Z2.0 F3000 ; Move Z Axis up little to prevent scratching of Heat Bed
G1 X0.1 Y20 Z0.3 F5000.0 ; Move to start position
G1 X0.1 Y200.0 Z0.3 F1500.0 E15 ; Draw the first line
G1 X0.4 Y200.0 Z0.3 F5000.0 ; Move to side a little
G1 X0.4 Y20 Z0.3 F1500.0 E30 ; Draw the second line
G92 E0 ; Reset Extruder
G1 Z2.0 F3000 ; Move Z Axis up little to prevent scratching of Heat Bed
G1 X5 Y20 Z0.3 F5000.0 ; Move over to prevent blob squish
G92 E0
G92 E0
G1 F2700 E-5
;LAYER_COUNT:26
;LAYER:0
M107
G0 F6000 X111.724 Y71.734 Z0.2
;TYPE:SKIRT
G1 F2700 E0
G1 F1200 X112.277 Y70.976 E0.03121
G1 X112.891 Y70.267 E0.0624
G1 X113.564 Y69.614 E0.09359
G1 X114.29 Y69.02 E0.12479
G1 X115.064 Y68.491 E0.15597
G1 X115.88 Y68.029 E0.18716
G1 X116.733 Y67.638 E0.21837
G1 X117.616 Y67.322 E0.24956
G1 X118.522 Y67.081 E0.28074
G1 X119.018 Y66.984 E0.29755
G1 X119.262 Y66.942 E0.30579
G1 X119.543 Y66.898 E0.31525
G1 X119.808 Y66.86 E0.32415
G1 X124.593 Y66.212 E0.48476
G1 X125.272 Y66.131 E0.5075
G1 X126.207 Y66.06 E0.53869
G1 X127.145 Y66.069 E0.56989
G1 X128.079 Y66.157 E0.60109
G1 X129.001 Y66.325 E0.63226
G1 X129.907 Y66.571 E0.66348
G1 X130.787 Y66.893 E0.69465
G1 X131.309 Y67.125 E0.71365
G1 X131.878 Y67.397 E0.73463
G1 X133.463 Y68.18 E0.79343
G1 X135.734 Y69.224 E0.87656
G1 X138.03 Y70.201 E0.95955
G1 X140.437 Y71.146 E1.04556
G1 X142.744 Y71.976 E1.1271
G1 X145.19 Y72.779 E1.21273
G1 X147.559 Y73.485 E1.29495
G1 X150.004 Y74.138 E1.37912
G1 X152.44 Y74.715 E1.46238
G1 X154.874 Y75.221 E1.54507
G1 X157.375 Y75.665 E1.62955
G1 X159.876 Y76.038 E1.71365
G1 X162.406 Y76.342 E1.79841
G1 X164.826 Y76.563 E1.87923
G1 X165.054 Y76.587 E1.88686
G1 X165.981 Y76.725 E1.91803
G1 X166.894 Y76.942 E1.94924
G1 X167.785 Y77.235 E1.98044
G1 X168.647 Y77.603 E2.01161
G1 X169.475 Y78.043 E2.0428
G1 X170.263 Y78.553 E2.07402
G1 X171.004 Y79.127 E2.10519
G1 X171.694 Y79.763 E2.1364
G1 X172.327 Y80.455 E2.1676
G1 X172.899 Y81.198 E2.19878
G1 X173.405 Y81.987 E2.22996
G1 X173.843 Y82.817 E2.26117
G1 X174.208 Y83.681 E2.29237
G1 X174.498 Y84.573 E2.32357
G1 X174.698 Y85.42 E2.35251
G1 X174.763 Y85.753 E2.3638
G1 X174.82 Y86.066 E2.37438
G1 X175.737 Y91.612 E2.56134
G1 X175.863 Y92.442 E2.58927
G1 X175.964 Y93.374 E2.62045
G1 X175.985 Y94.312 E2.65165
G1 X175.926 Y95.248 E2.68284
G1 X175.787 Y96.176 E2.71405
G1 X175.57 Y97.088 E2.74523
G1 X175.17 Y98.247 E2.78601
G1 X174.817 Y99.108 E2.81696
G1 X174.362 Y100.181 E2.85573
G1 X173.447 Y102.519 E2.93923
G1 X172.596 Y104.892 E3.02308
G1 X171.818 Y107.269 E3.10627
G1 X171.102 Y109.687 E3.19014
G1 X170.448 Y112.148 E3.27484
G1 X169.874 Y114.581 E3.35798
G1 X169.38 Y116.977 E3.43935
G1 X168.925 Y119.547 E3.52616
G1 X168.562 Y122.003 E3.60873
G1 X168.199 Y125.15 E3.71409
G1 X168.161 Y125.54 E3.72713
G1 X168.03 Y126.468 E3.7583
G1 X167.821 Y127.383 E3.78951
G1 X167.535 Y128.276 E3.8207
G1 X167.174 Y129.142 E3.85191
G1 X166.74 Y129.973 E3.88309
G1 X166.238 Y130.765 E3.91428
G1 X165.483 Y131.729 E3.955
G1 X164.543 Y132.8 E4.0024
G1 X164.306 Y133.063 E4.01417
G1 X162.693 Y134.962 E4.09704
G1 X161.114 Y136.931 E4.18099
G1 X159.585 Y138.951 E4.26525
G1 X158.157 Y140.956 E4.34712
G1 X156.712 Y143.11 E4.43339
G1 X155.383 Y145.215 E4.51619
G1 X154.402 Y146.859 E4.57987
G1 X153.596 Y148.242 E4.63311
G1 X152.343 Y150.466 E4.71801
G1 X151.144 Y152.738 E4.80345
G1 X150.053 Y154.961 E4.88582
G1 X149.017 Y157.228 E4.96872
G1 X148.018 Y159.591 E5.05405
G1 X147.094 Y161.958 E5.13856
G1 X146.618 Y163.26 E5.18467
G1 X146.302 Y164.146 E5.21595
G1 X146.111 Y164.644 E5.23369
G1 X145.946 Y165.044 E5.24808
G1 X145.703 Y165.591 E5.26799
G1 X145.51 Y165.995 E5.28288
G1 X145.256 Y166.492 E5.30145
G1 X145.035 Y166.9 E5.31688
G1 X144.771 Y167.361 E5.33455
G1 X144.545 Y167.734 E5.34906
G1 X144.232 Y168.221 E5.36831
G1 X143.966 Y168.612 E5.38404
G1 X143.667 Y169.03 E5.40113
G1 X143.45 Y169.319 E5.41315
G1 X143.223 Y169.612 E5.42548
G1 X142.974 Y169.917 E5.43858
G1 X142.725 Y170.211 E5.45139
G1 X142.398 Y170.58 E5.46779
G1 X142.081 Y170.922 E5.4833
G1 X141.701 Y171.313 E5.50143
G1 X141.398 Y171.609 E5.51552
G1 X140.983 Y171.994 E5.53435
G1 X140.672 Y172.268 E5.54814
G1 X140.146 Y172.703 E5.57084
G1 X139.985 Y172.828 E5.57762
G1 X139.448 Y173.219 E5.59971
G1 X139.176 Y173.405 E5.61067
G1 X138.464 Y173.853 E5.63865
G1 X138.23 Y173.988 E5.64763
G1 X137.545 Y174.352 E5.67344
G1 X137.279 Y174.479 E5.68324
G1 X137.037 Y174.591 E5.69211
G1 X136.408 Y174.858 E5.71484
G1 X136.182 Y174.946 E5.7229
G1 X135.506 Y175.185 E5.74675
G1 X135.294 Y175.252 E5.75414
G1 X134.559 Y175.456 E5.77951
G1 X134.273 Y175.525 E5.7893
G1 X133.139 Y175.737 E5.82767
G1 X132.566 Y175.813 E5.8469
G1 X131.669 Y175.894 E5.87685
G1 X131.549 Y175.9 E5.88085
G1 X130.952 Y175.914 E5.90071
G1 X130.725 Y175.913 E5.90826
G1 X130.421 Y175.907 E5.91837
G1 X130.003 Y175.894 E5.93228
G1 X127.407 Y175.849 E6.01864
G1 X124.921 Y175.875 E6.10133
G1 X122.366 Y175.975 E6.18637
G1 X119.869 Y176.144 E6.26961
G1 X117.335 Y176.387 E6.35428
G1 X114.852 Y176.697 E6.43751
G1 X114.454 Y176.755 E6.45088
G1 X114.074 Y176.805 E6.46363
G1 X113.795 Y176.838 E6.47298
G1 X113.53 Y176.866 E6.48184
G1 X112.637 Y176.924 E6.5116
G1 X112.386 Y176.93 E6.51995
G1 X111.219 Y176.896 E6.55878
G1 X110.94 Y176.873 E6.5681
G1 X109.922 Y176.741 E6.60224
G1 X109.674 Y176.697 E6.61062
G1 X108.743 Y176.49 E6.64234
G1 X108.635 Y176.461 E6.64606
G1 X107.869 Y176.225 E6.67272
G1 X107.582 Y176.125 E6.68282
G1 X106.528 Y175.695 E6.72068
G1 X106.3 Y175.588 E6.72906
G1 X105.277 Y175.041 E6.76765
G1 X105.049 Y174.903 E6.77651
G1 X104.105 Y174.262 E6.81446
G1 X103.27 Y173.63 E6.84929
G1 X101.192 Y172.101 E6.9351
G1 X99.133 Y170.673 E7.01844
G1 X97.013 Y169.29 E7.10263
G1 X94.856 Y167.97 E7.18674
G1 X92.689 Y166.724 E7.26988
G1 X90.472 Y165.533 E7.35358
G1 X88.225 Y164.407 E7.43718
G1 X85.575 Y163.181 E7.53429
G1 X85.261 Y163.033 E7.54584
G1 X85.015 Y162.913 E7.55494
G1 X84.543 Y162.676 E7.57251
G1 X84.228 Y162.512 E7.58432
G1 X83.926 Y162.346 E7.59578
G1 X83.418 Y162.056 E7.61524
G1 X82.944 Y161.77 E7.63365
G1 X82.525 Y161.502 E7.65019
G1 X82.246 Y161.317 E7.66133
G1 X81.921 Y161.092 E7.67447
G1 X81.472 Y160.77 E7.69285
G1 X81.041 Y160.444 E7.71083
G1 X80.647 Y160.131 E7.72756
G1 X80.417 Y159.943 E7.73744
G1 X80.28 Y159.828 E7.74339
G1 X80.053 Y159.633 E7.75334
G1 X79.673 Y159.296 E7.77024
G1 X79.287 Y158.936 E7.78779
G1 X78.904 Y158.562 E7.8056
G1 X78.676 Y158.333 E7.81635
G1 X78.564 Y158.217 E7.82171
G1 X78.392 Y158.035 E7.83004
G1 X78.058 Y157.673 E7.84642
G1 X77.67 Y157.228 E7.86606
G1 X77.178 Y156.633 E7.89174
G1 X77.126 Y156.568 E7.8945
G1 X76.89 Y156.261 E7.90738
G1 X76.617 Y155.894 E7.9226
G1 X76.478 Y155.704 E7.93043
G1 X76.382 Y155.569 E7.93594
G1 X76.187 Y155.285 E7.94739
G1 X75.802 Y154.706 E7.97052
G1 X75.635 Y154.446 E7.9808
G1 X74.925 Y153.309 E8.02538
G1 X74.265 Y152.227 E8.06754
G1 X72.887 Y150.106 E8.15166
G1 X71.46 Y148.04 E8.23518
G1 X69.971 Y146.009 E8.31894
G1 X68.423 Y144.019 E8.40279
G1 X66.828 Y142.082 E8.48625
G1 X65.457 Y140.502 E8.55582
G1 X64.888 Y139.86 E8.58436
G1 X64.296 Y139.132 E8.61557
G1 X63.769 Y138.356 E8.64677
G1 X63.31 Y137.539 E8.67793
G1 X62.922 Y136.685 E8.70913
G1 X62.608 Y135.801 E8.74033
G1 X62.37 Y134.894 E8.77152
G1 X62.211 Y133.969 E8.80274
G1 X62.131 Y133.035 E8.83392
G1 X62.131 Y132.097 E8.86512
G1 X62.211 Y131.163 E8.89629
G1 X62.37 Y130.238 E8.92751
G1 X62.587 Y129.396 E8.95643
G1 X62.692 Y129.047 E8.96855
G1 X62.791 Y128.735 E8.97944
G1 X64.352 Y124.056 E9.1435
G1 X64.625 Y123.271 E9.17114
G1 X64.971 Y122.4 E9.20231
G1 X65.391 Y121.561 E9.23352
G1 X65.88 Y120.761 E9.2647
G1 X66.436 Y120.005 E9.29591
G1 X67.054 Y119.3 E9.3271
G1 X67.73 Y118.65 E9.35829
G1 X68.459 Y118.059 E9.3895
G1 X69.235 Y117.533 E9.42068
G1 X69.757 Y117.231 E9.44074
G1 X70.343 Y116.913 E9.46292
G1 X71.71 Y116.193 E9.5143
G1 X73.9 Y114.96 E9.59789
G1 X76.063 Y113.661 E9.68181
G1 X78.183 Y112.303 E9.76555
G1 X80.251 Y110.895 E9.84876
G1 X82.288 Y109.422 E9.93237
G1 X84.295 Y107.883 E10.01649
G1 X86.248 Y106.297 E10.10017
G1 X88.176 Y104.635 E10.18483
G1 X90.005 Y102.969 E10.26712
G1 X91.84 Y101.198 E10.35194
G1 X93.554 Y99.449 E10.43339
G1 X95.291 Y97.573 E10.51842
G1 X96.964 Y95.659 E10.60297
G1 X98.565 Y93.72 E10.68661
G1 X100.099 Y91.753 E10.76957
G1 X101.594 Y89.718 E10.85356
G1 X103.041 Y87.625 E10.93819
G1 X104.391 Y85.554 E11.02041
G1 X105.715 Y83.387 E11.10487
G1 X106.971 Y81.198 E11.18881
G1 X108.158 Y78.985 E11.27234
G1 X109.279 Y76.744 E11.35568
G1 X110.633 Y73.807 E11.46325
G1 X110.823 Y73.377 E11.47888
G1 X111.239 Y72.536 E11.51009
G1 X111.724 Y71.734 E11.54126
G0 F6000 X112.076 Y71.927
G1 F1200 X112.621 Y71.185 E11.57188
G1 X113.229 Y70.493 E11.60252
G1 X113.894 Y69.857 E11.63313
G1 X114.611 Y69.28 E11.66374
G1 X115.376 Y68.768 E11.69435
G1 X116.183 Y68.324 E11.72499
G1 X117.025 Y67.952 E11.7556
G1 X117.896 Y67.655 E11.78621
G1 X119.086 Y67.379 E11.82684
G1 X119.33 Y67.337 E11.83508
G1 X119.601 Y67.294 E11.8442
G1 X119.862 Y67.256 E11.85298
G1 X124.472 Y66.631 E12.00771
G1 X125.319 Y66.529 E12.03608
G1 X126.237 Y66.459 E12.0667
G1 X127.158 Y66.47 E12.09734
G1 X128.074 Y66.561 E12.12795
G1 X128.979 Y66.73 E12.15858
G1 X129.866 Y66.978 E12.18921
G1 X131.137 Y67.486 E12.23473
G1 X131.701 Y67.756 E12.25553
G1 X133.269 Y68.531 E12.31371
G1 X135.577 Y69.591 E12.39818
G1 X137.907 Y70.583 E12.48241
G1 X140.262 Y71.507 E12.56655
G1 X142.632 Y72.36 E12.65032
G1 X145.056 Y73.156 E12.73518
G1 X147.456 Y73.871 E12.81847
G1 X149.905 Y74.525 E12.90278
G1 X152.345 Y75.103 E12.98618
G1 X154.821 Y75.618 E13.0703
G1 X157.317 Y76.061 E13.15461
G1 X159.841 Y76.438 E13.23949
G1 X162.32 Y76.735 E13.32253
G1 X164.784 Y76.961 E13.40483
G1 X165.012 Y76.985 E13.41246
G1 X165.922 Y77.121 E13.44306
G1 X166.818 Y77.336 E13.47371
G1 X167.691 Y77.627 E13.50431
G1 X168.536 Y77.993 E13.53494
G1 X169.345 Y78.431 E13.56554
G1 X170.114 Y78.938 E13.59617
G1 X170.836 Y79.509 E13.62679
G1 X171.505 Y80.141 E13.6574
G1 X172.118 Y80.829 E13.68805
G1 X172.668 Y81.567 E13.71866
G1 X173.152 Y82.35 E13.74928
G1 X173.566 Y83.172 E13.77989
G1 X173.908 Y84.027 E13.81052
G1 X174.174 Y84.909 E13.84116
G1 X174.306 Y85.496 E13.86117
G1 X174.371 Y85.829 E13.87245
G1 X174.425 Y86.131 E13.88266
G1 X175.365 Y91.821 E14.07447
G1 X175.468 Y92.502 E14.09738
G1 X175.566 Y93.417 E14.12799
G1 X175.584 Y94.338 E14.15863
G1 X175.522 Y95.256 E14.18923
G1 X175.381 Y96.166 E14.21986
G1 X175.162 Y97.06 E14.25047
G1 X174.8 Y98.096 E14.28697
G1 X174.503 Y98.823 E14.31309
G1 X173.998 Y100.016 E14.35618
G1 X173.07 Y102.387 E14.44086
G1 X172.219 Y104.759 E14.52468
G1 X171.438 Y107.146 E14.60821
G1 X170.708 Y109.609 E14.69366
G1 X170.066 Y112.025 E14.7768
G1 X169.487 Y114.479 E14.86066
G1 X168.981 Y116.932 E14.94397
G1 X168.529 Y119.485 E15.0302
G1 X168.168 Y121.933 E15.1125
G1 X167.794 Y125.176 E15.22108
G1 X167.762 Y125.501 E15.23194
G1 X167.634 Y126.413 E15.26257
G1 X167.426 Y127.31 E15.2932
G1 X167.142 Y128.185 E15.32379
G1 X166.783 Y129.033 E15.35442
G1 X166.351 Y129.846 E15.38504
G1 X165.851 Y130.619 E15.41566
G1 X165.183 Y131.465 E15.45152
G1 X164.344 Y132.422 E15.49385
G1 X164.02 Y132.782 E15.50995
G1 X162.365 Y134.731 E15.595
G1 X160.785 Y136.702 E15.67902
G1 X159.286 Y138.683 E15.76164
G1 X157.798 Y140.771 E15.84692
G1 X156.401 Y142.854 E15.93034
G1 X155.022 Y145.038 E16.01625
G1 X154.076 Y146.623 E16.07764
G1 X153.258 Y148.028 E16.13171
G1 X151.983 Y150.288 E16.21802
G1 X150.796 Y152.54 E16.30269
G1 X149.702 Y154.769 E16.38527
G1 X148.627 Y157.121 E16.47128
G1 X147.653 Y159.425 E16.55448
G1 X146.719 Y161.816 E16.63986
G1 X146.242 Y163.123 E16.68613
G1 X145.925 Y164.012 E16.71753
G1 X145.741 Y164.491 E16.73459
G1 X145.576 Y164.891 E16.74898
G1 X145.342 Y165.418 E16.76816
G1 X145.149 Y165.822 E16.78305
G1 X144.904 Y166.302 E16.80098
G1 X144.683 Y166.71 E16.81641
G1 X144.429 Y167.154 E16.83342
G1 X144.203 Y167.527 E16.84793
G1 X143.901 Y167.996 E16.86648
G1 X143.635 Y168.387 E16.88221
G1 X143.347 Y168.79 E16.89869
G1 X143.13 Y169.079 E16.91071
G1 X142.983 Y169.271 E16.91875
G1 X142.909 Y169.365 E16.92273
G1 X142.669 Y169.659 E16.93535
G1 X142.42 Y169.953 E16.94817
G1 X142.105 Y170.308 E16.96395
G1 X141.788 Y170.65 E16.97946
G1 X141.421 Y171.026 E16.99694
G1 X141.118 Y171.322 E17.01103
G1 X140.718 Y171.694 E17.02919
G1 X140.407 Y171.968 E17.04298
G1 X139.901 Y172.387 E17.06483
G1 X139.74 Y172.512 E17.07161
G1 X139.222 Y172.889 E17.09292
G1 X138.95 Y173.075 E17.10388
G1 X138.264 Y173.507 E17.13084
G1 X138.03 Y173.642 E17.13983
G1 X137.37 Y173.992 E17.16467
G1 X137.111 Y174.116 E17.17422
G1 X136.869 Y174.228 E17.18309
G1 X136.263 Y174.486 E17.205
G1 X136.037 Y174.574 E17.21307
G1 X135.385 Y174.803 E17.23605
G1 X135.173 Y174.87 E17.24345
G1 X134.465 Y175.067 E17.26789
G1 X134.179 Y175.136 E17.27767
G1 X133.087 Y175.34 E17.31462
G1 X132.514 Y175.416 E17.33385
G1 X131.649 Y175.495 E17.36274
G1 X131.529 Y175.501 E17.36673
G1 X130.953 Y175.514 E17.3859
G1 X130.726 Y175.513 E17.39345
G1 X130.434 Y175.508 E17.40316
G1 X129.955 Y175.493 E17.4191
G1 X127.409 Y175.449 E17.50379
G1 X124.901 Y175.475 E17.58721
G1 X122.359 Y175.575 E17.67183
G1 X119.841 Y175.745 E17.75576
G1 X117.319 Y175.987 E17.84003
G1 X114.778 Y176.304 E17.9252
G1 X114.585 Y176.333 E17.93169
G1 X114.022 Y176.408 E17.95058
G1 X113.753 Y176.44 E17.95959
G1 X113.488 Y176.468 E17.96846
G1 X112.627 Y176.524 E17.99715
G1 X112.376 Y176.53 E18.0055
G1 X111.252 Y176.497 E18.04291
G1 X110.973 Y176.474 E18.05222
G1 X109.992 Y176.347 E18.08512
G1 X109.744 Y176.303 E18.09349
G1 X108.847 Y176.103 E18.12406
G1 X108.739 Y176.074 E18.12778
G1 X108 Y175.847 E18.15349
G1 X107.713 Y175.747 E18.1636
G1 X106.698 Y175.333 E18.20006
G1 X106.47 Y175.226 E18.20844
G1 X105.484 Y174.698 E18.24564
G1 X105.256 Y174.56 E18.2545
G1 X104.347 Y173.943 E18.29104
G1 X103.543 Y173.335 E18.32457
G1 X101.435 Y171.783 E18.41163
G1 X99.333 Y170.326 E18.4967
G1 X97.235 Y168.957 E18.58002
G1 X95.069 Y167.631 E18.66449
G1 X92.886 Y166.377 E18.74822
G1 X90.634 Y165.166 E18.83327
G1 X88.406 Y164.05 E18.91615
G1 X85.746 Y162.819 E19.01364
G1 X85.432 Y162.671 E19.02518
G1 X85.194 Y162.556 E19.03397
G1 X84.722 Y162.319 E19.05154
G1 X84.415 Y162.159 E19.06305
G1 X84.124 Y161.999 E19.0741
G1 X83.616 Y161.709 E19.09355
G1 X83.159 Y161.433 E19.11131
G1 X82.74 Y161.165 E19.12785
G1 X82.472 Y160.987 E19.13856
G1 X82.352 Y160.905 E19.14339
G1 X82.155 Y160.767 E19.15139
G1 X81.706 Y160.445 E19.16977
G1 X81.29 Y160.131 E19.1871
G1 X80.896 Y159.818 E19.20384
G1 X80.674 Y159.637 E19.21336
G1 X80.537 Y159.522 E19.21931
G1 X80.319 Y159.334 E19.22889
G1 X79.939 Y158.997 E19.24578
G1 X79.566 Y158.65 E19.26273
G1 X79.183 Y158.276 E19.28053
G1 X78.963 Y158.055 E19.2909
G1 X78.851 Y157.939 E19.29627
G1 X78.686 Y157.764 E19.30426
G1 X78.352 Y157.402 E19.32065
G1 X77.978 Y156.973 E19.33958
G1 X77.491 Y156.383 E19.36502
G1 X77.439 Y156.318 E19.36779
G1 X77.211 Y156.023 E19.38019
G1 X76.938 Y155.656 E19.3954
G1 X76.804 Y155.472 E19.40297
G1 X76.708 Y155.337 E19.40848
G1 X76.52 Y155.063 E19.41954
G1 X76.135 Y154.484 E19.44266
G1 X75.974 Y154.234 E19.45255
G1 X75.266 Y153.101 E19.49699
G1 X74.598 Y152.007 E19.53962
G1 X73.208 Y149.866 E19.62452
G1 X71.796 Y147.821 E19.70718
G1 X70.289 Y145.767 E19.79191
G1 X68.735 Y143.769 E19.8761
G1 X67.118 Y141.806 E19.96069
G1 X65.784 Y140.268 E20.0284
G1 X65.187 Y139.594 E20.05835
G1 X64.607 Y138.879 E20.08897
G1 X64.091 Y138.117 E20.11958
G1 X63.644 Y137.312 E20.1502
G1 X63.267 Y136.472 E20.18083
G1 X62.965 Y135.602 E20.21146
G1 X62.74 Y134.71 E20.24205
G1 X62.593 Y133.801 E20.27268
G1 X62.526 Y132.883 E20.30329
G1 X62.538 Y131.962 E20.33393
G1 X62.63 Y131.046 E20.36455
G1 X62.802 Y130.141 E20.39519
G1 X62.97 Y129.511 E20.41688
G1 X63.075 Y129.162 E20.429
G1 X63.171 Y128.861 E20.4395
