;FLAVOR:Marlin
;TIME:226
;Filament used: 0.075672m
;Layer height: 0.2
;MINX:101.497
;MINY:97.023
;MINZ:0.2
;MAXX:133.464
;MAXY:128.989
;MAXZ:4.4
;Generated with Cura_SteamEngine 4.9.1
M140 S55
M105
M190 S55
M104 S220
M105
M109 S220
M82 ;absolute extrusion mode
; Ender 3 Custom Start G-code
G92 E0 ; Reset Extruder
G28 ; Home all axes
G1 Z2.0 F3000 ; Move Z Axis up little to prevent scratching of Heat Bed
G1 X0.1 Y20 Z0.3 F5000.0 ; Move to start position
G1 X0.1 Y200.0 Z0.3 F1500.0 E15 ; Draw the first line
G1 X0.4 Y200.0 Z0.3 F5000.0 ; Move to side a little
G1 X0.4 Y20 Z0.3 F1500.0 E30 ; Draw the second line
G92 E0 ; Reset Extruder
G1 Z2.0 F3000 ; Move Z Axis up little to prevent scratching of Heat Bed
G1 X5 Y20 Z0.3 F5000.0 ; Move over to prevent blob squish
G92 E0
G92 E0
G1 F2700 E-5
;LAYER_COUNT:22
;LAYER:0
M107
G0 F6000 X105.798 Y102.094 Z0.2
;TYPE:SKIRT
G1 F2700 E0
G1 F1200 X106.422 Y101.458 E0.02963
G1 X106.569 Y101.32 E0.03634
G1 X106.971 Y100.961 E0.05427
G1 X107.319 Y100.665 E0.06946
G1 X108.041 Y100.101 E0.09993
G1 X108.189 Y99.995 E0.10599
G1 X108.607 Y99.71 E0.12282
G1 X108.997 Y99.457 E0.13828
G1 X109.847 Y98.958 E0.17106
G1 X110.025 Y98.864 E0.17776
G1 X110.447 Y98.653 E0.19345
G1 X110.858 Y98.458 E0.20858
G1 X111.705 Y98.098 E0.23919
G1 X111.91 Y98.021 E0.24647
G1 X112.376 Y97.858 E0.26289
G1 X112.785 Y97.725 E0.2772
G1 X113.671 Y97.478 E0.30779
G1 X113.854 Y97.435 E0.31404
G1 X114.388 Y97.323 E0.33219
G1 X114.852 Y97.238 E0.34788
G1 X115.762 Y97.11 E0.37844
G1 X115.956 Y97.091 E0.38493
G1 X116.471 Y97.053 E0.4021
G1 X116.925 Y97.03 E0.41722
G1 X117.867 Y97.023 E0.44855
G1 X118.067 Y97.03 E0.45521
G1 X118.553 Y97.058 E0.4714
G1 X119.006 Y97.094 E0.48651
G1 X119.934 Y97.207 E0.51761
G1 X120.127 Y97.239 E0.52412
G1 X120.623 Y97.333 E0.54091
G1 X121.073 Y97.429 E0.55621
G1 X122.017 Y97.675 E0.58866
G1 X122.202 Y97.732 E0.59509
G1 X122.682 Y97.892 E0.61192
G1 X123.119 Y98.049 E0.62737
G1 X124.006 Y98.412 E0.65924
G1 X124.199 Y98.501 E0.66631
G1 X124.592 Y98.692 E0.68085
G1 X124.984 Y98.892 E0.69548
G1 X125.781 Y99.341 E0.72591
G1 X125.931 Y99.434 E0.73178
G1 X126.379 Y99.727 E0.74958
G1 X126.759 Y99.989 E0.76493
G1 X127.486 Y100.536 E0.79519
G1 X127.652 Y100.672 E0.80233
G1 X128.049 Y101.013 E0.81974
G1 X128.376 Y101.308 E0.83439
G1 X129.053 Y101.974 E0.86597
G1 X129.191 Y102.122 E0.8727
G1 X129.525 Y102.497 E0.88941
G1 X129.821 Y102.845 E0.9046
G1 X130.385 Y103.567 E0.93507
G1 X130.491 Y103.715 E0.94113
G1 X130.777 Y104.135 E0.95803
G1 X131.026 Y104.519 E0.97325
G1 X131.506 Y105.333 E1.00468
G1 X131.604 Y105.517 E1.01161
G1 X131.83 Y105.966 E1.02833
G1 X132.022 Y106.37 E1.04321
G1 X132.378 Y107.208 E1.07349
G1 X132.455 Y107.412 E1.08075
G1 X132.625 Y107.894 E1.09774
G1 X132.759 Y108.306 E1.11215
G1 X132.996 Y109.147 E1.14122
G1 X133.041 Y109.335 E1.14765
G1 X133.161 Y109.906 E1.16705
G1 X133.246 Y110.368 E1.18268
G1 X133.377 Y111.297 E1.21388
G1 X133.396 Y111.493 E1.22043
G1 X133.433 Y111.993 E1.23711
G1 X133.456 Y112.443 E1.25209
G1 X133.464 Y113.381 E1.28329
G1 X133.457 Y113.585 E1.29008
G1 X133.428 Y114.085 E1.30674
G1 X133.392 Y114.535 E1.32175
G1 X133.283 Y115.43 E1.35174
G1 X133.251 Y115.626 E1.35835
G1 X133.157 Y116.13 E1.3754
G1 X133.065 Y116.565 E1.39019
G1 X132.824 Y117.498 E1.42224
G1 X132.763 Y117.698 E1.42919
G1 X132.6 Y118.192 E1.44649
G1 X132.447 Y118.62 E1.46161
G1 X132.081 Y119.517 E1.49383
G1 X131.988 Y119.719 E1.50123
G1 X131.804 Y120.1 E1.5153
G1 X131.61 Y120.482 E1.52955
G1 X131.168 Y121.27 E1.5596
G1 X131.075 Y121.421 E1.5655
G1 X130.767 Y121.893 E1.58425
G1 X130.499 Y122.282 E1.59996
G1 X129.952 Y123.01 E1.63024
G1 X129.821 Y123.17 E1.63712
G1 X129.483 Y123.564 E1.65439
G1 X129.183 Y123.897 E1.6693
G1 X128.533 Y124.559 E1.70015
G1 X128.389 Y124.694 E1.70672
G1 X127.987 Y125.053 E1.72464
G1 X127.635 Y125.352 E1.74001
G1 X126.919 Y125.911 E1.77022
G1 X126.771 Y126.017 E1.77627
G1 X126.353 Y126.302 E1.7931
G1 X125.963 Y126.555 E1.80856
G1 X125.113 Y127.054 E1.84134
G1 X124.935 Y127.148 E1.84804
G1 X124.513 Y127.359 E1.86373
G1 X124.102 Y127.554 E1.87886
G1 X123.255 Y127.914 E1.90947
G1 X123.05 Y127.991 E1.91676
G1 X122.583 Y128.154 E1.93321
G1 X122.177 Y128.286 E1.94741
G1 X121.308 Y128.53 E1.97743
G1 X121.122 Y128.574 E1.98378
G1 X120.572 Y128.689 E2.00247
G1 X120.108 Y128.774 E2.01816
G1 X119.198 Y128.902 E2.04873
G1 X119.004 Y128.921 E2.05521
G1 X118.489 Y128.959 E2.07239
G1 X118.035 Y128.982 E2.08751
G1 X117.093 Y128.989 E2.11884
G1 X116.893 Y128.982 E2.12549
G1 X116.405 Y128.954 E2.14175
G1 X115.953 Y128.918 E2.15683
G1 X115.036 Y128.806 E2.18756
G1 X114.842 Y128.774 E2.1941
G1 X114.337 Y128.679 E2.21119
G1 X113.887 Y128.583 E2.22649
G1 X112.943 Y128.337 E2.25894
G1 X112.758 Y128.28 E2.26538
G1 X112.27 Y128.117 E2.28249
G1 X111.834 Y127.96 E2.2979
G1 X110.971 Y127.607 E2.32892
G1 X110.775 Y127.517 E2.33609
G1 X110.356 Y127.314 E2.35157
G1 X109.965 Y127.114 E2.36618
G1 X109.149 Y126.652 E2.39737
G1 X108.992 Y126.554 E2.40353
G1 X108.571 Y126.278 E2.42027
G1 X108.197 Y126.02 E2.43538
G1 X107.483 Y125.483 E2.4651
G1 X107.319 Y125.349 E2.47214
G1 X106.911 Y124.999 E2.49002
G1 X106.584 Y124.704 E2.50467
G1 X105.907 Y124.038 E2.53625
G1 X105.769 Y123.89 E2.54298
G1 X105.43 Y123.509 E2.55994
G1 X105.131 Y123.157 E2.57531
G1 X104.568 Y122.435 E2.60576
G1 X104.465 Y122.291 E2.61165
G1 X104.177 Y121.869 E2.62864
G1 X103.922 Y121.475 E2.64425
G1 X103.433 Y120.64 E2.67643
G1 X103.341 Y120.466 E2.68298
G1 X103.123 Y120.032 E2.69913
G1 X102.926 Y119.616 E2.71444
G1 X102.568 Y118.77 E2.745
G1 X102.493 Y118.57 E2.7521
G1 X102.332 Y118.11 E2.76831
G1 X102.199 Y117.701 E2.78261
G1 X101.952 Y116.815 E2.81321
G1 X101.909 Y116.632 E2.81946
G1 X101.799 Y116.106 E2.83733
G1 X101.714 Y115.644 E2.85296
G1 X101.583 Y114.715 E2.88416
G1 X101.564 Y114.519 E2.89071
G1 X101.527 Y114.017 E2.90745
G1 X101.504 Y113.565 E2.92251
G1 X101.497 Y112.627 E2.9537
G1 X101.504 Y112.424 E2.96046
G1 X101.532 Y111.928 E2.97698
G1 X101.568 Y111.477 E2.99203
G1 X101.68 Y110.562 E3.02269
G1 X101.712 Y110.368 E3.02923
G1 X101.815 Y109.827 E3.04755
G1 X101.913 Y109.375 E3.06293
G1 X102.133 Y108.524 E3.09217
G1 X102.188 Y108.342 E3.09849
G1 X102.36 Y107.82 E3.11677
G1 X102.512 Y107.395 E3.13178
G1 X102.854 Y106.551 E3.16207
G1 X102.948 Y106.344 E3.16963
G1 X103.158 Y105.908 E3.18573
G1 X103.344 Y105.542 E3.19938
G1 X103.764 Y104.79 E3.22803
G1 X103.874 Y104.61 E3.23505
G1 X104.218 Y104.082 E3.25601
G1 X104.484 Y103.698 E3.27154
G1 X105.042 Y102.96 E3.30232
G1 X105.179 Y102.794 E3.30948
G1 X105.51 Y102.412 E3.32629
G1 X105.798 Y102.094 E3.34056
G0 F6000 X106.094 Y102.362
G1 F1200 X106.696 Y101.75 E3.36911
G1 X106.843 Y101.612 E3.37581
G1 X107.23 Y101.266 E3.39308
G1 X107.578 Y100.97 E3.40828
G1 X108.274 Y100.426 E3.43766
G1 X108.422 Y100.32 E3.44371
G1 X108.825 Y100.045 E3.45994
G1 X109.215 Y99.792 E3.4754
G1 X110.034 Y99.312 E3.50697
G1 X110.212 Y99.218 E3.51367
G1 X110.618 Y99.014 E3.52878
G1 X111.029 Y98.819 E3.54391
G1 X111.846 Y98.473 E3.57342
G1 X112.051 Y98.396 E3.58071
G1 X112.5 Y98.239 E3.59653
G1 X112.909 Y98.106 E3.61083
G1 X113.762 Y97.867 E3.64029
G1 X113.945 Y97.824 E3.64655
G1 X114.46 Y97.717 E3.66404
G1 X114.924 Y97.632 E3.67973
G1 X115.801 Y97.508 E3.70919
G1 X115.995 Y97.489 E3.71567
G1 X116.492 Y97.453 E3.73225
G1 X116.946 Y97.43 E3.74737
G1 X117.853 Y97.422 E3.77753
G1 X118.053 Y97.429 E3.78419
G1 X118.522 Y97.456 E3.79982
G1 X118.975 Y97.492 E3.81493
G1 X119.869 Y97.602 E3.84489
G1 X120.062 Y97.634 E3.8514
G1 X120.54 Y97.724 E3.86757
G1 X120.99 Y97.82 E3.88288
G1 X121.899 Y98.057 E3.91412
G1 X122.084 Y98.114 E3.92056
G1 X122.547 Y98.268 E3.93679
G1 X122.984 Y98.425 E3.95223
G1 X123.839 Y98.775 E3.98296
G1 X124.032 Y98.864 E3.99003
G1 X124.41 Y99.048 E4.00401
G1 X124.802 Y99.248 E4.01865
G1 X125.571 Y99.681 E4.048
G1 X125.721 Y99.774 E4.05387
G1 X126.152 Y100.056 E4.071
G1 X126.532 Y100.318 E4.08636
G1 X127.233 Y100.845 E4.11552
G1 X127.399 Y100.981 E4.12266
G1 X127.781 Y101.31 E4.13943
G1 X128.108 Y101.605 E4.15408
G1 X128.761 Y102.247 E4.18454
G1 X128.899 Y102.395 E4.19127
G1 X129.22 Y102.756 E4.20733
G1 X129.516 Y103.104 E4.22253
G1 X130.06 Y103.8 E4.25191
G1 X130.166 Y103.948 E4.25796
G1 X130.442 Y104.353 E4.27426
G1 X130.691 Y104.737 E4.28949
G1 X131.153 Y105.521 E4.31975
G1 X131.251 Y105.705 E4.32669
G1 X131.469 Y106.138 E4.34281
G1 X131.661 Y106.542 E4.35769
G1 X132.004 Y107.349 E4.38685
G1 X132.081 Y107.553 E4.39411
G1 X132.244 Y108.017 E4.41046
G1 X132.378 Y108.429 E4.42487
G1 X132.607 Y109.24 E4.4529
G1 X132.652 Y109.428 E4.45933
G1 X132.768 Y109.978 E4.47803
G1 X132.853 Y110.44 E4.49365
G1 X132.979 Y111.335 E4.52371
G1 X132.998 Y111.531 E4.53026
G1 X133.033 Y112.013 E4.54634
G1 X133.056 Y112.463 E4.56132
G1 X133.064 Y113.368 E4.59142
G1 X133.057 Y113.572 E4.59821
G1 X133.029 Y114.053 E4.61424
G1 X132.993 Y114.503 E4.62925
G1 X132.888 Y115.366 E4.65817
G1 X132.856 Y115.562 E4.66477
G1 X132.766 Y116.047 E4.68118
G1 X132.674 Y116.482 E4.69597
G1 X132.442 Y117.381 E4.72685
G1 X132.381 Y117.581 E4.7338
G1 X132.223 Y118.057 E4.75048
G1 X132.07 Y118.485 E4.7656
G1 X131.718 Y119.35 E4.79666
G1 X131.625 Y119.552 E4.80406
G1 X131.447 Y119.919 E4.81763
G1 X131.253 Y120.301 E4.83188
G1 X130.828 Y121.06 E4.86081
G1 X130.735 Y121.211 E4.86671
G1 X130.438 Y121.666 E4.88478
G1 X130.17 Y122.055 E4.90049
G1 X129.643 Y122.756 E4.92966
G1 X129.512 Y122.916 E4.93654
G1 X129.185 Y123.296 E4.95321
G1 X128.885 Y123.629 E4.96812
G1 X128.26 Y124.267 E4.99782
G1 X128.116 Y124.402 E5.00439
G1 X127.728 Y124.748 E5.02168
G1 X127.376 Y125.047 E5.03704
G1 X126.686 Y125.586 E5.06616
G1 X126.538 Y125.692 E5.07222
G1 X126.135 Y125.967 E5.08844
G1 X125.745 Y126.22 E5.10391
G1 X124.926 Y126.7 E5.13548
G1 X124.748 Y126.794 E5.14217
G1 X124.342 Y126.998 E5.15729
G1 X123.931 Y127.193 E5.17242
G1 X123.114 Y127.539 E5.20193
G1 X122.909 Y127.616 E5.20921
G1 X122.459 Y127.774 E5.22507
G1 X122.053 Y127.906 E5.23927
G1 X121.216 Y128.14 E5.26818
G1 X121.03 Y128.184 E5.27454
G1 X120.5 Y128.295 E5.29255
G1 X120.036 Y128.38 E5.30824
G1 X119.159 Y128.504 E5.3377
G1 X118.965 Y128.523 E5.34418
G1 X118.468 Y128.559 E5.36075
G1 X118.014 Y128.582 E5.37587
G1 X117.107 Y128.59 E5.40604
G1 X116.907 Y128.583 E5.4127
G1 X116.436 Y128.556 E5.42839
G1 X115.984 Y128.52 E5.44347
G1 X115.101 Y128.412 E5.47306
G1 X114.907 Y128.38 E5.4796
G1 X114.42 Y128.288 E5.49608
G1 X113.97 Y128.192 E5.51138
G1 X113.061 Y127.955 E5.54263
G1 X112.876 Y127.898 E5.54907
G1 X112.406 Y127.741 E5.56555
G1 X111.97 Y127.584 E5.58096
G1 X111.138 Y127.244 E5.61085
G1 X110.942 Y127.154 E5.61803
G1 X110.538 Y126.958 E5.63296
G1 X110.147 Y126.758 E5.64757
G1 X109.361 Y126.313 E5.67761
G1 X109.204 Y126.215 E5.68377
G1 X108.798 Y125.948 E5.69993
G1 X108.424 Y125.69 E5.71504
G1 X107.736 Y125.173 E5.74367
G1 X107.572 Y125.039 E5.75071
G1 X107.179 Y124.702 E5.76793
G1 X106.852 Y124.407 E5.78258
G1 X106.199 Y123.765 E5.81303
G1 X106.061 Y123.617 E5.81976
G1 X105.735 Y123.25 E5.83609
G1 X105.436 Y122.898 E5.85145
G1 X104.893 Y122.203 E5.88079
G1 X104.79 Y122.059 E5.88667
G1 X104.513 Y121.651 E5.90308
G1 X104.258 Y121.257 E5.91869
G1 X103.786 Y120.453 E5.9497
G1 X103.694 Y120.279 E5.95624
G1 X103.485 Y119.861 E5.97179
G1 X103.288 Y119.445 E5.98709
G1 X102.943 Y118.63 E6.01653
G1 X102.868 Y118.43 E6.02363
G1 X102.713 Y117.986 E6.03928
G1 X102.58 Y117.577 E6.05358
G1 X102.341 Y116.724 E6.08304
G1 X102.298 Y116.541 E6.0893
G1 X102.192 Y116.034 E6.10652
G1 X102.107 Y115.572 E6.12215
G1 X101.981 Y114.677 E6.15221
G1 X101.962 Y114.481 E6.15876
G1 X101.927 Y113.997 E6.1749
G1 X101.904 Y113.545 E6.18995
G1 X101.896 Y112.641 E6.22002
G1 X101.903 Y112.438 E6.22678
G1 X101.931 Y111.96 E6.2427
G1 X101.967 Y111.509 E6.25775
G1 X102.074 Y110.627 E6.2873
G1 X102.106 Y110.433 E6.29384
G1 X102.206 Y109.912 E6.31148
G1 X102.304 Y109.46 E6.32687
G1 X102.516 Y108.64 E6.35504
G1 X102.571 Y108.458 E6.36136
G1 X102.737 Y107.954 E6.37901
G1 X102.889 Y107.529 E6.39402
G1 X103.219 Y106.716 E6.42321
G1 X103.313 Y106.509 E6.43077
G1 X103.514 Y106.09 E6.44622
G1 X103.7 Y105.724 E6.45988
G1 X104.105 Y104.999 E6.4875
G1 X104.215 Y104.819 E6.49452
G1 X104.546 Y104.31 E6.51471
G1 X104.812 Y103.926 E6.53025
G1 X105.351 Y103.215 E6.55992
G1 X105.488 Y103.049 E6.56708
G1 X105.806 Y102.68 E6.58328
G1 X106.094 Y102.362 E6.59755
G0 F6000 X106.391 Y102.631
G1 F1200 X106.97 Y102.041 E6.62505
G1 X107.117 Y101.903 E6.63175
G1 X107.489 Y101.57 E6.64836
G1 X107.837 Y101.274 E6.66355
G1 X108.507 Y100.751 E6.69182
G1 X108.655 Y100.645 E6.69788
G1 X109.043 Y100.381 E6.71349
G1 X109.433 Y100.128 E6.72895
G1 X110.221 Y99.665 E6.75935
G1 X110.399 Y99.571 E6.76604
G1 X110.79 Y99.376 E6.78057
G1 X111.201 Y99.181 E6.79571
G1 X111.986 Y98.847 E6.82408
G1 X112.191 Y98.77 E6.83136
G1 X112.624 Y98.619 E6.84662
G1 X113.033 Y98.486 E6.86092
G1 X113.854 Y98.256 E6.88928
G1 X114.037 Y98.213 E6.89553
G1 X114.532 Y98.11 E6.91235
G1 X114.996 Y98.025 E6.92804
G1 X115.84 Y97.907 E6.95638
G1 X116.034 Y97.888 E6.96286
G1 X116.512 Y97.852 E6.97881
G1 X116.966 Y97.829 E6.99393
G1 X117.839 Y97.822 E7.02296
G1 X118.039 Y97.829 E7.02962
G1 X118.49 Y97.855 E7.04464
G1 X118.943 Y97.891 E7.05976
G1 X119.803 Y97.996 E7.08858
G1 X119.996 Y98.028 E7.09508
G1 X120.456 Y98.115 E7.11065
G1 X120.906 Y98.211 E7.12596
G1 X121.781 Y98.439 E7.15603
G1 X121.966 Y98.496 E7.16247
G1 X122.412 Y98.645 E7.17811
G1 X122.849 Y98.802 E7.19355
G1 X123.671 Y99.138 E7.22309
G1 X123.864 Y99.227 E7.23016
G1 X124.229 Y99.404 E7.24365
G1 X124.621 Y99.604 E7.25829
G1 X125.36 Y100.021 E7.28651
G1 X125.51 Y100.114 E7.29238
G1 X125.925 Y100.386 E7.30888
G1 X126.305 Y100.648 E7.32424
G1 X126.979 Y101.155 E7.35229
G1 X127.145 Y101.291 E7.35942
G1 X127.513 Y101.607 E7.37556
G1 X127.84 Y101.902 E7.39021
G1 X128.468 Y102.52 E7.41951
G1 X128.606 Y102.668 E7.42624
G1 X128.916 Y103.015 E7.44172
G1 X129.212 Y103.363 E7.45691
G1 X129.735 Y104.033 E7.48518
G1 X129.841 Y104.181 E7.49124
G1 X130.106 Y104.571 E7.50692
G1 X130.355 Y104.955 E7.52214
G1 X130.8 Y105.709 E7.55126
G1 X130.898 Y105.893 E7.55819
G1 X131.108 Y106.31 E7.57372
G1 X131.3 Y106.714 E7.5886
G1 X131.63 Y107.49 E7.61665
G1 X131.707 Y107.694 E7.6239
G1 X131.864 Y108.141 E7.63966
G1 X131.998 Y108.553 E7.65407
G1 X132.218 Y109.334 E7.68105
G1 X132.263 Y109.522 E7.68748
G1 X132.375 Y110.05 E7.70544
G1 X132.46 Y110.512 E7.72106
G1 X132.58 Y111.374 E7.75001
G1 X132.599 Y111.57 E7.75656
G1 X132.634 Y112.033 E7.772
G1 X132.657 Y112.483 E7.78699
G1 X132.664 Y113.354 E7.81596
G1 X132.657 Y113.558 E7.82275
G1 X132.631 Y114.021 E7.83817
G1 X132.595 Y114.471 E7.85318
G1 X132.494 Y115.302 E7.88103
G1 X132.462 Y115.498 E7.88763
G1 X132.374 Y115.965 E7.90344
G1 X132.282 Y116.4 E7.91823
G1 X132.059 Y117.265 E7.94794
G1 X131.998 Y117.465 E7.95489
G1 X131.847 Y117.922 E7.9709
G1 X131.694 Y118.35 E7.98602
G1 X131.354 Y119.183 E8.01594
G1 X131.261 Y119.385 E8.02334
G1 X131.09 Y119.738 E8.03638
G1 X130.896 Y120.12 E8.05063
G1 X130.487 Y120.85 E8.07847
G1 X130.394 Y121.001 E8.08436
G1 X130.109 Y121.439 E8.10174
G1 X129.841 Y121.828 E8.11746
G1 X129.333 Y122.503 E8.14555
G1 X129.202 Y122.663 E8.15243
G1 X128.888 Y123.028 E8.16845
G1 X128.588 Y123.361 E8.18335
G1 X127.986 Y123.975 E8.21195
G1 X127.842 Y124.11 E8.21852
G1 X127.469 Y124.443 E8.23515
G1 X127.117 Y124.742 E8.25051
G1 X126.453 Y125.261 E8.27854
G1 X126.305 Y125.367 E8.2846
G1 X125.917 Y125.631 E8.3002
G1 X125.527 Y125.884 E8.31567
G1 X124.739 Y126.347 E8.34606
G1 X124.561 Y126.441 E8.35276
G1 X124.17 Y126.636 E8.36729
G1 X123.759 Y126.831 E8.38242
G1 X122.974 Y127.165 E8.4108
G1 X122.769 Y127.242 E8.41808
G1 X122.336 Y127.393 E8.43333
G1 X121.93 Y127.525 E8.44753
G1 X121.124 Y127.751 E8.47537
G1 X120.938 Y127.795 E8.48173
G1 X120.428 Y127.902 E8.49906
G1 X119.964 Y127.987 E8.51475
G1 X119.12 Y128.105 E8.5431
G1 X118.926 Y128.124 E8.54958
G1 X118.448 Y128.16 E8.56552
G1 X117.994 Y128.183 E8.58064
G1 X117.121 Y128.19 E8.60968
G1 X116.921 Y128.183 E8.61634
G1 X116.468 Y128.157 E8.63143
G1 X116.016 Y128.121 E8.64651
G1 X115.166 Y128.017 E8.67499
G1 X114.972 Y127.985 E8.68153
