;FLAVOR:Marlin
;TIME:5720
;Filament used: 3.34772m
;Layer height: 0.2
;MINX:76.588
;MINY:92.015
;MINZ:0.2
;MAXX:171.719
;MAXY:165.643
;MAXZ:23.4
;Generated with Cura_SteamEngine 4.9.1
M140 S55
M105
M190 S55
M104 S215
M105
M109 S215
M82 ;absolute extrusion mode
; Ender 3 Custom Start G-code
G92 E0 ; Reset Extruder
G28 ; Home all axes
G1 Z2.0 F3000 ; Move Z Axis up little to prevent scratching of Heat Bed
G1 X0.1 Y20 Z0.3 F5000.0 ; Move to start position
G1 X0.1 Y200.0 Z0.3 F1500.0 E15 ; Draw the first line
G1 X0.4 Y200.0 Z0.3 F5000.0 ; Move to side a little
G1 X0.4 Y20 Z0.3 F1500.0 E30 ; Draw the second line
G92 E0 ; Reset Extruder
G1 Z2.0 F3000 ; Move Z Axis up little to prevent scratching of Heat Bed
G1 X5 Y20 Z0.3 F5000.0 ; Move over to prevent blob squish
G92 E0
G92 E0
G1 F2700 E-5
;LAYER_COUNT:117
;LAYER:0
M107
G0 F6000 X94.133 Y99.272 Z0.2
;TYPE:SKIRT
G1 F2700 E0
G1 F1200 X94.309 Y99.107 E0.00802
G1 X94.511 Y98.922 E0.01713
G1 X94.777 Y98.685 E0.02898
G1 X95.424 Y98.12 E0.05755
G1 X95.925 Y97.693 E0.07945
G1 X96.228 Y97.443 E0.09251
G1 X96.697 Y97.088 E0.11208
G1 X97.087 Y96.812 E0.12797
G1 X97.979 Y96.215 E0.16367
G1 X98.696 Y95.749 E0.19211
G1 X99.45 Y95.303 E0.22125
G1 X99.702 Y95.167 E0.23077
G1 X100.047 Y94.988 E0.2437
G1 X100.92 Y94.556 E0.27609
G1 X101.667 Y94.2 E0.30362
G1 X102.45 Y93.864 E0.33196
G1 X102.682 Y93.775 E0.34022
G1 X102.969 Y93.669 E0.3504
G1 X103.305 Y93.552 E0.36223
G1 X104.2 Y93.25 E0.39365
G1 X104.878 Y93.032 E0.41733
G1 X105.794 Y92.781 E0.44892
G1 X106.039 Y92.725 E0.45728
G1 X106.324 Y92.663 E0.46698
G1 X107.27 Y92.473 E0.49908
G1 X108.128 Y92.315 E0.52809
G1 X108.996 Y92.191 E0.55726
G1 X109.242 Y92.166 E0.56548
G1 X109.604 Y92.136 E0.57756
G1 X110.763 Y92.058 E0.6162
G1 X111.493 Y92.022 E0.64051
G1 X112.403 Y92.015 E0.67077
G1 X112.893 Y92.034 E0.68708
G1 X113.27 Y92.056 E0.69964
G1 X114.116 Y92.112 E0.72784
G1 X114.826 Y92.169 E0.75153
G1 X115.741 Y92.281 E0.78219
G1 X116.007 Y92.325 E0.79116
G1 X116.559 Y92.427 E0.80983
G1 X117.414 Y92.598 E0.83883
G1 X118.131 Y92.751 E0.86322
G1 X119.086 Y93 E0.89604
G1 X119.497 Y93.129 E0.91037
G1 X119.843 Y93.243 E0.92249
G1 X120.642 Y93.515 E0.95056
G1 X121.341 Y93.763 E0.97523
G1 X121.637 Y93.873 E0.98573
G1 X123.002 Y94.403 E1.03443
G1 X123.144 Y94.46 E1.03952
G1 X125.554 Y95.353 E1.12501
G1 X127.899 Y96.146 E1.20734
G1 X130.337 Y96.896 E1.29218
G1 X132.734 Y97.558 E1.37489
G1 X135.197 Y98.165 E1.45926
G1 X137.682 Y98.705 E1.54384
G1 X140.12 Y99.159 E1.62632
G1 X142.611 Y99.552 E1.7102
G1 X145.084 Y99.871 E1.79313
G1 X147.604 Y100.124 E1.87737
G1 X150.123 Y100.306 E1.96137
G1 X152.64 Y100.415 E2.04516
G1 X155.328 Y100.455 E2.13457
G1 X160.201 Y100.457 E2.29665
G1 X160.873 Y100.467 E2.319
G1 X161.809 Y100.521 E2.35019
G1 X162.737 Y100.655 E2.38137
G1 X163.651 Y100.867 E2.41258
G1 X164.543 Y101.156 E2.44377
G1 X165.407 Y101.52 E2.47495
G1 X166.238 Y101.956 E2.50616
G1 X167.028 Y102.462 E2.53737
G1 X167.772 Y103.033 E2.56856
G1 X168.464 Y103.665 E2.59973
G1 X169.101 Y104.354 E2.63094
G1 X169.676 Y105.095 E2.66213
G1 X170.186 Y105.882 E2.69333
G1 X170.627 Y106.709 E2.7245
G1 X170.996 Y107.571 E2.75568
G1 X171.291 Y108.462 E2.7869
G1 X171.508 Y109.374 E2.81808
G1 X171.647 Y110.302 E2.84929
G1 X171.704 Y111.139 E2.87719
G1 X171.714 Y111.475 E2.88837
G1 X171.719 Y111.802 E2.89925
G1 X171.718 Y115.529 E3.02321
G1 X171.696 Y117.109 E3.07577
G1 X171.69 Y119.17 E3.14432
G1 X171.699 Y120.235 E3.17974
G1 X171.698 Y126.413 E3.38522
G1 X171.688 Y127.105 E3.40824
G1 X171.634 Y128.041 E3.43942
G1 X171.501 Y128.97 E3.47064
G1 X171.29 Y129.883 E3.5018
G1 X171.001 Y130.776 E3.53302
G1 X170.637 Y131.64 E3.56421
G1 X170.201 Y132.47 E3.59539
G1 X169.696 Y133.261 E3.6266
G1 X169.125 Y134.005 E3.6578
G1 X168.27 Y134.917 E3.69937
G1 X167.595 Y135.559 E3.73036
G1 X167.435 Y135.708 E3.73763
G1 X140.432 Y160.386 E4.95432
G1 X139.753 Y160.988 E4.9845
G1 X138.754 Y161.774 E5.02678
G1 X138.523 Y161.935 E5.03614
G1 X138.251 Y162.119 E5.04706
G1 X137.83 Y162.392 E5.06375
G1 X136.504 Y163.225 E5.11584
G1 X135.926 Y163.564 E5.13812
G1 X135.688 Y163.694 E5.14714
G1 X134.847 Y164.108 E5.17832
G1 X133.886 Y164.478 E5.21257
G1 X132.999 Y164.773 E5.24366
G1 X132.488 Y164.929 E5.26143
G1 X132.352 Y164.967 E5.26613
G1 X131.823 Y165.101 E5.28428
G1 X131.364 Y165.205 E5.29993
G1 X130.376 Y165.382 E5.33332
G1 X129.847 Y165.452 E5.35106
G1 X129.559 Y165.486 E5.36071
G1 X128.915 Y165.554 E5.38225
G1 X128.554 Y165.586 E5.3943
G1 X128.333 Y165.602 E5.40167
G1 X127.709 Y165.63 E5.42245
G1 X126.763 Y165.643 E5.45391
G1 X109.829 Y165.643 E6.01714
G1 X109.121 Y165.633 E6.04069
G1 X108.176 Y165.579 E6.07217
G1 X107.987 Y165.56 E6.07849
G1 X107.463 Y165.494 E6.09606
G1 X107.041 Y165.431 E6.11025
G1 X106.12 Y165.254 E6.14144
G1 X105.218 Y164.998 E6.17263
G1 X104.34 Y164.666 E6.20385
G1 X103.495 Y164.261 E6.23501
G1 X102.686 Y163.785 E6.26623
G1 X101.921 Y163.242 E6.29744
G1 X101.206 Y162.636 E6.32861
G1 X100.615 Y162.048 E6.35634
G1 X100.239 Y161.642 E6.37474
G1 X98.941 Y160.192 E6.43947
G1 X97.256 Y158.414 E6.52094
G1 X95.427 Y156.592 E6.60681
G1 X93.629 Y154.898 E6.68897
G1 X91.738 Y153.216 E6.77315
G1 X89.803 Y151.591 E6.85719
G1 X87.835 Y150.029 E6.94076
G1 X85.827 Y148.528 E7.02414
G1 X83.887 Y147.157 E7.10315
G1 X83.303 Y146.756 E7.12671
G1 X82.552 Y146.191 E7.15797
G1 X82.39 Y146.058 E7.16494
G1 X82.002 Y145.724 E7.18197
G1 X81.675 Y145.429 E7.19662
G1 X80.998 Y144.763 E7.22821
G1 X80.86 Y144.615 E7.23494
G1 X80.528 Y144.242 E7.25154
G1 X80.231 Y143.893 E7.26679
G1 X79.657 Y143.158 E7.2978
G1 X79.552 Y143.011 E7.30381
G1 X79.275 Y142.604 E7.32019
G1 X79.02 Y142.211 E7.33577
G1 X78.511 Y141.343 E7.36924
G1 X78.419 Y141.168 E7.37581
G1 X78.213 Y140.755 E7.39116
G1 X78.018 Y140.343 E7.40632
G1 X77.67 Y139.521 E7.43601
G1 X77.593 Y139.317 E7.44326
G1 X77.423 Y138.835 E7.46026
G1 X77.29 Y138.426 E7.47457
G1 X77.043 Y137.54 E7.50516
G1 X77 Y137.357 E7.51141
G1 X76.89 Y136.831 E7.52929
G1 X76.805 Y136.369 E7.54491
G1 X76.674 Y135.44 E7.57611
G1 X76.655 Y135.244 E7.58266
G1 X76.618 Y134.742 E7.59941
G1 X76.595 Y134.29 E7.61446
G1 X76.588 Y133.352 E7.64566
G1 X76.595 Y133.149 E7.65241
G1 X76.623 Y132.653 E7.66894
G1 X76.659 Y132.202 E7.68398
G1 X76.771 Y131.287 E7.71464
G1 X76.803 Y131.093 E7.72118
G1 X76.897 Y130.593 E7.73811
G1 X76.99 Y130.156 E7.75297
G1 X77.226 Y129.241 E7.7844
G1 X77.286 Y129.044 E7.79124
G1 X77.46 Y128.522 E7.80955
G1 X77.617 Y128.086 E7.82496
G1 X77.95 Y127.265 E7.85443
G1 X78.039 Y127.069 E7.86159
G1 X78.262 Y126.608 E7.87862
G1 X78.462 Y126.217 E7.89323
G1 X78.911 Y125.421 E7.92362
G1 X79.034 Y125.223 E7.93137
G1 X79.183 Y124.991 E7.94055
G1 X79.552 Y124.43 E7.96288
G1 X80.281 Y123.337 E8.00658
G1 X81.653 Y121.154 E8.09233
G1 X82.916 Y119.011 E8.17507
G1 X84.138 Y116.799 E8.25912
G1 X85.28 Y114.581 E8.34209
G1 X86.388 Y112.276 E8.42716
G1 X87.397 Y110.014 E8.50954
G1 X87.778 Y109.084 E8.54296
G1 X88.328 Y107.785 E8.58988
G1 X88.454 Y107.497 E8.60034
G1 X88.578 Y107.226 E8.61025
G1 X88.707 Y106.955 E8.62023
G1 X89.192 Y105.97 E8.65675
G1 X89.513 Y105.342 E8.68021
G1 X89.983 Y104.514 E8.71187
G1 X90.243 Y104.103 E8.72805
G1 X90.446 Y103.793 E8.74037
G1 X90.939 Y103.06 E8.76975
G1 X91.325 Y102.501 E8.79235
G1 X91.894 Y101.749 E8.82371
G1 X92.192 Y101.391 E8.83921
G1 X92.409 Y101.139 E8.85027
G1 X93.037 Y100.425 E8.88189
G1 X93.515 Y99.899 E8.90553
G1 X94.133 Y99.272 E8.93481
G0 F6000 X94.406 Y99.564
G1 F1200 X94.582 Y99.399 E8.94284
G1 X94.777 Y99.221 E8.95162
G1 X95.041 Y98.986 E8.96337
G1 X95.683 Y98.425 E8.99173
G1 X96.184 Y97.998 E9.01363
G1 X96.478 Y97.756 E9.02629
G1 X96.93 Y97.414 E9.04514
G1 X97.313 Y97.143 E9.06075
G1 X97.552 Y96.98 E9.07037
G1 X98.323 Y96.467 E9.10117
G1 X98.913 Y96.085 E9.12455
G1 X99.64 Y95.655 E9.15264
G1 X99.892 Y95.519 E9.16217
G1 X100.225 Y95.347 E9.17463
G1 X101.247 Y94.842 E9.21255
G1 X101.838 Y94.561 E9.23431
G1 X102.593 Y94.237 E9.26164
G1 X102.825 Y94.148 E9.2699
G1 X103.101 Y94.047 E9.27968
G1 X103.434 Y93.931 E9.29141
G1 X104.322 Y93.631 E9.32258
G1 X105 Y93.413 E9.34627
G1 X105.883 Y93.17 E9.37673
G1 X106.128 Y93.114 E9.38509
G1 X106.403 Y93.056 E9.39444
G1 X107.528 Y92.831 E9.43259
G1 X108.2 Y92.708 E9.45532
G1 X109.036 Y92.589 E9.4834
G1 X109.282 Y92.564 E9.49163
G1 X109.631 Y92.535 E9.50327
G1 X110.582 Y92.47 E9.53498
G1 X110.783 Y92.458 E9.54168
G1 X111.513 Y92.422 E9.56598
G1 X112.39 Y92.415 E9.59516
G1 X112.87 Y92.434 E9.61113
G1 X113.244 Y92.455 E9.62359
G1 X114.084 Y92.511 E9.65159
G1 X114.794 Y92.568 E9.67528
G1 X115.676 Y92.676 E9.70484
G1 X115.942 Y92.72 E9.7138
G1 X116.374 Y92.799 E9.72841
G1 X117.33 Y92.989 E9.76083
G1 X118.047 Y93.142 E9.78521
G1 X118.967 Y93.382 E9.81684
G1 X119.373 Y93.509 E9.83099
G1 X119.715 Y93.622 E9.84297
G1 X120.508 Y93.892 E9.87083
G1 X121.207 Y94.14 E9.8955
G1 X121.493 Y94.246 E9.90564
G1 X122.853 Y94.774 E9.95416
G1 X123.035 Y94.847 E9.96069
G1 X125.392 Y95.72 E10.04429
G1 X127.791 Y96.532 E10.12852
G1 X130.186 Y97.268 E10.21186
G1 X132.67 Y97.955 E10.29758
G1 X135.096 Y98.553 E10.38068
G1 X137.59 Y99.095 E10.46557
G1 X140.056 Y99.554 E10.549
G1 X142.534 Y99.945 E10.63244
G1 X145.064 Y100.271 E10.71728
G1 X147.571 Y100.523 E10.80108
G1 X150.111 Y100.706 E10.88578
G1 X152.618 Y100.815 E10.96924
G1 X155.322 Y100.855 E11.05919
G1 X160.195 Y100.857 E11.22127
G1 X160.867 Y100.867 E11.24362
G1 X161.786 Y100.921 E11.27424
G1 X162.697 Y101.054 E11.30486
G1 X163.593 Y101.266 E11.33548
G1 X164.467 Y101.555 E11.3661
G1 X165.313 Y101.918 E11.39672
G1 X166.124 Y102.353 E11.42733
G1 X166.894 Y102.858 E11.45796
G1 X167.618 Y103.427 E11.48858
G1 X168.289 Y104.057 E11.5192
G1 X168.904 Y104.742 E11.54981
G1 X169.456 Y105.479 E11.58044
G1 X169.943 Y106.26 E11.61105
G1 X170.36 Y107.081 E11.64168
G1 X170.704 Y107.935 E11.6723
G1 X170.972 Y108.816 E11.70293
G1 X171.164 Y109.716 E11.73354
G1 X171.276 Y110.63 E11.76416
G1 X171.304 Y111.151 E11.78152
G1 X171.314 Y111.487 E11.7927
G1 X171.319 Y111.802 E11.80318
G1 X171.318 Y115.524 E11.92697
G1 X171.296 Y117.103 E11.97949
G1 X171.29 Y119.173 E12.04834
G1 X171.299 Y120.238 E12.08377
G1 X171.298 Y126.407 E12.28895
G1 X171.288 Y127.099 E12.31197
G1 X171.235 Y128.018 E12.34258
G1 X171.102 Y128.929 E12.3732
G1 X170.89 Y129.825 E12.40383
G1 X170.602 Y130.7 E12.43447
G1 X170.239 Y131.546 E12.46508
G1 X169.804 Y132.357 E12.49569
G1 X169.3 Y133.128 E12.52633
G1 X168.731 Y133.851 E12.55693
G1 X167.994 Y134.627 E12.59253
G1 X167.319 Y135.269 E12.62351
G1 X167.165 Y135.413 E12.63052
G1 X140.162 Y160.091 E13.84721
G1 X139.488 Y160.689 E13.87718
G1 X138.525 Y161.446 E13.91792
G1 X138.294 Y161.607 E13.92728
G1 X138.032 Y161.784 E13.9378
G1 X137.618 Y162.053 E13.95422
G1 X136.292 Y162.886 E14.00631
G1 X135.734 Y163.213 E14.02782
G1 X135.496 Y163.343 E14.03684
G1 X134.67 Y163.749 E14.06745
G1 X133.76 Y164.098 E14.09987
G1 X132.873 Y164.393 E14.13096
G1 X132.381 Y164.544 E14.14807
G1 X132.245 Y164.582 E14.15277
G1 X131.734 Y164.711 E14.1703
G1 X131.275 Y164.815 E14.18595
G1 X130.324 Y164.985 E14.21808
G1 X129.795 Y165.055 E14.23583
G1 X129.517 Y165.088 E14.24514
G1 X128.873 Y165.156 E14.26668
G1 X128.525 Y165.187 E14.2783
G1 X128.304 Y165.203 E14.28567
G1 X127.703 Y165.23 E14.30568
G1 X126.763 Y165.243 E14.33695
G1 X109.834 Y165.243 E14.90001
G1 X109.126 Y165.233 E14.92356
G1 X108.216 Y165.181 E14.95388
G1 X108.027 Y165.162 E14.96019
G1 X107.522 Y165.099 E14.97712
G1 X107.1 Y165.036 E14.99131
G1 X106.196 Y164.86 E15.02194
G1 X105.311 Y164.607 E15.05256
G1 X104.451 Y164.278 E15.08318
G1 X103.623 Y163.876 E15.1138
G1 X102.833 Y163.403 E15.14442
G1 X102.087 Y162.864 E15.17503
G1 X101.39 Y162.262 E15.20567
G1 X100.907 Y161.776 E15.22845
G1 X100.677 Y161.529 E15.23968
G1 X100.537 Y161.375 E15.2466
G1 X99.246 Y159.933 E15.31098
G1 X97.511 Y158.103 E15.39485
G1 X95.737 Y156.335 E15.47815
G1 X93.887 Y154.591 E15.56271
G1 X91.995 Y152.909 E15.64691
G1 X90.063 Y151.286 E15.73084
G1 X88.099 Y149.728 E15.81422
G1 X86.034 Y148.184 E15.89998
G1 X84.105 Y146.821 E15.97853
G1 X83.53 Y146.426 E16.00174
G1 X82.806 Y145.882 E16.03186
G1 X82.644 Y145.749 E16.03883
G1 X82.27 Y145.427 E16.05524
G1 X81.943 Y145.132 E16.06989
G1 X81.29 Y144.49 E16.10035
G1 X81.152 Y144.342 E16.10708
G1 X80.832 Y143.983 E16.12307
G1 X80.535 Y143.634 E16.13832
G1 X79.982 Y142.925 E16.16822
G1 X79.877 Y142.778 E16.17423
G1 X79.611 Y142.387 E16.18996
G1 X79.356 Y141.994 E16.20554
G1 X78.866 Y141.156 E16.23783
G1 X78.774 Y140.981 E16.2444
G1 X78.575 Y140.584 E16.25917
G1 X78.38 Y140.172 E16.27434
G1 X78.044 Y139.38 E16.30295
G1 X77.967 Y139.176 E16.3102
G1 X77.804 Y138.711 E16.32659
G1 X77.671 Y138.302 E16.3409
G1 X77.432 Y137.449 E16.37036
G1 X77.389 Y137.266 E16.37661
G1 X77.283 Y136.759 E16.39384
G1 X77.198 Y136.297 E16.40946
G1 X77.072 Y135.402 E16.43952
G1 X77.053 Y135.206 E16.44607
G1 X77.018 Y134.722 E16.46221
G1 X76.995 Y134.27 E16.47727
G1 X76.987 Y133.366 E16.50734
G1 X76.994 Y133.163 E16.51409
G1 X77.022 Y132.685 E16.53002
G1 X77.058 Y132.234 E16.54506
G1 X77.165 Y131.352 E16.57462
G1 X77.197 Y131.158 E16.58115
G1 X77.288 Y130.677 E16.59744
G1 X77.381 Y130.24 E16.6123
G1 X77.609 Y129.358 E16.6426
G1 X77.669 Y129.161 E16.64945
G1 X77.836 Y128.658 E16.66707
G1 X77.993 Y128.222 E16.68249
G1 X78.314 Y127.43 E16.71091
G1 X78.403 Y127.234 E16.71807
G1 X78.618 Y126.79 E16.73448
G1 X78.818 Y126.399 E16.74908
G1 X79.251 Y125.633 E16.77835
G1 X79.517 Y125.21 E16.79497
G1 X79.842 Y124.715 E16.81467
G1 X80.636 Y123.524 E16.86227
G1 X81.994 Y121.364 E16.94714
G1 X83.261 Y119.213 E17.03017
G1 X84.493 Y116.984 E17.11487
G1 X85.646 Y114.744 E17.19867
G1 X86.736 Y112.477 E17.28233
G1 X87.775 Y110.148 E17.36715
G1 X88.146 Y109.24 E17.39978
G1 X88.696 Y107.941 E17.44669
G1 X88.818 Y107.664 E17.45676
G1 X88.942 Y107.393 E17.46667
G1 X89.066 Y107.132 E17.47628
G1 X89.472 Y106.305 E17.50693
G1 X89.87 Y105.524 E17.53608
G1 X90.322 Y104.726 E17.56658
G1 X90.577 Y104.322 E17.58247
G1 X90.779 Y104.016 E17.59467
G1 X91.268 Y103.287 E17.62387
G1 X91.654 Y102.728 E17.64646
G1 X92.202 Y102.003 E17.67669
G1 X92.495 Y101.652 E17.69189
G1 X92.71 Y101.403 E17.70284
G1 X93.333 Y100.694 E17.73423
G1 X93.811 Y100.168 E17.75787
G1 X94.406 Y99.564 E17.78607
G0 F6000 X94.68 Y99.856
G1 F1200 X95.043 Y99.519 E17.80254
G1 X95.304 Y99.287 E17.81416
G1 X95.943 Y98.729 E17.84237
G1 X96.444 Y98.302 E17.86427
G1 X96.728 Y98.068 E17.87651
G1 X97.163 Y97.739 E17.89465
G1 X97.539 Y97.473 E17.90996
G1 X97.774 Y97.313 E17.91942
G1 X98.54 Y96.803 E17.95003
G1 X99.13 Y96.421 E17.9734
G1 X99.83 Y96.007 E18.00045
G1 X100.082 Y95.871 E18.00998
G1 X100.402 Y95.705 E18.02197
G1 X101.419 Y95.203 E18.05969
G1 X102.01 Y94.922 E18.08146
G1 X102.737 Y94.611 E18.10776
G1 X102.969 Y94.522 E18.11602
G1 X103.234 Y94.424 E18.12542
G1 X103.562 Y94.309 E18.13698
G1 X104.294 Y94.061 E18.16268
G1 X105.123 Y93.794 E18.19165
G1 X105.972 Y93.56 E18.22094
G1 X106.217 Y93.504 E18.2293
G1 X106.481 Y93.448 E18.23828
G1 X107.427 Y93.258 E18.27037
G1 X108.272 Y93.102 E18.29895
G1 X109.077 Y92.987 E18.326
G1 X109.323 Y92.962 E18.33422
G1 X109.658 Y92.934 E18.3454
G1 X110.803 Y92.857 E18.38357
G1 X111.533 Y92.821 E18.40788
G1 X112.376 Y92.815 E18.43592
G1 X112.848 Y92.833 E18.45163
G1 X113.219 Y92.854 E18.46399
G1 X113.897 Y92.898 E18.48659
G1 X114.762 Y92.967 E18.51545
G1 X115.611 Y93.071 E18.5439
G1 X116.098 Y93.154 E18.56033
G1 X116.403 Y93.212 E18.57065
G1 X117.247 Y93.381 E18.59928
G1 X117.964 Y93.534 E18.62367
G1 X118.849 Y93.765 E18.65409
G1 X119.248 Y93.889 E18.66798
G1 X119.586 Y94.001 E18.67983
G1 X120.375 Y94.269 E18.70754
G1 X121.074 Y94.517 E18.73221
G1 X121.348 Y94.619 E18.74194
G1 X122.703 Y95.145 E18.79028
G1 X122.883 Y95.217 E18.79673
G1 X125.262 Y96.098 E18.8811
G1 X127.66 Y96.91 E18.96531
G1 X130.099 Y97.66 E19.05018
G1 X132.54 Y98.335 E19.13442
G1 X135.021 Y98.946 E19.2194
G1 X137.497 Y99.484 E19.30367
G1 X139.998 Y99.949 E19.38828
G1 X142.487 Y100.342 E19.47209
G1 X145.009 Y100.668 E19.55667
G1 X147.538 Y100.922 E19.64121
G1 X150.098 Y101.106 E19.72658
G1 X152.595 Y101.215 E19.80971
G1 X155.316 Y101.255 E19.90022
G1 X160.189 Y101.257 E20.06229
