;FLAVOR:Marlin
;TIME:682
;Filament used: 0.387574m
;Layer height: 0.28
;MINX:100.991
;MINY:101.5
;MINZ:0.28
;MAXX:134.009
;MAXY:133.5
;MAXZ:14
;Generated with Cura_SteamEngine 4.6.1
M140 S60
M105
M190 S60
M104 S210
M105
M109 S210
M82 ;absolute extrusion mode
; Ender 3 Custom Start G-code
G92 E0 ; Reset Extruder
G28 ; Home all axes
G1 Z2.0 F3000 ; Move Z Axis up little to prevent scratching of Heat Bed
G1 X0.1 Y20 Z0.3 F5000.0 ; Move to start position
G1 X0.1 Y200.0 Z0.3 F1500.0 E15 ; Draw the first line
G1 X0.4 Y200.0 Z0.3 F5000.0 ; Move to side a little
G1 X0.4 Y20 Z0.3 F1500.0 E30 ; Draw the second line
G92 E0 ; Reset Extruder
G1 Z2.0 F3000 ; Move Z Axis up little to prevent scratching of Heat Bed
G1 X5 Y20 Z0.3 F5000.0 ; Move over to prevent blob squish
G92 E0
G92 E0
G1 F2700 E-5
;LAYER_COUNT:50
;LAYER:0
M107
G0 F6000 X123.137 Y102.311 Z0.28
;TYPE:SKIRT
G1 F2700 E0
G1 F1200 X124.038 Y102.364 E0.04203
G1 X124.932 Y102.497 E0.08411
G1 X125.81 Y102.708 E0.12616
G1 X126.666 Y102.996 E0.16822
G1 X127.493 Y103.358 E0.21025
G1 X128.285 Y103.792 E0.2523
G1 X129.035 Y104.295 E0.29435
G1 X129.738 Y104.862 E0.33641
G1 X130.388 Y105.489 E0.37846
G1 X130.98 Y106.171 E0.42051
G1 X131.509 Y106.903 E0.46257
G1 X131.972 Y107.678 E0.50461
G1 X132.364 Y108.492 E0.54667
G1 X132.683 Y109.337 E0.58873
G1 X132.926 Y110.207 E0.63079
G1 X133.09 Y111.095 E0.67284
G1 X133.185 Y112.233 E0.72602
G1 X133.209 Y113.249 E0.77334
G1 X133.206 Y121.942 E1.17812
G1 X133.197 Y122.607 E1.20909
G1 X133.145 Y123.509 E1.25116
G1 X133.013 Y124.402 E1.29319
G1 X132.803 Y125.28 E1.33523
G1 X132.516 Y126.137 E1.37731
G1 X132.154 Y126.964 E1.41935
G1 X131.721 Y127.756 E1.46138
G1 X131.219 Y128.507 E1.50344
G1 X130.652 Y129.211 E1.54553
G1 X130.026 Y129.861 E1.58755
G1 X129.345 Y130.454 E1.6296
G1 X128.613 Y130.984 E1.67168
G1 X127.838 Y131.447 E1.71372
G1 X127.025 Y131.84 E1.75577
G1 X126.18 Y132.16 E1.79784
G1 X125.311 Y132.403 E1.83986
G1 X124.423 Y132.569 E1.88192
G1 X123.961 Y132.623 E1.90358
G1 X123.634 Y132.654 E1.91888
G1 X122.671 Y132.7 E1.96377
G1 X112.567 Y132.699 E2.43425
G1 X111.881 Y132.69 E2.4662
G1 X110.98 Y132.638 E2.50822
G1 X110.086 Y132.507 E2.5503
G1 X109.208 Y132.297 E2.59233
G1 X108.351 Y132.01 E2.63442
G1 X107.524 Y131.649 E2.67644
G1 X106.731 Y131.216 E2.71851
G1 X105.98 Y130.714 E2.76057
G1 X105.276 Y130.148 E2.80263
G1 X104.626 Y129.522 E2.84465
G1 X104.033 Y128.841 E2.8867
G1 X103.502 Y128.11 E2.92877
G1 X103.039 Y127.335 E2.97081
G1 X102.645 Y126.522 E3.01288
G1 X102.325 Y125.677 E3.05495
G1 X102.082 Y124.808 E3.09697
G1 X101.916 Y123.92 E3.13903
G1 X101.818 Y122.722 E3.195
G1 X101.792 Y121.51 E3.25145
G1 X101.791 Y121.209 E3.26547
G1 X101.794 Y112.996 E3.6479
G1 X101.804 Y112.352 E3.67789
G1 X101.858 Y111.45 E3.71996
G1 X101.992 Y110.557 E3.76201
G1 X102.204 Y109.679 E3.80407
G1 X102.493 Y108.823 E3.84614
G1 X102.856 Y107.997 E3.88815
G1 X103.291 Y107.205 E3.93023
G1 X103.794 Y106.455 E3.97228
G1 X104.362 Y105.753 E4.01433
G1 X104.99 Y105.104 E4.05638
G1 X105.672 Y104.512 E4.09843
G1 X106.405 Y103.984 E4.14049
G1 X107.181 Y103.522 E4.18255
G1 X107.995 Y103.131 E4.2246
G1 X108.84 Y102.813 E4.26664
G1 X109.71 Y102.571 E4.30869
G1 X110.598 Y102.407 E4.35073
G1 X111.692 Y102.315 E4.40185
G1 X112.331 Y102.3 E4.43162
G1 X122.447 Y102.301 E4.90266
G1 X123.137 Y102.311 E4.93479
G0 F6000 X123.143 Y101.911
G1 F1200 X124.062 Y101.964 E4.97766
G1 X124.973 Y102.097 E5.02053
G1 X125.869 Y102.309 E5.0634
G1 X126.743 Y102.597 E5.10625
G1 X127.589 Y102.96 E5.14912
G1 X128.4 Y103.395 E5.19197
G1 X129.171 Y103.899 E5.23486
G1 X129.895 Y104.468 E5.27774
G1 X130.567 Y105.098 E5.32063
G1 X131.181 Y105.783 E5.36346
G1 X131.734 Y106.519 E5.40633
G1 X132.221 Y107.301 E5.44923
G1 X132.638 Y108.122 E5.49211
G1 X132.982 Y108.975 E5.53493
G1 X133.251 Y109.856 E5.57783
G1 X133.443 Y110.756 E5.62068
G1 X133.556 Y111.67 E5.66356
G1 X133.585 Y112.222 E5.6893
G1 X133.609 Y113.249 E5.73713
G1 X133.606 Y121.947 E6.14215
G1 X133.597 Y122.612 E6.17312
G1 X133.545 Y123.532 E6.21603
G1 X133.413 Y124.443 E6.25889
G1 X133.202 Y125.339 E6.30175
G1 X132.915 Y126.214 E6.34463
G1 X132.552 Y127.06 E6.3875
G1 X132.118 Y127.872 E6.43037
G1 X131.615 Y128.643 E6.47323
G1 X131.046 Y129.367 E6.51611
G1 X130.418 Y130.039 E6.55894
G1 X129.733 Y130.655 E6.60184
G1 X128.997 Y131.208 E6.6447
G1 X128.216 Y131.696 E6.68759
G1 X127.396 Y132.114 E6.73044
G1 X126.542 Y132.459 E6.77333
G1 X125.662 Y132.729 E6.81619
G1 X124.762 Y132.921 E6.85904
G1 X123.998 Y133.022 E6.89493
G1 X123.671 Y133.053 E6.91022
G1 X122.671 Y133.1 E6.95684
G1 X112.562 Y133.099 E7.42756
G1 X111.876 Y133.09 E7.4595
G1 X110.957 Y133.038 E7.50236
G1 X110.046 Y132.906 E7.54523
G1 X109.149 Y132.696 E7.58812
G1 X108.275 Y132.409 E7.63096
G1 X107.428 Y132.047 E7.67385
G1 X106.616 Y131.613 E7.71672
G1 X105.845 Y131.11 E7.75959
G1 X105.12 Y130.542 E7.80247
G1 X104.448 Y129.914 E7.8453
G1 X103.832 Y129.229 E7.8882
G1 X103.278 Y128.494 E7.93106
G1 X102.79 Y127.713 E7.97394
G1 X102.372 Y126.893 E8.0168
G1 X102.027 Y126.039 E8.05968
G1 X101.756 Y125.159 E8.10256
G1 X101.563 Y124.259 E8.14542
G1 X101.449 Y123.345 E8.18831
G1 X101.418 Y122.731 E8.21694
G1 X101.392 Y121.511 E8.27376
G1 X101.391 Y121.21 E8.28777
G1 X101.394 Y112.989 E8.67058
G1 X101.404 Y112.345 E8.70057
G1 X101.459 Y111.426 E8.74344
G1 X101.592 Y110.515 E8.78631
G1 X101.805 Y109.62 E8.82915
G1 X102.094 Y108.746 E8.87201
G1 X102.458 Y107.9 E8.9149
G1 X102.894 Y107.089 E8.95777
G1 X103.399 Y106.319 E9.00065
G1 X103.968 Y105.596 E9.04349
G1 X104.599 Y104.925 E9.08638
G1 X105.285 Y104.311 E9.12925
G1 X106.022 Y103.759 E9.17212
G1 X106.803 Y103.273 E9.21496
G1 X107.625 Y102.857 E9.25786
G1 X108.479 Y102.513 E9.30073
G1 X109.359 Y102.245 E9.34356
G1 X110.26 Y102.054 E9.38645
G1 X111.174 Y101.942 E9.42933
G1 X111.68 Y101.915 E9.45292
G1 X112.331 Y101.9 E9.48324
G1 X122.453 Y101.901 E9.95456
G1 X123.143 Y101.911 E9.9867
G0 F6000 X123.148 Y101.511
G1 F1200 X124.085 Y101.565 E10.0304
G1 X125.013 Y101.698 E10.07405
G1 X125.927 Y101.91 E10.11774
G1 X126.819 Y102.198 E10.16139
G1 X127.684 Y102.562 E10.20509
G1 X128.514 Y102.998 E10.24874
G1 X129.304 Y103.503 E10.2924
G1 X130.048 Y104.074 E10.33607
G1 X130.741 Y104.706 E10.37975
G1 X131.378 Y105.395 E10.42344
G1 X131.953 Y106.135 E10.46708
G1 X132.464 Y106.922 E10.51077
G1 X132.905 Y107.749 E10.55441
G1 X133.275 Y108.611 E10.59809
G1 X133.57 Y109.502 E10.6418
G1 X133.787 Y110.414 E10.68545
G1 X133.927 Y111.341 E10.7291
G1 X133.985 Y112.212 E10.76975
G1 X134.009 Y113.25 E10.8181
G1 X134.006 Y121.953 E11.22334
G1 X133.997 Y122.618 E11.25431
G1 X133.944 Y123.554 E11.29797
G1 X133.812 Y124.483 E11.34166
G1 X133.601 Y125.397 E11.38534
G1 X133.313 Y126.289 E11.42898
G1 X132.95 Y127.154 E11.47267
G1 X132.515 Y127.985 E11.51634
G1 X132.011 Y128.775 E11.55998
G1 X131.441 Y129.52 E11.60365
G1 X130.809 Y130.214 E11.64736
G1 X130.121 Y130.851 E11.69102
G1 X129.381 Y131.427 E11.73469
G1 X128.595 Y131.939 E11.77837
G1 X127.768 Y132.381 E11.82203
G1 X126.906 Y132.751 E11.86571
G1 X126.016 Y133.047 E11.90938
G1 X125.104 Y133.265 E11.95305
G1 X124.036 Y133.42 E12.0033
G1 X123.709 Y133.451 E12.01859
G1 X122.671 Y133.5 E12.06698
G1 X112.557 Y133.499 E12.53793
G1 X111.871 Y133.49 E12.56988
G1 X110.934 Y133.438 E12.61357
G1 X110.006 Y133.306 E12.65722
G1 X109.092 Y133.095 E12.7009
G1 X108.199 Y132.808 E12.74458
G1 X107.334 Y132.445 E12.78826
G1 X106.503 Y132.01 E12.83193
G1 X105.712 Y131.506 E12.87561
G1 X104.967 Y130.937 E12.91926
G1 X104.273 Y130.306 E12.96293
G1 X103.636 Y129.618 E13.00659
G1 X103.059 Y128.878 E13.05029
G1 X102.548 Y128.092 E13.09394
G1 X102.105 Y127.265 E13.13763
G1 X101.734 Y126.404 E13.18128
G1 X101.438 Y125.514 E13.22496
G1 X101.219 Y124.602 E13.26863
G1 X101.079 Y123.675 E13.31228
G1 X101.018 Y122.74 E13.35591
G1 X100.992 Y121.513 E13.41306
G1 X100.991 Y121.212 E13.42708
G1 X100.994 Y112.983 E13.81025
G1 X101.004 Y112.339 E13.84024
G1 X101.059 Y111.403 E13.8839
G1 X101.193 Y110.475 E13.92756
G1 X101.406 Y109.561 E13.97126
G1 X101.695 Y108.669 E14.01492
G1 X102.06 Y107.805 E14.0586
G1 X102.497 Y106.975 E14.10228
G1 X103.003 Y106.186 E14.14592
G1 X103.574 Y105.442 E14.18959
G1 X104.207 Y104.75 E14.23326
G1 X104.896 Y104.114 E14.27692
G1 X105.637 Y103.539 E14.3206
G1 X106.425 Y103.029 E14.3643
G1 X107.253 Y102.589 E14.40797
G1 X108.115 Y102.22 E14.45163
G1 X109.006 Y101.926 E14.49532
G1 X109.918 Y101.709 E14.53897
G1 X110.846 Y101.571 E14.58265
G1 X111.668 Y101.515 E14.62102
G1 X111.996 Y101.505 E14.6363
G1 X112.331 Y101.5 E14.6519
G1 X122.458 Y101.501 E15.12346
G1 X123.148 Y101.511 E15.15559
G1 F2700 E10.15559
;MESH:lock.stl
G0 F6000 X122.589 Y111.835
G0 X122.589 Y112.94
G0 X122.407 Y121.9
;TYPE:WALL-INNER
G1 F2700 E15.15559
G1 F1200 X112.593 Y121.9 E15.61257
G1 X112.591 Y121.175 E15.64633
G1 X112.593 Y113.1 E16.02233
G1 X122.21 Y113.1 E16.47014
G1 X122.409 Y113.1 E16.47941
G1 X122.409 Y113.299 E16.4854
G1 X122.407 Y121.9 E16.8859
G0 F6000 X122.807 Y122.3
;TYPE:WALL-OUTER
G1 F1200 X112.194 Y122.3 E17.38009
G1 X112.191 Y121.175 E17.43247
G1 X112.193 Y112.7 E17.8271
G1 X122.807 Y112.7 E18.32134
G1 X122.809 Y112.94 E18.33251
G1 X122.807 Y122.3 E18.76835
G0 F6000 X122.537 Y122.03
G0 X122.017 Y121.79
G0 X122.017 Y121.51
;TYPE:SKIN
G1 F1200 X112.982 Y121.51 E19.18906
G1 X112.981 Y121.174 E19.20471
G1 X112.983 Y113.49 E19.56251
G1 X122.019 Y113.49 E19.98326
G1 X122.017 Y121.51 E20.3567
G0 F6000 X122.017 Y121.79
G0 X122.204 Y121.726
G0 X122.298 Y113.939
G0 X121.858 Y113.938
G1 F1200 X121.57 Y113.65 E20.37567
G0 F6000 X121.004 Y113.65
G1 F1200 X121.858 Y114.504 E20.43191
G0 F6000 X121.858 Y115.07
G1 F1200 X120.438 Y113.65 E20.52542
G0 F6000 X119.872 Y113.65
G1 F1200 X121.858 Y115.636 E20.6562
G0 F6000 X121.858 Y116.201
G1 F1200 X119.307 Y113.65 E20.82419
G0 F6000 X118.741 Y113.65
G1 F1200 X121.857 Y116.766 E21.02938
G0 F6000 X121.857 Y117.332
G1 F1200 X118.175 Y113.65 E21.27185
G0 F6000 X117.61 Y113.65
G1 F1200 X121.857 Y117.898 E21.55155
G0 F6000 X121.857 Y118.463
G1 F1200 X117.043 Y113.649 E21.86856
G0 F6000 X116.478 Y113.649
G1 F1200 X121.857 Y119.028 E22.22278
G0 F6000 X121.857 Y119.594
G1 F1200 X115.912 Y113.649 E22.61427
G0 F6000 X115.346 Y113.649
G1 F1200 X121.857 Y120.16 E23.04303
G0 F6000 X121.857 Y120.725
G1 F1200 X114.781 Y113.649 E23.50899
G0 F6000 X114.215 Y113.649
G1 F1200 X121.857 Y121.291 E24.01223
G0 F6000 X121.349 Y121.349
G1 F1200 X113.649 Y113.649 E24.51929
G0 F6000 X113.142 Y113.707
G1 F1200 X120.783 Y121.349 E25.0225
G0 F6000 X120.218 Y121.349
G1 F1200 X113.142 Y114.273 E25.48846
G0 F6000 X113.142 Y114.839
G1 F1200 X119.652 Y121.349 E25.91716
G0 F6000 X119.086 Y121.349
G1 F1200 X113.142 Y115.404 E26.30861
G0 F6000 X113.142 Y115.97
G1 F1200 X118.52 Y121.349 E26.6628
G0 F6000 X117.955 Y121.349
G1 F1200 X113.142 Y116.536 E26.97974
G0 F6000 X113.142 Y117.101
G1 F1200 X117.389 Y121.349 E27.25945
G0 F6000 X116.823 Y121.349
G1 F1200 X113.141 Y117.666 E27.50194
G0 F6000 X113.141 Y118.232
G1 F1200 X116.258 Y121.349 E27.7072
G0 F6000 X115.692 Y121.349
G1 F1200 X113.141 Y118.798 E27.87519
G0 F6000 X113.141 Y119.363
G1 F1200 X115.126 Y121.349 E28.00594
G0 F6000 X114.561 Y121.349
G1 F1200 X113.141 Y119.929 E28.09945
G0 F6000 X113.141 Y120.495
G1 F1200 X113.995 Y121.349 E28.15569
G0 F6000 X113.429 Y121.349
G1 F1200 X113.141 Y121.06 E28.17469
G0 F6000 X112.791 Y121.059
;MESH:NONMESH
G0 F300 X112.791 Y121.059 Z0.56
G0 F6000 X112.702 Y121.059
G0 X112.774 Y121.718
G0 X122.508 Y121.899
G0 X122.713 Y121.9
;TIME_ELAPSED:38.634115
;LAYER:1
M140 S60
M106 S85
;TYPE:WALL-INNER
;MESH:lock.stl
G1 F1350 X122.514 Y121.9 E28.18395
G1 X112.288 Y121.9 E28.66012
G1 X112.287 Y113.299 E29.06062
G1 X112.287 Y113.1 E29.06988
G1 X112.486 Y113.1 E29.07588
G1 X122.712 Y113.1 E29.55204
G1 X122.713 Y121.701 E29.95254
G1 X122.713 Y121.9 E29.95854
G0 F7500 X123.113 Y122.3
;TYPE:WALL-OUTER
G1 F1350 X111.888 Y122.3 E30.48122
G1 X111.887 Y112.7 E30.92824
G1 X123.112 Y112.7 E31.45092
G1 X123.113 Y122.3 E31.89793
G0 F7500 X122.843 Y122.03
G0 X122.603 Y121.51
G0 X122.323 Y121.51
;TYPE:SKIN
G1 F1350 X112.678 Y121.51 E32.34705
G1 X112.677 Y113.49 E32.72049
G1 X122.322 Y113.49 E33.1696
G1 X122.323 Y121.51 E33.54305
G0 F7500 X122.161 Y121.083
G1 F1350 X121.894 Y121.35 E33.56063
G0 F7500 X121.328 Y121.35
G1 F1350 X122.161 Y120.517 E33.61548
G0 F7500 X122.161 Y119.952
G1 F1350 X120.763 Y121.35 E33.70754
G0 F7500 X120.197 Y121.35
G1 F1350 X122.161 Y119.386 E33.83688
G0 F7500 X122.161 Y118.82
G1 F1350 X119.631 Y121.35 E34.00348
G0 F7500 X119.066 Y121.35
G1 F1350 X122.161 Y118.255 E34.20729
G0 F7500 X122.161 Y117.689
G1 F1350 X118.5 Y121.35 E34.44838
G0 F7500 X117.934 Y121.35
G1 F1350 X122.161 Y117.123 E34.72673
G0 F7500 X122.161 Y116.558
G1 F1350 X117.369 Y121.349 E35.04226
G0 F7500 X116.804 Y121.349
G1 F1350 X122.161 Y115.992 E35.39503
G0 F7500 X122.161 Y115.426
G1 F1350 X116.238 Y121.349 E35.78507
G0 F7500 X115.672 Y121.349
G1 F1350 X122.161 Y114.861 E36.21235
G0 F7500 X122.161 Y114.295
G1 F1350 X115.107 Y121.349 E36.67686
G0 F7500 X114.541 Y121.349
G1 F1350 X122.161 Y113.729 E37.17865
G0 F7500 X121.675 Y113.649
G1 F1350 X113.975 Y121.349 E37.68571
G0 F7500 X113.41 Y121.349
G1 F1350 X121.109 Y113.649 E38.19274
G0 F7500 X120.544 Y113.649
G1 F1350 X112.844 Y121.349 E38.6998
G0 F7500 X112.837 Y120.79
G1 F1350 X119.978 Y113.649 E39.17004
G0 F7500 X119.412 Y113.649
G1 F1350 X112.837 Y120.224 E39.60302
G0 F7500 X112.837 Y119.658
G1 F1350 X118.846 Y113.649 E39.99872
G0 F7500 X118.281 Y113.649
G1 F1350 X112.837 Y119.093 E40.35722
G0 F7500 X112.837 Y118.527
G1 F1350 X117.715 Y113.649 E40.67844
G0 F7500 X117.15 Y113.649
G1 F1350 X112.837 Y117.961 E40.96243
G0 F7500 X112.837 Y117.395
G1 F1350 X116.584 Y113.649 E41.20914
G0 F7500 X116.019 Y113.649
G1 F1350 X112.837 Y116.83 E41.41865
G0 F7500 X112.837 Y116.264
G1 F1350 X115.453 Y113.649 E41.59088
G0 F7500 X114.887 Y113.649
G1 F1350 X112.837 Y115.698 E41.72585
G0 F7500 X112.837 Y115.133
G1 F1350 X114.322 Y113.649 E41.8236
G0 F7500 X113.756 Y113.649
G1 F1350 X112.837 Y114.567 E41.88409
G0 F7500 X112.837 Y114.001
G1 F1350 X113.19 Y113.649 E41.9073
G0 F7500 X113.19 Y113.3
;MESH:NONMESH
G0 F300 X113.19 Y113.3 Z0.84
G0 F7500 X113.19 Y113.21
G0 X122.53 Y113.282
G0 X122.812 Y121.899
G0 X122.853 Y121.9
;TIME_ELAPSED:55.024375
;LAYER:2
M106 S170
;TYPE:WALL-INNER
;MESH:lock.stl
G1 F1500 X112.147 Y121.9 E42.40582
G1 X112.146 Y121.375 E42.43026
G1 X112.147 Y113.1 E42.81558
G1 X122.655 Y113.1 E43.30488
G1 X122.854 Y113.1 E43.31414
G1 X122.854 Y113.299 E43.32014
G1 X122.853 Y121.9 E43.72064
G0 F9000 X123.253 Y122.3
;TYPE:WALL-OUTER
G1 F1500 X111.748 Y122.3 E44.25636
G1 X111.746 Y121.376 E44.29938
G1 X111.747 Y112.7 E44.70338
G1 X123.253 Y112.7 E45.23914
G1 X123.254 Y112.873 E45.2472
G1 X123.253 Y122.3 E45.68616
G0 F9000 X122.983 Y122.03
G0 X122.463 Y121.79
G0 X122.463 Y121.51
;TYPE:SKIN
G1 F1500 X112.536 Y121.51 E46.1484
G1 X112.536 Y121.374 E46.15474
G1 X112.537 Y113.49 E46.52185
G1 X122.464 Y113.49 E46.98409
G1 X122.463 Y121.51 E47.35753
G0 F9000 X122.463 Y121.79
G0 X122.65 Y121.726
G0 X122.743 Y113.819
G0 X122.303 Y113.818
G1 F1500 X122.135 Y113.649 E47.36863
G0 F9000 X121.569 Y113.649
G1 F1500 X122.303 Y114.383 E47.41697
G0 F9000 X122.303 Y114.949
G1 F1500 X121.003 Y113.649 E47.50257
G0 F9000 X120.437 Y113.649
G1 F1500 X122.303 Y115.515 E47.62545
G0 F9000 X122.303 Y116.08
G1 F1500 X119.872 Y113.649 E47.78554
G0 F9000 X119.306 Y113.649
G1 F1500 X122.303 Y116.646 E47.9829
G0 F9000 X122.303 Y117.212
G1 F1500 X118.74 Y113.649 E48.21753
G0 F9000 X118.175 Y113.649
G1 F1500 X122.302 Y117.777 E48.48933
G0 F9000 X122.302 Y118.342
G1 F1500 X117.609 Y113.649 E48.79837
G0 F9000 X117.043 Y113.649
G1 F1500 X122.302 Y118.908 E49.14468
G0 F9000 X122.302 Y119.474
G1 F1500 X116.478 Y113.649 E49.52824
G0 F9000 X115.912 Y113.649
G1 F1500 X122.302 Y120.039 E49.94903
G0 F9000 X122.302 Y120.605
G1 F1500 X115.346 Y113.649 E50.40709
G0 F9000 X114.781 Y113.649
G1 F1500 X122.302 Y121.171 E50.9024
G0 F9000 X121.915 Y121.349
G1 F1500 X114.215 Y113.649 E51.40946
G0 F9000 X113.649 Y113.649
G1 F1500 X121.349 Y121.349 E51.91651
