;FLAVOR:Marlin
;TIME:4692
;Filament used: 4.40996m
;Layer height: 0.28
;MINX:75
;MINY:76.875
;MINZ:0.28
;MAXX:160
;MAXY:160.375
;MAXZ:12.32
;Generated with Cura_SteamEngine 4.7.0
M140 S55
M105
M190 S55
M104 S210
M105
M109 S210
M82 ;absolute extrusion mode
; Ender 3 Custom Start G-code
G92 E0 ; Reset Extruder
G28 ; Home all axes
G1 Z2.0 F3000 ; Move Z Axis up little to prevent scratching of Heat Bed
G1 X0.1 Y20 Z0.3 F5000.0 ; Move to start position
G1 X0.1 Y200.0 Z0.3 F1500.0 E15 ; Draw the first line
G1 X0.4 Y200.0 Z0.3 F5000.0 ; Move to side a little
G1 X0.4 Y20 Z0.3 F1500.0 E30 ; Draw the second line
G92 E0 ; Reset Extruder
G1 Z2.0 F3000 ; Move Z Axis up little to prevent scratching of Heat Bed
G1 X5 Y20 Z0.3 F5000.0 ; Move over to prevent blob squish
G92 E0
G92 E0
G1 F2700 E-5
;LAYER_COUNT:44
;LAYER:0
M107
G0 F6000 X93.863 Y81.084 Z0.28
;TYPE:SKIRT
G1 F2700 E0
G1 F1200 X94.475 Y80.373 E0.04368
G1 X95.145 Y79.717 E0.08734
G1 X95.868 Y79.12 E0.131
G1 X96.64 Y78.587 E0.17469
G1 X97.454 Y78.122 E0.21834
G1 X98.305 Y77.727 E0.26203
G1 X99.186 Y77.407 E0.30567
G1 X100.092 Y77.163 E0.34936
G1 X101.015 Y76.997 E0.39303
G1 X102.276 Y76.898 E0.45193
G1 X103.305 Y76.877 E0.49985
G1 X103.529 Y76.875 E0.51028
G1 X131.953 Y76.876 E1.83382
G1 X132.639 Y76.886 E1.86577
G1 X133.576 Y76.94 E1.90947
G1 X134.504 Y77.073 E1.95313
G1 X135.418 Y77.285 E1.99682
G1 X136.31 Y77.574 E2.04048
G1 X137.174 Y77.937 E2.08411
G1 X138.005 Y78.374 E2.12783
G1 X138.795 Y78.879 E2.17149
G1 X139.539 Y79.45 E2.21516
G1 X140.232 Y80.082 E2.25884
G1 X140.868 Y80.77 E2.30246
G1 X141.444 Y81.511 E2.34617
G1 X142.107 Y82.566 E2.40419
G1 X142.618 Y83.491 E2.45339
G1 X142.734 Y83.706 E2.46477
G1 X158.406 Y113.625 E4.03748
G1 X158.485 Y113.779 E4.04554
G1 X158.811 Y114.426 E4.07927
G1 X159.197 Y115.281 E4.12296
G1 X159.509 Y116.166 E4.16665
G1 X159.744 Y117.074 E4.21033
G1 X159.901 Y117.998 E4.25397
G1 X159.987 Y119.204 E4.31027
G1 X159.999 Y119.973 E4.34608
G1 X160 Y148.639 E5.68089
G1 X159.989 Y149.517 E5.72177
G1 X159.936 Y150.454 E5.76547
G1 X159.804 Y151.382 E5.80912
G1 X159.593 Y152.296 E5.8528
G1 X159.304 Y153.188 E5.89646
G1 X158.941 Y154.053 E5.94014
G1 X158.506 Y154.884 E5.98382
G1 X158.001 Y155.674 E6.02748
G1 X157.431 Y156.419 E6.07116
G1 X156.8 Y157.113 E6.11483
G1 X156.111 Y157.75 E6.15853
G1 X155.371 Y158.326 E6.20219
G1 X154.585 Y158.837 E6.24585
G1 X153.758 Y159.279 E6.28951
G1 X152.896 Y159.649 E6.33319
G1 X152.006 Y159.944 E6.37685
G1 X151.094 Y160.163 E6.42052
G1 X150.167 Y160.303 E6.46418
G1 X149.299 Y160.362 E6.50469
G1 X148.979 Y160.371 E6.51959
G1 X148.67 Y160.375 E6.53398
G1 X86.565 Y160.374 E9.42585
G1 X85.867 Y160.365 E9.45836
G1 X84.931 Y160.313 E9.50201
G1 X84.002 Y160.181 E9.5457
G1 X83.088 Y159.971 E9.58937
G1 X82.195 Y159.684 E9.63305
G1 X81.33 Y159.321 E9.67673
G1 X80.499 Y158.887 E9.72038
G1 X79.708 Y158.383 E9.76405
G1 X78.963 Y157.813 E9.80773
G1 X78.269 Y157.182 E9.85141
G1 X77.632 Y156.495 E9.89503
G1 X77.055 Y155.755 E9.93873
G1 X76.543 Y154.969 E9.98241
G1 X76.1 Y154.142 E10.02609
G1 X75.729 Y153.281 E10.06975
G1 X75.433 Y152.391 E10.11342
G1 X75.214 Y151.479 E10.1571
G1 X75.073 Y150.552 E10.20076
G1 X75.013 Y149.663 E10.24225
G1 X75.004 Y149.33 E10.25776
G1 X75 Y149.033 E10.27159
G1 X75.001 Y119.925 E11.62698
G1 X75.011 Y119.223 E11.65967
G1 X75.064 Y118.287 E11.70333
G1 X75.197 Y117.359 E11.74698
G1 X75.409 Y116.445 E11.79067
G1 X75.697 Y115.552 E11.83436
G1 X76.192 Y114.42 E11.89189
G1 X76.604 Y113.607 E11.93433
G1 X92.527 Y83.211 E13.53214
G1 X92.832 Y82.649 E13.56191
G1 X93.314 Y81.845 E13.60556
G1 X93.863 Y81.084 E13.64926
G0 F6000 X94.198 Y81.305
G1 F1200 X94.801 Y80.61 E13.6921
G1 X95.462 Y79.969 E13.73498
G1 X96.177 Y79.389 E13.77785
G1 X96.939 Y78.872 E13.82072
G1 X97.743 Y78.423 E13.8636
G1 X98.583 Y78.046 E13.90648
G1 X99.452 Y77.744 E13.94931
G1 X100.345 Y77.517 E13.99222
G1 X101.253 Y77.37 E14.03505
G1 X102.284 Y77.298 E14.08317
G1 X103.313 Y77.277 E14.1311
G1 X103.529 Y77.275 E14.14116
G1 X131.948 Y77.276 E15.46447
G1 X132.634 Y77.286 E15.49641
G1 X133.553 Y77.34 E15.53928
G1 X134.464 Y77.472 E15.58214
G1 X135.36 Y77.684 E15.62501
G1 X136.234 Y77.972 E15.66786
G1 X137.08 Y78.336 E15.71075
G1 X137.891 Y78.771 E15.7536
G1 X138.662 Y79.275 E15.79649
G1 X139.385 Y79.844 E15.83933
G1 X140.057 Y80.473 E15.88219
G1 X140.672 Y81.159 E15.92509
G1 X141.224 Y81.895 E15.96793
G1 X141.757 Y82.759 E16.0152
G1 X142.268 Y83.684 E16.06441
G1 X142.38 Y83.891 E16.07537
G1 X158.052 Y113.81 E17.64808
G1 X158.454 Y114.606 E17.68961
G1 X158.832 Y115.446 E17.7325
G1 X159.136 Y116.315 E17.77537
G1 X159.364 Y117.207 E17.81824
G1 X159.513 Y118.115 E17.86108
G1 X159.587 Y119.211 E17.91223
G1 X159.599 Y119.98 E17.94804
G1 X159.6 Y148.639 E19.28253
G1 X159.589 Y149.512 E19.32318
G1 X159.536 Y150.431 E19.36605
G1 X159.404 Y151.342 E19.40891
G1 X159.193 Y152.238 E19.45177
G1 X158.906 Y153.113 E19.49465
G1 X158.543 Y153.959 E19.53752
G1 X158.109 Y154.771 E19.58039
G1 X157.605 Y155.542 E19.62328
G1 X157.037 Y156.266 E19.66613
G1 X156.408 Y156.938 E19.70899
G1 X155.723 Y157.553 E19.75185
G1 X154.987 Y158.106 E19.79472
G1 X154.206 Y158.594 E19.8376
G1 X153.386 Y159.012 E19.88046
G1 X152.532 Y159.357 E19.92335
G1 X151.652 Y159.626 E19.9662
G1 X150.751 Y159.819 E20.0091
G1 X149.838 Y159.932 E20.05194
G1 X149.288 Y159.962 E20.07759
G1 X148.968 Y159.971 E20.0925
G1 X148.67 Y159.975 E20.10637
G1 X86.57 Y159.974 E22.99801
G1 X85.872 Y159.965 E23.03051
G1 X84.953 Y159.913 E23.07337
G1 X84.042 Y159.782 E23.11623
G1 X83.146 Y159.572 E23.15908
G1 X82.271 Y159.285 E23.20196
G1 X81.424 Y158.923 E23.24485
G1 X80.612 Y158.489 E23.28773
G1 X79.841 Y157.987 E23.33057
G1 X79.116 Y157.419 E23.37345
G1 X78.443 Y156.79 E23.41635
G1 X77.828 Y156.106 E23.45918
G1 X77.274 Y155.371 E23.50203
G1 X76.786 Y154.59 E23.54492
G1 X76.367 Y153.77 E23.5878
G1 X76.021 Y152.917 E23.63066
G1 X75.751 Y152.037 E23.67352
G1 X75.558 Y151.136 E23.71643
G1 X75.444 Y150.223 E23.75927
G1 X75.413 Y149.652 E23.7859
G1 X75.404 Y149.319 E23.80141
G1 X75.4 Y149.033 E23.81473
G1 X75.401 Y119.931 E25.16984
G1 X75.411 Y119.229 E25.20253
G1 X75.464 Y118.31 E25.24539
G1 X75.597 Y117.399 E25.28826
G1 X75.808 Y116.503 E25.33112
G1 X76.096 Y115.628 E25.37402
G1 X76.549 Y114.6 E25.42633
G1 X76.958 Y113.792 E25.4685
G1 X92.805 Y83.539 E27.05877
G1 X93.184 Y82.84 E27.09579
G1 X93.657 Y82.051 E27.13863
G1 X94.198 Y81.305 E27.18154
G0 F6000 X94.533 Y81.527
G1 F1200 X95.127 Y80.847 E27.22358
G1 X95.78 Y80.223 E27.26564
G1 X96.485 Y79.658 E27.30771
G1 X97.237 Y79.159 E27.34973
G1 X98.03 Y78.727 E27.39178
G1 X98.859 Y78.368 E27.43384
G1 X99.716 Y78.083 E27.4759
G1 X100.595 Y77.876 E27.51795
G1 X101.489 Y77.746 E27.56001
G1 X102.292 Y77.698 E27.59747
G1 X103.321 Y77.677 E27.6454
G1 X103.529 Y77.675 E27.65508
G1 X131.793 Y77.675 E28.97117
G1 X132.628 Y77.686 E29.01006
G1 X133.529 Y77.739 E29.05208
G1 X134.423 Y77.872 E29.09417
G1 X135.301 Y78.083 E29.13622
G1 X136.157 Y78.371 E29.17827
G1 X136.984 Y78.734 E29.22033
G1 X137.775 Y79.168 E29.26234
G1 X138.526 Y79.671 E29.30443
G1 X139.229 Y80.238 E29.34648
G1 X139.879 Y80.865 E29.38854
G1 X140.471 Y81.547 E29.43059
G1 X141 Y82.278 E29.4726
G1 X141.407 Y82.953 E29.50931
G1 X141.918 Y83.878 E29.55851
G1 X142.025 Y84.077 E29.56903
G1 X157.771 Y114.139 E31.14924
G1 X158.097 Y114.786 E31.18298
G1 X158.467 Y115.61 E31.22504
G1 X158.763 Y116.463 E31.26708
G1 X158.983 Y117.339 E31.30914
G1 X159.124 Y118.231 E31.35119
G1 X159.187 Y119.217 E31.39719
G1 X159.199 Y119.986 E31.43301
G1 X159.2 Y148.639 E32.76721
G1 X159.189 Y149.506 E32.80758
G1 X159.137 Y150.408 E32.84966
G1 X159.005 Y151.301 E32.89169
G1 X158.794 Y152.18 E32.93378
G1 X158.507 Y153.036 E32.97582
G1 X158.145 Y153.863 E33.01786
G1 X157.711 Y154.655 E33.05991
G1 X157.209 Y155.406 E33.10197
G1 X156.643 Y156.109 E33.144
G1 X156.016 Y156.76 E33.18609
G1 X155.335 Y157.352 E33.2281
G1 X154.604 Y157.882 E33.27015
G1 X153.828 Y158.345 E33.31222
G1 X153.015 Y158.738 E33.35427
G1 X152.17 Y159.058 E33.39634
G1 X151.301 Y159.301 E33.43836
G1 X150.413 Y159.466 E33.48042
G1 X149.277 Y159.562 E33.5335
G1 X148.957 Y159.571 E33.54841
G1 X148.67 Y159.575 E33.56177
G1 X86.575 Y159.574 E36.45318
G1 X85.877 Y159.565 E36.48568
G1 X84.976 Y159.514 E36.5277
G1 X84.082 Y159.382 E36.56978
G1 X83.204 Y159.173 E36.61181
G1 X82.347 Y158.886 E36.65389
G1 X81.52 Y158.525 E36.69591
G1 X80.727 Y158.092 E36.73798
G1 X79.976 Y157.591 E36.78002
G1 X79.272 Y157.025 E36.82208
G1 X78.621 Y156.399 E36.86414
G1 X78.028 Y155.718 E36.90618
G1 X77.498 Y154.987 E36.94823
G1 X77.034 Y154.212 E36.99029
G1 X76.64 Y153.399 E37.03235
G1 X76.32 Y152.555 E37.07439
G1 X76.076 Y151.685 E37.11646
G1 X75.91 Y150.797 E37.15852
G1 X75.813 Y149.642 E37.2125
G1 X75.804 Y149.309 E37.22801
G1 X75.8 Y149.033 E37.24086
G1 X75.801 Y119.937 E38.59569
G1 X75.811 Y119.235 E38.62838
G1 X75.864 Y118.333 E38.67046
G1 X75.996 Y117.44 E38.71249
G1 X76.207 Y116.562 E38.75454
G1 X76.495 Y115.706 E38.79659
G1 X76.906 Y114.78 E38.84377
G1 X77.244 Y114.111 E38.87867
G1 X93.23 Y83.593 E40.48287
G1 X93.535 Y83.031 E40.51264
G1 X94.001 Y82.257 E40.55471
G1 X94.533 Y81.527 E40.59677
G1 F2700 E35.59677
;MESH:RGB_LED_remote_holder4c88157c6949bf862c64b2a6f9294db7-rgbremoteholder.stl
G0 F6000 X116.565 Y103.44
G0 X115.517 Y102.392
G0 X114.888 Y104.375
;TYPE:WALL-INNER
G1 F2700 E40.59677
G1 F1200 X115.087 Y105.374 E40.64421
G1 X115.654 Y106.221 E40.69167
G1 X116.501 Y106.788 E40.73913
G1 X117.5 Y106.987 E40.78656
G1 X118.499 Y106.788 E40.83399
G1 X119.346 Y106.221 E40.88145
G1 X119.913 Y105.374 E40.92891
G1 X120.112 Y104.375 E40.97635
G1 X119.913 Y103.376 E41.02378
G1 X119.346 Y102.529 E41.07124
G1 X118.499 Y101.962 E41.1187
G1 X117.5 Y101.763 E41.16613
G1 X116.501 Y101.962 E41.21356
G1 X115.654 Y102.529 E41.26102
G1 X115.087 Y103.376 E41.30848
G1 X114.888 Y104.375 E41.35592
G0 F6000 X115.296 Y104.375
;TYPE:WALL-OUTER
G1 F1200 X115.464 Y105.218 E41.39594
G1 X115.942 Y105.933 E41.43599
G1 X116.657 Y106.411 E41.47604
G1 X117.5 Y106.579 E41.51606
G1 X118.343 Y106.411 E41.55609
G1 X119.058 Y105.933 E41.59614
G1 X119.536 Y105.218 E41.63619
G1 X119.704 Y104.375 E41.67621
G1 X119.536 Y103.532 E41.71624
G1 X119.058 Y102.817 E41.75628
G1 X118.343 Y102.339 E41.79633
G1 X117.5 Y102.171 E41.83636
G1 X116.657 Y102.339 E41.87638
G1 X115.942 Y102.817 E41.91643
G1 X115.464 Y103.532 E41.95648
G1 X115.296 Y104.375 E41.99651
G0 F6000 X114.856 Y104.375
G1 F2700 E36.99651
G0 F6000 X115.517 Y106.358
G0 X116.565 Y105.31
G0 X116.565 Y133.44
G0 X115.517 Y132.392
G0 X114.888 Y134.375
;TYPE:WALL-INNER
G1 F2700 E41.99651
G1 F1200 X115.087 Y135.374 E42.04394
G1 X115.654 Y136.221 E42.0914
G1 X116.501 Y136.788 E42.13886
G1 X117.5 Y136.987 E42.18629
G1 X118.499 Y136.788 E42.23372
G1 X119.346 Y136.221 E42.28118
G1 X119.913 Y135.374 E42.32865
G1 X120.112 Y134.375 E42.37608
G1 X119.913 Y133.376 E42.42351
G1 X119.346 Y132.529 E42.47097
G1 X118.499 Y131.962 E42.51843
G1 X117.5 Y131.763 E42.56586
G1 X116.501 Y131.962 E42.61329
G1 X115.654 Y132.529 E42.66075
G1 X115.087 Y133.376 E42.70822
G1 X114.888 Y134.375 E42.75565
G0 F6000 X115.296 Y134.375
;TYPE:WALL-OUTER
G1 F1200 X115.464 Y135.218 E42.79567
G1 X115.942 Y135.933 E42.83572
G1 X116.657 Y136.411 E42.87577
G1 X117.5 Y136.579 E42.91579
G1 X118.343 Y136.411 E42.95582
G1 X119.058 Y135.933 E42.99587
G1 X119.536 Y135.218 E43.03592
G1 X119.704 Y134.375 E43.07594
G1 X119.536 Y133.532 E43.11597
G1 X119.058 Y132.817 E43.15602
G1 X118.343 Y132.339 E43.19606
G1 X117.5 Y132.171 E43.23609
G1 X116.657 Y132.339 E43.27612
G1 X115.942 Y132.817 E43.31616
G1 X115.464 Y133.532 E43.35621
G1 X115.296 Y134.375 E43.39624
G0 F6000 X114.856 Y134.375
G1 F2700 E38.39624
G0 F6000 X115.24 Y135.311
G0 X115.77 Y136.105
G0 X116.564 Y136.635
G0 X117.5 Y136.823
G0 X118.436 Y136.635
G0 X120.093 Y135.449
G0 X118.723 Y134.881
G0 X120.093 Y150.04
G0 X120.093 Y148.565
G0 X148.4 Y148.775
;TYPE:WALL-INNER
G1 F2700 E43.39624
G1 F1200 X86.6 Y148.775 E46.2739
G1 X86.6 Y119.522 E47.63605
G1 X102.863 Y88.475 E49.26805
G1 X132.137 Y88.475 E50.63117
G1 X148.4 Y119.522 E52.26318
G1 X148.4 Y148.775 E53.62532
G0 F6000 X148.8 Y149.175
;TYPE:WALL-OUTER
G1 F1200 X86.2 Y149.175 E56.54024
G1 X86.2 Y119.424 E57.92557
G1 X102.621 Y88.075 E59.57345
G1 X132.379 Y88.075 E60.95911
G1 X148.8 Y119.424 E62.60699
G1 X148.8 Y149.175 E63.99232
G0 F6000 X148.53 Y148.905
G0 X148.29 Y148.385
G0 X148.01 Y148.385
;TYPE:SKIN
G1 F1200 X86.99 Y148.385 E66.83366
G1 X86.99 Y119.617 E68.17322
G1 X103.099 Y88.865 E69.78974
G1 X131.901 Y88.865 E71.13088
G1 X148.01 Y119.617 E72.74739
G1 X148.01 Y148.385 E74.08695
G1 F2700 E69.08695
G0 F6000 X148.29 Y148.385
G0 X148.226 Y148.572
G0 X120.017 Y148.565
G0 X120.017 Y150.04
G0 X118.435 Y135.31
G0 X119.483 Y136.358
G0 X120.017 Y135.418
G0 X120.28 Y135.526
G1 F2700 E74.08695
G1 F1200 X120.51 Y134.375 E74.1416
G1 X120.28 Y133.224 E74.19626
G1 X119.627 Y132.248 E74.25094
G1 X118.651 Y131.595 E74.30562
G1 X117.5 Y131.365 E74.36027
G1 X116.349 Y131.595 E74.41493
G1 X115.373 Y132.248 E74.46961
G1 X114.72 Y133.224 E74.52429
G1 X114.49 Y134.375 E74.57894
G1 X114.72 Y135.526 E74.6336
G1 X115.373 Y136.502 E74.68828
G1 X116.349 Y137.155 E74.74296
G1 X117.5 Y137.385 E74.79762
G1 X118.651 Y137.155 E74.85227
G1 X119.627 Y136.502 E74.90695
G1 X120.28 Y135.526 E74.96163
G1 F2700 E69.96163
G0 F6000 X120.017 Y135.418
G0 X119.948 Y134.375
G0 X119.76 Y133.439
G0 X118.574 Y131.782
G0 X118.006 Y133.152
G0 X118.006 Y105.598
G0 X118.574 Y106.968
G0 X119.427 Y106.299
G0 X119.627 Y106.502
G1 F2700 E74.96163
G1 F1200 X120.28 Y105.526 E75.01631
G1 X120.51 Y104.375 E75.07097
G1 X120.28 Y103.224 E75.12562
G1 X119.627 Y102.248 E75.1803
G1 X118.651 Y101.595 E75.23498
G1 X117.5 Y101.365 E75.28964
G1 X116.349 Y101.595 E75.34429
G1 X115.373 Y102.248 E75.39897
G1 X114.72 Y103.224 E75.45365
G1 X114.49 Y104.375 E75.50831
G1 X114.72 Y105.526 E75.56296
G1 X115.373 Y106.502 E75.61764
G1 X116.349 Y107.155 E75.67232
G1 X117.5 Y107.385 E75.72698
G1 X118.651 Y107.155 E75.78163
G1 X119.627 Y106.502 E75.83631
G1 F2700 E70.83631
G0 F6000 X119.427 Y106.299
G0 X119.76 Y105.311
G0 X120.093 Y103.301
G0 X118.723 Y103.869
G0 X120.093 Y87.21
G0 X120.093 Y88.685
G0 X131.451 Y88.585
G0 X131.451 Y89.024
G1 F2700 E75.83631
G1 F1200 X132.19 Y89.764 E75.88501
G0 F6000 X132.581 Y89.56
G0 X133.204 Y90.749
G0 X132.813 Y90.953
G1 F1200 X130.885 Y89.024 E76.01201
G0 F6000 X130.319 Y89.024
G1 F1200 X133.435 Y92.14 E76.2172
G0 F6000 X133.825 Y91.936
G0 X134.448 Y93.125
G0 X134.058 Y93.328
G1 F1200 X129.754 Y89.024 E76.50063
G0 F6000 X129.188 Y89.024
G1 F1200 X134.68 Y94.516 E76.86228
G0 F6000 X135.07 Y94.312
G0 X135.692 Y95.5
G0 X135.302 Y95.704
G1 F1200 X128.622 Y89.024 E77.30217
G0 F6000 X128.057 Y89.024
G1 F1200 X135.925 Y96.892 E77.82029
G0 F6000 X136.315 Y96.689
G0 X136.938 Y97.877
G0 X136.547 Y98.081
G1 F1200 X127.491 Y89.024 E78.41668
G0 F6000 X126.925 Y89.024
G1 F1200 X137.17 Y99.269 E79.09133
G0 F6000 X137.56 Y99.066
G0 X138.182 Y100.253
G0 X137.792 Y100.457
G1 F1200 X126.359 Y89.024 E79.84421
G0 F6000 X125.794 Y89.024
G1 F1200 X138.414 Y101.645 E80.6753
G0 F6000 X138.804 Y101.441
G0 X139.427 Y102.629
G0 X139.036 Y102.833
G1 F1200 X125.228 Y89.024 E81.58461
G0 F6000 X124.662 Y89.024
G1 F1200 X139.659 Y104.021 E82.57219
G0 F6000 X140.049 Y103.817
G0 X140.672 Y105.006
G0 X140.282 Y105.209
G1 F1200 X124.097 Y89.024 E83.638
G0 F6000 X123.531 Y89.024
G1 F1200 X140.904 Y106.397 E84.78204
G0 F6000 X141.294 Y106.194
G0 X141.916 Y107.382
G0 X141.526 Y107.585
G1 F1200 X122.965 Y89.024 E86.00431
G0 F6000 X122.4 Y89.024
G1 F1200 X142.148 Y108.773 E87.30478
G0 F6000 X142.538 Y108.569
G0 X143.161 Y109.758
G0 X142.771 Y109.961
G1 F1200 X121.834 Y89.024 E88.68352
G0 F6000 X121.268 Y89.024
G1 F1200 X143.393 Y111.149 E90.14049
G0 F6000 X143.783 Y110.946
G0 X144.406 Y112.135
G0 X144.016 Y112.338
G1 F1200 X120.703 Y89.024 E91.67572
G0 F6000 X120.137 Y89.024
G1 F1200 X144.638 Y113.525 E93.28916
G0 F6000 X145.028 Y113.322
G0 X145.65 Y114.51
G0 X145.26 Y114.713
G1 F1200 X119.571 Y89.024 E94.98082
G0 F6000 X119.006 Y89.024
G1 F1200 X145.883 Y115.901 E96.75072
