;FLAVOR:Marlin
;TIME:7298
;Filament used: 5.31123m
;Layer height: 0.2
;MINX:81.896
;MINY:30.805
;MINZ:0.2
;MAXX:150.627
;MAXY:204.1
;MAXZ:3
;Generated with Cura_SteamEngine 4.7.0
M140 S65
M105
M190 S65
M104 S225
M105
M109 S225
M82 ;absolute extrusion mode
; Ender 3 Custom Start G-code
G92 E0 ; Reset Extruder
G28 ; Home all axes
G1 Z2.0 F3000 ; Move Z Axis up little to prevent scratching of Heat Bed
G1 X0.1 Y20 Z0.3 F5000.0 ; Move to start position
G1 X0.1 Y200.0 Z0.3 F1500.0 E15 ; Draw the first line
G1 X0.4 Y200.0 Z0.3 F5000.0 ; Move to side a little
G1 X0.4 Y20 Z0.3 F1500.0 E30 ; Draw the second line
G92 E0 ; Reset Extruder
G1 Z2.0 F3000 ; Move Z Axis up little to prevent scratching of Heat Bed
G1 X5 Y20 Z0.3 F5000.0 ; Move over to prevent blob squish
G92 E0
G92 E0
G1 F2700 E-5
;LAYER_COUNT:15
;LAYER:0
M107
G0 F6000 X82.962 Y36.9 Z0.2
;TYPE:SKIRT
G1 F2700 E0
G1 F1200 X83.398 Y36.09 E0.0306
G1 X83.902 Y35.32 E0.0612
G1 X84.472 Y34.596 E0.09185
G1 X85.102 Y33.925 E0.12246
G1 X85.788 Y33.311 E0.15309
G1 X86.525 Y32.759 E0.18371
G1 X87.307 Y32.273 E0.21433
G1 X88.128 Y31.857 E0.24495
G1 X88.982 Y31.513 E0.27557
G1 X89.863 Y31.245 E0.3062
G1 X90.764 Y31.054 E0.33683
G1 X91.677 Y30.943 E0.36742
G1 X92.181 Y30.915 E0.38421
G1 X92.506 Y30.905 E0.39502
G1 X92.832 Y30.9 E0.40587
G1 X110.997 Y30.901 E1.01004
G1 X112.334 Y30.921 E1.05451
G1 X113.982 Y30.968 E1.10935
G1 X116.494 Y30.968 E1.1929
G1 X119.051 Y30.897 E1.27798
G1 X120.416 Y30.828 E1.32343
G1 X120.651 Y30.819 E1.33126
G1 X121.008 Y30.809 E1.34313
G1 X121.305 Y30.805 E1.35301
G1 X139.319 Y30.805 E1.95216
G1 X140.169 Y30.816 E1.98043
G1 X141.088 Y30.869 E2.01105
G1 X141.999 Y31.002 E2.04167
G1 X142.895 Y31.213 E2.07229
G1 X143.769 Y31.501 E2.1029
G1 X144.616 Y31.864 E2.13354
G1 X145.427 Y32.299 E2.16415
G1 X146.197 Y32.803 E2.19476
G1 X146.921 Y33.372 E2.22539
G1 X147.593 Y34.002 E2.25603
G1 X148.208 Y34.687 E2.28665
G1 X148.761 Y35.423 E2.31726
G1 X149.248 Y36.204 E2.34788
G1 X149.665 Y37.025 E2.3785
G1 X150.01 Y37.879 E2.40914
G1 X150.279 Y38.759 E2.43974
G1 X150.471 Y39.66 E2.47038
G1 X150.584 Y40.573 E2.50098
G1 X150.613 Y41.117 E2.5191
G1 X150.622 Y41.437 E2.52975
G1 X150.626 Y41.735 E2.53966
G1 X150.627 Y192.683 E7.56021
G1 X150.617 Y193.53 E7.58839
G1 X150.566 Y194.449 E7.619
G1 X150.434 Y195.36 E7.64962
G1 X150.225 Y196.257 E7.68025
G1 X149.938 Y197.132 E7.71088
G1 X149.576 Y197.978 E7.74148
G1 X149.143 Y198.79 E7.77209
G1 X148.64 Y199.562 E7.80274
G1 X148.073 Y200.287 E7.83335
G1 X147.444 Y200.96 E7.86399
G1 X146.76 Y201.576 E7.8946
G1 X146.025 Y202.13 E7.92522
G1 X145.244 Y202.618 E7.95585
G1 X144.424 Y203.037 E7.98647
G1 X143.571 Y203.383 E8.01709
G1 X142.691 Y203.653 E8.0477
G1 X141.791 Y203.847 E8.07833
G1 X140.878 Y203.961 E8.10893
G1 X140.316 Y203.992 E8.12765
G1 X139.996 Y204.001 E8.1383
G1 X139.698 Y204.005 E8.14821
G1 X121.527 Y204.004 E8.75258
G1 X120.161 Y203.984 E8.79802
G1 X118.555 Y203.938 E8.85145
G1 X116.045 Y203.936 E8.93494
G1 X113.477 Y204.008 E9.02038
G1 X112.085 Y204.077 E9.06674
G1 X111.875 Y204.085 E9.07373
G1 X111.54 Y204.095 E9.08488
G1 X111.224 Y204.1 E9.09539
G1 X93.051 Y204.099 E9.69982
G1 X92.353 Y204.089 E9.72304
G1 X91.434 Y204.036 E9.75366
G1 X90.523 Y203.903 E9.78428
G1 X89.627 Y203.692 E9.8149
G1 X88.753 Y203.404 E9.8455
G1 X87.906 Y203.041 E9.87615
G1 X87.095 Y202.606 E9.90676
G1 X86.325 Y202.102 E9.93737
G1 X85.601 Y201.533 E9.968
G1 X84.929 Y200.903 E9.99863
G1 X84.314 Y200.218 E10.02925
G1 X83.761 Y199.482 E10.05987
G1 X83.274 Y198.701 E10.09048
G1 X82.857 Y197.88 E10.12111
G1 X82.512 Y197.026 E10.15175
G1 X82.243 Y196.146 E10.18235
G1 X82.051 Y195.245 E10.21299
G1 X81.938 Y194.332 E10.24359
G1 X81.909 Y193.777 E10.26207
G1 X81.9 Y193.445 E10.27312
G1 X81.896 Y193.158 E10.28267
G1 X81.896 Y46.405 E15.16369
G1 X81.898 Y41.992 E15.31047
G1 X81.908 Y41.346 E15.33196
G1 X81.962 Y40.427 E15.36258
G1 X82.096 Y39.516 E15.3932
G1 X82.309 Y38.62 E15.42383
G1 X82.598 Y37.746 E15.45445
G1 X82.962 Y36.9 E15.48508
G0 F6000 X83.36 Y36.997
G1 F1200 X83.795 Y36.206 E15.51511
G1 X84.298 Y35.456 E15.54514
G1 X84.866 Y34.753 E15.5752
G1 X85.493 Y34.104 E15.60522
G1 X86.176 Y33.513 E15.63526
G1 X86.908 Y32.984 E15.6653
G1 X87.684 Y32.522 E15.69533
G1 X88.498 Y32.131 E15.72537
G1 X89.343 Y31.813 E15.7554
G1 X90.214 Y31.571 E15.78547
G1 X91.102 Y31.407 E15.8155
G1 X92.193 Y31.315 E15.85192
G1 X92.518 Y31.305 E15.86273
G1 X92.832 Y31.3 E15.87318
G1 X110.991 Y31.301 E16.47715
G1 X112.323 Y31.321 E16.52145
G1 X113.971 Y31.368 E16.57629
G1 X116.505 Y31.368 E16.66057
G1 X119.082 Y31.296 E16.74631
G1 X120.436 Y31.228 E16.79141
G1 X120.662 Y31.219 E16.79893
G1 X121.019 Y31.209 E16.81081
G1 X121.305 Y31.205 E16.82032
G1 X139.319 Y31.205 E17.41947
G1 X140.163 Y31.216 E17.44754
G1 X141.065 Y31.269 E17.47759
G1 X141.958 Y31.401 E17.50762
G1 X142.836 Y31.612 E17.53765
G1 X143.692 Y31.9 E17.56769
G1 X144.519 Y32.262 E17.59772
G1 X145.311 Y32.697 E17.62777
G1 X146.062 Y33.199 E17.65782
G1 X146.765 Y33.766 E17.68786
G1 X147.415 Y34.393 E17.71789
G1 X148.007 Y35.075 E17.74793
G1 X148.537 Y35.806 E17.77796
G1 X148.999 Y36.582 E17.808
G1 X149.392 Y37.395 E17.83803
G1 X149.71 Y38.24 E17.86806
G1 X149.953 Y39.11 E17.89811
G1 X150.118 Y39.998 E17.92815
G1 X150.213 Y41.128 E17.96586
G1 X150.222 Y41.448 E17.97651
G1 X150.226 Y41.735 E17.98606
G1 X150.227 Y192.683 E23.00661
G1 X150.217 Y193.525 E23.03462
G1 X150.166 Y194.426 E23.06463
G1 X150.035 Y195.32 E23.09468
G1 X149.825 Y196.198 E23.12471
G1 X149.539 Y197.055 E23.15476
G1 X149.178 Y197.883 E23.1848
G1 X148.745 Y198.675 E23.21482
G1 X148.244 Y199.427 E23.24488
G1 X147.679 Y200.131 E23.2749
G1 X147.053 Y200.782 E23.30494
G1 X146.372 Y201.375 E23.33497
G1 X145.641 Y201.906 E23.36502
G1 X144.866 Y202.37 E23.39507
G1 X144.054 Y202.764 E23.42509
G1 X143.209 Y203.084 E23.45514
G1 X142.34 Y203.328 E23.48516
G1 X141.452 Y203.495 E23.51521
G1 X140.305 Y203.592 E23.5535
G1 X139.985 Y203.601 E23.56415
G1 X139.698 Y203.605 E23.57369
G1 X121.533 Y203.604 E24.17786
G1 X120.172 Y203.584 E24.22313
G1 X118.567 Y203.538 E24.27654
G1 X116.034 Y203.536 E24.36079
G1 X113.445 Y203.608 E24.44693
G1 X112.065 Y203.677 E24.49289
G1 X111.863 Y203.685 E24.49961
G1 X111.528 Y203.695 E24.51076
G1 X111.224 Y203.7 E24.52087
G1 X93.057 Y203.699 E25.12511
G1 X92.359 Y203.689 E25.14832
G1 X91.457 Y203.636 E25.17838
G1 X90.564 Y203.504 E25.2084
G1 X89.686 Y203.293 E25.23843
G1 X88.83 Y203.005 E25.26847
G1 X88.003 Y202.643 E25.2985
G1 X87.211 Y202.208 E25.32855
G1 X86.46 Y201.706 E25.3586
G1 X85.757 Y201.139 E25.38864
G1 X85.107 Y200.512 E25.41868
G1 X84.515 Y199.83 E25.44871
G1 X83.985 Y199.099 E25.47874
G1 X83.523 Y198.323 E25.50878
G1 X83.13 Y197.51 E25.53882
G1 X82.812 Y196.665 E25.56884
G1 X82.569 Y195.795 E25.59889
G1 X82.404 Y194.907 E25.62893
G1 X82.309 Y193.766 E25.66701
G1 X82.3 Y193.434 E25.67806
G1 X82.296 Y193.158 E25.68724
G1 X82.296 Y46.405 E30.56826
G1 X82.298 Y41.998 E30.71484
G1 X82.308 Y41.352 E30.73633
G1 X82.362 Y40.451 E30.76635
G1 X82.496 Y39.557 E30.79642
G1 X82.708 Y38.68 E30.82643
G1 X82.996 Y37.824 E30.85646
G1 X83.36 Y36.997 E30.88652
G1 F2700 E25.88652
;MESH:TUSH2-Slide-Rail.stl(1)
G0 F6000 X101.268 Y51.887
G0 X100.037 Y51.106
G0 X100.037 Y52.851
G0 X100.336 Y53.602
G0 X100.733 Y54.058
G0 X101.245 Y54.376
G0 X101.572 Y54.46
G0 X102.677 Y54.596
;TYPE:WALL-INNER
G1 F2700 E30.88652
G1 F1200 X102.88 Y54.518 E30.89375
G1 X103.071 Y54.423 E30.90085
G1 X103.25 Y54.313 E30.90783
G1 X103.421 Y54.179 E30.91506
G1 X103.586 Y54.023 E30.92261
G1 X103.722 Y53.866 E30.92952
G1 X103.847 Y53.689 E30.93673
G1 X103.958 Y53.499 E30.94405
G1 X104.049 Y53.291 E30.9516
G1 X104.117 Y53.098 E30.9584
G1 X104.169 Y52.883 E30.96576
G1 X104.2 Y52.666 E30.97305
G1 X104.209 Y52.448 E30.98031
G1 X104.2 Y52.23 E30.98756
G1 X104.167 Y52.003 E30.99519
G1 X104.117 Y51.798 E31.00221
G1 X104.046 Y51.596 E31.00933
G1 X103.957 Y51.397 E31.01658
G1 X103.841 Y51.196 E31.0243
G1 X103.72 Y51.029 E31.03116
G1 X103.579 Y50.864 E31.03838
G1 X103.411 Y50.708 E31.04601
G1 X103.24 Y50.576 E31.05319
G1 X103.062 Y50.467 E31.06013
G1 X102.868 Y50.372 E31.06732
G1 X102.664 Y50.296 E31.07456
G1 X102.455 Y50.242 E31.08174
G1 X102.24 Y50.208 E31.08898
G1 X102.006 Y50.197 E31.09677
G1 X101.794 Y50.21 E31.10383
G1 X101.583 Y50.244 E31.11094
G1 X101.382 Y50.296 E31.11785
G1 X101.18 Y50.372 E31.12503
G1 X100.985 Y50.468 E31.13225
G1 X100.798 Y50.584 E31.13957
G1 X100.618 Y50.725 E31.14718
G1 X100.462 Y50.874 E31.15435
G1 X100.327 Y51.029 E31.16119
G1 X100.199 Y51.209 E31.16854
G1 X100.088 Y51.406 E31.17606
G1 X100 Y51.598 E31.18308
G1 X99.931 Y51.803 E31.19028
G1 X99.88 Y52.012 E31.19743
G1 X99.849 Y52.23 E31.20476
G1 X99.839 Y52.459 E31.21238
G1 X99.849 Y52.667 E31.21931
G1 X99.879 Y52.881 E31.22649
G1 X99.923 Y53.064 E31.23275
G1 X100.001 Y53.3 E31.24102
G1 X100.093 Y53.5 E31.24834
G1 X100.201 Y53.689 E31.25558
G1 X100.334 Y53.874 E31.26316
G1 X100.47 Y54.031 E31.27007
G1 X100.628 Y54.181 E31.27731
G1 X100.81 Y54.32 E31.28493
G1 X100.996 Y54.434 E31.29219
G1 X101.181 Y54.524 E31.29903
G1 X101.383 Y54.6 E31.30621
G1 X101.593 Y54.654 E31.31342
G1 X101.807 Y54.687 E31.32062
G1 X102.024 Y54.699 E31.32785
G1 X102.242 Y54.687 E31.33511
G1 X102.456 Y54.654 E31.34231
G1 X102.677 Y54.596 E31.34991
G0 F6000 X102.554 Y54.215
;TYPE:WALL-OUTER
G1 F1200 X102.719 Y54.151 E31.3558
G1 X102.877 Y54.073 E31.36166
G1 X103.021 Y53.984 E31.36729
G1 X103.16 Y53.875 E31.37317
G1 X103.297 Y53.746 E31.37942
G1 X103.407 Y53.619 E31.38501
G1 X103.51 Y53.473 E31.39096
G1 X103.601 Y53.317 E31.39696
G1 X103.677 Y53.144 E31.40325
G1 X103.733 Y52.984 E31.40889
G1 X103.776 Y52.808 E31.41491
G1 X103.801 Y52.629 E31.42092
G1 X103.809 Y52.448 E31.42695
G1 X103.801 Y52.267 E31.43297
G1 X103.774 Y52.079 E31.43929
G1 X103.733 Y51.912 E31.44501
G1 X103.674 Y51.744 E31.45093
G1 X103.6 Y51.579 E31.45695
G1 X103.505 Y51.414 E31.46328
G1 X103.406 Y51.277 E31.4689
G1 X103.29 Y51.142 E31.47482
G1 X103.152 Y51.014 E31.48108
G1 X103.012 Y50.906 E31.48696
G1 X102.869 Y50.818 E31.49255
G1 X102.71 Y50.74 E31.49844
G1 X102.544 Y50.678 E31.50433
G1 X102.374 Y50.634 E31.51017
G1 X102.2 Y50.607 E31.51603
G1 X102.008 Y50.598 E31.52242
G1 X101.838 Y50.608 E31.52809
G1 X101.665 Y50.636 E31.53391
G1 X101.503 Y50.678 E31.53948
G1 X101.339 Y50.74 E31.54531
G1 X101.179 Y50.818 E31.55123
G1 X101.028 Y50.912 E31.55715
G1 X100.88 Y51.028 E31.5634
G1 X100.752 Y51.15 E31.56928
G1 X100.642 Y51.277 E31.57487
G1 X100.537 Y51.424 E31.58088
G1 X100.445 Y51.588 E31.58714
G1 X100.372 Y51.746 E31.59292
G1 X100.316 Y51.914 E31.59881
G1 X100.273 Y52.088 E31.60478
G1 X100.248 Y52.267 E31.61079
G1 X100.239 Y52.458 E31.61715
G1 X100.248 Y52.629 E31.62284
G1 X100.273 Y52.807 E31.62882
G1 X100.308 Y52.955 E31.63388
G1 X100.374 Y53.153 E31.64082
G1 X100.449 Y53.317 E31.64682
G1 X100.538 Y53.473 E31.65279
G1 X100.648 Y53.626 E31.65906
G1 X100.759 Y53.754 E31.66469
G1 X100.888 Y53.876 E31.6706
G1 X101.037 Y53.99 E31.67684
G1 X101.188 Y54.083 E31.68274
G1 X101.339 Y54.156 E31.68832
G1 X101.504 Y54.218 E31.69418
G1 X101.674 Y54.262 E31.70002
G1 X101.848 Y54.289 E31.70588
G1 X102.024 Y54.298 E31.71174
G1 X102.201 Y54.289 E31.71763
G1 X102.374 Y54.262 E31.72346
G1 X102.554 Y54.215 E31.72964
G0 F6000 X102.689 Y54.633
G1 F2700 E26.72964
G0 F6000 X102.262 Y54.877
G0 X102.114 Y53.429
G0 X101.598 Y181.678
G0 X100.893 Y180.405
G0 X100.146 Y181.77
G0 X100.028 Y182.41
G0 X99.971 Y183.316
;TYPE:WALL-INNER
G1 F2700 E31.72964
G1 F1200 X100.007 Y183.419 E31.73327
G1 X100.093 Y183.605 E31.74009
G1 X100.201 Y183.793 E31.7473
G1 X100.334 Y183.978 E31.75488
G1 X100.468 Y184.133 E31.76169
G1 X100.628 Y184.286 E31.76906
G1 X100.81 Y184.424 E31.77665
G1 X100.985 Y184.532 E31.78349
G1 X101.181 Y184.629 E31.79077
G1 X101.383 Y184.704 E31.79793
G1 X101.585 Y184.757 E31.80488
G1 X101.809 Y184.792 E31.81242
G1 X102.036 Y184.803 E31.81998
G1 X102.252 Y184.79 E31.82718
G1 X102.467 Y184.757 E31.83441
G1 X102.676 Y184.7 E31.84162
G1 X102.869 Y184.629 E31.84845
G1 X103.063 Y184.532 E31.85567
G1 X103.248 Y184.418 E31.8629
G1 X103.421 Y184.284 E31.87017
G1 X103.587 Y184.127 E31.87777
G1 X103.722 Y183.97 E31.88466
G1 X103.847 Y183.793 E31.89187
G1 X103.958 Y183.604 E31.89916
G1 X104.055 Y183.385 E31.90712
G1 X104.12 Y183.189 E31.91399
G1 X104.169 Y182.988 E31.92087
G1 X104.2 Y182.768 E31.92826
G1 X104.209 Y182.541 E31.93582
G1 X104.2 Y182.335 E31.94268
G1 X104.169 Y182.116 E31.95003
G1 X104.114 Y181.892 E31.95771
G1 X104.046 Y181.698 E31.96454
G1 X103.956 Y181.5 E31.97178
G1 X103.846 Y181.309 E31.97911
G1 X103.715 Y181.128 E31.98654
G1 X103.581 Y180.97 E31.99343
G1 X103.411 Y180.812 E32.00115
G1 X103.238 Y180.68 E32.00839
G1 X103.053 Y180.566 E32.01561
G1 X102.868 Y180.476 E32.02246
G1 X102.664 Y180.4 E32.0297
G1 X102.455 Y180.346 E32.03688
G1 X102.242 Y180.313 E32.04405
G1 X102.021 Y180.301 E32.05141
G1 X101.806 Y180.313 E32.05857
G1 X101.583 Y180.348 E32.06608
G1 X101.372 Y180.404 E32.07334
G1 X101.18 Y180.477 E32.08017
G1 X100.985 Y180.572 E32.08738
G1 X100.799 Y180.687 E32.09466
G1 X100.625 Y180.822 E32.10198
G1 X100.462 Y180.979 E32.10951
G1 X100.328 Y181.134 E32.11632
G1 X100.2 Y181.312 E32.12362
G1 X100.092 Y181.501 E32.13086
G1 X99.997 Y181.711 E32.13852
G1 X99.925 Y181.928 E32.14613
G1 X99.901 Y182.035 E32.14977
G1 X99.881 Y182.11 E32.15236
G1 X99.849 Y182.334 E32.15988
G1 X99.839 Y182.563 E32.16751
G1 X99.85 Y182.774 E32.17453
G1 X99.883 Y183 E32.18213
G1 X99.954 Y183.284 E32.19187
G1 X99.971 Y183.316 E32.19307
G0 F6000 X100.337 Y183.151
;TYPE:WALL-OUTER
G1 F1200 X100.378 Y183.268 E32.1972
G1 X100.449 Y183.421 E32.20281
G1 X100.538 Y183.577 E32.20878
G1 X100.648 Y183.73 E32.21505
G1 X100.758 Y183.857 E32.22063
G1 X100.888 Y183.981 E32.22661
G1 X101.037 Y184.094 E32.23283
G1 X101.179 Y184.182 E32.23839
G1 X101.339 Y184.261 E32.24432
G1 X101.504 Y184.322 E32.25017
G1 X101.667 Y184.365 E32.25578
G1 X101.849 Y184.393 E32.2619
G1 X102.034 Y184.402 E32.26806
G1 X102.21 Y184.392 E32.27393
G1 X102.384 Y184.365 E32.27978
G1 X102.554 Y184.319 E32.28564
G1 X102.71 Y184.261 E32.29118
G1 X102.869 Y184.182 E32.29708
G1 X103.02 Y184.089 E32.30298
G1 X103.16 Y183.98 E32.30888
G1 X103.297 Y183.85 E32.31516
G1 X103.407 Y183.723 E32.32075
G1 X103.51 Y183.577 E32.32669
G1 X103.601 Y183.421 E32.3327
G1 X103.681 Y183.241 E32.33925
G1 X103.735 Y183.078 E32.34496
G1 X103.776 Y182.912 E32.35065
G1 X103.801 Y182.732 E32.35669
G1 X103.809 Y182.542 E32.36302
G1 X103.801 Y182.372 E32.36868
G1 X103.776 Y182.192 E32.37472
G1 X103.73 Y182.007 E32.38107
G1 X103.674 Y181.847 E32.3867
G1 X103.6 Y181.683 E32.39269
G1 X103.51 Y181.527 E32.39868
G1 X103.4 Y181.375 E32.40492
G1 X103.291 Y181.247 E32.41051
G1 X103.153 Y181.118 E32.41679
G1 X103.011 Y181.01 E32.42273
G1 X102.86 Y180.917 E32.42862
G1 X102.71 Y180.844 E32.43417
G1 X102.544 Y180.782 E32.44007
G1 X102.374 Y180.738 E32.44591
G1 X102.201 Y180.711 E32.45173
G1 X102.021 Y180.702 E32.45773
G1 X101.848 Y180.711 E32.46349
G1 X101.665 Y180.74 E32.46965
G1 X101.494 Y180.785 E32.47553
G1 X101.339 Y180.844 E32.48105
G1 X101.179 Y180.922 E32.48697
G1 X101.028 Y181.016 E32.49288
G1 X100.887 Y181.125 E32.49881
G1 X100.752 Y181.255 E32.50504
G1 X100.642 Y181.382 E32.51063
G1 X100.537 Y181.528 E32.51661
G1 X100.449 Y181.683 E32.52254
G1 X100.37 Y181.857 E32.5289
G1 X100.311 Y182.035 E32.53514
G1 X100.288 Y182.137 E32.53861
G1 X100.274 Y182.19 E32.54044
G1 X100.248 Y182.372 E32.54655
G1 X100.239 Y182.562 E32.55288
G1 X100.248 Y182.734 E32.55861
G1 X100.276 Y182.922 E32.56493
G1 X100.33 Y183.138 E32.57233
G1 X100.337 Y183.151 E32.57282
G0 F6000 X99.935 Y183.329
G1 F2700 E27.57282
G0 F6000 X100.902 Y184.292
G0 X101.618 Y184.6
G0 X103.156 Y184.699
G0 X102.524 Y183.38
G0 X112.217 Y184.698
G0 X110.743 Y184.699
G0 X110.953 Y192.9
;TYPE:WALL-INNER
G1 F2700 E32.57282
G1 F1200 X110.754 Y192.9 E32.57944
G1 X93.096 Y192.9 E33.16675
G1 X93.096 Y46.407 E38.03913
G1 X93.097 Y42.1 E38.18238
G1 X110.952 Y42.1 E38.77624
G1 X110.953 Y192.701 E43.78525
G1 X110.953 Y192.9 E43.78953
G0 F6000 X111.353 Y193.3
;TYPE:WALL-OUTER
G1 F1200 X92.696 Y193.3 E44.41006
