;FLAVOR:Marlin
;TIME:43154
;Filament used: 43.9089m
;Layer height: 0.28
;MINX:41.25
;MINY:79.997
;MINZ:0.28
;MAXX:193.691
;MAXY:155.003
;MAXZ:119
;Generated with Cura_SteamEngine 4.7.0
M140 S55
M105
M190 S55
M104 S210
M105
M109 S210
M82 ;absolute extrusion mode
; Ender 3 Custom Start G-code
G92 E0 ; Reset Extruder
G28 ; Home all axes
G1 Z2.0 F3000 ; Move Z Axis up little to prevent scratching of Heat Bed
G1 X0.1 Y20 Z0.3 F5000.0 ; Move to start position
G1 X0.1 Y200.0 Z0.3 F1500.0 E15 ; Draw the first line
G1 X0.4 Y200.0 Z0.3 F5000.0 ; Move to side a little
G1 X0.4 Y20 Z0.3 F1500.0 E30 ; Draw the second line
G92 E0 ; Reset Extruder
G1 Z2.0 F3000 ; Move Z Axis up little to prevent scratching of Heat Bed
G1 X5 Y20 Z0.3 F5000.0 ; Move over to prevent blob squish
G92 E0
G92 E0
G1 F2700 E-5
;LAYER_COUNT:425
;LAYER:0
M107
G0 F6000 X46.662 Y81.539 Z0.28
;TYPE:SKIRT
G1 F2700 E0
G1 F1200 X47.489 Y81.097 E0.04366
G1 X48.351 Y80.727 E0.08734
G1 X49.241 Y80.431 E0.13102
G1 X50.153 Y80.213 E0.17468
G1 X51.08 Y80.072 E0.21834
G1 X51.951 Y80.013 E0.25899
G1 X52.272 Y80.004 E0.27394
G1 X52.58 Y80 E0.28829
G1 X172.247 Y79.999 E5.86048
G1 X172.29 Y79.997 E5.86249
G1 X173.314 Y80.001 E5.91017
G1 X177.183 Y80.001 E6.09033
G1 X177.885 Y80.011 E6.12302
G1 X178.821 Y80.064 E6.16667
G1 X179.749 Y80.197 E6.21033
G1 X180.663 Y80.409 E6.25402
G1 X181.556 Y80.697 E6.29771
G1 X182.42 Y81.061 E6.34136
G1 X183.251 Y81.497 E6.38506
G1 X184.041 Y82.002 E6.42872
G1 X184.785 Y82.572 E6.47236
G1 X185.435 Y83.161 E6.51321
G1 X185.546 Y83.27 E6.52045
G1 X186.187 Y83.955 E6.56413
G1 X186.767 Y84.693 E6.60784
G1 X187.282 Y85.476 E6.65148
G1 X187.728 Y86.301 E6.69515
G1 X188.102 Y87.161 E6.73882
G1 X188.402 Y88.05 E6.78251
G1 X188.625 Y88.961 E6.82618
G1 X188.77 Y89.887 E6.86982
G1 X188.832 Y90.722 E6.90881
G1 X188.856 Y91.376 E6.93929
G1 X188.982 Y93.91 E7.05742
G1 X189.18 Y96.441 E7.17564
G1 X189.448 Y98.953 E7.29327
G1 X189.787 Y101.456 E7.41089
G1 X190.192 Y103.919 E7.52711
G1 X190.67 Y106.393 E7.64444
G1 X191.217 Y108.843 E7.76133
G1 X191.834 Y111.288 E7.87875
G1 X192.524 Y113.721 E7.99651
G1 X193.194 Y115.865 E8.10111
G1 X193.222 Y115.958 E8.10563
G1 X193.454 Y116.867 E8.14931
G1 X193.607 Y117.792 E8.19297
G1 X193.689 Y119.105 E8.25423
G1 X193.691 Y120.013 E8.29651
G1 X193.69 Y120.213 E8.30582
G1 X193.635 Y123.649 E8.46584
G1 X193.607 Y124.542 E8.50744
G1 X193.537 Y125.477 E8.5511
G1 X193.388 Y126.403 E8.59477
G1 X193.031 Y127.72 E8.65831
G1 X192.161 Y130.287 E8.78452
G1 X191.428 Y132.66 E8.90017
G1 X190.744 Y135.132 E9.0196
G1 X190.154 Y137.519 E9.13409
G1 X189.616 Y139.995 E9.25207
G1 X189.152 Y142.47 E9.36933
G1 X188.74 Y145.059 E9.4914
G1 X188.681 Y145.465 E9.5105
G1 X188.507 Y146.387 E9.55419
G1 X188.255 Y147.29 E9.59785
G1 X187.926 Y148.169 E9.64155
G1 X187.524 Y149.016 E9.68521
G1 X187.052 Y149.826 E9.72886
G1 X186.512 Y150.593 E9.77254
G1 X185.908 Y151.311 E9.81623
G1 X185.226 Y151.994 E9.86117
G1 X185.107 Y152.103 E9.86869
G1 X184.389 Y152.706 E9.91235
G1 X183.622 Y153.246 E9.95602
G1 X182.812 Y153.719 E9.9997
G1 X181.965 Y154.121 E10.04336
G1 X181.086 Y154.449 E10.08704
G1 X180.183 Y154.702 E10.13071
G1 X179.262 Y154.876 E10.17436
G1 X177.989 Y154.987 E10.23386
G1 X177.672 Y154.996 E10.24862
G1 X177.363 Y155 E10.26301
G1 X173.05 Y155 E10.46384
G1 X173.004 Y155.003 E10.46599
G1 X171.977 Y154.999 E10.51381
G1 X64.173 Y155 E15.53362
G1 X64.016 Y154.999 E15.54093
G1 X63.314 Y154.989 E15.57362
G1 X62.378 Y154.936 E15.61727
G1 X61.45 Y154.803 E15.66093
G1 X60.536 Y154.591 E15.70462
G1 X59.643 Y154.303 E15.74831
G1 X58.779 Y153.939 E15.79196
G1 X57.948 Y153.503 E15.83566
G1 X57.158 Y152.998 E15.87932
G1 X56.414 Y152.428 E15.92296
G1 X55.721 Y151.796 E15.96664
G1 X55.084 Y151.107 E16.01033
G1 X54.508 Y150.367 E16.054
G1 X53.867 Y149.353 E16.10985
G1 X53.351 Y148.429 E16.15913
G1 X53.03 Y147.836 E16.19053
G1 X51.779 Y145.672 E16.30692
G1 X50.461 Y143.534 E16.42387
G1 X49.172 Y141.567 E16.53338
G1 X49.044 Y141.367 E16.54444
G1 X48.949 Y141.215 E16.55278
G1 X48.486 Y140.399 E16.59647
G1 X48.131 Y139.635 E16.6357
G1 X47.631 Y138.442 E16.69593
G1 X46.586 Y136.043 E16.81778
G1 X45.527 Y133.789 E16.93374
G1 X44.382 Y131.52 E17.05208
G1 X43.126 Y129.2 E17.17493
G1 X42.659 Y128.364 E17.21952
G1 X42.236 Y127.526 E17.26323
G1 X41.887 Y126.656 E17.30688
G1 X41.613 Y125.759 E17.35055
G1 X41.416 Y124.842 E17.39422
G1 X41.298 Y123.912 E17.43787
G1 X41.266 Y123.346 E17.46427
G1 X41.257 Y123.063 E17.47746
G1 X41.251 Y122.713 E17.49376
G1 X41.252 Y121.437 E17.55317
G1 X41.262 Y120.821 E17.58186
G1 X41.289 Y120.218 E17.60997
G1 X41.309 Y119.931 E17.62336
G1 X41.458 Y117.33 E17.74467
G1 X41.529 Y114.844 E17.86048
G1 X41.529 Y112.319 E17.97805
G1 X41.458 Y109.795 E18.09563
G1 X41.312 Y107.186 E18.21731
G1 X41.302 Y107.042 E18.22403
G1 X41.276 Y106.589 E18.24516
G1 X41.262 Y106.263 E18.26035
G1 X41.254 Y105.974 E18.27381
G1 X41.25 Y105.67 E18.28797
G1 X41.251 Y91.525 E18.94662
G1 X41.26 Y90.86 E18.97759
G1 X41.313 Y89.924 E19.02124
G1 X41.445 Y88.995 E19.06493
G1 X41.656 Y88.081 E19.10861
G1 X41.944 Y87.189 E19.15226
G1 X42.307 Y86.324 E19.19594
G1 X42.742 Y85.493 E19.23962
G1 X43.246 Y84.703 E19.28325
G1 X43.816 Y83.958 E19.32693
G1 X44.448 Y83.264 E19.37064
G1 X45.136 Y82.627 E19.4143
G1 X45.876 Y82.051 E19.45796
G1 X46.662 Y81.539 E19.50164
G0 F6000 X47.041 Y81.782
G1 F1200 X47.861 Y81.364 E19.5445
G1 X48.715 Y81.019 E19.58739
G1 X49.595 Y80.749 E19.63025
G1 X50.495 Y80.557 E19.6731
G1 X51.409 Y80.443 E19.71599
G1 X51.962 Y80.413 E19.74178
G1 X52.283 Y80.404 E19.75673
G1 X52.58 Y80.4 E19.77056
G1 X172.244 Y80.399 E25.34262
G1 X172.288 Y80.397 E25.34467
G1 X173.312 Y80.401 E25.39235
G1 X177.177 Y80.401 E25.57232
G1 X177.879 Y80.411 E25.60501
G1 X178.798 Y80.464 E25.64788
G1 X179.709 Y80.597 E25.69074
G1 X180.605 Y80.808 E25.73361
G1 X181.48 Y81.096 E25.7765
G1 X182.326 Y81.459 E25.81937
G1 X183.137 Y81.894 E25.86222
G1 X183.908 Y82.398 E25.90511
G1 X184.632 Y82.966 E25.94796
G1 X185.155 Y83.447 E25.98105
G1 X185.266 Y83.556 E25.98829
G1 X185.894 Y84.229 E26.03115
G1 X186.462 Y84.954 E26.07404
G1 X186.964 Y85.725 E26.11688
G1 X187.398 Y86.537 E26.15975
G1 X187.759 Y87.384 E26.20262
G1 X188.046 Y88.259 E26.2455
G1 X188.256 Y89.155 E26.28836
G1 X188.387 Y90.067 E26.33126
G1 X188.432 Y90.737 E26.36253
G1 X188.454 Y91.337 E26.39048
G1 X188.585 Y93.96 E26.51277
G1 X188.781 Y96.478 E26.63038
G1 X189.053 Y99.018 E26.74933
G1 X189.389 Y101.504 E26.86614
G1 X189.798 Y103.989 E26.98341
G1 X190.28 Y106.484 E27.10173
G1 X190.824 Y108.922 E27.21805
G1 X191.449 Y111.399 E27.337
G1 X192.137 Y113.825 E27.45442
G1 X192.839 Y116.073 E27.56408
G1 X193.066 Y116.965 E27.60694
G1 X193.214 Y117.874 E27.64983
G1 X193.289 Y119.106 E27.7073
G1 X193.291 Y120.014 E27.74958
G1 X193.29 Y120.207 E27.75857
G1 X193.235 Y123.643 E27.91858
G1 X193.231 Y123.814 E27.92655
G1 X193.208 Y124.529 E27.95986
G1 X193.138 Y125.447 E28.00273
G1 X192.989 Y126.355 E28.04557
G1 X192.652 Y127.591 E28.10523
G1 X191.775 Y130.178 E28.23242
G1 X191.046 Y132.54 E28.34753
G1 X190.365 Y135 E28.46638
G1 X189.769 Y137.41 E28.58198
G1 X189.219 Y139.941 E28.70259
G1 X188.757 Y142.405 E28.81932
G1 X188.357 Y144.923 E28.93804
G1 X188.286 Y145.408 E28.96086
G1 X188.114 Y146.312 E29.00371
G1 X187.864 Y147.198 E29.04658
G1 X187.538 Y148.059 E29.08945
G1 X187.139 Y148.889 E29.13233
G1 X186.669 Y149.681 E29.17521
G1 X186.133 Y150.429 E29.21806
G1 X185.533 Y151.128 E29.26096
G1 X184.956 Y151.699 E29.29876
G1 X184.837 Y151.808 E29.30627
G1 X184.131 Y152.399 E29.34914
G1 X183.377 Y152.928 E29.39203
G1 X182.581 Y153.389 E29.43487
G1 X181.747 Y153.779 E29.47774
G1 X180.882 Y154.095 E29.52062
G1 X179.993 Y154.335 E29.5635
G1 X179.087 Y154.497 E29.60635
G1 X177.978 Y154.587 E29.65816
G1 X177.661 Y154.596 E29.67293
G1 X177.362 Y154.6 E29.68685
G1 X173.05 Y154.601 E29.88764
G1 X173.006 Y154.603 E29.88969
G1 X171.979 Y154.599 E29.93751
G1 X64.173 Y154.6 E34.95741
G1 X63.32 Y154.589 E34.99713
G1 X62.401 Y154.536 E35.03999
G1 X61.49 Y154.403 E35.08286
G1 X60.594 Y154.192 E35.12573
G1 X59.719 Y153.904 E35.16862
G1 X58.873 Y153.541 E35.21149
G1 X58.062 Y153.106 E35.25434
G1 X57.291 Y152.602 E35.29723
G1 X56.567 Y152.034 E35.34008
G1 X55.895 Y151.404 E35.38297
G1 X55.281 Y150.719 E35.42581
G1 X54.728 Y149.983 E35.46867
G1 X54.216 Y149.158 E35.51389
G1 X53.7 Y148.234 E35.56317
G1 X53.385 Y147.652 E35.59398
G1 X52.123 Y145.468 E35.71143
G1 X50.787 Y143.301 E35.82997
G1 X49.507 Y141.348 E35.93871
G1 X49.383 Y141.155 E35.94939
G1 X49.288 Y141.003 E35.95773
G1 X48.835 Y140.202 E36.00058
G1 X48.5 Y139.481 E36.0376
G1 X47.985 Y138.252 E36.09965
G1 X46.957 Y135.892 E36.21952
G1 X45.882 Y133.603 E36.33727
G1 X44.741 Y131.343 E36.45516
G1 X43.454 Y128.965 E36.58106
G1 X43.008 Y128.168 E36.62359
G1 X42.594 Y127.346 E36.66645
G1 X42.253 Y126.491 E36.70931
G1 X41.987 Y125.609 E36.75221
G1 X41.799 Y124.708 E36.79506
G1 X41.69 Y123.794 E36.83793
G1 X41.665 Y123.333 E36.85942
G1 X41.656 Y123.05 E36.87261
G1 X41.651 Y122.713 E36.8883
G1 X41.652 Y121.444 E36.94739
G1 X41.662 Y120.828 E36.97608
G1 X41.688 Y120.247 E37.00316
G1 X41.706 Y119.988 E37.01525
G1 X41.856 Y117.362 E37.13773
G1 X41.929 Y114.821 E37.25609
G1 X41.929 Y112.308 E37.37311
G1 X41.858 Y109.762 E37.49171
G1 X41.714 Y107.208 E37.61082
G1 X41.701 Y107.019 E37.61964
G1 X41.675 Y106.566 E37.64077
G1 X41.662 Y106.252 E37.65541
G1 X41.654 Y105.963 E37.66887
G1 X41.65 Y105.67 E37.68251
G1 X41.651 Y91.531 E38.34088
G1 X41.66 Y90.866 E38.37185
G1 X41.712 Y89.946 E38.41476
G1 X41.844 Y89.035 E38.45762
G1 X42.055 Y88.139 E38.50048
G1 X42.342 Y87.264 E38.54336
G1 X42.705 Y86.418 E38.58623
G1 X43.139 Y85.606 E38.6291
G1 X43.642 Y84.835 E38.67197
G1 X44.211 Y84.111 E38.71485
G1 X44.839 Y83.439 E38.75767
G1 X45.524 Y82.823 E38.80057
G1 X46.26 Y82.27 E38.84344
G1 X47.041 Y81.782 E38.88632
G0 F6000 X47.419 Y82.031
G1 F1200 X48.232 Y81.638 E38.92837
G1 X49.077 Y81.318 E38.97044
G1 X49.946 Y81.075 E39.01246
G1 X50.834 Y80.909 E39.05452
G1 X51.973 Y80.813 E39.10775
G1 X52.294 Y80.804 E39.1227
G1 X52.58 Y80.8 E39.13602
G1 X172.223 Y80.799 E44.7071
G1 X172.287 Y80.797 E44.71008
G1 X173.311 Y80.801 E44.75776
G1 X177.171 Y80.801 E44.9375
G1 X177.873 Y80.811 E44.97019
G1 X178.775 Y80.864 E45.01226
G1 X179.668 Y80.996 E45.0543
G1 X180.546 Y81.207 E45.09635
G1 X181.402 Y81.495 E45.1384
G1 X182.23 Y81.857 E45.18048
G1 X183.022 Y82.291 E45.22253
G1 X183.772 Y82.794 E45.26458
G1 X184.475 Y83.36 E45.30661
G1 X184.875 Y83.732 E45.33204
G1 X184.986 Y83.841 E45.33929
G1 X185.601 Y84.502 E45.38133
G1 X186.156 Y85.214 E45.42336
G1 X186.646 Y85.973 E45.46543
G1 X187.067 Y86.772 E45.50748
G1 X187.415 Y87.606 E45.54956
G1 X187.688 Y88.466 E45.59158
G1 X187.884 Y89.348 E45.63365
G1 X188.001 Y90.244 E45.67573
G1 X188.032 Y90.751 E45.69938
G1 X188.054 Y91.373 E45.72836
G1 X188.184 Y93.975 E45.84967
G1 X188.383 Y96.519 E45.96849
G1 X188.652 Y99.038 E46.08645
G1 X188.993 Y101.556 E46.20477
G1 X189.409 Y104.086 E46.32416
G1 X189.884 Y106.543 E46.44069
G1 X190.44 Y109.036 E46.55962
G1 X191.062 Y111.5 E46.67796
G1 X191.756 Y113.949 E46.79648
G1 X192.428 Y116.095 E46.9012
G1 X192.456 Y116.188 E46.90572
G1 X192.678 Y117.064 E46.9478
G1 X192.821 Y117.955 E46.98982
G1 X192.889 Y119.107 E47.04355
G1 X192.891 Y120.015 E47.08583
G1 X192.89 Y120.2 E47.09445
G1 X192.835 Y123.636 E47.25446
G1 X192.831 Y123.801 E47.26215
G1 X192.808 Y124.516 E47.29546
G1 X192.739 Y125.416 E47.33749
G1 X192.59 Y126.307 E47.37955
G1 X192.273 Y127.463 E47.43537
G1 X191.397 Y130.047 E47.56242
G1 X190.667 Y132.412 E47.67767
G1 X189.975 Y134.912 E47.79846
G1 X189.378 Y137.327 E47.91429
G1 X188.828 Y139.862 E48.03508
G1 X188.362 Y142.34 E48.15249
G1 X187.958 Y144.885 E48.27248
G1 X187.89 Y145.35 E48.29436
G1 X187.72 Y146.237 E48.33642
G1 X187.473 Y147.106 E48.37848
G1 X187.15 Y147.949 E48.42052
G1 X186.754 Y148.761 E48.46259
G1 X186.287 Y149.534 E48.50464
G1 X185.754 Y150.263 E48.54669
G1 X185.158 Y150.942 E48.58876
G1 X184.686 Y151.404 E48.61951
G1 X184.567 Y151.513 E48.62703
G1 X183.874 Y152.093 E48.66911
G1 X183.133 Y152.609 E48.71115
G1 X182.35 Y153.058 E48.75318
G1 X181.529 Y153.436 E48.79527
G1 X180.679 Y153.739 E48.83729
G1 X179.805 Y153.967 E48.87935
G1 X178.914 Y154.116 E48.92141
G1 X177.966 Y154.187 E48.96568
G1 X177.649 Y154.196 E48.98044
G1 X177.362 Y154.2 E48.99381
G1 X173.071 Y154.201 E49.19362
G1 X173.007 Y154.203 E49.1966
G1 X171.98 Y154.199 E49.24442
G1 X64.173 Y154.2 E54.26437
G1 X63.326 Y154.189 E54.30381
G1 X62.424 Y154.136 E54.34588
G1 X61.531 Y154.004 E54.38792
G1 X60.653 Y153.793 E54.42996
G1 X59.797 Y153.505 E54.47202
G1 X58.969 Y153.143 E54.5141
G1 X58.177 Y152.709 E54.55615
G1 X57.427 Y152.206 E54.5982
G1 X56.724 Y151.64 E54.64022
G1 X56.074 Y151.013 E54.68228
G1 X55.482 Y150.331 E54.72433
G1 X54.952 Y149.599 E54.76641
G1 X54.566 Y148.963 E54.80105
G1 X53.98 Y147.912 E54.85709
G1 X53.74 Y147.468 E54.88059
G1 X52.452 Y145.238 E55.0005
G1 X51.146 Y143.119 E55.11641
G1 X49.841 Y141.129 E55.22722
G1 X49.722 Y140.943 E55.2375
G1 X49.627 Y140.791 E55.24584
G1 X49.183 Y140.005 E55.28788
G1 X48.869 Y139.326 E55.32271
G1 X48.36 Y138.112 E55.38401
G1 X47.322 Y135.728 E55.50509
G1 X46.243 Y133.432 E55.62321
G1 X45.085 Y131.137 E55.74291
G1 X43.843 Y128.842 E55.86442
G1 X43.357 Y127.973 E55.91078
G1 X42.951 Y127.166 E55.95285
G1 X42.619 Y126.327 E55.99486
G1 X42.362 Y125.461 E56.03693
G1 X42.183 Y124.576 E56.07897
G1 X42.065 Y123.32 E56.13771
G1 X42.056 Y123.037 E56.1509
G1 X42.051 Y122.713 E56.16599
G1 X42.052 Y121.45 E56.2248
G1 X42.062 Y120.834 E56.25348
G1 X42.087 Y120.275 E56.27954
G1 X42.109 Y119.965 E56.29401
G1 X42.256 Y117.397 E56.41378
G1 X42.329 Y114.832 E56.53327
G1 X42.329 Y112.297 E56.65131
G1 X42.258 Y109.763 E56.76935
G1 X42.075 Y106.543 E56.91953
G1 X42.062 Y106.241 E56.9336
G1 X42.054 Y105.952 E56.94706
G1 X42.05 Y105.67 E56.9602
G1 X42.051 Y91.536 E57.61834
G1 X42.06 Y90.871 E57.6493
G1 X42.112 Y89.969 E57.69137
G1 X42.244 Y89.076 E57.73341
G1 X42.454 Y88.198 E57.77544
G1 X42.741 Y87.341 E57.81753
G1 X43.103 Y86.514 E57.85956
G1 X43.536 Y85.722 E57.90159
G1 X44.038 Y84.971 E57.94366
G1 X44.605 Y84.267 E57.98575
G1 X45.231 Y83.617 E58.02777
G1 X45.912 Y83.024 E58.06982
G1 X46.644 Y82.494 E58.1119
G1 X47.419 Y82.031 E58.15394
G1 F2700 E53.15394
G0 F6000 X51.589 Y106.157
G0 X51.996 Y106.564
G0 X56.959 Y110.135
G0 X56.959 Y110.6
G1 F2700 E58.15394
G1 F1200 X172.461 Y110.6 E63.53219
G1 X173.011 Y110.56 E63.55787
G1 X173.549 Y110.441 E63.58353
G1 X174.05 Y110.25 E63.60849
G1 X174.05 Y116.759 E63.91158
G1 X173.764 Y116.63 E63.92619
G1 X173.234 Y116.479 E63.95185
G1 X172.461 Y116.4 E63.98803
G1 X56.959 Y116.4 E69.36629
G1 X56.959 Y110.6 E69.63636
G0 F6000 X56.559 Y110.2
G1 F1200 X172.461 Y110.2 E75.03324
G1 X172.981 Y110.16 E75.05753
G1 X173.488 Y110.041 E75.08178
G1 X173.971 Y109.846 E75.10603
G1 X174.419 Y109.58 E75.13029
G1 X174.45 Y109.554 E75.13218
G1 X174.45 Y117.445 E75.49962
G1 X174.027 Y117.182 E75.52281
G1 X173.547 Y116.978 E75.54709
G1 X173.042 Y116.85 E75.57135
G1 X172.461 Y116.8 E75.59851
G1 X56.559 Y116.8 E80.99539
G1 X56.559 Y110.2 E81.30271
G0 F6000 X56.159 Y109.8
G1 F1200 X172.461 Y109.8 E86.71822
G1 X172.949 Y109.76 E86.74102
G1 X173.424 Y109.641 E86.76382
G1 X173.873 Y109.447 E86.7866
G1 X174.285 Y109.182 E86.80941
G1 X174.582 Y108.921 E86.82782
G1 X174.85 Y108.653 E86.84547
G1 X174.85 Y117.49 E87.25695
G1 X174.89 Y117.978 E87.27975
G1 X175.009 Y118.453 E87.30256
G1 X175.049 Y118.546 E87.30727
G1 X174.582 Y118.079 E87.33802
G1 X174.209 Y117.762 E87.36082
G1 X173.789 Y117.51 E87.38362
G1 X173.334 Y117.33 E87.40641
G1 X172.856 Y117.226 E87.42919
G1 X172.461 Y117.2 E87.44762
G1 X56.159 Y117.2 E92.86313
G1 X56.159 Y109.8 E93.2077
G0 F6000 X55.759 Y109.4
G1 F1200 X172.461 Y109.4 E98.64184
G1 X172.915 Y109.36 E98.66306
G1 X173.355 Y109.242 E98.68427
G1 X173.767 Y109.048 E98.70548
G1 X174.299 Y108.638 E98.73675
G1 X174.885 Y108.052 E98.77534
G1 X175.178 Y107.703 E98.79656
G1 X175.25 Y107.578 E98.80328
G1 X175.25 Y117.49 E99.26482
G1 X175.29 Y117.944 E99.28604
G1 X175.408 Y118.384 E99.30725
G1 X175.602 Y118.796 E99.32846
