;FLAVOR:Marlin
;TIME:5003
;Filament used: 4.06377m
;Layer height: 0.28
;MINX:96.309
;MINY:74.141
;MINZ:0.28
;MAXX:138.691
;MAXY:161.116
;MAXZ:24.36
;Generated with Cura_SteamEngine 4.6.1
M140 S60
M105
M190 S60
M104 S210
M105
M109 S210
M82 ;absolute extrusion mode
; Ender 3 Custom Start G-code
G92 E0 ; Reset Extruder
G28 ; Home all axes
G1 Z2.0 F3000 ; Move Z Axis up little to prevent scratching of Heat Bed
G1 X0.1 Y20 Z0.3 F5000.0 ; Move to start position
G1 X0.1 Y200.0 Z0.3 F1500.0 E15 ; Draw the first line
G1 X0.4 Y200.0 Z0.3 F5000.0 ; Move to side a little
G1 X0.4 Y20 Z0.3 F1500.0 E30 ; Draw the second line
G92 E0 ; Reset Extruder
G1 Z2.0 F3000 ; Move Z Axis up little to prevent scratching of Heat Bed
G1 X5 Y20 Z0.3 F5000.0 ; Move over to prevent blob squish
G92 E0
G92 E0
G1 F2700 E-5
;LAYER_COUNT:87
;LAYER:0
M107
G0 F6000 X121.308 Y75.205 Z0.28
;TYPE:SKIRT
G1 F2700 E0
G1 F1200 X122.032 Y75.316 E0.03411
G1 X122.477 Y75.392 E0.05513
G1 X122.962 Y75.487 E0.07814
G1 X123.265 Y75.554 E0.09259
G1 X124.138 Y75.787 E0.13466
G1 X124.816 Y76.029 E0.16818
G1 X125.238 Y76.196 E0.18932
G1 X126.268 Y76.671 E0.24213
G1 X126.575 Y76.834 E0.25832
G1 X127.353 Y77.292 E0.30036
G1 X128.088 Y77.818 E0.34244
G1 X128.966 Y78.592 E0.39694
G1 X130.117 Y79.739 E0.47261
G1 X131.964 Y81.531 E0.59244
G1 X133.948 Y83.348 E0.71771
G1 X134.297 Y83.657 E0.73942
G1 X134.946 Y84.285 E0.78147
G1 X135.536 Y84.969 E0.82353
G1 X136.064 Y85.702 E0.86559
G1 X136.525 Y86.478 E0.90762
G1 X136.915 Y87.293 E0.94969
G1 X137.157 Y87.918 E0.9809
G1 X137.26 Y88.212 E0.99541
G1 X137.521 Y89.076 E1.03743
G1 X137.727 Y90.11 E1.08653
G1 X137.76 Y90.336 E1.09716
G1 X137.864 Y91.583 E1.15543
G1 X137.891 Y92.89 E1.2163
G1 X137.886 Y107.213 E1.88324
G1 X137.877 Y107.874 E1.91402
G1 X137.776 Y109.172 E1.97465
G1 X137.739 Y109.432 E1.98687
G1 X137.667 Y109.87 E2.00754
G1 X137.57 Y110.387 E2.03204
G1 X137.201 Y112.225 E2.11933
G1 X136.766 Y114.755 E2.23887
G1 X136.417 Y117.203 E2.35401
G1 X136.124 Y119.77 E2.47431
G1 X135.898 Y122.41 E2.59769
G1 X135.843 Y122.905 E2.62088
G1 X135.667 Y124.201 E2.68179
G1 X135.525 Y125.148 E2.72637
G1 X135.216 Y127.671 E2.84473
G1 X134.981 Y130.2 E2.963
G1 X134.817 Y132.718 E3.0805
G1 X134.723 Y135.283 E3.20002
G1 X134.701 Y137.272 E3.29264
G1 X134.7 Y147.382 E3.7634
G1 X134.688 Y148.235 E3.80313
G1 X134.596 Y149.468 E3.8607
G1 X134.564 Y149.703 E3.87174
G1 X134.302 Y150.994 E3.93308
G1 X134.234 Y151.245 E3.94519
G1 X133.96 Y152.106 E3.98726
G1 X133.464 Y153.234 E4.04464
G1 X133.326 Y153.503 E4.05872
G1 X132.879 Y154.287 E4.10074
G1 X132.364 Y155.029 E4.1428
G1 X131.785 Y155.723 E4.18489
G1 X131.148 Y156.362 E4.2269
G1 X130.424 Y156.967 E4.27083
G1 X129.957 Y157.322 E4.29815
G1 X129.214 Y157.836 E4.34022
G1 X128.429 Y158.283 E4.38228
G1 X127.66 Y158.637 E4.4217
G1 X127.419 Y158.736 E4.43383
G1 X126.376 Y159.1 E4.48527
G1 X125.507 Y159.351 E4.52739
G1 X123.522 Y159.908 E4.62339
G1 X122.642 Y160.113 E4.66546
G1 X121.748 Y160.24 E4.70751
G1 X120.581 Y160.285 E4.76189
G1 X120.232 Y160.279 E4.77814
G1 X117.533 Y160.254 E4.90383
G1 X114.358 Y160.316 E5.0517
G1 X113.455 Y160.294 E5.09376
G1 X112.557 Y160.191 E5.13584
G1 X111.258 Y159.897 E5.19786
G1 X108.74 Y159.141 E5.32028
G1 X107.917 Y158.855 E5.36085
G1 X107.464 Y158.676 E5.38353
G1 X106.639 Y158.308 E5.42559
G1 X105.851 Y157.867 E5.46764
G1 X105.055 Y157.322 E5.51256
G1 X104.635 Y157.004 E5.53709
G1 X103.94 Y156.428 E5.57912
G1 X103.373 Y155.873 E5.61607
G1 X102.774 Y155.197 E5.65813
G1 X102.237 Y154.47 E5.70021
G1 X101.767 Y153.699 E5.74226
G1 X101.356 Y152.866 E5.78551
G1 X101.265 Y152.658 E5.79608
G1 X100.94 Y151.816 E5.83811
G1 X100.659 Y150.81 E5.88675
G1 X100.58 Y150.459 E5.9035
G1 X100.421 Y149.57 E5.94555
G1 X100.345 Y148.762 E5.98334
G1 X100.321 Y148.312 E6.00432
G1 X100.309 Y147.951 E6.02114
G1 X100.298 Y147.265 E6.05309
G1 X100.299 Y137.381 E6.51333
G1 X100.262 Y134.767 E6.63506
G1 X100.154 Y132.208 E6.75433
G1 X99.976 Y129.702 E6.87131
G1 X99.725 Y127.161 E6.9902
G1 X99.406 Y124.67 E7.10714
G1 X99.303 Y123.998 E7.1388
G1 X99.172 Y123.063 E7.18276
G1 X99.109 Y122.504 E7.20896
G1 X98.996 Y121.16 E7.27176
G1 X98.745 Y118.601 E7.39149
G1 X98.424 Y116.073 E7.51015
G1 X98.032 Y113.551 E7.62899
G1 X97.36 Y110.021 E7.79632
G1 X97.213 Y109.13 E7.83837
G1 X97.145 Y108.172 E7.88309
G1 X97.109 Y106.56 E7.95817
G1 X97.111 Y92.579 E8.60918
G1 X97.122 Y91.816 E8.64471
G1 X97.152 Y91.165 E8.67506
G1 X97.168 Y90.961 E8.68459
G1 X97.279 Y90.065 E8.72663
G1 X97.451 Y89.249 E8.76546
G1 X97.566 Y88.796 E8.78722
G1 X97.826 Y87.932 E8.82924
G1 X98.163 Y87.093 E8.87134
G1 X98.572 Y86.288 E8.91338
G1 X99.05 Y85.522 E8.95542
G1 X99.595 Y84.802 E8.99747
G1 X100.389 Y83.947 E9.0518
G1 X100.988 Y83.378 E9.09027
G1 X101.848 Y82.601 E9.14424
G1 X103.7 Y80.88 E9.26197
G1 X105.025 Y79.562 E9.34899
G1 X106.035 Y78.574 E9.41478
G1 X106.708 Y77.971 E9.45686
G1 X107.432 Y77.431 E9.49891
G1 X108.532 Y76.78 E9.55843
G1 X109.065 Y76.508 E9.5863
G1 X109.886 Y76.133 E9.62832
G1 X110.997 Y75.758 E9.68292
G1 X111.408 Y75.645 E9.70277
G1 X112.061 Y75.486 E9.73407
G1 X112.538 Y75.39 E9.75672
G1 X113.228 Y75.27 E9.78934
G1 X114.216 Y75.122 E9.83585
G1 X114.845 Y75.042 E9.86538
G1 X116.001 Y74.961 E9.91934
G1 X117.156 Y74.947 E9.97312
G1 X117.812 Y74.948 E10.00367
G1 X118.256 Y74.941 E10.02435
G1 X118.635 Y74.941 E10.042
G1 X119.958 Y75.027 E10.10373
G1 X121.308 Y75.205 E10.16714
G0 F6000 X121.367 Y74.81
G1 F1200 X122.099 Y74.921 E10.20161
G1 X122.544 Y74.997 E10.22263
G1 X123.049 Y75.096 E10.24659
G1 X123.352 Y75.163 E10.26104
G1 X124.241 Y75.401 E10.3039
G1 X124.963 Y75.657 E10.33957
G1 X125.385 Y75.824 E10.3607
G1 X126.456 Y76.318 E10.41562
G1 X126.763 Y76.481 E10.4318
G1 X127.556 Y76.947 E10.47463
G1 X128.307 Y77.481 E10.51754
G1 X129.248 Y78.308 E10.57588
G1 X130.417 Y79.473 E10.65273
G1 X132.229 Y81.232 E10.77032
G1 X134.233 Y83.066 E10.89681
G1 X134.562 Y83.358 E10.91729
G1 X135.224 Y83.998 E10.96017
G1 X135.828 Y84.693 E11.00304
G1 X136.369 Y85.438 E11.04592
G1 X136.843 Y86.227 E11.08878
G1 X137.248 Y87.054 E11.13165
G1 X137.535 Y87.785 E11.16822
G1 X137.638 Y88.079 E11.18273
G1 X137.904 Y88.961 E11.22562
G1 X138.123 Y90.052 E11.27744
G1 X138.156 Y90.278 E11.28807
G1 X138.264 Y91.574 E11.34863
G1 X138.291 Y92.89 E11.40992
G1 X138.286 Y107.218 E12.07709
G1 X138.277 Y107.879 E12.10788
G1 X138.172 Y109.228 E12.17088
G1 X138.135 Y109.488 E12.18311
G1 X138.06 Y109.944 E12.20463
G1 X137.962 Y110.466 E12.22936
G1 X137.594 Y112.3 E12.31646
G1 X137.163 Y114.808 E12.43495
G1 X136.811 Y117.273 E12.5509
G1 X136.522 Y119.813 E12.66994
G1 X136.296 Y122.444 E12.7929
G1 X136.239 Y122.959 E12.81702
G1 X136.062 Y124.261 E12.87821
G1 X135.923 Y125.185 E12.92172
G1 X135.613 Y127.724 E13.04082
G1 X135.383 Y130.191 E13.15619
G1 X135.216 Y132.759 E13.27602
G1 X135.123 Y135.301 E13.39447
G1 X135.101 Y137.272 E13.48625
G1 X135.1 Y147.388 E13.9573
G1 X135.088 Y148.241 E13.99702
G1 X134.992 Y149.522 E14.05684
G1 X134.96 Y149.757 E14.06788
G1 X134.688 Y151.099 E14.13164
G1 X134.62 Y151.35 E14.14375
G1 X134.341 Y152.227 E14.1866
G1 X133.82 Y153.416 E14.24705
G1 X133.682 Y153.685 E14.26113
G1 X133.227 Y154.486 E14.30402
G1 X132.704 Y155.243 E14.34686
G1 X132.117 Y155.952 E14.38973
G1 X131.471 Y156.608 E14.4326
G1 X130.666 Y157.286 E14.4816
G1 X130.199 Y157.641 E14.50892
G1 X129.442 Y158.165 E14.55179
G1 X128.643 Y158.623 E14.59467
G1 X127.812 Y159.007 E14.6373
G1 X127.571 Y159.106 E14.64943
G1 X126.487 Y159.484 E14.70289
G1 X125.615 Y159.736 E14.74515
G1 X123.63 Y160.293 E14.84115
G1 X122.733 Y160.503 E14.88405
G1 X121.822 Y160.634 E14.92691
G1 X120.573 Y160.685 E14.98511
G1 X120.229 Y160.679 E15.00113
G1 X117.537 Y160.654 E15.12649
G1 X114.365 Y160.716 E15.27422
G1 X113.445 Y160.694 E15.31707
G1 X112.53 Y160.592 E15.35994
G1 X111.627 Y160.411 E15.40283
G1 X111.144 Y160.28 E15.42613
G1 X109.987 Y159.936 E15.48233
G1 X109.683 Y159.84 E15.49718
G1 X108.626 Y159.524 E15.54855
G1 X107.77 Y159.227 E15.59074
G1 X107.317 Y159.048 E15.61342
G1 X106.476 Y158.673 E15.6563
G1 X105.671 Y158.226 E15.69917
G1 X104.813 Y157.641 E15.74753
G1 X104.393 Y157.323 E15.77206
G1 X103.684 Y156.736 E15.81492
G1 X103.085 Y156.151 E15.85391
G1 X102.474 Y155.462 E15.89679
G1 X101.925 Y154.723 E15.93965
G1 X101.442 Y153.939 E15.98253
G1 X100.99 Y153.027 E16.02993
G1 X100.899 Y152.819 E16.0405
G1 X100.567 Y151.96 E16.08338
G1 X100.269 Y150.898 E16.13474
G1 X100.19 Y150.547 E16.1515
G1 X100.027 Y149.64 E16.19441
G1 X99.946 Y148.784 E16.23444
G1 X99.922 Y148.334 E16.25543
G1 X99.909 Y147.959 E16.2729
G1 X99.898 Y147.265 E16.30522
G1 X99.899 Y137.387 E16.76518
G1 X99.862 Y134.79 E16.88612
G1 X99.754 Y132.223 E17.00575
G1 X99.578 Y129.733 E17.12199
G1 X99.329 Y127.219 E17.23962
G1 X99.007 Y124.705 E17.35764
G1 X98.907 Y124.054 E17.38831
G1 X98.776 Y123.119 E17.43227
G1 X98.71 Y122.538 E17.4595
G1 X98.593 Y121.149 E17.52441
G1 X98.348 Y118.654 E17.64114
G1 X98.026 Y116.113 E17.76041
G1 X97.643 Y113.655 E17.87625
G1 X96.968 Y110.103 E18.0446
G1 X96.818 Y109.195 E18.08746
G1 X96.745 Y108.181 E18.13479
G1 X96.709 Y106.56 E18.21029
G1 X96.711 Y92.573 E18.86159
G1 X96.722 Y91.81 E18.89712
G1 X96.753 Y91.134 E18.92863
G1 X96.769 Y90.93 E18.93816
G1 X96.881 Y90.016 E18.98104
G1 X97.063 Y89.151 E19.0222
G1 X97.178 Y88.698 E19.04396
G1 X97.443 Y87.816 E19.08684
G1 X97.784 Y86.961 E19.1297
G1 X98.197 Y86.138 E19.17258
G1 X98.68 Y85.355 E19.21542
G1 X99.23 Y84.616 E19.25831
G1 X100.112 Y83.659 E19.31892
G1 X100.72 Y83.081 E19.35798
G1 X101.555 Y82.327 E19.41036
G1 X103.443 Y80.572 E19.53039
G1 X104.746 Y79.276 E19.61597
G1 X105.756 Y78.288 E19.68176
G1 X106.441 Y77.673 E19.72462
G1 X107.177 Y77.12 E19.76749
G1 X108.35 Y76.423 E19.83103
G1 X108.883 Y76.151 E19.85889
G1 X109.72 Y75.769 E19.90173
G1 X110.891 Y75.372 E19.95931
G1 X111.302 Y75.259 E19.97915
G1 X111.972 Y75.096 E20.01126
G1 X112.468 Y74.996 E20.03482
G1 X113.167 Y74.875 E20.06785
G1 X114.166 Y74.725 E20.11489
G1 X114.795 Y74.645 E20.14442
G1 X115.996 Y74.561 E20.20048
G1 X117.156 Y74.547 E20.2545
G1 X118.635 Y74.541 E20.32337
G1 X120.009 Y74.63 E20.38748
G1 X121.367 Y74.81 E20.45127
G0 F6000 X120.061 Y74.234
G1 F1200 X121.231 Y74.387 E20.50621
G1 X121.426 Y74.414 E20.51538
G1 X122.167 Y74.527 E20.55028
G1 X122.612 Y74.603 E20.5713
G1 X123.135 Y74.705 E20.59611
G1 X123.438 Y74.772 E20.61056
G1 X124.344 Y75.014 E20.65423
G1 X125.111 Y75.285 E20.69211
G1 X125.533 Y75.452 E20.71324
G1 X126.643 Y75.964 E20.77016
G1 X126.95 Y76.127 E20.78635
G1 X127.759 Y76.602 E20.83003
G1 X128.525 Y77.144 E20.87372
G1 X129.529 Y78.024 E20.93589
G1 X130.681 Y79.172 E21.01162
G1 X132.513 Y80.949 E21.13046
G1 X134.453 Y82.726 E21.25297
G1 X134.828 Y83.058 E21.27629
G1 X135.502 Y83.71 E21.31995
G1 X136.119 Y84.416 E21.36361
G1 X136.673 Y85.173 E21.40729
G1 X137.161 Y85.974 E21.45097
G1 X137.579 Y86.814 E21.49466
G1 X137.912 Y87.653 E21.53669
G1 X138.015 Y87.947 E21.55119
G1 X138.287 Y88.845 E21.59488
G1 X138.519 Y89.995 E21.64951
G1 X138.552 Y90.221 E21.66015
G1 X138.664 Y91.565 E21.72295
G1 X138.691 Y92.89 E21.78466
G1 X138.686 Y107.224 E22.45211
G1 X138.677 Y107.885 E22.48289
G1 X138.568 Y109.285 E22.54828
G1 X138.531 Y109.545 E22.56051
G1 X138.454 Y110.017 E22.58277
G1 X138.354 Y110.545 E22.6078
G1 X137.987 Y112.376 E22.69475
G1 X137.56 Y114.861 E22.81216
G1 X137.205 Y117.343 E22.92891
G1 X136.923 Y119.821 E23.04504
G1 X136.695 Y122.478 E23.16921
G1 X136.636 Y123.012 E23.19423
G1 X136.458 Y124.32 E23.2557
G1 X136.317 Y125.256 E23.29977
G1 X136.014 Y127.739 E23.41625
G1 X135.78 Y130.254 E23.53387
G1 X135.616 Y132.764 E23.65099
G1 X135.523 Y135.32 E23.77009
G1 X135.501 Y137.272 E23.86099
G1 X135.5 Y147.394 E24.33231
G1 X135.488 Y148.247 E24.37203
G1 X135.388 Y149.576 E24.43409
G1 X135.356 Y149.811 E24.44514
G1 X135.19 Y150.734 E24.4888
G1 X135.074 Y151.203 E24.5113
G1 X135.006 Y151.454 E24.52341
G1 X134.723 Y152.348 E24.56707
G1 X134.176 Y153.599 E24.63065
G1 X134.038 Y153.868 E24.64473
G1 X133.575 Y154.683 E24.68837
G1 X133.044 Y155.456 E24.73204
G1 X132.449 Y156.181 E24.77572
G1 X131.794 Y156.853 E24.81941
G1 X130.908 Y157.604 E24.87349
G1 X130.441 Y157.959 E24.90081
G1 X129.671 Y158.494 E24.94447
G1 X128.858 Y158.962 E24.98815
G1 X127.964 Y159.377 E25.03404
G1 X127.723 Y159.476 E25.04618
G1 X126.598 Y159.868 E25.10165
G1 X125.723 Y160.121 E25.14406
G1 X123.738 Y160.678 E25.24006
G1 X122.825 Y160.893 E25.28374
G1 X121.897 Y161.029 E25.32741
G1 X120.566 Y161.085 E25.38944
G1 X120.225 Y161.079 E25.40532
G1 X117.541 Y161.054 E25.53031
G1 X114.373 Y161.116 E25.67785
G1 X113.435 Y161.094 E25.72154
G1 X112.503 Y160.993 E25.76519
G1 X111.583 Y160.812 E25.80885
G1 X111.03 Y160.664 E25.83551
G1 X108.511 Y159.907 E25.95799
G1 X107.623 Y159.599 E26.00175
G1 X107.17 Y159.42 E26.02443
G1 X106.313 Y159.039 E26.0681
G1 X105.492 Y158.586 E26.11177
G1 X104.572 Y157.96 E26.16358
G1 X104.152 Y157.642 E26.18811
G1 X103.429 Y157.044 E26.2318
G1 X102.798 Y156.429 E26.27283
G1 X102.175 Y155.728 E26.3165
G1 X101.614 Y154.976 E26.36019
G1 X101.119 Y154.18 E26.40383
G1 X100.623 Y153.187 E26.45552
G1 X100.532 Y152.979 E26.46609
G1 X100.193 Y152.105 E26.50974
G1 X99.878 Y150.985 E26.56392
G1 X99.799 Y150.634 E26.58067
G1 X99.633 Y149.711 E26.62434
G1 X99.547 Y148.805 E26.66672
G1 X99.523 Y148.355 E26.6877
G1 X99.509 Y147.966 E26.70582
G1 X99.498 Y147.265 E26.73847
G1 X99.499 Y137.393 E27.19815
G1 X99.462 Y134.776 E27.32002
G1 X99.356 Y132.267 E27.43696
G1 X99.179 Y129.768 E27.55361
G1 X98.932 Y127.273 E27.67036
G1 X98.608 Y124.746 E27.78899
G1 X98.51 Y124.109 E27.819
G1 X98.379 Y123.174 E27.86296
G1 X98.312 Y122.571 E27.89121
G1 X98.208 Y121.332 E27.94911
G1 X97.947 Y118.672 E28.07356
G1 X97.628 Y116.159 E28.19152
G1 X97.25 Y113.725 E28.30621
G1 X96.577 Y110.186 E28.47396
G1 X96.423 Y109.26 E28.51767
G1 X96.345 Y108.191 E28.56758
G1 X96.309 Y106.56 E28.64354
G1 X96.311 Y92.567 E29.29512
G1 X96.322 Y91.804 E29.33065
G1 X96.355 Y91.103 E29.36333
G1 X96.371 Y90.899 E29.37285
G1 X96.484 Y89.968 E29.41652
G1 X96.675 Y89.052 E29.46009
G1 X96.79 Y88.599 E29.48186
G1 X97.06 Y87.701 E29.52552
G1 X97.404 Y86.829 E29.56917
G1 X97.822 Y85.989 E29.61286
G1 X98.31 Y85.188 E29.65653
G1 X98.865 Y84.432 E29.7002
G1 X99.481 Y83.725 E29.74387
G1 X99.835 Y83.37 E29.76721
G1 X100.209 Y83.011 E29.79135
G1 X100.452 Y82.785 E29.8068
G1 X101.259 Y82.056 E29.85744
G1 X103.156 Y80.293 E29.97803
G1 X104.466 Y78.99 E30.06407
G1 X105.476 Y78.002 E30.12986
G1 X106.174 Y77.375 E30.17355
G1 X106.922 Y76.81 E30.2172
G1 X107.716 Y76.311 E30.26086
G1 X108.168 Y76.067 E30.28478
G1 X108.701 Y75.795 E30.31265
G1 X109.554 Y75.405 E30.35632
G1 X110.785 Y74.987 E30.41685
G1 X111.196 Y74.874 E30.4367
G1 X111.884 Y74.706 E30.46968
G1 X112.398 Y74.602 E30.4941
G1 X113.106 Y74.48 E30.52755
G1 X114.115 Y74.328 E30.57507
G1 X114.744 Y74.248 E30.60459
G1 X115.991 Y74.161 E30.6628
G1 X117.157 Y74.147 E30.71709
G1 X118.635 Y74.141 E30.78592
G1 X119.572 Y74.181 E30.82959
G1 X120.061 Y74.234 E30.85249
G1 F2700 E25.85249
G0 F6000 X110.622 Y91.269
G0 X110.499 Y91.945
G0 X110.523 Y107.94
G0 X110.669 Y108.48
G0 X110.878 Y108.836
G0 X114.303 Y113.428
G0 X114.303 Y113.852
G1 F2700 E30.85249
G1 F1200 X114.355 Y113.856 E30.85492
G1 X114.908 Y113.932 E30.88091
G1 X115.045 Y113.94 E30.8873
G1 X115.46 Y113.979 E30.90671
G1 X116.931 Y114.043 E30.97527
G1 X117.547 Y114.05 E31.00396
G1 X118.144 Y114.042 E31.03176
G1 X118.745 Y114.024 E31.05976
G1 X119.24 Y113.998 E31.08284
G1 X120.094 Y113.931 E31.12272
G1 X120.687 Y113.861 E31.15053
G1 X120.699 Y119.27 E31.4024
G1 X120.739 Y119.82 E31.42807
G1 X120.858 Y120.358 E31.45373
G1 X121.054 Y120.873 E31.47939
G1 X121.337 Y121.376 E31.50626
G1 X121.412 Y121.489 E31.51258
G1 X121.367 Y121.555 E31.5163
G1 X121.089 Y122.031 E31.54197
G1 X120.882 Y122.542 E31.56764
G1 X120.752 Y123.077 E31.59328
G1 X120.7 Y123.705 E31.62262
G1 X120.701 Y145.487 E32.63688
G1 X120.566 Y145.523 E32.64338
G1 X120.059 Y145.74 E32.66906
G1 X119.589 Y146.028 E32.69473
G1 X119.438 Y146.152 E32.70383
G1 X118.624 Y146.07 E32.74192
G1 X118.244 Y146.051 E32.75964
G1 X117.88 Y146.051 E32.77659
