;FLAVOR:Marlin
;TIME:26179
;Filament used: 24.6003m
;Layer height: 0.2
;MINX:53.259
;MINY:28.259
;MINZ:0.2
;MAXX:181.741
;MAXY:206.731
;MAXZ:13.6
;Generated with Cura_SteamEngine 4.10.0
M140 S55
M105
M190 S55
M104 S215
M105
M109 S215
M82 ;absolute extrusion mode
; Ender 3 Custom Start G-code
G92 E0 ; Reset Extruder
G28 ; Home all axes
G1 Z2.0 F3000 ; Move Z Axis up little to prevent scratching of Heat Bed
G1 X0.1 Y20 Z0.3 F5000.0 ; Move to start position
G1 X0.1 Y200.0 Z0.3 F1500.0 E15 ; Draw the first line
G1 X0.4 Y200.0 Z0.3 F5000.0 ; Move to side a little
G1 X0.4 Y20 Z0.3 F1500.0 E30 ; Draw the second line
G92 E0 ; Reset Extruder
G1 Z2.0 F3000 ; Move Z Axis up little to prevent scratching of Heat Bed
G1 X5 Y20 Z0.3 F5000.0 ; Move over to prevent blob squish
G92 E0
G92 E0
G1 F2700 E-5
;LAYER_COUNT:68
;LAYER:0
M107
G0 F6000 X56.565 Y38.397 Z0.2
;TYPE:SKIRT
G1 F2700 E0
G1 F1200 X57.525 Y36.96 E0.05748
G1 X58.009 Y36.257 E0.08587
G1 X58.574 Y35.508 E0.11707
G1 X59.128 Y34.885 E0.1448
G1 X59.318 Y34.687 E0.15393
G1 X59.605 Y34.398 E0.16747
G1 X59.853 Y34.158 E0.17895
G1 X60.555 Y33.535 E0.21017
G1 X61.266 Y33.002 E0.23972
G1 X61.961 Y32.525 E0.26776
G1 X63.606 Y31.427 E0.33354
G1 X64.193 Y31.048 E0.35678
G1 X64.974 Y30.588 E0.38693
G1 X65.335 Y30.395 E0.40054
G1 X65.716 Y30.201 E0.41476
G1 X65.924 Y30.1 E0.42246
G1 X66.785 Y29.727 E0.45366
G1 X67.674 Y29.428 E0.48486
G1 X68.213 Y29.287 E0.50339
G1 X68.635 Y29.191 E0.51778
G1 X69.082 Y29.097 E0.53298
G1 X70.693 Y28.775 E0.58762
G1 X70.928 Y28.731 E0.59557
G1 X72.501 Y28.452 E0.64871
G1 X73.431 Y28.328 E0.67991
G1 X74.19 Y28.285 E0.7052
G1 X75.327 Y28.261 E0.74302
G1 X75.559 Y28.259 E0.75074
G1 X159.793 Y28.259 E3.55237
G1 X160.68 Y28.271 E3.58188
G1 X161.616 Y28.326 E3.61306
G1 X162.431 Y28.439 E3.64043
G1 X164.016 Y28.72 E3.69397
G1 X164.242 Y28.762 E3.70161
G1 X165.7 Y29.052 E3.75106
G1 X166.605 Y29.247 E3.78185
G1 X167.512 Y29.484 E3.81303
G1 X168.396 Y29.797 E3.84422
G1 X168.932 Y30.03 E3.86366
G1 X169.082 Y30.1 E3.86916
G1 X169.567 Y30.341 E3.88718
G1 X169.923 Y30.529 E3.90057
G1 X170.754 Y31.016 E3.9326
G1 X171.603 Y31.565 E3.96623
G1 X173.04 Y32.525 E4.02371
G1 X173.743 Y33.009 E4.0521
G1 X174.492 Y33.574 E4.0833
G1 X174.891 Y33.919 E4.10084
G1 X175.249 Y34.254 E4.11715
G1 X175.393 Y34.395 E4.12385
G1 X175.575 Y34.578 E4.13244
G1 X175.805 Y34.814 E4.1434
G1 X176.43 Y35.513 E4.17459
G1 X176.975 Y36.236 E4.2047
G1 X177.456 Y36.934 E4.23289
G1 X178.565 Y38.595 E4.29932
G1 X178.945 Y39.182 E4.32258
G1 X179.412 Y39.974 E4.35316
G1 X179.605 Y40.335 E4.36677
G1 X179.798 Y40.714 E4.38092
G1 X179.901 Y40.926 E4.38876
G1 X180.275 Y41.786 E4.41995
G1 X180.573 Y42.675 E4.45114
G1 X180.72 Y43.236 E4.47043
G1 X180.81 Y43.636 E4.48406
G1 X180.904 Y44.087 E4.49938
G1 X181.225 Y45.696 E4.55395
G1 X181.269 Y45.927 E4.56178
G1 X181.548 Y47.5 E4.61491
G1 X181.672 Y48.43 E4.64612
G1 X181.715 Y49.189 E4.6714
G1 X181.739 Y50.327 E4.70926
G1 X181.741 Y50.559 E4.71698
G1 X181.74 Y157.323 E8.26796
G1 X181.73 Y158.021 E8.29118
G1 X181.646 Y159.225 E8.33132
G1 X181.536 Y160.096 E8.36052
G1 X180.992 Y163.926 E8.48919
G1 X180.885 Y164.616 E8.51241
G1 X180.684 Y165.61 E8.54614
G1 X180.418 Y166.509 E8.57732
G1 X180.104 Y167.319 E8.60622
G1 X179.813 Y167.99 E8.63054
G1 X178.196 Y171.585 E8.76165
G1 X177.878 Y172.266 E8.78665
G1 X177.445 Y173.098 E8.81784
G1 X176.943 Y173.89 E8.84903
G1 X176.391 Y174.619 E8.87945
G1 X175.863 Y175.256 E8.90696
G1 X173.335 Y178.231 E9.03681
G1 X172.873 Y178.758 E9.06012
G1 X172.225 Y179.437 E9.09134
G1 X171.522 Y180.057 E9.12252
G1 X170.817 Y180.583 E9.15177
G1 X170.268 Y180.959 E9.1739
G1 X166.914 Y183.181 E9.30772
G1 X166.268 Y183.596 E9.33326
G1 X165.171 Y184.215 E9.37515
G1 X164.446 Y184.57 E9.402
G1 X125.418 Y203.157 E10.83977
G1 X124.764 Y203.456 E10.86369
G1 X124.242 Y203.678 E10.88255
G1 X123.977 Y203.783 E10.89203
G1 X123.618 Y203.919 E10.9048
G1 X121.957 Y204.511 E10.96345
G1 X121.14 Y204.787 E10.99213
G1 X120.239 Y205.047 E11.02332
G1 X119.299 Y205.232 E11.05519
G1 X118.274 Y205.387 E11.08967
G1 X116.892 Y205.573 E11.13605
G1 X116.206 Y205.655 E11.15903
G1 X115.605 Y205.71 E11.1791
G1 X115.356 Y205.726 E11.1874
G1 X114.819 Y205.751 E11.20528
G1 X83.933 Y206.72 E12.23306
G1 X83.253 Y206.731 E12.25568
G1 X82.315 Y206.706 E12.28688
G1 X81.84 Y206.67 E12.30273
G1 X81.481 Y206.637 E12.31472
G1 X77.674 Y206.245 E12.44201
G1 X77.039 Y206.172 E12.46327
G1 X76.112 Y206.025 E12.49449
G1 X75.202 Y205.8 E12.52566
G1 X74.531 Y205.58 E12.54915
G1 X73.504 Y205.206 E12.5855
G1 X73.302 Y205.13 E12.59268
G1 X70.251 Y203.949 E12.7015
G1 X69.628 Y203.697 E12.72385
G1 X68.775 Y203.309 E12.75502
G1 X67.957 Y202.849 E12.78623
G1 X67.389 Y202.472 E12.8089
G1 X66.546 Y201.874 E12.84328
G1 X66.376 Y201.751 E12.85026
G1 X63.714 Y199.784 E12.96035
G1 X63.194 Y199.389 E12.98207
G1 X62.472 Y198.791 E13.01325
G1 X61.804 Y198.133 E13.04443
G1 X61.345 Y197.608 E13.06763
G1 X60.677 Y196.794 E13.10265
G1 X60.54 Y196.624 E13.10991
G1 X58.529 Y194.07 E13.21803
G1 X58.105 Y193.517 E13.24121
G1 X57.566 Y192.749 E13.27242
G1 X57.095 Y191.938 E13.30361
G1 X56.791 Y191.311 E13.32678
G1 X56.278 Y190.159 E13.36873
G1 X54.998 Y187.136 E13.47791
G1 X54.742 Y186.506 E13.50053
G1 X54.427 Y185.623 E13.53171
G1 X54.187 Y184.716 E13.56292
G1 X54.065 Y184.062 E13.58505
G1 X53.9 Y183.005 E13.62063
G1 X53.866 Y182.771 E13.62849
G1 X53.426 Y179.482 E13.73886
G1 X53.343 Y178.774 E13.76257
G1 X53.274 Y177.854 E13.79325
G1 X53.261 Y177.371 E13.80932
G1 X53.259 Y177.129 E13.81737
G1 X53.26 Y50.038 E18.04444
G1 X53.271 Y49.32 E18.06832
G1 X53.326 Y48.384 E18.09951
G1 X53.439 Y47.569 E18.12687
G1 X53.72 Y45.984 E18.18041
G1 X53.762 Y45.758 E18.18806
G1 X54.087 Y44.132 E18.24321
G1 X54.243 Y43.407 E18.26787
G1 X54.479 Y42.499 E18.29908
G1 X54.792 Y41.615 E18.33027
G1 X55.043 Y41.04 E18.35114
G1 X55.114 Y40.889 E18.35669
G1 X55.352 Y40.412 E18.37442
G1 X55.541 Y40.056 E18.38782
G1 X56.011 Y39.255 E18.41871
G1 X56.565 Y38.397 E18.45268
G0 F6000 X56.898 Y38.62
G1 F1200 X57.945 Y37.054 E18.51533
G1 X58.338 Y36.484 E18.53836
G1 X58.893 Y35.75 E18.56897
G1 X59.417 Y35.162 E18.59516
G1 X59.607 Y34.964 E18.60429
G1 X59.884 Y34.686 E18.61734
G1 X60.132 Y34.446 E18.62882
G1 X60.82 Y33.835 E18.65943
G1 X61.493 Y33.331 E18.68739
G1 X62.183 Y32.858 E18.71521
G1 X63.823 Y31.763 E18.7808
G1 X64.41 Y31.384 E18.80404
G1 X65.162 Y30.941 E18.83307
G1 X65.523 Y30.748 E18.84669
G1 X65.891 Y30.561 E18.86042
G1 X66.099 Y30.46 E18.86811
G1 X66.944 Y30.094 E18.89873
G1 X67.817 Y29.803 E18.92934
G1 X68.305 Y29.676 E18.94611
G1 X68.717 Y29.582 E18.96017
G1 X69.16 Y29.49 E18.97522
G1 X70.771 Y29.168 E19.02986
G1 X70.998 Y29.125 E19.03754
G1 X72.571 Y28.846 E19.09068
G1 X73.483 Y28.725 E19.12128
G1 X74.198 Y28.685 E19.14509
G1 X75.335 Y28.661 E19.18292
G1 X75.559 Y28.659 E19.19037
G1 X159.793 Y28.659 E21.992
G1 X160.673 Y28.671 E22.02128
G1 X161.592 Y28.725 E22.05189
G1 X162.361 Y28.833 E22.07772
G1 X163.946 Y29.114 E22.13126
G1 X164.164 Y29.155 E22.13864
G1 X165.794 Y29.48 E22.19392
G1 X166.52 Y29.637 E22.21863
G1 X167.411 Y29.871 E22.24927
G1 X168.278 Y30.181 E22.27989
G1 X168.763 Y30.392 E22.29748
G1 X168.913 Y30.462 E22.30299
G1 X169.38 Y30.695 E22.32035
G1 X169.736 Y30.883 E22.33374
G1 X170.537 Y31.352 E22.36461
G1 X171.38 Y31.898 E22.39801
G1 X172.946 Y32.945 E22.46067
G1 X173.516 Y33.338 E22.4837
G1 X174.25 Y33.893 E22.5143
G1 X174.622 Y34.215 E22.53067
G1 X174.969 Y34.54 E22.54648
G1 X175.288 Y34.857 E22.56144
G1 X175.518 Y35.093 E22.5724
G1 X176.132 Y35.779 E22.60302
G1 X176.646 Y36.463 E22.63148
G1 X177.124 Y37.156 E22.65948
G1 X178.145 Y38.684 E22.7206
G1 X178.609 Y39.4 E22.74898
G1 X179.059 Y40.162 E22.77841
G1 X179.252 Y40.523 E22.79203
G1 X179.438 Y40.889 E22.80568
G1 X179.541 Y41.101 E22.81352
G1 X179.907 Y41.946 E22.84415
G1 X180.199 Y42.819 E22.87476
G1 X180.33 Y43.326 E22.89218
G1 X180.419 Y43.718 E22.90555
G1 X180.512 Y44.165 E22.92074
G1 X180.833 Y45.774 E22.97531
G1 X180.875 Y45.997 E22.98285
G1 X181.154 Y47.57 E23.03599
G1 X181.275 Y48.482 E23.06659
G1 X181.315 Y49.197 E23.09041
G1 X181.339 Y50.335 E23.12827
G1 X181.341 Y50.559 E23.13572
G1 X181.34 Y157.317 E26.6865
G1 X181.33 Y158.015 E26.70972
G1 X181.249 Y159.176 E26.74843
G1 X181.14 Y160.04 E26.77739
G1 X180.597 Y163.864 E26.90586
G1 X180.49 Y164.554 E26.92908
G1 X180.296 Y165.513 E26.96162
G1 X180.034 Y166.396 E26.99226
G1 X179.737 Y167.159 E27.01949
G1 X179.389 Y167.96 E27.04854
G1 X177.897 Y171.278 E27.16954
G1 X177.515 Y172.097 E27.19959
G1 X177.09 Y172.913 E27.23019
G1 X176.595 Y173.69 E27.26084
G1 X176.082 Y174.364 E27.28901
G1 X175.558 Y174.997 E27.31634
G1 X173.034 Y177.968 E27.446
G1 X172.572 Y178.495 E27.46931
G1 X171.935 Y179.16 E27.49994
G1 X171.244 Y179.767 E27.53053
G1 X170.591 Y180.253 E27.5576
G1 X170.042 Y180.629 E27.57973
G1 X166.824 Y182.762 E27.70814
G1 X166.052 Y183.259 E27.73868
G1 X164.994 Y183.856 E27.77909
G1 X164.274 Y184.209 E27.80576
G1 X125.402 Y202.723 E29.2378
G1 X124.597 Y203.092 E29.26725
G1 X124.095 Y203.307 E29.28541
G1 X123.83 Y203.412 E29.29489
G1 X123.484 Y203.542 E29.30719
G1 X121.823 Y204.134 E29.36584
G1 X121.012 Y204.408 E29.39431
G1 X120.128 Y204.662 E29.4249
G1 X119.239 Y204.837 E29.45504
G1 X118.22 Y204.991 E29.48931
G1 X117.011 Y205.155 E29.52989
G1 X116.158 Y205.258 E29.55847
G1 X115.58 Y205.311 E29.57778
G1 X115.07 Y205.341 E29.59477
G1 X114.807 Y205.351 E29.60352
G1 X83.926 Y206.32 E30.63113
G1 X83.246 Y206.331 E30.65375
G1 X82.343 Y206.307 E30.6838
G1 X81.876 Y206.272 E30.69937
G1 X81.522 Y206.239 E30.7112
G1 X77.719 Y205.848 E30.83835
G1 X77.084 Y205.775 E30.85961
G1 X76.175 Y205.63 E30.89023
G1 X75.282 Y205.407 E30.92084
G1 X74.668 Y205.204 E30.94235
G1 X73.641 Y204.83 E30.9787
G1 X73.446 Y204.757 E30.98563
G1 X70.401 Y203.579 E31.09422
G1 X69.778 Y203.327 E31.11657
G1 X68.941 Y202.945 E31.14717
G1 X68.139 Y202.491 E31.17783
G1 X67.62 Y202.146 E31.19855
G1 X66.777 Y201.548 E31.23293
G1 X63.956 Y199.466 E31.34954
G1 X63.436 Y199.071 E31.37126
G1 X62.728 Y198.483 E31.40187
G1 X62.073 Y197.835 E31.43252
G1 X61.654 Y197.354 E31.45373
G1 X60.854 Y196.377 E31.49573
G1 X58.846 Y193.827 E31.60369
G1 X58.422 Y193.274 E31.62686
G1 X57.894 Y192.519 E31.65751
G1 X57.434 Y191.722 E31.68811
G1 X57.156 Y191.148 E31.70933
G1 X56.728 Y190.19 E31.74422
G1 X56.647 Y190.003 E31.751
G1 X55.369 Y186.985 E31.86001
G1 X55.113 Y186.355 E31.88263
G1 X54.804 Y185.488 E31.91324
G1 X54.571 Y184.598 E31.94384
G1 X54.46 Y184 E31.96407
G1 X54.295 Y182.943 E31.99965
G1 X54.262 Y182.718 E32.00721
G1 X53.845 Y179.611 E32.11148
G1 X53.74 Y178.727 E32.14109
G1 X53.674 Y177.841 E32.17064
G1 X53.661 Y177.368 E32.18638
G1 X53.659 Y177.126 E32.19443
G1 X53.66 Y50.045 E36.42116
G1 X53.671 Y49.327 E36.44504
G1 X53.725 Y48.408 E36.47566
G1 X53.833 Y47.639 E36.50149
G1 X54.114 Y46.054 E36.55503
G1 X54.155 Y45.836 E36.56241
G1 X54.478 Y44.216 E36.61735
G1 X54.634 Y43.491 E36.64201
G1 X54.867 Y42.6 E36.67264
G1 X55.176 Y41.733 E36.70326
G1 X55.404 Y41.211 E36.7222
G1 X55.475 Y41.06 E36.72775
G1 X55.706 Y40.6 E36.74487
G1 X55.895 Y40.244 E36.75828
G1 X56.347 Y39.472 E36.78803
G1 X56.898 Y38.62 E36.82178
G0 F6000 X57.138 Y38.982
G1 F1200 X58.275 Y37.281 E36.88983
G1 X58.668 Y36.711 E36.91286
G1 X59.213 Y35.991 E36.94289
G1 X59.705 Y35.439 E36.96749
G1 X59.895 Y35.241 E36.97661
G1 X60.162 Y34.973 E36.9892
G1 X60.41 Y34.733 E37.00067
G1 X61.086 Y34.135 E37.03069
G1 X61.72 Y33.661 E37.05702
G1 X62.406 Y33.19 E37.0847
G1 X64.04 Y32.099 E37.15005
G1 X64.627 Y31.72 E37.17329
G1 X65.351 Y31.294 E37.20123
G1 X65.712 Y31.101 E37.21484
G1 X66.066 Y30.921 E37.22805
G1 X66.274 Y30.82 E37.23574
G1 X67.103 Y30.461 E37.26579
G1 X68.396 Y30.065 E37.31076
G1 X68.8 Y29.974 E37.32454
G1 X69.239 Y29.882 E37.33946
G1 X70.85 Y29.56 E37.3941
G1 X71.068 Y29.519 E37.40148
G1 X72.641 Y29.24 E37.45461
G1 X73.536 Y29.122 E37.48464
G1 X74.207 Y29.085 E37.50699
G1 X75.344 Y29.061 E37.54481
G1 X75.559 Y29.059 E37.55196
G1 X159.793 Y29.059 E40.3536
G1 X160.667 Y29.071 E40.38267
G1 X161.569 Y29.125 E40.41273
G1 X162.292 Y29.227 E40.43701
G1 X163.877 Y29.508 E40.49055
G1 X164.086 Y29.547 E40.49762
G1 X165.71 Y29.871 E40.5527
G1 X166.436 Y30.028 E40.5774
G1 X167.309 Y30.258 E40.60743
G1 X168.159 Y30.564 E40.63748
G1 X168.593 Y30.755 E40.65325
G1 X168.743 Y30.825 E40.65876
G1 X169.193 Y31.048 E40.67546
G1 X169.549 Y31.236 E40.68885
G1 X170.32 Y31.688 E40.71858
G1 X171.158 Y32.231 E40.75179
G1 X172.719 Y33.275 E40.81425
G1 X173.289 Y33.668 E40.83728
G1 X174.009 Y34.213 E40.86731
G1 X174.353 Y34.511 E40.88245
G1 X174.689 Y34.826 E40.89777
G1 X175.002 Y35.136 E40.91242
G1 X175.232 Y35.372 E40.92338
G1 X175.833 Y36.046 E40.95341
G1 X176.317 Y36.691 E40.98023
G1 X176.791 Y37.378 E41.008
G1 X177.812 Y38.906 E41.06912
G1 X178.273 Y39.617 E41.0973
G1 X178.706 Y40.351 E41.12565
G1 X178.899 Y40.712 E41.13926
G1 X179.078 Y41.064 E41.1524
G1 X179.181 Y41.276 E41.16023
G1 X179.54 Y42.105 E41.19028
G1 X179.823 Y42.962 E41.2203
G1 X179.941 Y43.417 E41.23593
G1 X180.027 Y43.801 E41.24902
G1 X180.12 Y44.243 E41.26404
G1 X180.441 Y45.852 E41.31862
G1 X180.481 Y46.067 E41.32589
G1 X180.76 Y47.64 E41.37902
G1 X180.878 Y48.535 E41.40905
G1 X180.915 Y49.206 E41.4314
G1 X180.939 Y50.344 E41.46926
G1 X180.941 Y50.559 E41.47641
G1 X180.94 Y157.311 E45.027
G1 X180.93 Y158.009 E45.05021
G1 X180.852 Y159.126 E45.08746
G1 X180.744 Y159.984 E45.11622
G1 X180.202 Y163.803 E45.24451
G1 X180.095 Y164.493 E45.26774
G1 X179.907 Y165.416 E45.29906
G1 X179.65 Y166.281 E45.32908
G1 X179.37 Y167 E45.35474
G1 X179.024 Y167.796 E45.38361
G1 X177.471 Y171.247 E45.50948
G1 X177.153 Y171.928 E45.53447
G1 X176.735 Y172.728 E45.5645
G1 X176.248 Y173.489 E45.59455
G1 X175.774 Y174.109 E45.6205
G1 X175.253 Y174.738 E45.64767
G1 X172.733 Y177.704 E45.77712
G1 X172.271 Y178.231 E45.80043
G1 X171.646 Y178.883 E45.83047
G1 X170.966 Y179.477 E45.8605
G1 X170.365 Y179.923 E45.88539
G1 X169.686 Y180.386 E45.91272
G1 X166.482 Y182.508 E46.04054
G1 X165.836 Y182.923 E46.06608
G1 X164.818 Y183.497 E46.10495
G1 X164.102 Y183.848 E46.13147
G1 X125.23 Y202.362 E47.56351
G1 X124.431 Y202.728 E47.59274
G1 X123.947 Y202.935 E47.61025
G1 X123.682 Y203.04 E47.61973
G1 X123.349 Y203.165 E47.63156
G1 X121.688 Y203.757 E47.69021
G1 X120.885 Y204.028 E47.7184
G1 X120.017 Y204.277 E47.74843
G1 X119.179 Y204.441 E47.77683
G1 X118.166 Y204.594 E47.81091
G1 X116.797 Y204.779 E47.85686
G1 X116.111 Y204.861 E47.87983
G1 X115.554 Y204.912 E47.89844
G1 X115.305 Y204.928 E47.90674
G1 X114.877 Y204.948 E47.92099
G1 X83.92 Y205.92 E48.95113
G1 X83.24 Y205.931 E48.97375
G1 X82.37 Y205.908 E49.0027
G1 X81.913 Y205.873 E49.01794
G1 X81.563 Y205.841 E49.02963
G1 X77.765 Y205.45 E49.15662
G1 X77.13 Y205.377 E49.17788
G1 X76.238 Y205.234 E49.20793
G1 X75.363 Y205.013 E49.23794
G1 X74.805 Y204.828 E49.25749
G1 X73.59 Y204.384 E49.30052
G1 X70.551 Y203.208 E49.4089
G1 X69.928 Y202.956 E49.43125
G1 X69.107 Y202.58 E49.46129
G1 X68.322 Y202.134 E49.49132
G1 X67.851 Y201.819 E49.51016
G1 X67.008 Y201.221 E49.54454
G1 X66.851 Y201.107 E49.55099
G1 X64.198 Y199.147 E49.6607
G1 X63.678 Y198.752 E49.68242
G1 X62.984 Y198.175 E49.71244
G1 X62.343 Y197.538 E49.74249
G1 X61.963 Y197.101 E49.76176
G1 X61.295 Y196.287 E49.79678
G1 X59.163 Y193.583 E49.91131
G1 X58.739 Y193.03 E49.93448
G1 X58.222 Y192.29 E49.96451
G1 X57.772 Y191.507 E49.99454
G1 X57.521 Y190.985 E50.01381
G1 X57.093 Y190.027 E50.04871
G1 X57.015 Y189.847 E50.05523
G1 X55.739 Y186.835 E50.16403
G1 X55.483 Y186.205 E50.18665
G1 X55.181 Y185.354 E50.21668
G1 X54.955 Y184.48 E50.24671
G1 X54.855 Y183.938 E50.26504
G1 X54.69 Y182.881 E50.30062
G1 X54.659 Y182.665 E50.30788
G1 X54.22 Y179.389 E50.41781
G1 X54.137 Y178.681 E50.44152
G1 X54.074 Y177.828 E50.46997
G1 X54.061 Y177.364 E50.48541
G1 X54.059 Y177.122 E50.49346
G1 X54.06 Y50.051 E54.71986
G1 X54.071 Y49.333 E54.74374
G1 X54.125 Y48.431 E54.7738
G1 X54.227 Y47.708 E54.79808
G1 X54.508 Y46.123 E54.85162
G1 X54.547 Y45.914 E54.85869
G1 X54.869 Y44.3 E54.91343
G1 X55.025 Y43.575 E54.9381
G1 X55.254 Y42.702 E54.96812
G1 X55.559 Y41.852 E54.99815
