;FLAVOR:Marlin
;TIME:3629
;Filament used: 1.46015m
;Layer height: 0.12
;MINX:96.501
;MINY:81.501
;MINZ:0.12
;MAXX:138.499
;MAXY:153.499
;MAXZ:12.96
;Generated with Cura_SteamEngine 4.7.0
M140 S55
M105
M190 S55
M104 S210
M105
M109 S210
M82 ;absolute extrusion mode
; Ender 3 Custom Start G-code
G92 E0 ; Reset Extruder
G28 ; Home all axes
G1 Z2.0 F3000 ; Move Z Axis up little to prevent scratching of Heat Bed
G1 X0.1 Y20 Z0.3 F5000.0 ; Move to start position
G1 X0.1 Y200.0 Z0.3 F1500.0 E15 ; Draw the first line
G1 X0.4 Y200.0 Z0.3 F5000.0 ; Move to side a little
G1 X0.4 Y20 Z0.3 F1500.0 E30 ; Draw the second line
G92 E0 ; Reset Extruder
G1 Z2.0 F3000 ; Move Z Axis up little to prevent scratching of Heat Bed
G1 X5 Y20 Z0.3 F5000.0 ; Move over to prevent blob squish
G92 E0
G92 E0
G1 F2700 E-5
;LAYER_COUNT:108
;LAYER:0
M107
G0 F6000 X99.964 Y85.684 Z0.12
;TYPE:SKIRT
G1 F2700 E0
G1 F1200 X100.626 Y85.02 E0.01871
G1 X101.231 Y84.501 E0.03462
G1 X101.549 Y84.248 E0.04273
G1 X101.928 Y83.96 E0.05223
G1 X102.016 Y83.896 E0.0544
G1 X102.797 Y83.377 E0.07311
G1 X103.62 Y82.927 E0.09183
G1 X104.066 Y82.719 E0.10165
G1 X104.458 Y82.547 E0.11019
G1 X104.815 Y82.398 E0.11791
G1 X104.893 Y82.367 E0.11959
G1 X105.779 Y82.058 E0.13831
G1 X106.687 Y81.825 E0.15702
G1 X107.317 Y81.712 E0.16979
G1 X107.775 Y81.643 E0.17904
G1 X108.149 Y81.593 E0.18657
G1 X108.244 Y81.582 E0.18848
G1 X109.154 Y81.515 E0.20669
G1 X109.402 Y81.507 E0.21164
G1 X109.756 Y81.501 E0.2187
G1 X124.951 Y81.501 E0.52194
G1 X125.649 Y81.511 E0.53587
G1 X126.511 Y81.557 E0.55309
G1 X126.672 Y81.572 E0.55632
G1 X127.253 Y81.642 E0.568
G1 X127.586 Y81.691 E0.57471
G1 X128.508 Y81.867 E0.59345
G1 X129.41 Y82.121 E0.61215
G1 X129.993 Y82.33 E0.62451
G1 X130.407 Y82.492 E0.63338
G1 X130.765 Y82.64 E0.64111
G1 X130.839 Y82.672 E0.64272
G1 X131.683 Y83.08 E0.66143
G1 X132.49 Y83.559 E0.68015
G1 X133.029 Y83.935 E0.69327
G1 X133.382 Y84.197 E0.70204
G1 X133.598 Y84.361 E0.70745
G1 X134.316 Y84.964 E0.72616
G1 X134.98 Y85.626 E0.74488
G1 X135.499 Y86.231 E0.76078
G1 X135.752 Y86.549 E0.76889
G1 X136.027 Y86.91 E0.77795
G1 X136.092 Y86.999 E0.78015
G1 X136.612 Y87.78 E0.79887
G1 X137.064 Y88.601 E0.81758
G1 X137.287 Y89.079 E0.8281
G1 X137.458 Y89.47 E0.83662
G1 X137.602 Y89.815 E0.84408
G1 X137.633 Y89.893 E0.84575
G1 X137.942 Y90.779 E0.86448
G1 X138.175 Y91.687 E0.88319
G1 X138.288 Y92.317 E0.89596
G1 X138.357 Y92.775 E0.9052
G1 X138.405 Y93.135 E0.91245
G1 X138.416 Y93.229 E0.91434
G1 X138.485 Y94.155 E0.93287
G1 X138.493 Y94.404 E0.93784
G1 X138.499 Y94.757 E0.94489
G1 X138.499 Y139.951 E1.84678
G1 X138.489 Y140.648 E1.86069
G1 X138.443 Y141.504 E1.8778
G1 X138.428 Y141.666 E1.88105
G1 X138.361 Y142.231 E1.8924
G1 X138.313 Y142.562 E1.89907
G1 X138.139 Y143.483 E1.91778
G1 X137.887 Y144.387 E1.93651
G1 X137.669 Y144.996 E1.94942
G1 X137.506 Y145.412 E1.95833
G1 X137.36 Y145.765 E1.96596
G1 X137.328 Y145.839 E1.96756
G1 X136.92 Y146.683 E1.98627
G1 X136.441 Y147.49 E2.005
G1 X136.065 Y148.029 E2.01811
G1 X135.803 Y148.382 E2.02689
G1 X135.639 Y148.598 E2.0323
G1 X135.036 Y149.316 E2.05101
G1 X134.374 Y149.98 E2.06972
G1 X133.769 Y150.499 E2.08563
G1 X133.451 Y150.752 E2.09374
G1 X133.072 Y151.04 E2.10324
G1 X132.984 Y151.104 E2.10541
G1 X132.203 Y151.623 E2.12412
G1 X131.38 Y152.073 E2.14284
G1 X130.926 Y152.285 E2.15284
G1 X130.54 Y152.454 E2.16125
G1 X130.171 Y152.607 E2.16922
G1 X129.288 Y152.922 E2.18793
G1 X128.38 Y153.16 E2.20666
G1 X127.683 Y153.288 E2.2208
G1 X127.225 Y153.357 E2.23005
G1 X126.851 Y153.407 E2.23758
G1 X126.756 Y153.418 E2.23949
G1 X125.846 Y153.485 E2.2577
G1 X125.598 Y153.493 E2.26265
G1 X125.244 Y153.499 E2.26971
G1 X110.049 Y153.499 E2.57294
G1 X109.352 Y153.489 E2.58686
G1 X108.496 Y153.443 E2.60396
G1 X108.334 Y153.428 E2.60721
G1 X107.747 Y153.358 E2.61901
G1 X107.414 Y153.309 E2.62572
G1 X106.492 Y153.133 E2.64446
G1 X105.59 Y152.879 E2.66316
G1 X105.007 Y152.67 E2.67552
G1 X104.593 Y152.508 E2.68439
G1 X104.235 Y152.36 E2.69212
G1 X104.161 Y152.328 E2.69373
G1 X103.317 Y151.92 E2.71243
G1 X102.51 Y151.441 E2.73116
G1 X101.971 Y151.065 E2.74428
G1 X101.618 Y150.803 E2.75305
G1 X101.402 Y150.639 E2.75846
G1 X100.684 Y150.036 E2.77717
G1 X100.02 Y149.374 E2.79588
G1 X99.489 Y148.754 E2.81217
G1 X99.225 Y148.421 E2.82066
G1 X98.959 Y148.071 E2.82943
G1 X98.905 Y147.997 E2.83126
G1 X98.385 Y147.217 E2.84996
G1 X97.934 Y146.395 E2.86867
G1 X97.713 Y145.921 E2.87911
G1 X97.542 Y145.53 E2.88763
G1 X97.398 Y145.185 E2.89509
G1 X97.367 Y145.107 E2.89676
G1 X97.058 Y144.221 E2.91549
G1 X96.825 Y143.313 E2.9342
G1 X96.712 Y142.683 E2.94697
G1 X96.643 Y142.225 E2.95621
G1 X96.593 Y141.851 E2.96374
G1 X96.582 Y141.756 E2.96565
G1 X96.514 Y140.824 E2.9843
G1 X96.506 Y140.56 E2.98957
G1 X96.501 Y140.227 E2.99622
G1 X96.501 Y95.049 E3.89779
G1 X96.511 Y94.351 E3.91172
G1 X96.557 Y93.489 E3.92895
G1 X96.572 Y93.328 E3.93218
G1 X96.639 Y92.769 E3.94341
G1 X96.687 Y92.438 E3.95009
G1 X96.861 Y91.517 E3.96879
G1 X97.113 Y90.613 E3.98752
G1 X97.335 Y89.994 E4.00064
G1 X97.502 Y89.569 E4.00975
G1 X97.637 Y89.24 E4.01685
G1 X97.665 Y89.175 E4.01826
G1 X98.073 Y88.33 E4.03699
G1 X98.551 Y87.523 E4.05571
G1 X98.935 Y86.971 E4.06913
G1 X99.197 Y86.618 E4.0779
G1 X99.361 Y86.402 E4.08331
G1 X99.964 Y85.684 E4.10202
G0 F6000 X100.271 Y85.941
G1 F1200 X100.922 Y85.291 E4.12038
G1 X101.481 Y84.814 E4.13505
G1 X101.799 Y84.561 E4.14316
G1 X102.163 Y84.283 E4.1523
G1 X102.251 Y84.219 E4.15447
G1 X103.019 Y83.711 E4.17284
G1 X104.227 Y83.085 E4.19999
G1 X104.619 Y82.913 E4.20854
G1 X104.963 Y82.769 E4.21598
G1 X105.041 Y82.738 E4.21765
G1 X105.911 Y82.436 E4.23603
G1 X106.803 Y82.21 E4.2544
G1 X107.377 Y82.107 E4.26603
G1 X107.835 Y82.038 E4.27528
G1 X108.195 Y81.99 E4.28252
G1 X108.29 Y81.979 E4.28443
G1 X109.167 Y81.915 E4.30198
G1 X109.415 Y81.907 E4.30693
G1 X109.756 Y81.901 E4.31374
G1 X124.792 Y81.9 E4.6138
G1 X125.643 Y81.911 E4.63078
G1 X126.474 Y81.956 E4.64739
G1 X126.635 Y81.971 E4.65062
G1 X127.195 Y82.038 E4.66187
G1 X127.528 Y82.087 E4.66859
G1 X128.432 Y82.26 E4.68696
G1 X129.318 Y82.512 E4.70534
G1 X129.848 Y82.703 E4.71658
G1 X130.262 Y82.865 E4.72545
G1 X130.606 Y83.007 E4.73288
G1 X130.68 Y83.039 E4.73449
G1 X131.509 Y83.44 E4.75287
G1 X132.299 Y83.913 E4.77124
G1 X132.79 Y84.256 E4.78319
G1 X133.289 Y84.628 E4.79561
G1 X133.354 Y84.678 E4.79725
G1 X134.059 Y85.271 E4.81564
G1 X134.709 Y85.922 E4.83399
G1 X135.186 Y86.481 E4.84866
G1 X135.439 Y86.799 E4.85677
G1 X135.704 Y87.146 E4.86548
G1 X135.769 Y87.235 E4.86768
G1 X136.279 Y88.002 E4.88606
G1 X136.721 Y88.809 E4.90442
G1 X136.921 Y89.24 E4.91391
G1 X137.092 Y89.631 E4.92242
G1 X137.231 Y89.963 E4.9296
G1 X137.262 Y90.041 E4.93128
G1 X137.564 Y90.911 E4.94966
G1 X137.79 Y91.803 E4.96802
G1 X137.893 Y92.377 E4.97966
G1 X137.962 Y92.835 E4.9889
G1 X138.008 Y93.182 E4.99589
G1 X138.019 Y93.276 E4.99778
G1 X138.086 Y94.168 E5.01563
G1 X138.094 Y94.417 E5.0206
G1 X138.099 Y94.757 E5.02738
G1 X138.099 Y139.945 E5.92916
G1 X138.089 Y140.642 E5.94307
G1 X138.045 Y141.467 E5.95956
G1 X138.03 Y141.629 E5.9628
G1 X137.965 Y142.173 E5.97374
G1 X137.917 Y142.504 E5.98041
G1 X137.746 Y143.409 E5.99879
G1 X137.496 Y144.295 E6.01716
G1 X137.296 Y144.85 E6.02894
G1 X137.133 Y145.266 E6.03785
G1 X136.993 Y145.606 E6.04519
G1 X136.961 Y145.68 E6.0468
G1 X136.56 Y146.509 E6.06518
G1 X136.087 Y147.299 E6.08355
G1 X135.744 Y147.79 E6.0955
G1 X135.372 Y148.289 E6.10792
G1 X135.322 Y148.354 E6.10956
G1 X134.729 Y149.059 E6.12795
G1 X134.078 Y149.709 E6.1463
G1 X133.519 Y150.186 E6.16097
G1 X133.201 Y150.439 E6.16908
G1 X132.837 Y150.717 E6.17822
G1 X132.749 Y150.781 E6.18039
G1 X131.981 Y151.289 E6.19877
G1 X130.765 Y151.918 E6.22609
G1 X130.379 Y152.087 E6.2345
G1 X130.105 Y152.203 E6.24043
G1 X130.021 Y152.237 E6.24224
G1 X129.153 Y152.545 E6.26062
G1 X128.262 Y152.776 E6.27899
G1 X127.623 Y152.893 E6.29195
G1 X127.165 Y152.962 E6.3012
G1 X126.805 Y153.01 E6.30845
G1 X126.71 Y153.021 E6.31035
G1 X125.833 Y153.085 E6.3279
G1 X125.585 Y153.093 E6.33285
G1 X125.244 Y153.099 E6.33966
G1 X110.055 Y153.099 E6.64277
G1 X109.358 Y153.089 E6.65668
G1 X108.533 Y153.045 E6.67317
G1 X108.371 Y153.03 E6.67642
G1 X107.805 Y152.962 E6.68779
G1 X107.472 Y152.913 E6.69451
G1 X106.568 Y152.74 E6.71288
G1 X105.682 Y152.488 E6.73126
G1 X105.152 Y152.297 E6.7425
G1 X104.738 Y152.135 E6.75137
G1 X104.394 Y151.993 E6.7588
G1 X104.32 Y151.961 E6.76041
G1 X103.491 Y151.56 E6.77879
G1 X102.701 Y151.087 E6.79716
G1 X102.21 Y150.744 E6.80912
G1 X101.711 Y150.372 E6.82154
G1 X101.646 Y150.322 E6.82317
G1 X100.941 Y149.729 E6.84156
G1 X100.291 Y149.078 E6.85992
G1 X99.803 Y148.505 E6.87494
G1 X99.539 Y148.172 E6.88342
G1 X99.282 Y147.835 E6.89187
G1 X99.228 Y147.761 E6.8937
G1 X98.719 Y146.995 E6.91206
G1 X98.277 Y146.187 E6.93043
G1 X98.079 Y145.76 E6.93983
G1 X97.908 Y145.369 E6.94834
G1 X97.769 Y145.037 E6.95553
G1 X97.738 Y144.959 E6.9572
G1 X97.436 Y144.089 E6.97558
G1 X97.21 Y143.197 E6.99394
G1 X97.107 Y142.623 E7.00558
G1 X97.038 Y142.165 E7.01482
G1 X96.99 Y141.805 E7.02207
G1 X96.979 Y141.71 E7.02398
G1 X96.914 Y140.812 E7.04195
G1 X96.906 Y140.548 E7.04722
G1 X96.901 Y140.227 E7.05362
G1 X96.901 Y95.055 E7.95508
G1 X96.911 Y94.357 E7.96901
G1 X96.956 Y93.526 E7.98562
G1 X96.971 Y93.365 E7.98885
G1 X97.035 Y92.827 E7.99966
G1 X97.083 Y92.496 E8.00633
G1 X97.254 Y91.591 E8.02471
G1 X97.504 Y90.705 E8.04308
G1 X97.707 Y90.14 E8.05506
G1 X97.874 Y89.715 E8.06418
G1 X98.033 Y89.333 E8.07243
G1 X98.433 Y88.504 E8.0908
G1 X98.904 Y87.713 E8.10918
G1 X99.256 Y87.21 E8.12143
G1 X99.628 Y86.711 E8.13385
G1 X99.678 Y86.646 E8.13548
G1 X100.271 Y85.941 E8.15387
G0 F6000 X100.577 Y86.199
G1 F1200 X101.218 Y85.563 E8.17189
G1 X101.73 Y85.127 E8.18531
G1 X102.048 Y84.874 E8.19342
G1 X102.399 Y84.607 E8.20222
G1 X102.487 Y84.543 E8.20439
G1 X103.24 Y84.045 E8.22241
G1 X104.388 Y83.452 E8.24819
G1 X104.78 Y83.28 E8.25673
G1 X105.111 Y83.141 E8.2639
G1 X105.189 Y83.11 E8.26557
G1 X106.042 Y82.814 E8.28359
G1 X106.918 Y82.595 E8.30161
G1 X107.436 Y82.503 E8.31211
G1 X107.894 Y82.434 E8.32135
G1 X108.241 Y82.388 E8.32834
G1 X108.336 Y82.377 E8.33025
G1 X109.18 Y82.314 E8.34714
G1 X109.428 Y82.306 E8.35209
G1 X109.756 Y82.301 E8.35864
G1 X124.792 Y82.3 E8.65869
G1 X125.637 Y82.311 E8.67556
G1 X126.437 Y82.354 E8.69155
G1 X126.598 Y82.369 E8.69477
G1 X127.137 Y82.434 E8.70561
G1 X127.47 Y82.483 E8.71233
G1 X128.357 Y82.654 E8.73035
G1 X129.225 Y82.902 E8.74837
G1 X129.702 Y83.075 E8.75849
G1 X130.116 Y83.237 E8.76736
G1 X130.447 Y83.374 E8.77451
G1 X130.521 Y83.406 E8.77612
G1 X131.334 Y83.801 E8.79416
G1 X132.108 Y84.266 E8.81218
G1 X132.552 Y84.577 E8.823
G1 X132.905 Y84.839 E8.83177
G1 X133.11 Y84.995 E8.83691
G1 X133.801 Y85.577 E8.85494
G1 X134.437 Y86.218 E8.87296
G1 X134.873 Y86.73 E8.88638
G1 X135.126 Y87.048 E8.89449
G1 X135.381 Y87.382 E8.90288
G1 X135.446 Y87.471 E8.90508
G1 X135.946 Y88.223 E8.9231
G1 X136.554 Y89.4 E8.94953
G1 X136.725 Y89.791 E8.95805
G1 X136.859 Y90.111 E8.96497
G1 X136.89 Y90.189 E8.96665
G1 X137.186 Y91.042 E8.98467
G1 X137.405 Y91.918 E9.00269
G1 X137.497 Y92.436 E9.01319
G1 X137.566 Y92.894 E9.02243
G1 X137.611 Y93.228 E9.02915
G1 X137.622 Y93.322 E9.03104
G1 X137.686 Y94.18 E9.04821
G1 X137.694 Y94.429 E9.05318
G1 X137.699 Y94.757 E9.05973
G1 X137.699 Y139.939 E9.96139
G1 X137.689 Y140.636 E9.9753
G1 X137.647 Y141.43 E9.99116
G1 X137.632 Y141.592 E9.99441
G1 X137.569 Y142.116 E10.00494
G1 X137.521 Y142.447 E10.01162
G1 X137.352 Y143.334 E10.02964
G1 X137.106 Y144.203 E10.04766
G1 X136.924 Y144.704 E10.0583
G1 X136.761 Y145.12 E10.06721
G1 X136.626 Y145.447 E10.07427
G1 X136.594 Y145.521 E10.07588
G1 X136.199 Y146.334 E10.09392
G1 X135.734 Y147.108 E10.11194
G1 X135.423 Y147.552 E10.12276
G1 X135.161 Y147.905 E10.13153
G1 X135.005 Y148.11 E10.13667
G1 X134.423 Y148.801 E10.1547
G1 X133.782 Y149.437 E10.17272
G1 X133.27 Y149.873 E10.18614
G1 X132.952 Y150.126 E10.19425
G1 X132.601 Y150.393 E10.20305
G1 X132.513 Y150.457 E10.20522
G1 X131.76 Y150.955 E10.22324
G1 X130.605 Y151.552 E10.24918
G1 X130.219 Y151.721 E10.25759
G1 X129.871 Y151.866 E10.26512
G1 X129.02 Y152.167 E10.28313
G1 X128.145 Y152.392 E10.30116
G1 X127.564 Y152.497 E10.31294
G1 X127.106 Y152.566 E10.32219
G1 X126.759 Y152.612 E10.32917
G1 X126.664 Y152.623 E10.33108
G1 X125.82 Y152.686 E10.34797
G1 X125.572 Y152.694 E10.35292
G1 X125.244 Y152.699 E10.35947
G1 X110.061 Y152.699 E10.66246
G1 X109.364 Y152.689 E10.67637
G1 X108.57 Y152.647 E10.69224
G1 X108.408 Y152.632 E10.69549
G1 X107.863 Y152.566 E10.70644
G1 X107.53 Y152.517 E10.71316
G1 X106.643 Y152.346 E10.73118
G1 X105.775 Y152.098 E10.7492
G1 X105.298 Y151.925 E10.75933
G1 X104.884 Y151.763 E10.7682
G1 X104.553 Y151.626 E10.77535
G1 X104.479 Y151.594 E10.77696
G1 X103.666 Y151.199 E10.79499
G1 X102.892 Y150.734 E10.81301
G1 X102.448 Y150.423 E10.82383
G1 X102.095 Y150.161 E10.8326
G1 X101.89 Y150.005 E10.83774
G1 X101.199 Y149.423 E10.85577
G1 X100.563 Y148.782 E10.87379
G1 X100.116 Y148.257 E10.88755
G1 X99.852 Y147.924 E10.89603
G1 X99.606 Y147.6 E10.90415
G1 X99.552 Y147.526 E10.90598
G1 X99.052 Y146.773 E10.92402
G1 X98.446 Y145.6 E10.95037
G1 X98.275 Y145.209 E10.95888
G1 X98.141 Y144.889 E10.96581
G1 X98.11 Y144.811 E10.96748
G1 X97.814 Y143.958 E10.9855
G1 X97.595 Y143.082 E11.00352
G1 X97.503 Y142.564 E11.01402
G1 X97.434 Y142.106 E11.02326
G1 X97.388 Y141.759 E11.03025
G1 X97.377 Y141.664 E11.03215
G1 X97.314 Y140.8 E11.04944
G1 X97.306 Y140.536 E11.05471
G1 X97.301 Y140.227 E11.06088
G1 X97.301 Y95.061 E11.96222
G1 X97.311 Y94.363 E11.97615
G1 X97.354 Y93.563 E11.99213
G1 X97.369 Y93.402 E11.99536
G1 X97.431 Y92.884 E12.00577
G1 X97.479 Y92.553 E12.01245
G1 X97.648 Y91.666 E12.03047
G1 X97.894 Y90.797 E12.04849
G1 X98.08 Y90.287 E12.05932
G1 X98.247 Y89.862 E12.06844
G1 X98.372 Y89.557 E12.07501
G1 X98.4 Y89.492 E12.07643
G1 X98.794 Y88.679 E12.09446
G1 X99.258 Y87.904 E12.11248
G1 X99.577 Y87.448 E12.12359
G1 X99.839 Y87.095 E12.13236
G1 X99.995 Y86.89 E12.1375
G1 X100.577 Y86.199 E12.15553
G1 F2700 E7.15553
;MESH:garbage_bag_Seamless_hook.stl
G0 F6000 X106.845 Y94.384
G0 X107.919 Y94.523
G0 X108.709 Y140.712
G0 X108.92 Y141.08
G0 X109.288 Y141.291
G0 X125.757 Y141.457
;TYPE:WALL-INNER
G1 F2700 E12.15553
G1 F1200 X125.431 Y141.5 E12.16209
G1 X109.569 Y141.5 E12.47864
G1 X109.243 Y141.457 E12.4852
G1 X109.003 Y141.358 E12.49038
G1 X108.799 Y141.201 E12.49552
G1 X108.642 Y140.997 E12.50065
G1 X108.543 Y140.757 E12.50583
G1 X108.5 Y140.431 E12.5124
G1 X108.5 Y94.569 E13.42762
G1 X108.543 Y94.243 E13.43418
G1 X108.642 Y94.003 E13.43936
G1 X108.799 Y93.799 E13.4445
G1 X109.003 Y93.642 E13.44964
G1 X109.243 Y93.543 E13.45482
G1 X109.569 Y93.5 E13.46138
G1 X125.431 Y93.5 E13.77792
G1 X125.757 Y93.543 E13.78449
G1 X125.997 Y93.642 E13.78967
G1 X126.201 Y93.799 E13.7948
G1 X126.358 Y94.003 E13.79994
G1 X126.457 Y94.243 E13.80512
G1 X126.5 Y94.569 E13.81168
G1 X126.5 Y140.431 E14.72691
G1 X126.457 Y140.757 E14.73347
G1 X126.358 Y140.997 E14.73865
G1 X126.201 Y141.201 E14.74379
G1 X125.997 Y141.358 E14.74893
G1 X125.757 Y141.457 E14.75411
G0 F6000 X125.862 Y141.847
G1 F1200 X125.46 Y141.9 E14.7622
G1 X109.54 Y141.9 E15.0799
G1 X109.138 Y141.847 E15.08799
G1 X108.805 Y141.709 E15.09519
G1 X108.761 Y141.675 E15.0963
G1 X108.514 Y141.486 E15.1025
G1 X108.326 Y141.24 E15.10868
G1 X108.291 Y141.195 E15.10982
G1 X108.153 Y140.862 E15.11701
G1 X108.1 Y140.46 E15.1251
G1 X108.1 Y94.54 E16.04149
G1 X108.153 Y94.138 E16.04958
G1 X108.291 Y93.805 E16.05677
G1 X108.325 Y93.761 E16.05788
G1 X108.514 Y93.514 E16.06409
G1 X108.76 Y93.326 E16.07027
G1 X108.805 Y93.291 E16.07141
G1 X109.138 Y93.153 E16.0786
G1 X109.54 Y93.1 E16.08669
G1 X125.46 Y93.1 E16.40439
G1 X125.862 Y93.153 E16.41248
G1 X126.195 Y93.291 E16.41968
G1 X126.239 Y93.325 E16.42079
G1 X126.486 Y93.514 E16.42699
G1 X126.674 Y93.76 E16.43317
G1 X126.709 Y93.805 E16.43431
G1 X126.847 Y94.138 E16.4415
G1 X126.9 Y94.54 E16.44959
G1 X126.9 Y140.46 E17.36598
G1 X126.847 Y140.862 E17.37407
G1 X126.709 Y141.195 E17.38126
