;FLAVOR:Marlin
;TIME:5130
;Filament used: 3.23829m
;Layer height: 0.28
;MINX:26.5
;MINY:39.61
;MINZ:0.28
;MAXX:208.5
;MAXY:195.4
;MAXZ:11.76
;Generated with Cura_SteamEngine 4.6.1
M140 S60
M105
M190 S60
M104 S210
M105
M109 S210
M82 ;absolute extrusion mode
; Ender 3 Custom Start G-code
G92 E0 ; Reset Extruder
G28 ; Home all axes
G1 Z2.0 F3000 ; Move Z Axis up little to prevent scratching of Heat Bed
G1 X0.1 Y20 Z0.3 F5000.0 ; Move to start position
G1 X0.1 Y200.0 Z0.3 F1500.0 E15 ; Draw the first line
G1 X0.4 Y200.0 Z0.3 F5000.0 ; Move to side a little
G1 X0.4 Y20 Z0.3 F1500.0 E30 ; Draw the second line
G92 E0 ; Reset Extruder
G1 Z2.0 F3000 ; Move Z Axis up little to prevent scratching of Heat Bed
G1 X5 Y20 Z0.3 F5000.0 ; Move over to prevent blob squish
G92 E0
G92 E0
G1 F2700 E-5
;LAYER_COUNT:42
;LAYER:0
M107
G0 F6000 X107.878 Y40.568 Z0.28
;TYPE:SKIRT
G1 F2700 E0
G1 F1200 X108.524 Y40.642 E0.03028
G1 X111.096 Y40.863 E0.15048
G1 X113.587 Y41.006 E0.26666
G1 X116.156 Y41.08 E0.38634
G1 X118.69 Y41.082 E0.50433
G1 X121.222 Y41.012 E0.62228
G1 X123.752 Y40.871 E0.74027
G1 X126.903 Y40.595 E0.88755
G1 X128.099 Y40.47 E0.94355
G1 X128.994 Y40.416 E0.9853
G1 X129.299 Y40.411 E0.9995
G1 X130.202 Y40.437 E1.04157
G1 X131.099 Y40.541 E1.08361
G1 X131.983 Y40.725 E1.12566
G1 X132.847 Y40.987 E1.1677
G1 X133.412 Y41.204 E1.19588
G1 X133.698 Y41.324 E1.21032
G1 X134.209 Y41.556 E1.23646
G1 X136.14 Y42.494 E1.33642
G1 X138.485 Y43.552 E1.45621
G1 X140.839 Y44.537 E1.57503
G1 X143.194 Y45.441 E1.69249
G1 X145.61 Y46.293 E1.81178
G1 X147.995 Y47.059 E1.92842
G1 X150.434 Y47.767 E2.04668
G1 X152.92 Y48.413 E2.16629
G1 X155.413 Y48.987 E2.28541
G1 X157.851 Y49.474 E2.40117
G1 X160.375 Y49.906 E2.52041
G1 X162.888 Y50.262 E2.63859
G1 X163.912 Y50.379 E2.68659
G1 X164.773 Y50.489 E2.727
G1 X165.663 Y50.643 E2.76906
G1 X166.535 Y50.875 E2.81108
G1 X167.384 Y51.184 E2.85315
G1 X168.202 Y51.566 E2.89519
G1 X168.984 Y52.019 E2.93727
G1 X169.722 Y52.54 E2.97933
G1 X170.411 Y53.123 E3.02136
G1 X171.045 Y53.766 E3.06341
G1 X171.621 Y54.462 E3.10547
G1 X172.133 Y55.206 E3.14753
G1 X172.576 Y55.992 E3.18954
G1 X173.023 Y57.006 E3.24114
G1 X173.22 Y57.528 E3.26712
G1 X173.338 Y57.856 E3.28335
G1 X173.856 Y59.385 E3.35852
G1 X174.73 Y61.746 E3.47575
G1 X175.675 Y64.088 E3.59335
G1 X176.7 Y66.437 E3.71269
G1 X177.779 Y68.732 E3.83078
G1 X178.916 Y70.98 E3.94808
G1 X180.138 Y73.237 E4.06759
G1 X181.399 Y75.415 E4.18478
G1 X182.739 Y77.59 E4.30373
G1 X184.124 Y79.697 E4.42114
G1 X185.595 Y81.805 E4.54084
G1 X187.094 Y83.828 E4.65808
G1 X188.668 Y85.832 E4.77673
G1 X190.287 Y87.776 E4.89454
G1 X191.962 Y89.675 E5.01244
G1 X193.715 Y91.555 E5.13214
G1 X195.485 Y93.347 E5.24942
G1 X197.329 Y95.111 E5.36825
G1 X199.213 Y96.815 E5.48653
G1 X201.154 Y98.473 E5.6054
G1 X203.176 Y100.103 E5.72633
G1 X203.789 Y100.584 E5.76262
G1 X204.474 Y101.172 E5.80465
G1 X205.104 Y101.819 E5.8467
G1 X205.675 Y102.519 E5.88877
G1 X206.181 Y103.267 E5.93082
G1 X206.619 Y104.057 E5.97288
G1 X206.986 Y104.882 E6.01492
G1 X207.278 Y105.737 E6.05699
G1 X207.494 Y106.614 E6.09905
G1 X207.631 Y107.506 E6.14107
G1 X207.685 Y108.291 E6.17771
G1 X207.7 Y108.93 E6.20747
G1 X207.699 Y113.839 E6.43606
G1 X207.689 Y114.537 E6.46856
G1 X207.636 Y115.439 E6.51064
G1 X207.52 Y116.244 E6.54851
G1 X207.3 Y117.427 E6.60454
G1 X207.209 Y117.877 E6.62592
G1 X206.777 Y120.375 E6.74396
G1 X206.411 Y122.924 E6.86387
G1 X206.124 Y125.414 E6.98058
G1 X205.905 Y127.944 E7.09883
G1 X205.759 Y130.473 E7.21679
G1 X205.709 Y132.158 E7.29528
G1 X205.682 Y132.807 E7.32553
G1 X205.605 Y133.707 E7.36759
G1 X205.448 Y134.596 E7.40963
G1 X205.213 Y135.468 E7.45168
G1 X204.902 Y136.316 E7.49374
G1 X204.517 Y137.133 E7.53579
G1 X204.062 Y137.913 E7.57784
G1 X203.539 Y138.649 E7.61988
G1 X202.953 Y139.337 E7.66196
G1 X202.309 Y139.969 E7.70398
G1 X201.818 Y140.383 E7.73388
G1 X199.773 Y142 E7.85528
G1 X197.786 Y143.655 E7.97569
G1 X195.904 Y145.315 E8.09255
G1 X194.042 Y147.05 E8.21105
G1 X192.242 Y148.829 E8.3289
G1 X190.464 Y150.686 E8.44861
G1 X188.776 Y152.552 E8.56578
G1 X187.096 Y154.519 E8.68623
G1 X185.52 Y156.471 E8.80305
G1 X183.993 Y158.48 E8.92055
G1 X182.516 Y160.539 E9.03854
G1 X181.077 Y162.671 E9.15831
G1 X179.731 Y164.792 E9.27529
G1 X178.423 Y166.989 E9.39435
G1 X177.187 Y169.203 E9.51242
G1 X176.004 Y171.472 E9.63157
G1 X174.906 Y173.729 E9.74844
G1 X173.844 Y176.083 E9.86869
G1 X172.909 Y178.313 E9.98129
G1 X172.524 Y179.13 E10.02334
G1 X172.067 Y179.909 E10.0654
G1 X171.544 Y180.645 E10.10744
G1 X170.957 Y181.332 E10.14952
G1 X170.312 Y181.964 E10.19156
G1 X169.613 Y182.536 E10.23362
G1 X168.867 Y183.045 E10.27567
G1 X168.079 Y183.485 E10.3177
G1 X167.254 Y183.854 E10.35978
G1 X166.401 Y184.149 E10.40181
G1 X165.524 Y184.367 E10.44389
G1 X164.991 Y184.46 E10.46908
G1 X164.185 Y184.577 E10.50701
G1 X161.519 Y184.921 E10.63218
G1 X159.035 Y185.313 E10.74927
G1 X156.495 Y185.789 E10.8696
G1 X154.065 Y186.315 E10.98538
G1 X151.585 Y186.926 E11.10431
G1 X149.1 Y187.613 E11.22436
G1 X146.704 Y188.348 E11.34106
G1 X144.299 Y189.163 E11.4593
G1 X141.885 Y190.056 E11.57915
G1 X139.563 Y190.992 E11.69573
G1 X137.232 Y192.009 E11.81415
G1 X134.863 Y193.122 E11.93603
G1 X133.968 Y193.558 E11.98239
G1 X133.14 Y193.917 E12.02441
G1 X132.283 Y194.201 E12.06645
G1 X131.404 Y194.409 E12.10851
G1 X130.51 Y194.538 E12.15057
G1 X129.871 Y194.581 E12.18039
G1 X129.54 Y194.593 E12.19581
G1 X129.17 Y194.6 E12.21304
G1 X106.062 Y194.599 E13.28905
G1 X105.36 Y194.589 E13.32174
G1 X104.458 Y194.536 E13.36381
G1 X103.565 Y194.404 E13.40585
G1 X102.687 Y194.193 E13.4479
G1 X101.831 Y193.905 E13.48995
G1 X101.19 Y193.632 E13.52239
G1 X100.791 Y193.444 E13.54293
G1 X98.86 Y192.506 E13.64289
G1 X96.515 Y191.448 E13.76268
G1 X94.161 Y190.463 E13.88151
G1 X91.806 Y189.559 E13.99897
G1 X89.39 Y188.707 E14.11826
G1 X87.005 Y187.941 E14.2349
G1 X84.566 Y187.233 E14.35316
G1 X82.08 Y186.587 E14.47276
G1 X79.587 Y186.013 E14.59188
G1 X77.149 Y185.526 E14.70765
G1 X74.625 Y185.094 E14.82689
G1 X72.112 Y184.738 E14.94507
G1 X71.085 Y184.62 E14.99321
G1 X70.226 Y184.51 E15.03353
G1 X69.337 Y184.356 E15.07554
G1 X68.464 Y184.124 E15.1176
G1 X67.615 Y183.815 E15.15967
G1 X66.797 Y183.433 E15.20171
G1 X66.016 Y182.979 E15.24378
G1 X65.278 Y182.459 E15.28581
G1 X64.589 Y181.875 E15.32787
G1 X63.955 Y181.232 E15.36992
G1 X63.379 Y180.536 E15.41199
G1 X62.81 Y179.697 E15.45919
G1 X62.514 Y179.206 E15.48589
G1 X61.169 Y176.88 E15.611
G1 X59.846 Y174.735 E15.72835
G1 X58.447 Y172.603 E15.84709
G1 X56.975 Y170.494 E15.96685
G1 X55.484 Y168.481 E16.08349
G1 X53.915 Y166.482 E16.20182
G1 X52.288 Y164.528 E16.32022
G1 X50.597 Y162.609 E16.43932
G1 X48.861 Y160.746 E16.55789
G1 X47.098 Y158.96 E16.67475
G1 X45.271 Y157.21 E16.79255
G1 X43.365 Y155.486 E16.91222
G1 X41.423 Y153.826 E17.03119
G1 X39.468 Y152.249 E17.14814
G1 X37.451 Y150.715 E17.26614
G1 X35.387 Y149.234 E17.38443
G1 X33.277 Y147.809 E17.50299
G1 X32.876 Y147.553 E17.52514
G1 X31.927 Y146.931 E17.57798
G1 X31.194 Y146.403 E17.62004
G1 X30.511 Y145.812 E17.6621
G1 X29.883 Y145.163 E17.70415
G1 X29.314 Y144.461 E17.74623
G1 X28.81 Y143.712 E17.78827
G1 X28.375 Y142.921 E17.8303
G1 X28.011 Y142.095 E17.87233
G1 X27.721 Y141.239 E17.91441
G1 X27.508 Y140.361 E17.95648
G1 X27.374 Y139.468 E17.99853
G1 X27.332 Y138.93 E18.02366
G1 X27.314 Y138.584 E18.03979
G1 X27.3 Y138.054 E18.06448
G1 X27.301 Y133.121 E18.29418
G1 X27.319 Y132.167 E18.33861
G1 X27.365 Y131.106 E18.38806
G1 X27.409 Y130.328 E18.42435
G1 X27.483 Y127.782 E18.54295
G1 X27.485 Y125.247 E18.66099
G1 X27.414 Y122.677 E18.78071
G1 X27.313 Y120.663 E18.8746
G1 X27.3 Y120.054 E18.90297
G1 X27.301 Y115.163 E19.13071
G1 X27.319 Y114.167 E19.1771
G1 X27.365 Y113.106 E19.22655
G1 X27.409 Y112.328 E19.26283
G1 X27.483 Y109.782 E19.38144
G1 X27.485 Y107.247 E19.49948
G1 X27.414 Y104.677 E19.61919
G1 X27.313 Y102.677 E19.71244
G1 X27.3 Y102.07 E19.74071
G1 X27.301 Y97.161 E19.96929
G1 X27.311 Y96.463 E20.0018
G1 X27.364 Y95.561 E20.04387
G1 X27.496 Y94.668 E20.08591
G1 X27.707 Y93.79 E20.12795
G1 X27.995 Y92.934 E20.17001
G1 X28.357 Y92.107 E20.21204
G1 X28.792 Y91.315 E20.25412
G1 X29.294 Y90.564 E20.29618
G1 X29.861 Y89.861 E20.33824
G1 X30.488 Y89.211 E20.38029
G1 X31.17 Y88.619 E20.42234
G1 X31.918 Y88.079 E20.4653
G1 X34.377 Y86.467 E20.60221
G1 X36.469 Y85.008 E20.72098
G1 X38.502 Y83.503 E20.83876
G1 X40.512 Y81.924 E20.95778
G1 X42.436 Y80.323 E21.07433
G1 X44.376 Y78.614 E21.19471
G1 X46.234 Y76.883 E21.31296
G1 X48.02 Y75.12 E21.42981
G1 X49.774 Y73.289 E21.54788
G1 X51.492 Y71.389 E21.66716
G1 X53.153 Y69.447 E21.78615
G1 X54.738 Y67.484 E21.90363
G1 X56.26 Y65.483 E22.0207
G1 X57.749 Y63.408 E22.13962
G1 X59.183 Y61.285 E22.25891
G1 X60.539 Y59.148 E22.37676
G1 X61.837 Y56.973 E22.49471
G1 X62.096 Y56.509 E22.51945
G1 X62.675 Y55.507 E22.57334
G1 X63.161 Y54.746 E22.61538
G1 X63.713 Y54.03 E22.65748
G1 X64.325 Y53.367 E22.69949
G1 X64.994 Y52.76 E22.74156
G1 X65.714 Y52.215 E22.7836
G1 X66.479 Y51.735 E22.82566
G1 X67.284 Y51.325 E22.86772
G1 X68.122 Y50.988 E22.90978
G1 X68.986 Y50.726 E22.95182
G1 X69.87 Y50.542 E22.99387
G1 X70.335 Y50.478 E23.01572
G1 X70.853 Y50.418 E23.04
G1 X73.481 Y50.079 E23.16339
G1 X75.965 Y49.687 E23.28049
G1 X78.505 Y49.211 E23.40082
G1 X80.935 Y48.685 E23.51659
G1 X83.415 Y48.074 E23.63552
G1 X85.9 Y47.387 E23.75557
G1 X88.296 Y46.652 E23.87227
G1 X90.701 Y45.837 E23.99051
G1 X93.115 Y44.944 E24.11037
G1 X95.437 Y44.008 E24.22694
G1 X97.768 Y42.991 E24.34536
G1 X100.137 Y41.878 E24.46724
G1 X101.032 Y41.442 E24.5136
G1 X101.86 Y41.083 E24.55562
G1 X102.717 Y40.799 E24.59766
G1 X103.596 Y40.591 E24.63972
G1 X104.49 Y40.462 E24.68178
G1 X105.426 Y40.412 E24.72543
G1 X105.705 Y40.41 E24.73842
G1 X106.769 Y40.458 E24.78801
G1 X107.878 Y40.568 E24.83991
G0 F6000 X107.924 Y40.171
G1 F1200 X108.571 Y40.245 E24.87023
G1 X111.082 Y40.461 E24.98758
G1 X113.622 Y40.606 E25.10605
G1 X116.167 Y40.68 E25.22461
G1 X118.679 Y40.682 E25.34158
G1 X121.225 Y40.612 E25.46017
G1 X123.694 Y40.474 E25.57532
G1 X126.947 Y40.189 E25.72737
G1 X128.058 Y40.073 E25.77939
G1 X128.987 Y40.016 E25.82273
G1 X129.292 Y40.011 E25.83693
G1 X130.213 Y40.036 E25.87983
G1 X131.127 Y40.141 E25.92267
G1 X132.029 Y40.325 E25.96554
G1 X132.912 Y40.586 E26.00841
G1 X133.567 Y40.836 E26.04106
G1 X133.853 Y40.956 E26.0555
G1 X134.384 Y41.196 E26.08263
G1 X136.33 Y42.141 E26.18337
G1 X138.638 Y43.182 E26.30126
G1 X140.988 Y44.166 E26.41989
G1 X143.334 Y45.066 E26.5369
G1 X145.718 Y45.907 E26.65461
G1 X148.124 Y46.68 E26.77228
G1 X150.541 Y47.381 E26.88947
G1 X153.005 Y48.022 E27.00802
G1 X155.483 Y48.593 E27.12643
G1 X157.959 Y49.087 E27.244
G1 X160.426 Y49.509 E27.36054
G1 X162.953 Y49.867 E27.47938
G1 X163.962 Y49.982 E27.52667
G1 X164.823 Y50.092 E27.56709
G1 X165.731 Y50.249 E27.60999
G1 X166.621 Y50.483 E27.65284
G1 X167.488 Y50.794 E27.69573
G1 X168.324 Y51.179 E27.73859
G1 X169.124 Y51.634 E27.78145
G1 X169.881 Y52.158 E27.82432
G1 X170.59 Y52.745 E27.86718
G1 X171.245 Y53.392 E27.91005
G1 X171.842 Y54.093 E27.95292
G1 X172.376 Y54.843 E27.99579
G1 X172.843 Y55.637 E28.03869
G1 X173.397 Y56.864 E28.10137
G1 X173.594 Y57.386 E28.12735
G1 X173.716 Y57.728 E28.14426
G1 X174.22 Y59.215 E28.21737
G1 X175.105 Y61.606 E28.33609
G1 X176.048 Y63.945 E28.45352
G1 X177.057 Y66.256 E28.57094
G1 X178.134 Y68.546 E28.68878
G1 X179.268 Y70.788 E28.80577
G1 X180.487 Y73.04 E28.92501
G1 X181.758 Y75.237 E29.04319
G1 X183.071 Y77.365 E29.15963
G1 X184.453 Y79.47 E29.27688
G1 X185.912 Y81.561 E29.3956
G1 X187.415 Y83.589 E29.51314
G1 X188.992 Y85.596 E29.632
G1 X190.593 Y87.519 E29.74851
G1 X192.271 Y89.422 E29.86665
G1 X193.992 Y91.267 E29.98414
G1 X195.763 Y93.059 E30.10145
G1 X197.61 Y94.827 E30.22051
G1 X199.458 Y96.498 E30.33652
G1 X201.419 Y98.174 E30.45664
G1 X203.385 Y99.758 E30.5742
G1 X204.036 Y100.269 E30.61274
G1 X204.735 Y100.868 E30.6556
G1 X205.379 Y101.526 E30.69847
G1 X205.964 Y102.238 E30.74138
G1 X206.484 Y102.997 E30.78422
G1 X206.937 Y103.798 E30.82707
G1 X207.319 Y104.636 E30.86996
G1 X207.626 Y105.504 E30.91283
G1 X207.857 Y106.395 E30.95569
G1 X208.01 Y107.303 E30.99856
G1 X208.085 Y108.279 E31.04414
G1 X208.095 Y108.603 E31.05924
G1 X208.1 Y108.93 E31.07447
G1 X208.099 Y113.845 E31.30333
G1 X208.089 Y114.543 E31.33583
G1 X208.036 Y115.462 E31.3787
G1 X207.914 Y116.316 E31.41887
G1 X207.692 Y117.506 E31.47524
G1 X207.601 Y117.953 E31.49648
G1 X207.167 Y120.463 E31.61509
G1 X206.815 Y122.92 E31.73066
G1 X206.519 Y125.494 E31.85131
G1 X206.303 Y127.979 E31.96746
G1 X206.16 Y130.464 E32.08336
G1 X206.109 Y132.175 E32.16307
G1 X206.082 Y132.824 E32.19331
G1 X206.004 Y133.741 E32.23617
G1 X205.846 Y134.648 E32.27904
G1 X205.611 Y135.538 E32.3219
G1 X205.299 Y136.404 E32.36476
G1 X204.913 Y137.24 E32.40764
G1 X204.456 Y138.039 E32.4505
G1 X203.931 Y138.796 E32.4934
G1 X203.343 Y139.504 E32.53625
G1 X202.695 Y140.158 E32.57912
G1 X202.067 Y140.697 E32.61766
G1 X199.994 Y142.336 E32.74071
G1 X198.061 Y143.946 E32.85785
G1 X196.159 Y145.624 E32.97595
G1 X194.312 Y147.345 E33.09351
G1 X192.529 Y149.107 E33.21023
G1 X190.773 Y150.941 E33.32846
G1 X189.076 Y152.817 E33.44625
G1 X187.428 Y154.746 E33.56439
G1 X185.822 Y156.736 E33.68347
G1 X184.304 Y158.733 E33.80027
G1 X182.84 Y160.773 E33.91719
G1 X181.419 Y162.879 E34.03549
G1 X180.07 Y165.005 E34.15273
G1 X178.766 Y167.193 E34.27134
G1 X177.548 Y169.377 E34.38778
G1 X176.362 Y171.651 E34.5072
G1 X175.259 Y173.918 E34.6246
G1 X174.219 Y176.223 E34.74235
G1 X173.278 Y178.468 E34.85569
G1 X172.886 Y179.301 E34.89856
G1 X172.422 Y180.096 E34.94142
G1 X171.892 Y180.849 E34.9843
G1 X171.298 Y181.552 E35.02716
G1 X170.645 Y182.202 E35.07006
G1 X169.939 Y182.792 E35.1129
G1 X169.184 Y183.318 E35.15575
G1 X168.386 Y183.778 E35.19864
G1 X167.551 Y184.166 E35.24151
G1 X166.685 Y184.48 E35.28441
G1 X165.796 Y184.718 E35.32726
G1 X165.049 Y184.856 E35.36263
G1 X164.236 Y184.974 E35.40088
G1 X161.566 Y185.319 E35.52624
G1 X159.1 Y185.708 E35.64249
G1 X156.574 Y186.181 E35.76216
G1 X154.173 Y186.701 E35.87655
G1 X151.658 Y187.32 E35.99715
G1 X149.242 Y187.988 E36.11387
G1 X146.812 Y188.734 E36.23224
G1 X144.43 Y189.541 E36.34934
G1 X142.037 Y190.427 E36.46817
G1 X139.694 Y191.37 E36.58577
G1 X137.413 Y192.366 E36.70167
G1 X135 Y193.499 E36.8258
G1 X134.143 Y193.917 E36.87019
G1 X133.299 Y194.284 E36.91305
G1 X132.426 Y194.576 E36.95591
G1 X131.531 Y194.792 E36.99879
G1 X130.621 Y194.929 E37.04164
G1 X129.885 Y194.981 E37.07599
G1 X129.554 Y194.993 E37.09142
G1 X129.17 Y195 E37.1093
G1 X106.056 Y194.999 E38.18558
G1 X105.354 Y194.989 E38.21828
G1 X104.435 Y194.936 E38.26114
G1 X103.524 Y194.803 E38.30401
G1 X102.628 Y194.592 E38.34687
G1 X101.753 Y194.304 E38.38977
G1 X101.02 Y193.995 E38.42681
G1 X100.616 Y193.804 E38.44761
G1 X98.67 Y192.859 E38.54835
G1 X96.362 Y191.818 E38.66624
G1 X94.012 Y190.834 E38.78487
G1 X91.666 Y189.934 E38.90188
G1 X89.282 Y189.093 E39.01959
G1 X86.876 Y188.32 E39.13726
G1 X84.459 Y187.619 E39.25445
G1 X81.995 Y186.978 E39.373
G1 X79.517 Y186.407 E39.49141
G1 X77.041 Y185.913 E39.60898
G1 X74.574 Y185.491 E39.72552
G1 X72.047 Y185.133 E39.84436
G1 X71.035 Y185.017 E39.89179
G1 X70.176 Y184.907 E39.93212
G1 X69.268 Y184.751 E39.97502
G1 X68.378 Y184.516 E40.01788
G1 X67.512 Y184.205 E40.06073
G1 X66.675 Y183.82 E40.10363
G1 X65.876 Y183.364 E40.14646
G1 X65.118 Y182.84 E40.18937
G1 X64.41 Y182.253 E40.2322
G1 X63.754 Y181.606 E40.2751
G1 X63.158 Y180.905 E40.31794
G1 X62.468 Y179.905 E40.37452
G1 X62.167 Y179.406 E40.40165
G1 X60.824 Y177.085 E40.52652
G1 X59.498 Y174.934 E40.64418
G1 X58.117 Y172.83 E40.76137
G1 X56.658 Y170.739 E40.88009
G1 X55.164 Y168.72 E40.99705
G1 X53.591 Y166.718 E41.1156
G1 X51.982 Y164.785 E41.23271
G1 X50.321 Y162.901 E41.34966
G1 X48.566 Y161.018 E41.46952
G1 X46.819 Y159.248 E41.58532
G1 X44.973 Y157.479 E41.70438
G1 X43.12 Y155.803 E41.82072
G1 X41.195 Y154.158 E41.93863
G1 X39.219 Y152.564 E42.05684
G1 X37.181 Y151.013 E42.1761
G1 X35.152 Y149.558 E42.29236
G1 X33.069 Y148.15 E42.40943
