;FLAVOR:Marlin
;TIME:4778
;Filament used: 4.09165m
;Layer height: 0.28
;MINX:70.685
;MINY:66.547
;MINZ:0.28
;MAXX:164.227
;MAXY:168.507
;MAXZ:8.68
;Generated with Cura_SteamEngine 4.5.0
M140 S65
M105
M190 S65
M104 S215
M105
M109 S215
M82 ;absolute extrusion mode
; Ender 3 Custom Start G-code
G92 E0 ; Reset Extruder
G28 ; Home all axes
G1 Z2.0 F3000 ; Move Z Axis up little to prevent scratching of Heat Bed
G1 X0.1 Y20 Z0.3 F5000.0 ; Move to start position
G1 X0.1 Y200.0 Z0.3 F1500.0 E15 ; Draw the first line
G1 X0.4 Y200.0 Z0.3 F5000.0 ; Move to side a little
G1 X0.4 Y20 Z0.3 F1500.0 E30 ; Draw the second line
G92 E0 ; Reset Extruder
G1 Z2.0 F3000 ; Move Z Axis up little to prevent scratching of Heat Bed
G1 X5 Y20 Z0.3 F5000.0 ; Move over to prevent blob squish
G92 E0
G92 E0
G1 F2700 E-5
;LAYER_COUNT:31
;LAYER:0
M107
G0 F6000 X75.995 Y77.486 Z0.28
;TYPE:SKIRT
G1 F2700 E0
G1 F1200 X76.456 Y77.051 E0.02951
G1 X77.222 Y76.346 E0.07799
G1 X77.583 Y76.022 E0.10058
G1 X77.861 Y75.78 E0.11774
G1 X78.93 Y74.886 E0.18263
G1 X81.758 Y72.606 E0.35178
G1 X82.34 Y72.149 E0.38624
G1 X82.804 Y71.804 E0.41316
G1 X83.39 Y71.393 E0.44649
G1 X86.418 Y69.321 E0.61734
G1 X87.031 Y68.912 E0.65165
G1 X87.832 Y68.425 E0.6953
G1 X88.673 Y68.008 E0.73901
G1 X89.545 Y67.665 E0.78264
G1 X90.444 Y67.396 E0.82634
G1 X91.362 Y67.206 E0.86999
G1 X92.294 Y67.094 E0.9137
G1 X93.231 Y67.062 E0.95736
G1 X94.168 Y67.11 E1.00104
G1 X95.052 Y67.23 E1.04258
G1 X95.469 Y67.305 E1.06231
G1 X97.629 Y67.719 E1.16472
G1 X100.116 Y68.125 E1.28206
G1 X102.6 Y68.457 E1.39875
G1 X105.126 Y68.723 E1.51702
G1 X107.631 Y68.915 E1.63401
G1 X110.129 Y69.036 E1.75046
G1 X112.634 Y69.086 E1.86713
G1 X116.112 Y69.04 E2.0291
G1 X116.848 Y69.02 E2.06338
G1 X117.848 Y69.013 E2.10994
G1 X119.971 Y68.993 E2.2088
G1 X122.494 Y68.898 E2.32637
G1 X124.995 Y68.733 E2.44308
G1 X127.509 Y68.495 E2.56067
G1 X130.015 Y68.187 E2.67823
G1 X132.498 Y67.809 E2.79518
G1 X134.958 Y67.364 E2.91159
G1 X136.486 Y67.035 E2.98437
G1 X137.848 Y66.76 E3.04907
G1 X138.774 Y66.613 E3.09273
G1 X139.71 Y66.547 E3.13642
G1 X140.648 Y66.56 E3.1801
G1 X141.581 Y66.653 E3.22376
G1 X142.503 Y66.825 E3.26744
G1 X143.407 Y67.075 E3.31111
G1 X144.286 Y67.401 E3.35476
G1 X145.134 Y67.801 E3.39842
G1 X146.233 Y68.462 E3.45814
G1 X146.448 Y68.609 E3.47027
G1 X146.87 Y68.912 E3.49446
G1 X149.383 Y70.811 E3.64113
G1 X150.145 Y71.404 E3.68609
G1 X150.429 Y71.633 E3.70308
G1 X152.851 Y73.654 E3.84996
G1 X154.647 Y75.218 E3.96085
G1 X156.96 Y77.32 E4.10639
G1 X157.84 Y78.146 E4.16259
G1 X158.19 Y78.489 E4.18541
G1 X160.635 Y80.943 E4.34671
G1 X161.116 Y81.438 E4.37885
G1 X161.74 Y82.138 E4.42251
G1 X162.303 Y82.889 E4.46622
G1 X162.799 Y83.684 E4.50985
G1 X163.226 Y84.519 E4.55352
G1 X163.58 Y85.388 E4.59722
G1 X163.859 Y86.283 E4.64087
G1 X164.061 Y87.199 E4.68455
G1 X164.184 Y88.129 E4.72823
G1 X164.227 Y89.066 E4.7719
G1 X164.19 Y90.003 E4.81557
G1 X164.074 Y90.934 E4.85926
G1 X163.98 Y91.424 E4.88249
G1 X163.82 Y92.153 E4.91724
G1 X163.433 Y93.776 E4.99493
G1 X162.921 Y96.222 E5.1113
G1 X162.471 Y98.726 E5.22976
G1 X162.101 Y101.19 E5.34578
G1 X161.799 Y103.668 E5.46202
G1 X161.563 Y106.207 E5.58076
G1 X161.4 Y108.707 E5.69742
G1 X161.31 Y111.218 E5.81441
G1 X161.289 Y113.749 E5.93227
G1 X161.34 Y116.272 E6.04978
G1 X161.462 Y118.78 E6.1667
G1 X161.653 Y121.256 E6.28233
G1 X161.923 Y123.819 E6.40234
G1 X162.251 Y126.267 E6.51735
G1 X162.653 Y128.726 E6.63337
G1 X163.286 Y131.961 E6.78686
G1 X163.348 Y132.248 E6.80053
G1 X163.506 Y133.172 E6.84418
G1 X163.585 Y134.107 E6.88787
G1 X163.583 Y135.044 E6.9315
G1 X163.502 Y135.979 E6.97521
G1 X163.342 Y136.903 E7.01887
G1 X163.104 Y137.81 E7.06253
G1 X162.789 Y138.693 E7.10619
G1 X162.4 Y139.547 E7.14989
G1 X161.939 Y140.364 E7.19357
G1 X161.411 Y141.139 E7.23723
G1 X160.819 Y141.866 E7.28089
G1 X160.359 Y142.353 E7.31208
G1 X159.511 Y143.192 E7.36763
G1 X159.05 Y143.624 E7.39705
G1 X158.778 Y143.87 E7.41413
G1 X158.274 Y144.31 E7.44528
G1 X157.804 Y144.705 E7.47387
G1 X155.686 Y146.432 E7.60112
G1 X153.787 Y148.074 E7.71802
G1 X151.912 Y149.79 E7.83637
G1 X150.114 Y151.529 E7.95284
G1 X148.355 Y153.333 E8.07017
G1 X146.795 Y155.018 E8.17709
G1 X145.505 Y156.447 E8.26673
G1 X145.104 Y156.879 E8.29418
G1 X144.867 Y157.126 E8.31012
G1 X144.093 Y157.908 E8.36135
G1 X142.829 Y159.147 E8.44377
G1 X142.099 Y159.837 E8.49054
G1 X141.381 Y160.48 E8.53542
G1 X140.132 Y161.566 E8.61249
G1 X139.457 Y162.131 E8.65348
G1 X138.468 Y162.914 E8.71222
G1 X137.298 Y163.807 E8.78075
G1 X136.747 Y164.217 E8.81273
G1 X136.236 Y164.575 E8.84179
G1 X135.342 Y165.163 E8.89161
G1 X134.793 Y165.516 E8.922
G1 X133.983 Y165.99 E8.96571
G1 X133.136 Y166.392 E9.00936
G1 X132.258 Y166.721 E9.05302
G1 X131.355 Y166.974 E9.09669
G1 X130.433 Y167.149 E9.14039
G1 X129.5 Y167.244 E9.18406
G1 X128.997 Y167.263 E9.20749
G1 X128.41 Y167.269 E9.23483
G1 X125.744 Y167.251 E9.35897
G1 X123.192 Y167.305 E9.47783
G1 X120.73 Y167.428 E9.59261
G1 X118.186 Y167.627 E9.71144
G1 X115.696 Y167.892 E9.82803
G1 X113.151 Y168.236 E9.94762
G1 X112.637 Y168.317 E9.97185
G1 X112.057 Y168.4 E9.99913
G1 X111.124 Y168.493 E10.04279
G1 X110.186 Y168.507 E10.08647
G1 X109.251 Y168.44 E10.13012
G1 X108.324 Y168.294 E10.17382
G1 X107.414 Y168.069 E10.21747
G1 X106.526 Y167.768 E10.26113
G1 X105.938 Y167.521 E10.29082
G1 X105.18 Y167.172 E10.32968
G1 X104.945 Y167.058 E10.34184
G1 X104.624 Y166.896 E10.35859
G1 X103.189 Y166.141 E10.43409
G1 X102.889 Y165.977 E10.45001
G1 X102.167 Y165.568 E10.48865
G1 X101.714 Y165.296 E10.51325
G1 X101.043 Y164.87 E10.55026
G1 X99.661 Y163.959 E10.62734
G1 X99.152 Y163.614 E10.65597
G1 X98.601 Y163.215 E10.68765
G1 X97.634 Y162.467 E10.74457
G1 X96.356 Y161.44 E10.82092
G1 X95.891 Y161.056 E10.849
G1 X95.404 Y160.629 E10.87916
G1 X94.714 Y159.987 E10.92304
G1 X92.729 Y158.191 E11.04769
G1 X90.813 Y156.554 E11.16504
G1 X88.863 Y154.98 E11.28173
G1 X86.842 Y153.443 E11.39996
G1 X84.96 Y152.088 E11.50794
G1 X84.403 Y151.698 E11.5396
G1 X84.101 Y151.478 E11.557
G1 X83.192 Y150.788 E11.61014
G1 X82.27 Y150.043 E11.66534
G1 X81.713 Y149.573 E11.69927
G1 X81.268 Y149.18 E11.72692
G1 X81.05 Y148.98 E11.74069
G1 X79.573 Y147.582 E11.83539
G1 X79.083 Y147.104 E11.86726
G1 X78.639 Y146.645 E11.897
G1 X77.906 Y145.839 E11.94773
G1 X76.922 Y144.722 E12.01705
G1 X76.49 Y144.218 E12.04796
G1 X76.084 Y143.715 E12.07805
G1 X75.435 Y142.858 E12.12811
G1 X74.617 Y141.74 E12.19262
G1 X74.221 Y141.185 E12.22436
G1 X73.709 Y140.399 E12.26804
G1 X73.266 Y139.572 E12.31173
G1 X72.895 Y138.711 E12.35538
G1 X72.599 Y137.821 E12.39906
G1 X72.38 Y136.909 E12.44273
G1 X72.239 Y135.982 E12.48639
G1 X72.178 Y135.046 E12.53007
G1 X72.197 Y134.108 E12.57376
G1 X72.295 Y133.176 E12.61739
G1 X72.378 Y132.693 E12.64021
G1 X72.475 Y132.195 E12.66384
G1 X72.962 Y129.627 E12.78555
G1 X73.363 Y127.13 E12.90331
G1 X73.692 Y124.638 E13.02035
G1 X73.948 Y122.14 E13.13728
G1 X74.136 Y119.624 E13.25476
G1 X74.252 Y117.116 E13.37167
G1 X74.296 Y114.59 E13.48931
G1 X74.271 Y112.104 E13.60507
G1 X74.171 Y109.536 E13.72474
G1 X74.006 Y107.074 E13.83964
G1 X73.761 Y104.521 E13.95906
G1 X73.455 Y102.048 E14.07509
G1 X73.077 Y99.581 E14.19131
G1 X72.62 Y97.073 E14.31001
G1 X72.102 Y94.629 E14.42634
G1 X71.515 Y92.192 E14.54307
G1 X71.258 Y91.241 E14.58894
G1 X71.031 Y90.358 E14.63139
G1 X70.837 Y89.44 E14.67508
G1 X70.721 Y88.51 E14.71872
G1 X70.685 Y87.572 E14.76243
G1 X70.729 Y86.636 E14.80606
G1 X70.853 Y85.706 E14.84975
G1 X71.055 Y84.79 E14.89343
G1 X71.335 Y83.895 E14.9371
G1 X71.689 Y83.027 E14.98075
G1 X72.117 Y82.192 E15.02444
G1 X72.614 Y81.397 E15.06809
G1 X72.948 Y80.936 E15.0946
G1 X73.322 Y80.455 E15.12297
G1 X73.709 Y79.983 E15.15139
G1 X74.069 Y79.556 E15.1774
G1 X74.297 Y79.294 E15.19357
G1 X74.944 Y78.574 E15.23865
G1 X75.179 Y78.32 E15.25476
G1 X75.581 Y77.9 E15.28183
G1 X75.995 Y77.486 E15.30909
G0 F6000 X76.096 Y77.948
G1 F1200 X76.462 Y77.592 E15.33287
G1 X77.489 Y76.643 E15.39798
G1 X77.85 Y76.319 E15.42057
G1 X78.118 Y76.087 E15.43707
G1 X79.181 Y75.198 E15.5016
G1 X82.005 Y72.921 E15.67052
G1 X82.587 Y72.464 E15.70497
G1 X83.035 Y72.131 E15.73097
G1 X83.616 Y71.723 E15.76402
G1 X86.64 Y69.653 E15.93466
G1 X87.253 Y69.244 E15.96898
G1 X88.04 Y68.767 E16.01183
G1 X88.866 Y68.36 E16.05471
G1 X89.724 Y68.026 E16.09758
G1 X90.608 Y67.768 E16.14046
G1 X91.51 Y67.587 E16.1833
G1 X92.425 Y67.486 E16.22616
G1 X93.346 Y67.464 E16.26906
G1 X94.265 Y67.522 E16.31194
G1 X94.983 Y67.624 E16.34571
G1 X95.393 Y67.698 E16.36511
G1 X97.554 Y68.113 E16.46757
G1 X100.07 Y68.523 E16.58627
G1 X102.541 Y68.853 E16.70235
G1 X105.087 Y69.121 E16.82156
G1 X107.583 Y69.312 E16.93813
G1 X110.136 Y69.436 E17.05714
G1 X112.631 Y69.486 E17.17335
G1 X116.131 Y69.44 E17.33633
G1 X116.851 Y69.42 E17.36987
G1 X117.851 Y69.413 E17.41644
G1 X119.953 Y69.393 E17.51432
G1 X122.534 Y69.296 E17.63459
G1 X125.022 Y69.132 E17.75069
G1 X127.563 Y68.891 E17.86954
G1 X130.058 Y68.584 E17.9866
G1 X132.593 Y68.199 E18.10599
G1 X135.018 Y67.76 E18.22074
G1 X136.565 Y67.427 E18.29443
G1 X137.927 Y67.152 E18.35913
G1 X138.837 Y67.009 E18.40202
G1 X139.755 Y66.945 E18.44487
G1 X140.676 Y66.962 E18.48776
G1 X141.591 Y67.058 E18.5306
G1 X142.495 Y67.234 E18.57349
G1 X143.38 Y67.487 E18.61635
G1 X144.24 Y67.816 E18.65922
G1 X145.068 Y68.218 E18.70208
G1 X146.008 Y68.792 E18.75337
G1 X146.223 Y68.939 E18.7655
G1 X146.629 Y69.231 E18.78878
G1 X149.137 Y71.127 E18.93518
G1 X149.899 Y71.72 E18.98014
G1 X150.173 Y71.94 E18.9965
G1 X152.589 Y73.956 E19.14302
G1 X154.378 Y75.515 E19.25352
G1 X156.687 Y77.613 E19.39879
G1 X157.56 Y78.431 E19.4545
G1 X157.906 Y78.772 E19.47712
G1 X160.348 Y81.222 E19.63819
G1 X160.829 Y81.717 E19.67033
G1 X161.441 Y82.404 E19.71317
G1 X161.992 Y83.142 E19.75606
G1 X162.476 Y83.926 E19.79896
G1 X162.89 Y84.748 E19.84182
G1 X163.232 Y85.603 E19.8847
G1 X163.498 Y86.484 E19.92755
G1 X163.687 Y87.385 E19.97042
G1 X163.796 Y88.299 E20.01328
G1 X163.826 Y89.219 E20.05614
G1 X163.776 Y90.139 E20.09904
G1 X163.589 Y91.339 E20.15559
G1 X163.43 Y92.06 E20.18997
G1 X163.045 Y93.673 E20.26719
G1 X162.53 Y96.134 E20.38427
G1 X162.081 Y98.633 E20.50249
G1 X161.702 Y101.154 E20.6212
G1 X161.398 Y103.654 E20.73847
G1 X161.166 Y106.145 E20.85496
G1 X161 Y108.702 E20.97428
G1 X160.91 Y111.2 E21.09067
G1 X160.889 Y113.754 E21.2096
G1 X160.94 Y116.265 E21.32655
G1 X161.064 Y118.829 E21.44608
G1 X161.255 Y121.293 E21.56116
G1 X161.523 Y123.843 E21.68055
G1 X161.859 Y126.347 E21.79819
G1 X162.263 Y128.817 E21.91473
G1 X162.89 Y132.023 E22.06684
G1 X162.957 Y132.332 E22.08157
G1 X163.111 Y133.239 E22.12441
G1 X163.186 Y134.157 E22.16729
G1 X163.181 Y135.078 E22.21018
G1 X163.097 Y135.994 E22.25301
G1 X162.933 Y136.9 E22.29588
G1 X162.691 Y137.789 E22.33879
G1 X162.373 Y138.653 E22.38166
G1 X161.981 Y139.486 E22.42452
G1 X161.518 Y140.282 E22.4674
G1 X160.989 Y141.034 E22.51022
G1 X160.077 Y142.07 E22.57449
G1 X159.472 Y142.673 E22.61426
G1 X159.237 Y142.9 E22.62947
G1 X158.776 Y143.332 E22.65889
G1 X158.514 Y143.569 E22.67534
G1 X158.015 Y144.005 E22.7062
G1 X157.552 Y144.395 E22.73439
G1 X155.439 Y146.119 E22.86137
G1 X153.502 Y147.793 E22.98058
G1 X151.646 Y149.49 E23.09768
G1 X149.815 Y151.263 E23.21636
G1 X148.078 Y153.044 E23.33221
G1 X146.492 Y154.757 E23.44091
G1 X145.212 Y156.174 E23.52982
G1 X144.583 Y156.845 E23.57265
G1 X143.813 Y157.622 E23.62359
G1 X142.553 Y158.857 E23.70574
G1 X141.831 Y159.539 E23.75199
G1 X141.118 Y160.178 E23.79657
G1 X139.874 Y161.261 E23.87337
G1 X139.464 Y161.608 E23.89838
G1 X139.208 Y161.818 E23.9138
G1 X138.225 Y162.596 E23.97217
G1 X137.059 Y163.486 E24.04048
G1 X136.508 Y163.896 E24.07246
G1 X136.016 Y164.241 E24.10044
G1 X135.126 Y164.827 E24.15006
G1 X134.577 Y165.18 E24.18045
G1 X133.782 Y165.644 E24.22331
G1 X132.949 Y166.037 E24.2662
G1 X132.086 Y166.356 E24.30904
G1 X131.198 Y166.599 E24.35191
G1 X130.292 Y166.765 E24.3948
G1 X128.991 Y166.863 E24.45555
G1 X128.413 Y166.869 E24.48247
G1 X125.738 Y166.851 E24.60703
G1 X123.198 Y166.905 E24.72533
G1 X120.679 Y167.031 E24.84277
G1 X118.145 Y167.228 E24.96112
G1 X115.641 Y167.495 E25.07838
G1 X113.115 Y167.837 E25.19707
G1 X112.581 Y167.921 E25.22224
G1 X112.001 Y168.004 E25.24953
G1 X111.084 Y168.095 E25.29244
G1 X110.164 Y168.106 E25.33528
G1 X109.246 Y168.037 E25.37814
G1 X108.337 Y167.888 E25.42104
G1 X107.445 Y167.661 E25.4639
G1 X106.576 Y167.358 E25.50675
G1 X106.104 Y167.157 E25.53064
G1 X105.355 Y166.812 E25.56904
G1 X105.12 Y166.698 E25.5812
G1 X104.81 Y166.542 E25.59736
G1 X103.375 Y165.787 E25.67286
G1 X103.086 Y165.629 E25.6882
G1 X102.364 Y165.22 E25.72684
G1 X101.927 Y164.958 E25.75056
G1 X101.263 Y164.536 E25.7872
G1 X99.886 Y163.628 E25.864
G1 X99.377 Y163.283 E25.89263
G1 X98.845 Y162.898 E25.92321
G1 X97.885 Y162.155 E25.97974
G1 X96.61 Y161.131 E26.05588
G1 X96.145 Y160.747 E26.08397
G1 X95.677 Y160.336 E26.11297
G1 X94.957 Y159.667 E26.15873
G1 X93.012 Y157.906 E26.28091
G1 X91.061 Y156.24 E26.40037
G1 X89.112 Y154.666 E26.51702
G1 X87.088 Y153.127 E26.63542
G1 X85.22 Y151.782 E26.7426
G1 X84.632 Y151.37 E26.77603
G1 X84.341 Y151.158 E26.7928
G1 X83.707 Y150.681 E26.82974
G1 X83.443 Y150.476 E26.84531
G1 X82.528 Y149.737 E26.90007
G1 X81.971 Y149.267 E26.93401
G1 X81.535 Y148.882 E26.96109
G1 X81.324 Y148.689 E26.97441
G1 X79.852 Y147.296 E27.06878
G1 X79.362 Y146.818 E27.10065
G1 X78.935 Y146.376 E27.12927
G1 X78.206 Y145.575 E27.1797
G1 X77.226 Y144.461 E27.24879
G1 X76.794 Y143.957 E27.2797
G1 X76.402 Y143.473 E27.3087
G1 X75.758 Y142.622 E27.35839
G1 X74.942 Y141.508 E27.42269
G1 X74.546 Y140.953 E27.45444
G1 X74.045 Y140.181 E27.49729
G1 X73.612 Y139.368 E27.54019
G1 X73.251 Y138.521 E27.58306
G1 X72.965 Y137.646 E27.62592
G1 X72.757 Y136.749 E27.6688
G1 X72.626 Y135.838 E27.71166
G1 X72.576 Y134.919 E27.75451
G1 X72.605 Y133.998 E27.79742
G1 X72.771 Y132.769 E27.85517
G1 X72.868 Y132.271 E27.87879
G1 X73.358 Y129.688 E28.00121
G1 X73.755 Y127.21 E28.11807
G1 X74.086 Y124.699 E28.236
G1 X74.349 Y122.139 E28.35583
G1 X74.534 Y119.672 E28.47103
G1 X74.652 Y117.107 E28.59059
G1 X74.696 Y114.593 E28.70767
G1 X74.671 Y112.084 E28.82451
G1 X74.571 Y109.529 E28.94357
G1 X74.405 Y107.045 E29.0595
G1 X74.158 Y104.47 E29.17995
G1 X73.853 Y102.01 E29.29537
G1 X73.466 Y99.48 E29.41455
G1 X73.018 Y97.024 E29.5308
G1 X72.49 Y94.532 E29.64941
G1 X71.904 Y92.099 E29.76594
G1 X71.646 Y91.141 E29.81214
G1 X71.419 Y90.258 E29.85459
G1 X71.229 Y89.357 E29.89747
G1 X71.117 Y88.444 E29.9403
G1 X71.085 Y87.523 E29.98322
G1 X71.134 Y86.604 E30.02607
G1 X71.262 Y85.692 E30.06895
G1 X71.468 Y84.795 E30.11181
G1 X71.752 Y83.919 E30.15469
G1 X72.11 Y83.071 E30.19755
G1 X72.541 Y82.258 E30.2404
G1 X73.266 Y81.179 E30.30093
G1 X73.633 Y80.707 E30.32877
G1 X74.015 Y80.24 E30.35686
G1 X74.375 Y79.813 E30.38287
G1 X74.595 Y79.561 E30.39844
G1 X75.242 Y78.841 E30.44352
G1 X75.468 Y78.597 E30.459
G1 X76.096 Y77.948 E30.50106
G0 F6000 X76.376 Y78.233
G1 F1200 X76.735 Y77.884 E30.52437
G1 X77.756 Y76.941 E30.58909
G1 X78.117 Y76.617 E30.61167
G1 X78.375 Y76.393 E30.62758
G1 X79.432 Y75.509 E30.69175
G1 X82.252 Y73.236 E30.8604
G1 X82.834 Y72.779 E30.89486
G1 X83.265 Y72.458 E30.91988
G1 X83.842 Y72.053 E30.95271
G1 X86.862 Y69.986 E31.12312
G1 X87.475 Y69.577 E31.15743
G1 X88.248 Y69.11 E31.19948
G1 X89.059 Y68.712 E31.24155
G1 X89.902 Y68.388 E31.2836
G1 X90.77 Y68.14 E31.32564
G1 X91.657 Y67.97 E31.36769
G1 X92.555 Y67.879 E31.40972
G1 X93.458 Y67.867 E31.45177
G1 X94.359 Y67.936 E31.49385
G1 X94.913 Y68.018 E31.51993
G1 X95.318 Y68.091 E31.53909
G1 X97.486 Y68.507 E31.64188
G1 X99.99 Y68.915 E31.76001
G1 X102.518 Y69.253 E31.87878
G1 X105.05 Y69.52 E31.99733
G1 X107.567 Y69.713 E32.11488
G1 X110.109 Y69.836 E32.23338
G1 X112.628 Y69.886 E32.3507
G1 X116.147 Y69.839 E32.51457
G1 X116.854 Y69.82 E32.54751
G1 X117.854 Y69.813 E32.59407
G1 X119.972 Y69.793 E32.6927
G1 X122.539 Y69.696 E32.81231
G1 X125.087 Y69.528 E32.93122
G1 X127.577 Y69.292 E33.04768
G1 X130.13 Y68.979 E33.16745
G1 X132.619 Y68.6 E33.28469
G1 X135.118 Y68.148 E33.40294
G1 X136.644 Y67.819 E33.47563
