;FLAVOR:Marlin
;TIME:3960
;Filament used: 2.02031m
;Layer height: 0.2
;MINX:88.193
;MINY:75.07
;MINZ:0.2
;MAXX:148.699
;MAXY:144.927
;MAXZ:10.6
;Generated with Cura_SteamEngine 4.9.1
M140 S55
M105
M190 S55
M104 S220
M105
M109 S220
M82 ;absolute extrusion mode
; Ender 3 Custom Start G-code
G92 E0 ; Reset Extruder
G28 ; Home all axes
G1 Z2.0 F3000 ; Move Z Axis up little to prevent scratching of Heat Bed
G1 X0.1 Y20 Z0.3 F5000.0 ; Move to start position
G1 X0.1 Y200.0 Z0.3 F1500.0 E15 ; Draw the first line
G1 X0.4 Y200.0 Z0.3 F5000.0 ; Move to side a little
G1 X0.4 Y20 Z0.3 F1500.0 E30 ; Draw the second line
G92 E0 ; Reset Extruder
G1 Z2.0 F3000 ; Move Z Axis up little to prevent scratching of Heat Bed
G1 X5 Y20 Z0.3 F5000.0 ; Move over to prevent blob squish
G92 E0
G92 E0
G1 F2700 E-5
;LAYER_COUNT:53
;LAYER:0
M107
G0 F6000 X96.989 Y80.826 Z0.2
;TYPE:SKIRT
G1 F2700 E0
G1 F1200 X97.668 Y80.009 E0.03533
G1 X97.921 Y79.733 E0.04779
G1 X98.584 Y79.069 E0.079
G1 X99.301 Y78.464 E0.1102
G1 X100.405 Y77.713 E0.15461
G1 X100.526 Y77.641 E0.15929
G1 X100.845 Y77.459 E0.17151
G1 X101.052 Y77.345 E0.17937
G1 X101.892 Y76.928 E0.21056
G1 X102.764 Y76.584 E0.24174
G1 X103.805 Y76.28 E0.27781
G1 X104.002 Y76.233 E0.28454
G1 X104.971 Y76.048 E0.31735
G1 X105.404 Y75.985 E0.33191
G1 X105.782 Y75.936 E0.34458
G1 X106.366 Y75.873 E0.36412
G1 X108.253 Y75.694 E0.42716
G1 X108.693 Y75.658 E0.44185
G1 X111.174 Y75.426 E0.52473
G1 X112.022 Y75.336 E0.55309
G1 X113.86 Y75.163 E0.61449
G1 X114.561 Y75.106 E0.63788
G1 X115.498 Y75.07 E0.66907
G1 X116.435 Y75.114 E0.70027
G1 X117.364 Y75.237 E0.73144
G1 X117.972 Y75.363 E0.75209
G1 X119.644 Y75.758 E0.80923
G1 X120.021 Y75.858 E0.8222
G1 X120.134 Y75.89 E0.82611
G1 X121.025 Y76.184 E0.85732
G1 X121.777 Y76.5 E0.88445
G1 X122.007 Y76.607 E0.89288
G1 X122.84 Y77.039 E0.92409
G1 X123.312 Y77.326 E0.94247
G1 X123.477 Y77.432 E0.94899
G1 X124.109 Y77.87 E0.97457
G1 X124.602 Y78.239 E0.99505
G1 X125.908 Y79.242 E1.04982
G1 X127.931 Y80.708 E1.13291
G1 X130.034 Y82.141 E1.21755
G1 X132.105 Y83.469 E1.29938
G1 X134.314 Y84.799 E1.38514
G1 X136.491 Y86.027 E1.46827
G1 X138.705 Y87.195 E1.55153
G1 X141.027 Y88.338 E1.63761
G1 X141.934 Y88.759 E1.67087
G1 X142.767 Y89.19 E1.70206
G1 X143.56 Y89.69 E1.73324
G1 X144.076 Y90.069 E1.75454
G1 X144.319 Y90.259 E1.7648
G1 X145.032 Y90.868 E1.79598
G1 X145.691 Y91.535 E1.82717
G1 X146.291 Y92.256 E1.85837
G1 X146.827 Y93.026 E1.88957
G1 X147.398 Y94.039 E1.92825
G1 X147.516 Y94.277 E1.93708
G1 X147.897 Y95.134 E1.96828
G1 X148.324 Y96.462 E2.01467
G1 X148.362 Y96.612 E2.01982
G1 X148.554 Y97.53 E2.05101
G1 X148.666 Y98.461 E2.0822
G1 X148.699 Y99.398 E2.11339
G1 X148.641 Y100.437 E2.148
G1 X148.574 Y101.086 E2.1697
G1 X148.337 Y103.776 E2.25951
G1 X148.19 Y106.235 E2.34145
G1 X148.109 Y108.792 E2.42654
G1 X148.102 Y111.283 E2.50939
G1 X148.166 Y113.838 E2.59439
G1 X148.297 Y116.301 E2.67643
G1 X148.528 Y119.094 E2.76964
G1 X148.609 Y119.924 E2.79738
G1 X148.66 Y120.861 E2.82859
G1 X148.631 Y121.798 E2.85977
G1 X148.493 Y122.906 E2.89691
G1 X148.437 Y123.223 E2.90761
G1 X148.235 Y124.138 E2.93878
G1 X147.955 Y125.034 E2.97
G1 X147.6 Y125.902 E3.00119
G1 X147.173 Y126.736 E3.03236
G1 X146.676 Y127.532 E3.06357
G1 X146.286 Y128.065 E3.08553
G1 X146.1 Y128.304 E3.09561
G1 X145.493 Y129.019 E3.1268
G1 X144.827 Y129.679 E3.15799
G1 X143.8 Y130.508 E3.20189
G1 X143.734 Y130.555 E3.20458
G1 X142.947 Y131.066 E3.23579
G1 X141.886 Y131.618 E3.27557
G1 X140.877 Y132.074 E3.3124
G1 X138.553 Y133.165 E3.39779
G1 X136.321 Y134.291 E3.48094
G1 X134.086 Y135.497 E3.5654
G1 X131.909 Y136.754 E3.64901
G1 X129.802 Y138.052 E3.73132
G1 X127.661 Y139.456 E3.81648
G1 X125.568 Y140.914 E3.90132
G1 X124.027 Y142.045 E3.96489
G1 X123.659 Y142.309 E3.97996
G1 X122.874 Y142.823 E4.01117
G1 X122.412 Y143.083 E4.0288
G1 X122.113 Y143.242 E4.04006
G1 X121.171 Y143.687 E4.07471
G1 X121.082 Y143.724 E4.07792
G1 X120.201 Y144.047 E4.10913
G1 X119.286 Y144.296 E4.14067
G1 X118.601 Y144.455 E4.16406
G1 X117.479 Y144.694 E4.20221
G1 X116.554 Y144.85 E4.23341
G1 X115.619 Y144.927 E4.26462
G1 X114.368 Y144.904 E4.30623
G1 X114.027 Y144.876 E4.31761
G1 X113.301 Y144.802 E4.34188
G1 X111.483 Y144.595 E4.40274
G1 X110.705 Y144.495 E4.42883
G1 X107.82 Y144.172 E4.52539
G1 X107.21 Y144.111 E4.54578
G1 X105.584 Y143.927 E4.6002
G1 X105.229 Y143.882 E4.6121
G1 X104.762 Y143.815 E4.62779
G1 X103.841 Y143.638 E4.65899
G1 X102.578 Y143.258 E4.70286
G1 X102.173 Y143.109 E4.71721
G1 X101.307 Y142.747 E4.74843
G1 X100.476 Y142.314 E4.77959
G1 X99.684 Y141.811 E4.8108
G1 X99.032 Y141.32 E4.83795
G1 X98.679 Y141.033 E4.85308
G1 X97.977 Y140.411 E4.88427
G1 X97.331 Y139.731 E4.91547
G1 X96.501 Y138.652 E4.96075
G1 X96.366 Y138.452 E4.96877
G1 X95.875 Y137.653 E4.99996
G1 X95.451 Y136.81 E5.03135
G1 X95.29 Y136.452 E5.0444
G1 X94.944 Y135.586 E5.07542
G1 X94.745 Y135.018 E5.09544
G1 X94.478 Y134.224 E5.1233
G1 X94.199 Y133.429 E5.15132
G1 X93.826 Y132.308 E5.19062
G1 X92.777 Y129.311 E5.29623
G1 X92.476 Y128.495 E5.32516
G1 X92.369 Y128.193 E5.33581
G1 X92.045 Y127.229 E5.36964
G1 X91.976 Y127.018 E5.37702
G1 X91.757 Y126.32 E5.40135
G1 X91.664 Y126.006 E5.41224
G1 X91.343 Y124.859 E5.45186
G1 X91.258 Y124.541 E5.46281
G1 X90.766 Y122.785 E5.52346
G1 X90.652 Y122.405 E5.53666
G1 X90.39 Y121.454 E5.56947
G1 X89.281 Y117.908 E5.69304
G1 X89.054 Y117.229 E5.71685
G1 X88.84 Y116.559 E5.74025
G1 X88.593 Y115.654 E5.77145
G1 X88.423 Y114.732 E5.80263
G1 X88.334 Y113.81 E5.83344
G1 X88.318 Y113.516 E5.84323
G1 X88.303 Y113.023 E5.85964
G1 X88.296 Y112.239 E5.88571
G1 X88.303 Y110.74 E5.93557
G1 X88.204 Y107.408 E6.04644
G1 X88.193 Y106.916 E6.06281
G1 X88.212 Y105.978 E6.09401
G1 X88.311 Y105.046 E6.12519
G1 X88.39 Y104.582 E6.14084
G1 X88.419 Y104.432 E6.14592
G1 X88.636 Y103.52 E6.1771
G1 X88.793 Y103.012 E6.19479
G1 X89.083 Y102.15 E6.22504
G1 X89.255 Y101.664 E6.24218
G1 X90.091 Y99.212 E6.32835
G1 X91.107 Y95.87 E6.44453
G1 X91.323 Y95.112 E6.47074
G1 X91.792 Y93.565 E6.52451
G1 X91.88 Y93.287 E6.53421
G1 X91.997 Y92.936 E6.54651
G1 X92.404 Y91.781 E6.58724
G1 X92.615 Y91.192 E6.60805
G1 X92.726 Y90.897 E6.61853
G1 X93.067 Y90.025 E6.64968
G1 X94.2 Y86.932 E6.75923
G1 X94.26 Y86.789 E6.76439
G1 X95.079 Y84.51 E6.84494
G1 X95.291 Y83.944 E6.86504
G1 X95.808 Y82.774 E6.90759
G1 X95.993 Y82.414 E6.92105
G1 X96.457 Y81.599 E6.95224
G1 X96.989 Y80.826 E6.98345
G0 F6000 X97.329 Y81.04
G1 F1200 X97.963 Y80.279 E7.01639
G1 X98.216 Y80.003 E7.02885
G1 X98.867 Y79.352 E7.05947
G1 X99.572 Y78.76 E7.09009
G1 X100.61 Y78.057 E7.13178
G1 X100.731 Y77.985 E7.13647
G1 X101.037 Y77.809 E7.14821
G1 X101.244 Y77.695 E7.15607
G1 X102.069 Y77.286 E7.18669
G1 X102.927 Y76.951 E7.21733
G1 X103.898 Y76.669 E7.25096
G1 X104.095 Y76.622 E7.2577
G1 X105.029 Y76.443 E7.28933
G1 X105.462 Y76.38 E7.30388
G1 X105.826 Y76.334 E7.31608
G1 X106.404 Y76.271 E7.33542
G1 X108.291 Y76.092 E7.39846
G1 X108.686 Y76.06 E7.41165
G1 X111.257 Y75.82 E7.49753
G1 X112.06 Y75.734 E7.52439
G1 X113.892 Y75.562 E7.58559
G1 X114.593 Y75.505 E7.60898
G1 X115.513 Y75.47 E7.6396
G1 X116.432 Y75.515 E7.67021
G1 X117.345 Y75.64 E7.70086
G1 X117.88 Y75.752 E7.71904
G1 X119.34 Y76.096 E7.76893
G1 X119.548 Y76.147 E7.77605
G1 X119.912 Y76.243 E7.78857
G1 X120.025 Y76.275 E7.79248
G1 X120.899 Y76.564 E7.82309
G1 X121.608 Y76.863 E7.84869
G1 X121.838 Y76.97 E7.85712
G1 X122.655 Y77.394 E7.88774
G1 X123.096 Y77.663 E7.90492
G1 X123.261 Y77.769 E7.91144
G1 X123.87 Y78.19 E7.93607
G1 X124.358 Y78.556 E7.95635
G1 X125.658 Y79.554 E8.01086
G1 X127.709 Y81.04 E8.0951
G1 X129.798 Y82.464 E8.17919
G1 X131.929 Y83.831 E8.2634
G1 X134.101 Y85.138 E8.34771
G1 X136.28 Y86.368 E8.43093
G1 X138.535 Y87.557 E8.51572
G1 X140.825 Y88.684 E8.60061
G1 X141.765 Y89.121 E8.63509
G1 X142.583 Y89.545 E8.66573
G1 X143.36 Y90.038 E8.69634
G1 X143.829 Y90.385 E8.71574
G1 X144.072 Y90.575 E8.726
G1 X144.772 Y91.173 E8.75663
G1 X145.418 Y91.829 E8.78725
G1 X146.004 Y92.539 E8.81787
G1 X146.526 Y93.297 E8.84848
G1 X147.04 Y94.216 E8.8835
G1 X147.158 Y94.454 E8.89234
G1 X147.531 Y95.296 E8.92297
G1 X147.936 Y96.56 E8.96711
G1 X147.974 Y96.71 E8.97226
G1 X148.162 Y97.611 E9.00287
G1 X148.27 Y98.526 E9.03351
G1 X148.298 Y99.446 E9.06413
G1 X148.244 Y100.396 E9.09578
G1 X148.165 Y101.168 E9.12159
G1 X147.94 Y103.718 E9.20673
G1 X147.79 Y106.233 E9.29053
G1 X147.71 Y108.779 E9.37525
G1 X147.702 Y111.292 E9.45883
G1 X147.765 Y113.835 E9.54344
G1 X147.9 Y116.354 E9.62734
G1 X148.127 Y119.099 E9.71895
G1 X148.211 Y119.963 E9.74783
G1 X148.26 Y120.882 E9.77843
G1 X148.23 Y121.802 E9.80905
G1 X148.099 Y122.836 E9.84372
G1 X148.043 Y123.153 E9.85442
G1 X147.844 Y124.052 E9.88505
G1 X147.567 Y124.93 E9.91567
G1 X147.216 Y125.781 E9.94629
G1 X146.791 Y126.598 E9.97692
G1 X146.298 Y127.375 E10.00752
G1 X145.97 Y127.819 E10.02588
G1 X145.784 Y128.058 E10.03596
G1 X145.188 Y128.76 E10.06658
G1 X144.533 Y129.406 E10.09718
G1 X143.568 Y130.182 E10.13837
G1 X143.502 Y130.229 E10.14106
G1 X142.729 Y130.73 E10.1717
G1 X141.721 Y131.253 E10.20947
G1 X140.75 Y131.692 E10.24491
G1 X138.382 Y132.804 E10.33193
G1 X136.13 Y133.939 E10.4158
G1 X133.902 Y135.142 E10.50002
G1 X131.721 Y136.401 E10.58378
G1 X129.538 Y137.746 E10.66906
G1 X127.434 Y139.125 E10.75273
G1 X125.368 Y140.564 E10.83647
G1 X123.794 Y141.72 E10.90142
G1 X123.426 Y141.984 E10.91649
G1 X122.655 Y142.488 E10.94713
G1 X122.224 Y142.73 E10.96357
G1 X121.925 Y142.889 E10.97483
G1 X121.017 Y143.318 E11.00823
G1 X120.928 Y143.355 E11.01144
G1 X120.063 Y143.671 E11.04207
G1 X119.198 Y143.906 E11.07188
G1 X118.517 Y144.063 E11.09512
G1 X117.395 Y144.302 E11.13328
G1 X116.487 Y144.455 E11.1639
G1 X115.57 Y144.528 E11.1945
G1 X114.398 Y144.506 E11.23349
G1 X114.067 Y144.478 E11.24454
G1 X113.346 Y144.405 E11.26864
G1 X111.686 Y144.217 E11.3242
G1 X110.798 Y144.104 E11.35398
G1 X107.838 Y143.772 E11.45304
G1 X107.255 Y143.714 E11.47253
G1 X105.634 Y143.53 E11.52679
G1 X105.279 Y143.485 E11.53869
G1 X104.821 Y143.419 E11.55408
G1 X103.917 Y143.245 E11.5847
G1 X102.716 Y142.882 E11.62643
G1 X102.311 Y142.733 E11.64079
G1 X101.462 Y142.378 E11.67139
G1 X100.646 Y141.951 E11.70202
G1 X99.871 Y141.454 E11.73265
G1 X99.284 Y141.01 E11.75713
G1 X98.931 Y140.723 E11.77226
G1 X98.243 Y140.111 E11.80288
G1 X97.61 Y139.443 E11.83349
G1 X96.832 Y138.428 E11.87603
G1 X96.697 Y138.228 E11.88405
G1 X96.216 Y137.444 E11.91465
G1 X95.816 Y136.646 E11.94434
G1 X95.655 Y136.288 E11.95739
G1 X95.321 Y135.453 E11.9873
G1 X95.124 Y134.89 E12.00714
G1 X94.857 Y134.097 E12.03497
G1 X94.518 Y133.125 E12.06921
G1 X94.18 Y132.104 E12.10498
G1 X93.177 Y129.24 E12.20591
G1 X92.851 Y128.357 E12.23722
G1 X92.748 Y128.066 E12.24748
G1 X92.424 Y127.102 E12.28131
G1 X92.358 Y126.898 E12.28844
G1 X92.139 Y126.2 E12.31277
G1 X92.049 Y125.897 E12.32329
G1 X91.729 Y124.756 E12.3627
G1 X91.636 Y124.409 E12.37465
G1 X91.085 Y122.44 E12.44265
G1 X91.038 Y122.298 E12.44763
G1 X90.785 Y121.381 E12.47927
G1 X89.653 Y117.76 E12.60545
G1 X89.435 Y117.107 E12.62835
G1 X89.221 Y116.437 E12.65174
G1 X88.979 Y115.549 E12.68235
G1 X88.815 Y114.643 E12.71298
G1 X88.734 Y113.788 E12.74154
G1 X88.718 Y113.494 E12.75133
G1 X88.702 Y113.019 E12.76714
G1 X88.696 Y112.241 E12.79302
G1 X88.703 Y110.73 E12.84327
G1 X88.604 Y107.399 E12.95411
G1 X88.593 Y106.907 E12.97048
G1 X88.612 Y105.986 E13.00112
G1 X88.783 Y104.658 E13.04565
G1 X88.812 Y104.508 E13.05074
G1 X89.026 Y103.612 E13.08138
G1 X89.172 Y103.14 E13.09781
G1 X89.462 Y102.278 E13.12806
G1 X89.651 Y101.743 E13.14693
G1 X90.473 Y99.331 E13.23168
G1 X91.486 Y96.001 E13.34745
G1 X91.708 Y95.221 E13.37442
G1 X92.175 Y93.682 E13.42792
G1 X92.26 Y93.414 E13.43727
G1 X92.44 Y92.879 E13.45604
G1 X92.781 Y91.916 E13.49002
G1 X92.992 Y91.327 E13.51083
G1 X93.099 Y91.042 E13.52095
G1 X93.447 Y90.153 E13.55271
G1 X94.576 Y87.07 E13.66191
G1 X94.627 Y86.947 E13.66634
G1 X95.453 Y84.65 E13.74752
G1 X95.665 Y84.084 E13.76763
G1 X96.164 Y82.957 E13.80862
G1 X96.349 Y82.597 E13.82208
G1 X96.805 Y81.797 E13.85271
G1 X97.329 Y81.04 E13.88333
G0 F6000 X97.668 Y81.254
G1 F1200 X98.258 Y80.55 E13.91388
G1 X98.511 Y80.274 E13.92634
G1 X99.15 Y79.636 E13.95637
G1 X99.843 Y79.057 E13.9864
G1 X100.814 Y78.4 E14.0254
G1 X100.935 Y78.328 E14.03008
G1 X101.23 Y78.159 E14.04139
G1 X101.437 Y78.045 E14.04925
G1 X102.247 Y77.645 E14.0793
G1 X103.089 Y77.318 E14.10934
G1 X103.991 Y77.058 E14.14056
G1 X104.188 Y77.011 E14.1473
G1 X105.086 Y76.839 E14.17771
G1 X105.519 Y76.776 E14.19226
G1 X105.87 Y76.731 E14.20403
G1 X106.287 Y76.685 E14.21798
G1 X108.481 Y76.477 E14.29128
G1 X108.759 Y76.455 E14.30056
G1 X111.333 Y76.214 E14.38654
G1 X112.097 Y76.132 E14.4121
G1 X113.924 Y75.961 E14.47313
G1 X114.625 Y75.904 E14.49653
G1 X115.528 Y75.87 E14.52658
G1 X116.43 Y75.917 E14.55662
G1 X117.324 Y76.043 E14.58665
G1 X117.789 Y76.141 E14.60246
G1 X119.245 Y76.484 E14.65221
G1 X119.453 Y76.535 E14.65933
G1 X119.803 Y76.628 E14.67138
G1 X119.916 Y76.66 E14.67528
G1 X120.773 Y76.944 E14.70531
G1 X121.439 Y77.226 E14.72937
G1 X121.669 Y77.333 E14.7378
G1 X122.471 Y77.75 E14.76787
G1 X122.88 Y77.999 E14.78379
G1 X123.045 Y78.105 E14.79032
G1 X123.631 Y78.511 E14.81403
G1 X124.114 Y78.873 E14.8341
G1 X125.425 Y79.88 E14.88909
G1 X127.479 Y81.368 E14.97345
G1 X129.579 Y82.799 E15.05797
G1 X131.713 Y84.168 E15.14229
G1 X133.893 Y85.48 E15.22692
G1 X136.11 Y86.731 E15.31159
G1 X138.336 Y87.905 E15.39529
G1 X140.659 Y89.048 E15.4814
G1 X141.597 Y89.484 E15.5158
G1 X142.398 Y89.901 E15.54584
G1 X143.16 Y90.386 E15.57588
G1 X143.583 Y90.7 E15.5934
G1 X143.826 Y90.89 E15.60366
G1 X144.512 Y91.477 E15.63369
G1 X145.143 Y92.122 E15.6637
G1 X145.715 Y92.821 E15.69374
G1 X146.223 Y93.568 E15.72379
G1 X146.681 Y94.394 E15.7552
G1 X146.799 Y94.632 E15.76404
G1 X147.164 Y95.458 E15.79407
G1 X147.549 Y96.658 E15.83599
G1 X147.587 Y96.808 E15.84114
G1 X147.769 Y97.693 E15.87119
G1 X147.873 Y98.59 E15.90122
G1 X147.897 Y99.492 E15.93123
G1 X147.846 Y100.355 E15.95999
G1 X147.77 Y101.091 E15.9846
G1 X147.541 Y103.695 E16.07154
G1 X147.389 Y106.232 E16.15607
G1 X147.31 Y108.765 E16.24036
G1 X147.301 Y111.3 E16.32468
G1 X147.366 Y113.866 E16.41005
G1 X147.5 Y116.375 E16.49362
G1 X147.725 Y119.105 E16.58473
G1 X147.813 Y120.002 E16.6147
G1 X147.861 Y120.904 E16.64475
G1 X147.828 Y121.806 E16.67477
G1 X147.705 Y122.766 E16.70696
G1 X147.649 Y123.083 E16.71766
G1 X147.453 Y123.965 E16.74772
G1 X147.18 Y124.826 E16.77776
G1 X146.831 Y125.659 E16.8078
G1 X146.41 Y126.458 E16.83784
G1 X145.655 Y127.574 E16.88265
G1 X145.469 Y127.813 E16.89272
G1 X144.883 Y128.5 E16.92276
G1 X144.239 Y129.133 E16.95279
G1 X143.336 Y129.857 E16.99129
G1 X143.27 Y129.904 E16.99398
G1 X142.512 Y130.394 E17.024
G1 X141.556 Y130.889 E17.05981
G1 X140.565 Y131.337 E17.09598
G1 X138.211 Y132.442 E17.18247
G1 X135.939 Y133.588 E17.26711
G1 X133.691 Y134.801 E17.35207
G1 X131.517 Y136.057 E17.43557
G1 X129.33 Y137.403 E17.52099
G1 X127.233 Y138.778 E17.60439
G1 X125.124 Y140.247 E17.68987
G1 X123.561 Y141.395 E17.75437
G1 X123.193 Y141.659 E17.76944
G1 X122.436 Y142.152 E17.79948
G1 X122.036 Y142.377 E17.81475
G1 X121.737 Y142.536 E17.82601
G1 X120.864 Y142.949 E17.85813
G1 X120.775 Y142.986 E17.86134
G1 X119.926 Y143.295 E17.89139
G1 X119.11 Y143.516 E17.91951
G1 X118.434 Y143.672 E17.94258
G1 X117.312 Y143.911 E17.98074
G1 X116.421 Y144.06 E18.01078
G1 X115.521 Y144.13 E18.04081
G1 X114.428 Y144.107 E18.07717
G1 X114.107 Y144.08 E18.08788
G1 X113.391 Y144.007 E18.11182
G1 X111.584 Y143.802 E18.17231
G1 X110.764 Y143.697 E18.1998
G1 X107.914 Y143.377 E18.29519
G1 X107.3 Y143.317 E18.31571
G1 X105.684 Y143.133 E18.36981
G1 X105.116 Y143.059 E18.38886
G1 X104.88 Y143.024 E18.39679
G1 X103.993 Y142.852 E18.42684
G1 X102.854 Y142.507 E18.46643
G1 X102.449 Y142.358 E18.48078
G1 X101.616 Y142.009 E18.51082
G1 X100.817 Y141.587 E18.54087
G1 X100.059 Y141.097 E18.57089
G1 X99.536 Y140.699 E18.59275
G1 X99.183 Y140.412 E18.60788
G1 X98.509 Y139.812 E18.6379
G1 X97.89 Y139.155 E18.66792
G1 X97.164 Y138.205 E18.70769
G1 X97.029 Y138.005 E18.71571
