;FLAVOR:Marlin
;TIME:3130
;Filament used: 1.91367m
;Layer height: 0.2
;MINX:93.189
;MINY:63.372
;MINZ:0.2
;MAXX:141.838
;MAXY:171.713
;MAXZ:14.2
;Generated with Cura_SteamEngine 4.7.0
M140 S55
M105
M190 S55
M104 S210
M105
M109 S210
M82 ;absolute extrusion mode
; Ender 3 Custom Start G-code
G92 E0 ; Reset Extruder
G28 ; Home all axes
G1 Z2.0 F3000 ; Move Z Axis up little to prevent scratching of Heat Bed
G1 X0.1 Y20 Z0.3 F5000.0 ; Move to start position
G1 X0.1 Y200.0 Z0.3 F1500.0 E15 ; Draw the first line
G1 X0.4 Y200.0 Z0.3 F5000.0 ; Move to side a little
G1 X0.4 Y20 Z0.3 F1500.0 E30 ; Draw the second line
G92 E0 ; Reset Extruder
G1 Z2.0 F3000 ; Move Z Axis up little to prevent scratching of Heat Bed
G1 X5 Y20 Z0.3 F5000.0 ; Move over to prevent blob squish
G92 E0
G92 E0
G1 F2700 E-5
;LAYER_COUNT:71
;LAYER:0
M107
G0 F6000 X99.495 Y68.595 Z0.2
;TYPE:SKIRT
G1 F2700 E0
G1 F1200 X100.071 Y67.856 E0.03116
G1 X100.529 Y67.35 E0.05386
G1 X100.582 Y67.295 E0.0564
G1 X101.261 Y66.648 E0.0876
G1 X102.036 Y66.03 E0.12057
G1 X102.208 Y65.905 E0.12764
G1 X102.99 Y65.386 E0.15886
G1 X104.141 Y64.781 E0.2021
G1 X104.267 Y64.724 E0.2067
G1 X105.137 Y64.374 E0.23789
G1 X106.467 Y63.997 E0.28387
G1 X106.817 Y63.921 E0.29579
G1 X107.741 Y63.761 E0.32697
G1 X108.429 Y63.694 E0.34997
G1 X108.809 Y63.669 E0.36263
G1 X109.143 Y63.652 E0.37376
G1 X116.347 Y63.398 E0.61351
G1 X117.186 Y63.376 E0.64143
G1 X117.516 Y63.372 E0.6524
G1 X117.775 Y63.373 E0.66102
G1 X118.204 Y63.381 E0.67529
G1 X122.202 Y63.523 E0.80835
G1 X125.457 Y63.636 E0.91667
G1 X126.287 Y63.676 E0.94431
G1 X126.859 Y63.719 E0.96339
G1 X127.055 Y63.739 E0.96994
G1 X128.344 Y63.948 E1.01337
G1 X128.576 Y64 E1.02128
G1 X129.481 Y64.244 E1.05246
G1 X130.363 Y64.564 E1.08366
G1 X131.418 Y65.067 E1.12254
G1 X131.663 Y65.2 E1.13181
G1 X132.467 Y65.682 E1.16299
G1 X133.228 Y66.231 E1.1942
G1 X133.939 Y66.842 E1.22538
G1 X134.795 Y67.741 E1.26666
G1 X134.994 Y67.975 E1.27688
G1 X135.57 Y68.714 E1.30804
G1 X136.082 Y69.501 E1.33927
G1 X136.524 Y70.327 E1.37043
G1 X136.758 Y70.847 E1.3894
G1 X136.797 Y70.94 E1.39275
G1 X137.123 Y71.82 E1.42396
G1 X137.372 Y72.724 E1.45515
G1 X137.545 Y73.656 E1.48668
G1 X137.652 Y74.414 E1.51214
G1 X137.922 Y76.567 E1.58431
G1 X138.162 Y78.534 E1.65022
G1 X138.222 Y79.05 E1.6675
G1 X138.564 Y82.183 E1.77232
G1 X138.637 Y82.918 E1.79689
G1 X138.701 Y83.597 E1.81957
G1 X139.044 Y87.503 E1.94998
G1 X139.102 Y88.205 E1.97341
G1 X139.396 Y92.005 E2.10018
G1 X139.465 Y92.969 E2.13232
G1 X139.586 Y94.866 E2.19554
G1 X139.935 Y100.238 E2.3746
G1 X139.981 Y101.045 E2.40148
G1 X140.248 Y106.689 E2.58941
G1 X140.331 Y108.393 E2.64615
G1 X140.355 Y108.983 E2.66579
G1 X140.581 Y115.672 E2.8884
G1 X140.85 Y123.279 E3.14156
G1 X140.983 Y125.956 E3.23071
G1 X141.248 Y129.198 E3.3389
G1 X141.318 Y129.862 E3.36111
G1 X141.351 Y130.22 E3.37306
G1 X141.38 Y130.508 E3.38269
G1 X141.412 Y130.888 E3.39538
G1 X141.457 Y131.56 E3.41778
G1 X141.482 Y132.238 E3.44034
G1 X141.484 Y132.627 E3.45328
G1 X141.478 Y133.045 E3.46718
G1 X141.452 Y133.837 E3.49354
G1 X141.432 Y134.228 E3.50656
G1 X141.395 Y134.765 E3.52447
G1 X141.324 Y136.109 E3.56923
G1 X141.271 Y136.999 E3.59888
G1 X141.257 Y137.357 E3.6108
G1 X141.242 Y137.959 E3.63083
G1 X141.194 Y139.52 E3.68277
G1 X141.185 Y141.801 E3.75864
G1 X141.223 Y146.041 E3.89967
G1 X141.223 Y146.27 E3.90728
G1 X141.228 Y146.337 E3.90952
G1 X141.276 Y149.146 E4.00296
G1 X141.282 Y149.321 E4.00878
G1 X141.289 Y149.412 E4.01182
G1 X141.396 Y151.913 E4.09508
G1 X141.803 Y159.418 E4.34506
G1 X141.811 Y159.587 E4.35069
G1 X141.838 Y160.283 E4.37386
G1 X141.834 Y161.22 E4.40502
G1 X141.751 Y162.155 E4.43624
G1 X141.588 Y163.078 E4.46742
G1 X141.347 Y163.985 E4.49863
G1 X141.03 Y164.867 E4.5298
G1 X140.639 Y165.72 E4.56101
G1 X140.176 Y166.536 E4.59222
G1 X139.646 Y167.309 E4.62339
G1 X139.052 Y168.035 E4.65459
G1 X138.398 Y168.707 E4.68578
G1 X137.689 Y169.321 E4.71697
G1 X136.931 Y169.873 E4.74816
G1 X136.128 Y170.358 E4.77936
G1 X135.287 Y170.773 E4.81055
G1 X134.413 Y171.115 E4.84177
G1 X133.514 Y171.381 E4.87295
G1 X132.595 Y171.569 E4.90415
G1 X131.664 Y171.679 E4.93533
G1 X131.187 Y171.704 E4.95122
G1 X131.058 Y171.708 E4.95551
G1 X130.691 Y171.713 E4.96772
G1 X130.129 Y171.711 E4.98641
G1 X125.866 Y171.648 E5.12821
G1 X125.094 Y171.626 E5.1539
G1 X124.474 Y171.591 E5.17456
G1 X123.793 Y171.532 E5.19729
G1 X121.22 Y171.346 E5.28309
G1 X118.746 Y171.237 E5.36546
G1 X116.179 Y171.196 E5.45085
G1 X113.686 Y171.227 E5.53377
G1 X110.933 Y171.343 E5.62542
G1 X110.255 Y171.382 E5.64801
G1 X109.607 Y171.4 E5.66957
G1 X108.675 Y171.398 E5.70057
G1 X108.463 Y171.394 E5.70762
G1 X108.35 Y171.395 E5.71138
G1 X108.011 Y171.387 E5.72265
G1 X107.129 Y171.376 E5.75199
G1 X104.635 Y171.338 E5.83495
G1 X103.893 Y171.318 E5.85964
G1 X102.957 Y171.253 E5.89085
G1 X102.03 Y171.108 E5.92205
G1 X101.119 Y170.885 E5.95325
G1 X100.231 Y170.585 E5.98442
G1 X99.371 Y170.211 E6.01562
G1 X98.546 Y169.764 E6.04682
G1 X97.762 Y169.249 E6.07802
G1 X97.025 Y168.669 E6.10922
G1 X96.34 Y168.029 E6.1404
G1 X95.712 Y167.332 E6.1716
G1 X95.146 Y166.585 E6.20277
G1 X94.645 Y165.792 E6.23397
G1 X94.214 Y164.959 E6.26516
G1 X93.855 Y164.092 E6.29637
G1 X93.572 Y163.198 E6.32756
G1 X93.365 Y162.283 E6.35877
G1 X93.238 Y161.354 E6.38995
G1 X93.189 Y160.418 E6.42113
G1 X93.199 Y159.86 E6.43969
G1 X93.231 Y159.098 E6.46505
G1 X93.312 Y157.64 E6.51362
G1 X93.42 Y155.595 E6.58173
G1 X93.458 Y154.843 E6.60678
G1 X93.532 Y153.222 E6.66075
G1 X93.561 Y152.633 E6.68036
G1 X93.617 Y151.628 E6.71384
G1 X93.738 Y148.252 E6.8262
G1 X93.772 Y146.343 E6.8897
G1 X93.782 Y145.539 E6.91645
G1 X93.816 Y141.754 E7.04234
G1 X93.918 Y133.432 E7.31915
G1 X93.929 Y132.724 E7.3427
G1 X94 Y128.98 E7.46725
G1 X94.091 Y124.836 E7.60512
G1 X94.104 Y124.357 E7.62105
G1 X94.322 Y117.068 E7.86359
G1 X94.35 Y116.249 E7.89085
G1 X94.516 Y111.852 E8.0372
G1 X94.632 Y109.054 E8.13034
G1 X94.662 Y108.398 E8.15218
G1 X95.05 Y100.873 E8.4028
G1 X95.089 Y100.204 E8.42509
G1 X95.335 Y96.222 E8.55778
G1 X95.549 Y92.859 E8.66986
G1 X95.597 Y92.158 E8.69323
G1 X95.869 Y88.498 E8.8153
G1 X95.934 Y87.676 E8.84272
G1 X96.084 Y85.902 E8.90194
G1 X96.141 Y85.279 E8.92275
G1 X96.349 Y83.122 E8.99482
G1 X96.44 Y82.246 E9.02411
G1 X96.759 Y79.335 E9.12151
G1 X96.816 Y78.847 E9.13785
G1 X97.176 Y75.843 E9.23848
G1 X97.349 Y74.418 E9.28623
G1 X97.444 Y73.72 E9.30966
G1 X97.61 Y72.796 E9.34088
G1 X97.854 Y71.891 E9.37206
G1 X98.175 Y71.009 E9.40327
G1 X98.434 Y70.428 E9.42443
G1 X98.54 Y70.208 E9.43255
G1 X98.983 Y69.382 E9.46373
G1 X99.495 Y68.595 E9.49495
G0 F6000 X99.84 Y68.8
G1 F1200 X100.409 Y68.076 E9.52558
G1 X100.817 Y67.628 E9.54574
G1 X100.87 Y67.573 E9.54828
G1 X101.537 Y66.938 E9.57891
G1 X102.271 Y66.353 E9.61012
G1 X102.443 Y66.228 E9.6172
G1 X103.211 Y65.72 E9.64782
G1 X104.306 Y65.145 E9.68896
G1 X104.432 Y65.088 E9.69356
G1 X105.287 Y64.746 E9.72419
G1 X106.552 Y64.387 E9.76792
G1 X106.902 Y64.311 E9.77983
G1 X107.809 Y64.155 E9.81044
G1 X108.455 Y64.093 E9.83203
G1 X108.835 Y64.068 E9.84469
G1 X109.157 Y64.052 E9.85542
G1 X116.357 Y63.798 E10.09504
G1 X117.196 Y63.776 E10.12295
G1 X117.515 Y63.772 E10.13357
G1 X117.774 Y63.773 E10.14218
G1 X118.194 Y63.781 E10.15615
G1 X122.175 Y63.922 E10.28864
G1 X125.443 Y64.035 E10.3974
G1 X126.267 Y64.075 E10.42484
G1 X126.818 Y64.117 E10.44322
G1 X127.014 Y64.137 E10.44977
G1 X128.256 Y64.339 E10.49163
G1 X128.488 Y64.391 E10.49953
G1 X129.377 Y64.631 E10.53016
G1 X130.242 Y64.947 E10.56079
G1 X131.227 Y65.418 E10.5971
G1 X131.472 Y65.551 E10.60638
G1 X132.261 Y66.025 E10.63699
G1 X133.007 Y66.566 E10.66764
G1 X133.702 Y67.169 E10.69824
G1 X134.49 Y68 E10.73633
G1 X134.689 Y68.234 E10.74655
G1 X135.254 Y68.96 E10.77715
G1 X135.755 Y69.733 E10.80778
G1 X136.186 Y70.547 E10.83842
G1 X136.389 Y71.002 E10.85499
G1 X136.428 Y71.095 E10.85834
G1 X136.747 Y71.958 E10.88895
G1 X136.99 Y72.846 E10.91957
G1 X137.149 Y73.712 E10.94885
G1 X137.256 Y74.47 E10.97431
G1 X137.525 Y76.616 E11.04625
G1 X137.765 Y78.58 E11.11206
G1 X137.824 Y79.094 E11.12926
G1 X138.166 Y82.222 E11.23392
G1 X138.239 Y82.955 E11.25842
G1 X138.302 Y83.632 E11.28104
G1 X138.646 Y87.536 E11.41139
G1 X138.704 Y88.236 E11.43475
G1 X138.997 Y92.034 E11.56145
G1 X139.06 Y92.909 E11.59062
G1 X139.187 Y94.892 E11.65671
G1 X139.536 Y100.261 E11.83567
G1 X139.581 Y101.064 E11.86242
G1 X139.849 Y106.708 E12.05035
G1 X139.931 Y108.41 E12.10702
G1 X139.955 Y108.996 E12.12653
G1 X140.19 Y115.914 E12.35675
G1 X140.452 Y123.345 E12.60406
G1 X140.581 Y125.945 E12.69065
G1 X140.853 Y129.274 E12.80174
G1 X140.92 Y129.904 E12.82281
G1 X140.943 Y130.148 E12.83096
G1 X140.95 Y130.238 E12.83396
G1 X140.982 Y130.548 E12.84433
G1 X141.013 Y130.915 E12.85658
G1 X141.058 Y131.587 E12.87898
G1 X141.082 Y132.241 E12.90075
G1 X141.084 Y132.63 E12.91369
G1 X141.078 Y133.032 E12.92706
G1 X141.052 Y133.824 E12.95341
G1 X141.033 Y134.201 E12.96597
G1 X140.997 Y134.721 E12.98331
G1 X140.924 Y136.086 E13.02877
G1 X140.872 Y136.964 E13.05802
G1 X140.859 Y137.313 E13.06964
G1 X140.842 Y137.947 E13.09073
G1 X140.794 Y139.506 E13.14261
G1 X140.785 Y141.804 E13.21904
G1 X140.823 Y146.045 E13.36011
G1 X140.823 Y146.261 E13.36729
G1 X140.828 Y146.344 E13.37006
G1 X140.878 Y149.226 E13.46593
G1 X140.88 Y149.293 E13.46816
G1 X140.889 Y149.429 E13.47269
G1 X140.997 Y151.949 E13.55658
G1 X141.411 Y159.602 E13.81149
G1 X141.438 Y160.298 E13.83466
G1 X141.434 Y161.219 E13.86529
G1 X141.35 Y162.136 E13.89592
G1 X141.186 Y163.042 E13.92654
G1 X140.945 Y163.93 E13.95715
G1 X140.627 Y164.794 E13.98777
G1 X140.236 Y165.627 E14.01837
G1 X139.774 Y166.424 E14.04901
G1 X139.244 Y167.177 E14.07964
G1 X138.651 Y167.881 E14.11026
G1 X137.999 Y168.531 E14.14088
G1 X137.294 Y169.123 E14.1715
G1 X136.539 Y169.65 E14.20212
G1 X135.742 Y170.111 E14.23274
G1 X134.908 Y170.5 E14.26335
G1 X134.043 Y170.815 E14.29397
G1 X133.154 Y171.055 E14.3246
G1 X132.247 Y171.216 E14.35523
G1 X131.175 Y171.304 E14.39101
G1 X131.046 Y171.308 E14.3953
G1 X130.692 Y171.313 E14.40708
G1 X130.136 Y171.311 E14.42557
G1 X125.872 Y171.248 E14.56741
G1 X125.105 Y171.226 E14.59293
G1 X124.508 Y171.192 E14.61282
G1 X123.854 Y171.136 E14.63465
G1 X121.266 Y170.948 E14.72095
G1 X118.735 Y170.837 E14.80521
G1 X116.18 Y170.796 E14.8902
G1 X113.697 Y170.827 E14.9728
G1 X110.831 Y170.947 E15.0682
G1 X110.232 Y170.982 E15.08816
G1 X109.608 Y171 E15.10892
G1 X108.681 Y170.998 E15.13976
G1 X108.469 Y170.995 E15.14681
G1 X108.469 Y170.991 E15.14694
G1 X108.36 Y170.995 E15.15057
G1 X108.025 Y170.987 E15.16171
G1 X107.136 Y170.976 E15.19128
G1 X104.645 Y170.938 E15.27414
G1 X103.903 Y170.918 E15.29883
G1 X102.985 Y170.853 E15.32944
G1 X102.076 Y170.709 E15.36005
G1 X101.182 Y170.487 E15.39069
G1 X100.312 Y170.187 E15.4213
G1 X99.47 Y169.814 E15.45193
G1 X98.664 Y169.369 E15.48255
G1 X97.9 Y168.855 E15.51318
G1 X97.184 Y168.277 E15.54378
G1 X96.52 Y167.639 E15.57441
G1 X95.914 Y166.946 E15.60503
G1 X95.37 Y166.203 E15.63566
G1 X94.893 Y165.416 E15.66626
G1 X94.486 Y164.59 E15.69689
G1 X94.152 Y163.732 E15.72751
G1 X93.894 Y162.848 E15.75814
G1 X93.714 Y161.945 E15.78877
G1 X93.613 Y161.03 E15.81939
G1 X93.598 Y159.877 E15.85774
G1 X93.63 Y159.115 E15.8831
G1 X93.713 Y157.639 E15.93227
G1 X93.82 Y155.616 E15.99965
G1 X93.857 Y154.863 E16.02473
G1 X93.931 Y153.242 E16.0787
G1 X93.961 Y152.655 E16.09825
G1 X94.017 Y151.664 E16.13126
G1 X94.138 Y148.273 E16.24412
G1 X94.172 Y146.35 E16.30809
G1 X94.182 Y145.542 E16.33496
G1 X94.216 Y141.76 E16.46076
G1 X94.318 Y133.437 E16.7376
G1 X94.329 Y132.732 E16.76105
G1 X94.4 Y128.989 E16.88557
G1 X94.491 Y124.847 E17.02337
G1 X94.504 Y124.369 E17.03927
G1 X94.722 Y117.081 E17.28178
G1 X94.75 Y116.264 E17.30897
G1 X94.915 Y111.869 E17.45525
G1 X95.032 Y109.073 E17.54833
G1 X95.065 Y108.356 E17.5722
G1 X95.45 Y100.896 E17.82065
G1 X95.488 Y100.229 E17.84287
G1 X95.734 Y96.247 E17.97557
G1 X95.948 Y92.886 E18.08758
G1 X95.996 Y92.187 E18.11088
G1 X96.267 Y88.53 E18.23285
G1 X96.333 Y87.709 E18.26024
G1 X96.483 Y85.938 E18.31936
G1 X96.54 Y85.317 E18.3401
G1 X96.747 Y83.163 E18.41207
G1 X96.838 Y82.289 E18.4413
G1 X97.157 Y79.381 E18.5386
G1 X97.213 Y78.895 E18.55487
G1 X97.573 Y75.891 E18.6555
G1 X97.746 Y74.471 E18.70308
G1 X97.841 Y73.773 E18.72651
G1 X98.004 Y72.867 E18.75712
G1 X98.246 Y71.979 E18.78774
G1 X98.564 Y71.115 E18.81836
G1 X98.795 Y70.602 E18.83707
G1 X98.901 Y70.382 E18.84519
G1 X99.336 Y69.571 E18.8758
G1 X99.84 Y68.8 E18.90644
G0 F6000 X100.185 Y69.006
G1 F1200 X100.746 Y68.298 E18.93648
G1 X101.105 Y67.905 E18.95419
G1 X101.158 Y67.85 E18.95673
G1 X101.813 Y67.228 E18.98677
G1 X102.507 Y66.677 E19.01624
G1 X102.679 Y66.552 E19.02331
G1 X103.432 Y66.054 E19.05334
G1 X104.471 Y65.51 E19.09235
G1 X104.597 Y65.453 E19.09695
G1 X105.435 Y65.117 E19.12698
G1 X106.637 Y64.778 E19.16852
G1 X106.987 Y64.702 E19.18043
G1 X107.877 Y64.55 E19.21046
G1 X108.481 Y64.492 E19.23064
G1 X108.861 Y64.467 E19.24331
G1 X109.171 Y64.451 E19.25363
G1 X116.275 Y64.2 E19.49006
G1 X117.207 Y64.176 E19.52107
G1 X117.513 Y64.172 E19.53124
G1 X117.772 Y64.173 E19.53986
G1 X118.185 Y64.181 E19.5536
G1 X122.161 Y64.322 E19.68592
G1 X125.429 Y64.435 E19.79468
G1 X126.248 Y64.475 E19.82196
G1 X126.777 Y64.515 E19.8396
G1 X126.973 Y64.535 E19.84615
G1 X128.169 Y64.729 E19.88645
G1 X128.401 Y64.781 E19.89436
G1 X129.272 Y65.017 E19.92437
G1 X130.12 Y65.33 E19.95444
G1 X131.036 Y65.77 E19.98824
G1 X131.281 Y65.903 E19.99751
G1 X132.055 Y66.368 E20.02754
G1 X132.785 Y66.9 E20.05758
G1 X133.465 Y67.495 E20.08764
G1 X134.185 Y68.259 E20.12255
G1 X134.384 Y68.493 E20.13277
G1 X134.938 Y69.206 E20.1628
G1 X135.427 Y69.966 E20.19286
G1 X136.02 Y71.156 E20.23708
G1 X136.059 Y71.249 E20.24044
G1 X136.371 Y72.097 E20.27049
G1 X136.607 Y72.969 E20.30054
G1 X136.753 Y73.768 E20.32755
G1 X136.882 Y74.689 E20.35848
G1 X137.128 Y76.664 E20.42468
G1 X137.367 Y78.627 E20.49045
G1 X137.427 Y79.137 E20.50753
G1 X137.768 Y82.262 E20.61208
G1 X137.841 Y82.992 E20.63649
G1 X137.904 Y83.667 E20.65903
G1 X138.247 Y87.57 E20.78935
G1 X138.305 Y88.267 E20.81261
G1 X138.598 Y92.062 E20.93921
G1 X138.666 Y93.02 E20.97115
G1 X138.787 Y94.918 E21.03441
G1 X139.136 Y100.284 E21.21326
G1 X139.182 Y101.083 E21.23988
G1 X139.449 Y106.728 E21.42784
G1 X139.531 Y108.426 E21.48438
G1 X139.555 Y109.01 E21.50382
G1 X139.787 Y115.845 E21.73129
G1 X139.791 Y115.928 E21.73405
G1 X140.057 Y123.45 E21.98439
G1 X140.181 Y125.967 E22.06821
G1 X140.454 Y129.305 E22.1796
G1 X140.522 Y129.946 E22.20104
G1 X140.545 Y130.181 E22.20889
G1 X140.556 Y130.313 E22.2133
G1 X140.584 Y130.589 E22.22253
G1 X140.614 Y130.941 E22.23428
G1 X140.659 Y131.613 E22.25668
G1 X140.682 Y132.243 E22.27764
G1 X140.684 Y132.632 E22.29058
G1 X140.679 Y133.019 E22.30346
G1 X140.653 Y133.811 E22.32981
G1 X140.634 Y134.173 E22.34187
G1 X140.6 Y134.668 E22.35837
G1 X140.525 Y136.062 E22.4048
G1 X140.472 Y136.957 E22.43462
G1 X140.459 Y137.293 E22.44581
G1 X140.442 Y137.935 E22.46717
G1 X140.395 Y139.493 E22.51901
G1 X140.385 Y141.808 E22.59601
G1 X140.423 Y146.048 E22.73704
G1 X140.423 Y146.217 E22.74266
G1 X140.429 Y146.351 E22.74712
G1 X140.478 Y149.245 E22.84339
G1 X140.482 Y149.367 E22.84745
G1 X140.49 Y149.446 E22.85009
G1 X140.599 Y151.99 E22.93478
G1 X141.004 Y159.461 E23.18363
G1 X141.038 Y160.314 E23.21202
G1 X141.033 Y161.217 E23.24206
G1 X140.949 Y162.116 E23.27209
G1 X140.784 Y163.004 E23.30213
G1 X140.543 Y163.874 E23.33216
G1 X140.225 Y164.719 E23.36219
G1 X139.833 Y165.533 E23.39223
G1 X139.371 Y166.309 E23.42227
G1 X138.842 Y167.041 E23.45231
G1 X138.251 Y167.724 E23.48235
G1 X137.601 Y168.351 E23.51239
G1 X136.899 Y168.919 E23.54242
G1 X136.149 Y169.422 E23.57246
G1 X135.358 Y169.857 E23.60248
G1 X134.531 Y170.22 E23.63252
G1 X133.675 Y170.509 E23.66257
G1 X132.797 Y170.721 E23.69261
G1 X131.904 Y170.854 E23.72264
G1 X131.162 Y170.904 E23.74738
G1 X131.033 Y170.908 E23.75167
G1 X130.693 Y170.913 E23.76298
G1 X130.142 Y170.911 E23.78131
G1 X125.733 Y170.845 E23.92797
G1 X125.117 Y170.827 E23.94846
G1 X124.542 Y170.794 E23.96762
