;FLAVOR:Marlin
;TIME:2333
;Filament used: 1.03801m
;Layer height: 0.24
;MINX:90.034
;MINY:98.211
;MINZ:0.28
;MAXX:142.162
;MAXY:157.289
;MAXZ:15.64
;Generated with Cura_SteamEngine 4.6.1
M140 S50
M105
M190 S50
M104 S200
M105
M109 S200
M82 ;absolute extrusion mode
; Ender 3 Custom Start G-code
G92 E0 ; Reset Extruder
G28 ; Home all axes
G1 Z2.0 F3000 ; Move Z Axis up little to prevent scratching of Heat Bed
G1 X0.1 Y20 Z0.3 F5000.0 ; Move to start position
G1 X0.1 Y200.0 Z0.3 F1500.0 E15 ; Draw the first line
G1 X0.4 Y200.0 Z0.3 F5000.0 ; Move to side a little
G1 X0.4 Y20 Z0.3 F1500.0 E30 ; Draw the second line
G92 E0 ; Reset Extruder
G1 Z2.0 F3000 ; Move Z Axis up little to prevent scratching of Heat Bed
G1 X5 Y20 Z0.3 F5000.0 ; Move over to prevent blob squish
G92 E0
G92 E0
G1 F2700 E-5
;LAYER_COUNT:65
;LAYER:0
M107
G0 F6000 X117.457 Y99.067 Z0.28
;TYPE:SKIRT
G1 F2700 E0
G1 F1200 X118.15 Y99.144 E0.03247
G1 X118.352 Y99.169 E0.04195
G1 X119.597 Y99.332 E0.10041
G1 X122.13 Y99.592 E0.21898
G1 X124.673 Y99.78 E0.33772
G1 X127.202 Y99.896 E0.4556
G1 X129.764 Y99.944 E0.57492
G1 X130.664 Y100.015 E0.61696
G1 X131.554 Y100.166 E0.65899
G1 X132.218 Y100.332 E0.69086
G1 X133.103 Y100.587 E0.73375
G1 X133.616 Y100.746 E0.75876
G1 X134.466 Y101.052 E0.80082
G1 X135.285 Y101.431 E0.84284
G1 X136.068 Y101.881 E0.88489
G1 X136.808 Y102.399 E0.92696
G1 X137.499 Y102.98 E0.96899
G1 X138.136 Y103.62 E1.01104
G1 X138.828 Y104.466 E1.06193
G1 X139.008 Y104.712 E1.07613
G1 X139.316 Y105.157 E1.10133
G1 X139.704 Y105.751 E1.13436
G1 X140.164 Y106.528 E1.17641
G1 X140.553 Y107.343 E1.21846
G1 X140.869 Y108.189 E1.26051
G1 X141.108 Y109.06 E1.30257
G1 X141.27 Y109.948 E1.3446
G1 X141.353 Y110.848 E1.38669
G1 X141.355 Y111.751 E1.42873
G1 X141.282 Y112.619 E1.46929
G1 X141.163 Y113.55 E1.513
G1 X140.886 Y116.059 E1.63054
G1 X140.781 Y116.938 E1.67176
G1 X140.634 Y117.829 E1.71381
G1 X140.286 Y119.081 E1.77432
G1 X140.223 Y119.262 E1.78324
G1 X139.889 Y120.101 E1.82529
G1 X139.482 Y120.907 E1.86733
G1 X139.005 Y121.674 E1.90939
G1 X138.273 Y122.618 E1.96502
G1 X137.145 Y123.91 E2.04488
G1 X135.468 Y125.898 E2.16599
G1 X133.87 Y127.906 E2.28548
G1 X132.38 Y129.89 E2.40102
G1 X130.878 Y132.015 E2.52219
G1 X129.489 Y134.101 E2.63888
G1 X128.149 Y136.245 E2.75661
G1 X126.853 Y138.452 E2.87579
G1 X125.631 Y140.676 E2.99395
G1 X124.474 Y142.931 E3.11197
G1 X123.33 Y145.323 E3.23543
G1 X122.814 Y146.443 E3.29285
G1 X122.4 Y147.245 E3.33488
G1 X121.917 Y148.008 E3.37693
G1 X121.627 Y148.403 E3.39974
G1 X121.202 Y148.95 E3.432
G1 X120.52 Y149.798 E3.48267
G1 X120.019 Y150.376 E3.51829
G1 X119.478 Y150.954 E3.55515
G1 X119.253 Y151.187 E3.57024
G1 X118.86 Y151.581 E3.59615
G1 X118.194 Y152.192 E3.63823
G1 X117.245 Y152.898 E3.69331
G1 X116.622 Y153.308 E3.72804
G1 X116.182 Y153.583 E3.7522
G1 X115.879 Y153.761 E3.76856
G1 X115.327 Y154.067 E3.79795
G1 X114.392 Y154.567 E3.84732
G1 X113.787 Y154.881 E3.87906
G1 X112.988 Y155.253 E3.9201
G1 X112.554 Y155.429 E3.94191
G1 X112.076 Y155.611 E3.96573
G1 X111.528 Y155.809 E3.99286
G1 X110.666 Y156.078 E4.0349
G1 X109.783 Y156.27 E4.07698
G1 X109.17 Y156.356 E4.1058
G1 X108.493 Y156.43 E4.13752
G1 X107.242 Y156.489 E4.19583
G1 X106.528 Y156.479 E4.22908
G1 X105.724 Y156.436 E4.26657
G1 X105.413 Y156.407 E4.28112
G1 X104.415 Y156.264 E4.32806
G1 X103.599 Y156.094 E4.36688
G1 X102.728 Y155.858 E4.4089
G1 X102.2 Y155.672 E4.43496
G1 X101.807 Y155.522 E4.45455
G1 X101.236 Y155.288 E4.48328
G1 X100.54 Y154.962 E4.51907
G1 X100.307 Y154.842 E4.53128
G1 X99.838 Y154.585 E4.55618
G1 X99.382 Y154.319 E4.58076
G1 X98.74 Y153.911 E4.61618
G1 X98.49 Y153.739 E4.63031
G1 X98.059 Y153.426 E4.65511
G1 X97.555 Y153.039 E4.6847
G1 X96.813 Y152.411 E4.72997
G1 X96.578 Y152.192 E4.74492
G1 X95.989 Y151.596 E4.78394
G1 X95.705 Y151.284 E4.80359
G1 X95.237 Y150.732 E4.83729
G1 X94.029 Y149.197 E4.92824
G1 X93.289 Y148.228 E4.98501
G1 X92.996 Y147.824 E5.00825
G1 X92.801 Y147.541 E5.02426
G1 X92.322 Y146.776 E5.06628
G1 X91.912 Y145.971 E5.10835
G1 X91.576 Y145.133 E5.15039
G1 X91.315 Y144.268 E5.19246
G1 X91.131 Y143.384 E5.23451
G1 X91.009 Y142.194 E5.29021
G1 X90.977 Y141.401 E5.32716
G1 X90.953 Y140.417 E5.373
G1 X90.903 Y138.708 E5.45261
G1 X90.833 Y137.251 E5.52053
G1 X90.845 Y136.067 E5.57567
G1 X90.865 Y135.775 E5.58929
G1 X90.966 Y134.878 E5.63133
G1 X91.147 Y133.993 E5.67339
G1 X91.405 Y133.127 E5.71547
G1 X91.621 Y132.559 E5.74376
G1 X91.773 Y132.195 E5.76213
G1 X92.484 Y130.537 E5.84613
G1 X92.955 Y129.463 E5.90074
G1 X93.473 Y128.441 E5.95409
G1 X94.129 Y127.31 E6.01497
G1 X95.395 Y125.059 E6.13523
G1 X96.581 Y122.802 E6.25395
G1 X97.681 Y120.555 E6.37045
G1 X98.744 Y118.22 E6.48991
G1 X99.74 Y115.86 E6.60919
G1 X100.659 Y113.489 E6.72759
G1 X101.506 Y111.113 E6.84505
G1 X102.072 Y109.398 E6.92914
G1 X102.333 Y108.694 E6.96411
G1 X102.582 Y108.106 E6.99384
G1 X102.98 Y107.295 E7.0359
G1 X103.644 Y106.242 E7.09387
G1 X104.484 Y105.079 E7.16067
G1 X104.946 Y104.474 E7.19612
G1 X105.526 Y103.782 E7.23816
G1 X106.164 Y103.143 E7.28021
G1 X106.538 Y102.817 E7.30331
G1 X106.897 Y102.519 E7.32504
G1 X107.17 Y102.3 E7.34133
G1 X107.55 Y102.006 E7.36371
G1 X108.288 Y101.485 E7.40577
G1 X109.07 Y101.032 E7.44785
G1 X109.897 Y100.646 E7.49035
G1 X110.352 Y100.458 E7.51327
G1 X111.106 Y100.181 E7.55068
G1 X111.466 Y100.064 E7.5683
G1 X112.57 Y99.697 E7.62248
G1 X113.244 Y99.483 E7.6554
G1 X114.116 Y99.248 E7.69746
G1 X115.006 Y99.091 E7.73954
G1 X115.905 Y99.014 E7.78155
G1 X116.809 Y99.016 E7.82365
G1 X117.457 Y99.067 E7.85391
G0 F6000 X118.404 Y98.772
G1 F1200 X119.653 Y98.936 E7.91257
G1 X122.167 Y99.193 E8.03024
G1 X124.683 Y99.38 E8.14772
G1 X127.228 Y99.496 E8.26635
G1 X129.777 Y99.544 E8.38507
G1 X130.695 Y99.616 E8.42794
G1 X131.603 Y99.767 E8.4708
G1 X132.328 Y99.947 E8.50559
G1 X133.221 Y100.205 E8.54887
G1 X133.734 Y100.364 E8.57388
G1 X134.601 Y100.675 E8.61677
G1 X135.437 Y101.059 E8.65961
G1 X136.237 Y101.515 E8.70248
G1 X136.995 Y102.038 E8.74537
G1 X137.704 Y102.625 E8.78823
G1 X138.359 Y103.272 E8.8311
G1 X139.151 Y104.23 E8.88898
G1 X139.331 Y104.476 E8.90317
G1 X139.651 Y104.938 E8.92934
G1 X140.039 Y105.532 E8.96238
G1 X140.508 Y106.324 E9.00524
G1 X140.907 Y107.154 E9.04812
G1 X141.233 Y108.015 E9.09099
G1 X141.482 Y108.901 E9.13384
G1 X141.654 Y109.806 E9.17674
G1 X141.747 Y110.722 E9.21961
G1 X141.759 Y111.642 E9.26245
G1 X141.679 Y112.67 E9.31046
G1 X141.555 Y113.646 E9.35628
G1 X141.283 Y116.106 E9.47152
G1 X141.178 Y116.985 E9.51274
G1 X141.029 Y117.894 E9.55563
G1 X140.664 Y119.212 E9.61932
G1 X140.601 Y119.393 E9.62824
G1 X140.261 Y120.249 E9.67113
G1 X139.848 Y121.072 E9.714
G1 X139.365 Y121.856 E9.75688
G1 X138.575 Y122.881 E9.81714
G1 X137.436 Y124.185 E9.89776
G1 X135.785 Y126.143 E10.01702
G1 X134.187 Y128.15 E10.13648
G1 X132.682 Y130.156 E10.25325
G1 X131.221 Y132.221 E10.37104
G1 X129.818 Y134.329 E10.48895
G1 X128.49 Y136.453 E10.60559
G1 X127.199 Y138.652 E10.72433
G1 X125.994 Y140.845 E10.84085
G1 X124.826 Y143.122 E10.96001
G1 X123.71 Y145.455 E11.08043
G1 X123.178 Y146.61 E11.13965
G1 X122.756 Y147.429 E11.18255
G1 X122.266 Y148.208 E11.2254
G1 X121.944 Y148.648 E11.25079
G1 X121.514 Y149.201 E11.28341
G1 X120.832 Y150.049 E11.33408
G1 X120.311 Y150.65 E11.37111
G1 X119.77 Y151.228 E11.40798
G1 X119.536 Y151.47 E11.42365
G1 X119.143 Y151.864 E11.44957
G1 X118.465 Y152.487 E11.49244
G1 X117.465 Y153.233 E11.55053
G1 X116.842 Y153.643 E11.58526
G1 X116.384 Y153.928 E11.61038
G1 X116.081 Y154.106 E11.62674
G1 X115.516 Y154.419 E11.65682
G1 X114.576 Y154.922 E11.70646
G1 X113.971 Y155.236 E11.7382
G1 X113.141 Y155.623 E11.78085
G1 X112.697 Y155.803 E11.80315
G1 X112.212 Y155.987 E11.82731
G1 X111.664 Y156.185 E11.85444
G1 X110.785 Y156.46 E11.89733
G1 X109.886 Y156.658 E11.94019
G1 X109.214 Y156.753 E11.97179
G1 X108.537 Y156.827 E12.00351
G1 X107.237 Y156.889 E12.06411
G1 X106.523 Y156.879 E12.09736
G1 X105.687 Y156.834 E12.13634
G1 X105.376 Y156.805 E12.15089
G1 X104.339 Y156.656 E12.19967
G1 X103.72 Y156.532 E12.22907
G1 X103.511 Y156.485 E12.23904
G1 X102.623 Y156.244 E12.28188
G1 X102.057 Y156.046 E12.30981
G1 X101.664 Y155.896 E12.32939
G1 X101.08 Y155.656 E12.35879
G1 X100.357 Y155.318 E12.39596
G1 X100.124 Y155.198 E12.40816
G1 X99.636 Y154.93 E12.43409
G1 X99.18 Y154.664 E12.45867
G1 X98.513 Y154.241 E12.49544
G1 X98.263 Y154.069 E12.50957
G1 X97.815 Y153.743 E12.53537
G1 X97.311 Y153.356 E12.56496
G1 X96.54 Y152.704 E12.61198
G1 X96.305 Y152.485 E12.62694
G1 X95.693 Y151.865 E12.6675
G1 X95.409 Y151.553 E12.68715
G1 X94.923 Y150.98 E12.72213
G1 X93.711 Y149.439 E12.81342
G1 X92.971 Y148.47 E12.8702
G1 X92.666 Y148.051 E12.89433
G1 X92.471 Y147.768 E12.91033
G1 X91.983 Y146.988 E12.95318
G1 X91.563 Y146.169 E12.99603
G1 X91.216 Y145.316 E13.03891
G1 X90.945 Y144.436 E13.08179
G1 X90.751 Y143.536 E13.12466
G1 X90.61 Y142.211 E13.18671
G1 X90.577 Y141.41 E13.22403
G1 X90.553 Y140.426 E13.26987
G1 X90.505 Y138.777 E13.34668
G1 X90.433 Y137.27 E13.41694
G1 X90.446 Y136.04 E13.47421
G1 X90.466 Y135.748 E13.48784
G1 X90.569 Y134.833 E13.53072
G1 X90.75 Y133.93 E13.5736
G1 X91.01 Y133.047 E13.61646
G1 X91.252 Y132.406 E13.64837
G1 X91.405 Y132.038 E13.66692
G1 X92.117 Y130.377 E13.75107
G1 X92.588 Y129.303 E13.80568
G1 X93.127 Y128.241 E13.86114
G1 X93.759 Y127.152 E13.91977
G1 X95.05 Y124.856 E14.04242
G1 X96.211 Y122.647 E14.15862
G1 X97.329 Y120.363 E14.27703
G1 X98.383 Y118.048 E14.39547
G1 X99.368 Y115.714 E14.51344
G1 X100.278 Y113.364 E14.63078
G1 X101.129 Y110.98 E14.74865
G1 X101.692 Y109.273 E14.83235
G1 X101.964 Y108.541 E14.86871
G1 X102.216 Y107.945 E14.89884
G1 X102.621 Y107.119 E14.94168
G1 X103.319 Y106.008 E15.00277
G1 X104.166 Y104.837 E15.07007
G1 X104.628 Y104.232 E15.10551
G1 X105.218 Y103.525 E15.14839
G1 X105.868 Y102.872 E15.19129
G1 X106.283 Y102.509 E15.21697
G1 X106.642 Y102.211 E15.23869
G1 X106.926 Y101.983 E15.25565
G1 X107.306 Y101.689 E15.27802
G1 X108.058 Y101.158 E15.32089
G1 X108.853 Y100.694 E15.36375
G1 X109.744 Y100.276 E15.40958
G1 X110.199 Y100.088 E15.4325
G1 X110.983 Y99.8 E15.47139
G1 X111.395 Y99.667 E15.49155
G1 X112.449 Y99.316 E15.54328
G1 X113.123 Y99.102 E15.57621
G1 X114.012 Y98.862 E15.61909
G1 X114.918 Y98.7 E15.66194
G1 X115.835 Y98.617 E15.70482
G1 X116.756 Y98.614 E15.7477
G1 X117.502 Y98.67 E15.78254
G1 X118.404 Y98.772 E15.82481
G0 F6000 X118.456 Y98.376
G1 F1200 X119.675 Y98.536 E15.88206
G1 X122.201 Y98.795 E16.00029
G1 X124.697 Y98.979 E16.11683
G1 X127.253 Y99.096 E16.23598
G1 X129.791 Y99.145 E16.35418
G1 X130.726 Y99.217 E16.39784
G1 X131.652 Y99.368 E16.44153
G1 X132.438 Y99.562 E16.47923
G1 X133.34 Y99.823 E16.52295
G1 X133.853 Y99.982 E16.54796
G1 X134.736 Y100.298 E16.59163
G1 X135.589 Y100.687 E16.63529
G1 X136.406 Y101.148 E16.67897
G1 X137.18 Y101.677 E16.72262
G1 X137.907 Y102.27 E16.76631
G1 X138.58 Y102.923 E16.80997
G1 X139.473 Y103.993 E16.87487
G1 X139.653 Y104.239 E16.88906
G1 X139.985 Y104.719 E16.91624
G1 X140.373 Y105.313 E16.94928
G1 X140.852 Y106.12 E16.99297
G1 X141.261 Y106.964 E17.03665
G1 X141.596 Y107.84 E17.08032
G1 X141.855 Y108.741 E17.12397
G1 X142.037 Y109.661 E17.16764
G1 X142.139 Y110.594 E17.21134
G1 X142.162 Y111.531 E17.25499
G1 X142.076 Y112.72 E17.3105
G1 X141.954 Y113.676 E17.35537
G1 X141.68 Y116.154 E17.47146
G1 X141.575 Y117.033 E17.51268
G1 X141.425 Y117.958 E17.55632
G1 X141.195 Y118.868 E17.60002
G1 X140.979 Y119.525 E17.63223
G1 X140.633 Y120.397 E17.67591
G1 X140.214 Y121.236 E17.71958
G1 X139.725 Y122.036 E17.76324
G1 X138.876 Y123.144 E17.82823
G1 X137.731 Y124.455 E17.90929
G1 X136.087 Y126.405 E18.02805
G1 X134.521 Y128.372 E18.14512
G1 X133.013 Y130.381 E18.26209
G1 X131.548 Y132.452 E18.38022
G1 X130.147 Y134.557 E18.49796
G1 X128.841 Y136.646 E18.61268
G1 X127.543 Y138.857 E18.73206
G1 X126.343 Y141.041 E18.84809
G1 X125.192 Y143.284 E18.96549
G1 X124.05 Y145.672 E19.08874
G1 X123.541 Y146.777 E19.14539
G1 X123.112 Y147.612 E19.18911
G1 X122.614 Y148.406 E19.23275
G1 X122.261 Y148.892 E19.26072
G1 X121.826 Y149.452 E19.29374
G1 X121.144 Y150.3 E19.34441
G1 X120.603 Y150.923 E19.38283
G1 X120.062 Y151.501 E19.41969
G1 X119.819 Y151.752 E19.43596
G1 X119.426 Y152.146 E19.46187
G1 X118.736 Y152.781 E19.50554
G1 X117.685 Y153.567 E19.56665
G1 X117.062 Y153.977 E19.60138
G1 X116.587 Y154.272 E19.62741
G1 X116.284 Y154.45 E19.64378
G1 X115.705 Y154.772 E19.67463
G1 X114.76 Y155.277 E19.72452
G1 X114.155 Y155.591 E19.75626
G1 X113.294 Y155.992 E19.80048
G1 X112.841 Y156.176 E19.82325
G1 X112.348 Y156.363 E19.8478
G1 X111.8 Y156.561 E19.87494
G1 X110.905 Y156.842 E19.91862
G1 X109.99 Y157.046 E19.96227
G1 X109.257 Y157.151 E19.99675
G1 X108.58 Y157.225 E20.02846
G1 X107.231 Y157.289 E20.09135
G1 X106.517 Y157.279 E20.1246
G1 X105.65 Y157.232 E20.16503
G1 X105.339 Y157.203 E20.17957
G1 X104.262 Y157.049 E20.23023
G1 X103.424 Y156.875 E20.27008
G1 X102.518 Y156.63 E20.31379
G1 X101.915 Y156.42 E20.34352
G1 X101.522 Y156.27 E20.36311
G1 X100.924 Y156.025 E20.3932
G1 X100.173 Y155.673 E20.43182
G1 X99.94 Y155.553 E20.44402
G1 X99.434 Y155.276 E20.47088
G1 X98.978 Y155.01 E20.49546
G1 X98.286 Y154.57 E20.53365
G1 X98.036 Y154.398 E20.54778
G1 X97.572 Y154.061 E20.57448
G1 X97.068 Y153.674 E20.60407
G1 X96.268 Y152.996 E20.6529
G1 X96.033 Y152.777 E20.66786
G1 X95.397 Y152.135 E20.70994
G1 X95.113 Y151.823 E20.72958
G1 X94.609 Y151.228 E20.76589
G1 X93.393 Y149.682 E20.85748
G1 X92.653 Y148.713 E20.91425
G1 X92.337 Y148.278 E20.93929
G1 X92.142 Y147.995 E20.95529
G1 X91.643 Y147.201 E20.99896
G1 X91.214 Y146.367 E21.04263
G1 X90.857 Y145.5 E21.08629
G1 X90.576 Y144.605 E21.12997
G1 X90.372 Y143.69 E21.17362
G1 X90.246 Y142.76 E21.21732
G1 X90.21 Y142.229 E21.24211
G1 X90.177 Y141.42 E21.27981
G1 X90.153 Y140.436 E21.32564
G1 X90.105 Y138.77 E21.40325
G1 X90.034 Y137.289 E21.47229
G1 X90.047 Y136.012 E21.53176
G1 X90.067 Y135.72 E21.54538
G1 X90.171 Y134.788 E21.58905
G1 X90.354 Y133.868 E21.63273
G1 X90.614 Y132.967 E21.6764
G1 X90.883 Y132.252 E21.71197
G1 X91.038 Y131.88 E21.73073
G1 X91.751 Y130.216 E21.81503
G1 X92.222 Y129.142 E21.86964
G1 X92.781 Y128.04 E21.92717
G1 X93.454 Y126.88 E21.98962
G1 X94.69 Y124.68 E22.10712
G1 X95.855 Y122.464 E22.2237
G1 X96.964 Y120.2 E22.34109
G1 X98.014 Y117.893 E22.45912
G1 X98.997 Y115.563 E22.57687
G1 X99.9 Y113.233 E22.69323
G1 X100.756 Y110.834 E22.81183
G1 X101.312 Y109.148 E22.8945
G1 X101.594 Y108.388 E22.93225
G1 X101.849 Y107.785 E22.96273
G1 X102.261 Y106.943 E23.00638
G1 X102.994 Y105.775 E23.07059
G1 X103.658 Y104.851 E23.12357
G1 X103.849 Y104.594 E23.13848
G1 X104.311 Y103.989 E23.17393
G1 X104.911 Y103.269 E23.21757
G1 X105.571 Y102.602 E23.26126
G1 X106.027 Y102.201 E23.28954
G1 X106.386 Y101.903 E23.31126
G1 X106.681 Y101.667 E23.32886
G1 X107.061 Y101.373 E23.35123
G1 X107.826 Y100.831 E23.39488
G1 X108.635 Y100.357 E23.43854
G1 X109.591 Y99.907 E23.48774
G1 X110.046 Y99.719 E23.51067
G1 X110.86 Y99.42 E23.55105
G1 X111.238 Y99.298 E23.56954
G1 X112.328 Y98.935 E23.62304
G1 X113.002 Y98.721 E23.65597
G1 X113.907 Y98.475 E23.69964
G1 X114.83 Y98.308 E23.74331
G1 X115.764 Y98.22 E23.787
G1 X116.702 Y98.211 E23.83068
G1 X117.546 Y98.272 E23.87008
G1 X118.456 Y98.376 E23.91273
G1 F2700 E18.91273
G0 F6000 X113.095 Y110.229
G0 X110.968 Y116.338
G0 X111.777 Y125.041
G1 F2700 E23.91273
G1 F1200 X111.847 Y125.002 E23.91646
G1 X111.836 Y125.045 E23.91853
G1 X111.777 Y125.041 E23.92128
G0 F6000 X111.551 Y124.709
G1 F1200 X112.923 Y123.941 E23.99449
G1 X112.691 Y124.163 E24.00945
G1 X112.478 Y124.476 E24.02707
G1 X112.373 Y124.711 E24.03906
G1 X112.237 Y125.085 E24.05759
G1 X112.146 Y125.453 E24.07524
G1 X112.145 Y125.474 E24.07622
G1 X112.071 Y125.462 E24.07971
G1 X111.334 Y125.411 E24.11411
G1 X111.225 Y125.343 E24.12009
G1 X110.869 Y125.214 E24.13773
G1 X110.717 Y125.188 E24.14491
G1 X111.551 Y124.709 E24.18969
G0 F6000 X111.356 Y124.359
G1 F1200 X113.863 Y122.957 E24.32344
G1 X113.748 Y123.213 E24.33651
G1 X113.493 Y123.999 E24.37499
G1 X113.21 Y124.218 E24.39165
G1 X112.971 Y124.452 E24.40722
