;FLAVOR:Marlin
;TIME:5585
;Filament used: 2.67332m
;Layer height: 0.2
;MINX:91.293
;MINY:94.295
;MINZ:0.2
;MAXX:143.839
;MAXY:144.711
;MAXZ:21.8
;Generated with Cura_SteamEngine 4.7.0
M140 S55
M105
M190 S55
M104 S210
M105
M109 S210
M82 ;absolute extrusion mode
; Ender 3 Custom Start G-code
G92 E0 ; Reset Extruder
G28 ; Home all axes
G1 Z2.0 F3000 ; Move Z Axis up little to prevent scratching of Heat Bed
G1 X0.1 Y20 Z0.3 F5000.0 ; Move to start position
G1 X0.1 Y200.0 Z0.3 F1500.0 E15 ; Draw the first line
G1 X0.4 Y200.0 Z0.3 F5000.0 ; Move to side a little
G1 X0.4 Y20 Z0.3 F1500.0 E30 ; Draw the second line
G92 E0 ; Reset Extruder
G1 Z2.0 F3000 ; Move Z Axis up little to prevent scratching of Heat Bed
G1 X5 Y20 Z0.3 F5000.0 ; Move over to prevent blob squish
G92 E0
G92 E0
G1 F2700 E-5
;LAYER_COUNT:109
;LAYER:0
M107
G0 F6000 X99.628 Y96.948 Z0.2
;TYPE:SKIRT
G1 F2700 E0
G1 F1200 X100.193 Y96.395 E0.0263
G1 X100.81 Y95.903 E0.05254
G1 X101.474 Y95.475 E0.07882
G1 X101.91 Y95.242 E0.09526
G1 X102.056 Y95.17 E0.10067
G1 X103.06 Y94.76 E0.13674
G1 X103.278 Y94.688 E0.14438
G1 X104.039 Y94.478 E0.17064
G1 X104.818 Y94.347 E0.19691
G1 X105.606 Y94.295 E0.22318
G1 X106.735 Y94.36 E0.26079
G1 X107.301 Y94.434 E0.27977
G1 X108.078 Y94.576 E0.30605
G1 X108.837 Y94.795 E0.33232
G1 X109.569 Y95.091 E0.35858
G1 X110.438 Y95.562 E0.39146
G1 X110.61 Y95.67 E0.39821
G1 X111.256 Y96.124 E0.42447
G1 X111.854 Y96.64 E0.45074
G1 X112.396 Y97.214 E0.477
G1 X112.878 Y97.84 E0.50328
G1 X113.293 Y98.511 E0.52952
G1 X113.639 Y99.221 E0.55579
G1 X113.891 Y99.9 E0.57988
G1 X113.97 Y100.147 E0.5885
G1 X114.172 Y100.91 E0.61476
G1 X114.245 Y101.367 E0.63015
G1 X114.563 Y101.592 E0.6431
G1 X115.158 Y102.111 E0.66937
G1 X115.698 Y102.687 E0.69563
G1 X116.176 Y103.315 E0.72188
G1 X116.589 Y103.988 E0.74814
G1 X116.612 Y104.039 E0.75
G1 X116.682 Y104.073 E0.75259
G1 X117.353 Y104.491 E0.77888
G1 X117.58 Y104.667 E0.78843
G1 X118.097 Y104.319 E0.80916
G1 X118.489 Y104.109 E0.82395
G1 X118.855 Y103.486 E0.84799
G1 X119.322 Y102.849 E0.87426
G1 X119.851 Y102.263 E0.90051
G1 X120.437 Y101.733 E0.92679
G1 X121.03 Y101.296 E0.95129
G1 X121.089 Y100.958 E0.96271
G1 X121.303 Y100.194 E0.98909
G1 X121.388 Y99.941 E0.99797
G1 X121.677 Y99.206 E1.02424
G1 X122.039 Y98.504 E1.05051
G1 X122.47 Y97.842 E1.07678
G1 X122.966 Y97.228 E1.10304
G1 X123.521 Y96.666 E1.12931
G1 X124.13 Y96.164 E1.15556
G1 X124.554 Y95.87 E1.17272
G1 X124.723 Y95.761 E1.17941
G1 X125.408 Y95.367 E1.20569
G1 X126.128 Y95.045 E1.23192
G1 X127.059 Y94.749 E1.26441
G1 X127.079 Y94.744 E1.2651
G1 X128.2 Y94.549 E1.30294
G1 X128.754 Y94.494 E1.32146
G1 X129.543 Y94.456 E1.34773
G1 X130.332 Y94.498 E1.37401
G1 X131.112 Y94.619 E1.40027
G1 X131.876 Y94.819 E1.42653
G1 X132.32 Y94.974 E1.44217
G1 X132.604 Y95.083 E1.45229
G1 X133.326 Y95.403 E1.47856
G1 X134.012 Y95.794 E1.50482
G1 X134.521 Y96.149 E1.52546
G1 X134.74 Y96.315 E1.5346
G1 X135.344 Y96.823 E1.56085
G1 X135.894 Y97.39 E1.58712
G1 X136.384 Y98.009 E1.61338
G1 X136.808 Y98.675 E1.63964
G1 X137.308 Y99.731 E1.6785
G1 X137.363 Y99.874 E1.6836
G1 X137.609 Y100.624 E1.70985
G1 X137.778 Y101.396 E1.73614
G1 X137.867 Y102.18 E1.76238
G1 X137.883 Y102.74 E1.78101
G1 X137.872 Y104.035 E1.82409
G1 X137.87 Y104.451 E1.83792
G1 X138.231 Y104.681 E1.85216
G1 X139.036 Y105.266 E1.88526
G1 X139.651 Y105.762 E1.91154
G1 X140.212 Y106.318 E1.93781
G1 X140.714 Y106.927 E1.96406
G1 X141.152 Y107.584 E1.99032
G1 X141.521 Y108.282 E2.01658
G1 X141.791 Y108.936 E2.04011
G1 X142.598 Y111.18 E2.11943
G1 X142.827 Y111.936 E2.1457
G1 X142.979 Y112.711 E2.17197
G1 X143.015 Y113.217 E2.18884
G1 X143.302 Y113.922 E2.21416
G1 X143.525 Y114.68 E2.24044
G1 X143.67 Y115.456 E2.26669
G1 X143.736 Y116.243 E2.29296
G1 X143.725 Y116.846 E2.31302
G1 X143.79 Y117.24 E2.3263
G1 X143.839 Y118.029 E2.35259
G1 X143.807 Y118.818 E2.37886
G1 X143.669 Y119.734 E2.40967
G1 X143.596 Y120.078 E2.42136
G1 X143.61 Y120.165 E2.4243
G1 X143.659 Y120.954 E2.45059
G1 X143.627 Y121.743 E2.47685
G1 X143.516 Y122.524 E2.50309
G1 X143.422 Y122.945 E2.51744
G1 X143.361 Y123.188 E2.52577
G1 X143.381 Y123.52 E2.53683
G1 X143.35 Y124.309 E2.56309
G1 X143.215 Y125.215 E2.59356
G1 X143.101 Y125.757 E2.61198
G1 X143.109 Y126.159 E2.62536
G1 X143.085 Y126.949 E2.65164
G1 X142.981 Y127.732 E2.67791
G1 X142.728 Y128.73 E2.71216
G1 X142.394 Y129.756 E2.74805
G1 X142.112 Y130.494 E2.77432
G1 X141.756 Y131.199 E2.80059
G1 X141.332 Y131.865 E2.82685
G1 X140.842 Y132.484 E2.85311
G1 X140.292 Y133.051 E2.87938
G1 X139.568 Y133.648 E2.91059
G1 X138.693 Y134.285 E2.94659
G1 X138.032 Y134.717 E2.97285
G1 X137.448 Y135.019 E2.99472
G1 X137.413 Y135.95 E3.02571
G1 X137.375 Y136.895 E3.05716
G1 X137.303 Y137.682 E3.08345
G1 X137.152 Y138.457 E3.10971
G1 X136.997 Y139 E3.12849
G1 X136.922 Y139.23 E3.13654
G1 X136.639 Y139.968 E3.16283
G1 X136.284 Y140.673 E3.18908
G1 X135.858 Y141.338 E3.21535
G1 X135.368 Y141.957 E3.24161
G1 X134.818 Y142.524 E3.26788
G1 X134.213 Y143.031 E3.29413
G1 X133.56 Y143.476 E3.32042
G1 X132.98 Y143.795 E3.34243
G1 X132.777 Y143.896 E3.34997
G1 X132.054 Y144.212 E3.37622
G1 X131.301 Y144.453 E3.40251
G1 X130.529 Y144.616 E3.42876
G1 X129.559 Y144.709 E3.46117
G1 X129.498 Y144.711 E3.4632
G1 X128.708 Y144.697 E3.48948
G1 X127.924 Y144.603 E3.51574
G1 X127.242 Y144.454 E3.53896
G1 X124.52 Y143.732 E3.63262
G1 X123.363 Y143.428 E3.67241
G1 X122.61 Y143.189 E3.69869
G1 X121.886 Y142.875 E3.72493
G1 X121.196 Y142.489 E3.75123
G1 X120.359 Y141.883 E3.7856
G1 X120.128 Y141.691 E3.79559
G1 X119.547 Y141.156 E3.82186
G1 X119.023 Y140.565 E3.84813
G1 X118.562 Y139.924 E3.87439
G1 X118.168 Y139.24 E3.90064
G1 X117.844 Y138.519 E3.92693
G1 X117.596 Y137.77 E3.95318
G1 X117.517 Y137.445 E3.9643
G1 X117.041 Y137.656 E3.98162
G1 X116.769 Y137.745 E3.99114
G1 X116.63 Y138.204 E4.00709
G1 X116.542 Y138.439 E4.01543
G1 X116.228 Y139.164 E4.04171
G1 X115.842 Y139.853 E4.06798
G1 X115.389 Y140.5 E4.09425
G1 X114.872 Y141.097 E4.12052
G1 X114.298 Y141.639 E4.14677
G1 X113.672 Y142.12 E4.17303
G1 X113 Y142.536 E4.19932
G1 X112.515 Y142.782 E4.21741
G1 X112.217 Y142.92 E4.22833
G1 X111.484 Y143.215 E4.25461
G1 X110.747 Y143.429 E4.28013
G1 X106.933 Y144.338 E4.41054
G1 X106.157 Y144.482 E4.43679
G1 X105.37 Y144.547 E4.46306
G1 X104.58 Y144.532 E4.48934
G1 X103.796 Y144.437 E4.5156
G1 X103.023 Y144.263 E4.54196
G1 X102.83 Y144.209 E4.54862
G1 X102.082 Y143.958 E4.57486
G1 X101.362 Y143.632 E4.60115
G1 X100.679 Y143.236 E4.62741
G1 X100.04 Y142.772 E4.65368
G1 X99.451 Y142.246 E4.67994
G1 X98.918 Y141.664 E4.70619
G1 X98.446 Y141.03 E4.73248
G1 X98.078 Y140.42 E4.75617
G1 X97.946 Y140.177 E4.76537
G1 X97.605 Y139.465 E4.79163
G1 X97.337 Y138.722 E4.8179
G1 X97.258 Y138.405 E4.82876
G1 X96.479 Y137.908 E4.8595
G1 X95.561 Y137.24 E4.89726
G1 X94.946 Y136.744 E4.92354
G1 X94.386 Y136.188 E4.94978
G1 X93.884 Y135.578 E4.97606
G1 X93.446 Y134.921 E5.00232
G1 X93.077 Y134.222 E5.02861
G1 X92.733 Y133.348 E5.05985
G1 X92.382 Y132.27 E5.09756
G1 X92.176 Y131.508 E5.12381
G1 X92.048 Y130.728 E5.1501
G1 X91.999 Y129.94 E5.17636
G1 X92.031 Y129.151 E5.20263
G1 X92.142 Y128.369 E5.2289
G1 X92.382 Y127.44 E5.26081
G1 X92.733 Y126.362 E5.29852
G1 X93.015 Y125.625 E5.32476
G1 X93.371 Y124.919 E5.35106
G1 X93.796 Y124.254 E5.37731
G1 X94.285 Y123.634 E5.40357
G1 X94.836 Y123.068 E5.42985
G1 X95.561 Y122.47 E5.4611
G1 X96.479 Y121.802 E5.49886
G1 X97.022 Y121.447 E5.52044
G1 X97.028 Y121.087 E5.53242
G1 X96.796 Y120.973 E5.54101
G1 X95.987 Y120.457 E5.57293
G1 X94.912 Y119.674 E5.61716
G1 X94.298 Y119.177 E5.64344
G1 X93.737 Y118.621 E5.66971
G1 X93.236 Y118.011 E5.69596
G1 X92.798 Y117.353 E5.72225
G1 X92.43 Y116.655 E5.7485
G1 X92.087 Y115.784 E5.77963
G1 X91.676 Y114.522 E5.82378
G1 X91.47 Y113.76 E5.85003
G1 X91.342 Y112.981 E5.87629
G1 X91.293 Y112.193 E5.90255
G1 X91.325 Y111.404 E5.92881
G1 X91.436 Y110.622 E5.95508
G1 X91.676 Y109.692 E5.98703
G1 X92.087 Y108.43 E6.03117
G1 X92.37 Y107.692 E6.05746
G1 X92.725 Y106.987 E6.08371
G1 X93.15 Y106.321 E6.10999
G1 X93.64 Y105.702 E6.13625
G1 X94.19 Y105.135 E6.16252
G1 X94.912 Y104.54 E6.19364
G1 X95.987 Y103.757 E6.23787
G1 X96.648 Y103.325 E6.26413
G1 X97.346 Y102.964 E6.29027
G1 X97.356 Y102.378 E6.30976
G1 X97.41 Y101.59 E6.33604
G1 X97.542 Y100.811 E6.36231
G1 X97.753 Y100.05 E6.38858
G1 X98.04 Y99.315 E6.41482
G1 X98.4 Y98.612 E6.44109
G1 X98.918 Y97.827 E6.47237
G1 X99.123 Y97.554 E6.48373
G1 X99.628 Y96.948 E6.50997
G0 F6000 X99.936 Y97.204
G1 F1200 X100.488 Y96.668 E6.53556
G1 X101.092 Y96.193 E6.56111
G1 X101.743 Y95.782 E6.58672
G1 X102.087 Y95.601 E6.59965
G1 X102.233 Y95.529 E6.60506
G1 X103.185 Y95.139 E6.63928
G1 X103.403 Y95.067 E6.64692
G1 X104.145 Y94.864 E6.6725
G1 X104.904 Y94.74 E6.69808
G1 X105.672 Y94.694 E6.72367
G1 X106.683 Y94.756 E6.75736
G1 X107.249 Y94.83 E6.77635
G1 X108.006 Y94.97 E6.80195
G1 X108.744 Y95.187 E6.82754
G1 X109.455 Y95.479 E6.8531
G1 X110.225 Y95.901 E6.88231
G1 X110.397 Y96.009 E6.88906
G1 X111.026 Y96.451 E6.91463
G1 X111.606 Y96.957 E6.94023
G1 X112.131 Y97.519 E6.96581
G1 X112.594 Y98.133 E6.99139
G1 X112.991 Y98.792 E7.01698
G1 X113.317 Y99.489 E7.04257
G1 X113.51 Y100.022 E7.06142
G1 X113.589 Y100.269 E7.07005
G1 X113.785 Y101.012 E7.0956
G1 X113.875 Y101.595 E7.11523
G1 X114.347 Y101.931 E7.1345
G1 X114.923 Y102.44 E7.16006
G1 X115.444 Y103.007 E7.18567
G1 X115.902 Y103.624 E7.21123
G1 X116.295 Y104.286 E7.23684
G1 X116.32 Y104.343 E7.23891
G1 X116.575 Y104.472 E7.24841
G1 X117.222 Y104.888 E7.27399
G1 X117.574 Y105.171 E7.28902
G1 X117.698 Y105.068 E7.29438
G1 X118.337 Y104.641 E7.31994
G1 X118.786 Y104.405 E7.33681
G1 X118.819 Y104.334 E7.33941
G1 X119.211 Y103.673 E7.36498
G1 X119.67 Y103.056 E7.39055
G1 X120.191 Y102.49 E7.41614
G1 X120.767 Y101.98 E7.44173
G1 X121.395 Y101.534 E7.46735
G1 X121.488 Y101.007 E7.48514
G1 X121.682 Y100.321 E7.50886
G1 X121.767 Y100.068 E7.51773
G1 X122.05 Y99.353 E7.54331
G1 X122.405 Y98.671 E7.56888
G1 X122.829 Y98.029 E7.59447
G1 X123.318 Y97.435 E7.62006
G1 X123.865 Y96.895 E7.64563
G1 X124.771 Y96.206 E7.68348
G1 X124.94 Y96.097 E7.69017
G1 X125.607 Y95.715 E7.71574
G1 X126.311 Y95.403 E7.74135
G1 X127.156 Y95.137 E7.77081
G1 X127.176 Y95.132 E7.7715
G1 X128.24 Y94.947 E7.80742
G1 X128.794 Y94.892 E7.82594
G1 X129.562 Y94.856 E7.85151
G1 X130.33 Y94.9 E7.87709
G1 X131.089 Y95.023 E7.90267
G1 X132.177 Y95.347 E7.94042
G1 X132.461 Y95.456 E7.95054
G1 X133.163 Y95.769 E7.97611
G1 X133.83 Y96.153 E8.0017
G1 X134.279 Y96.468 E8.01995
G1 X134.498 Y96.634 E8.02909
G1 X135.086 Y97.13 E8.05467
G1 X135.619 Y97.684 E8.08024
G1 X136.092 Y98.29 E8.10581
G1 X136.5 Y98.943 E8.13142
G1 X136.935 Y99.875 E8.16563
G1 X136.99 Y100.018 E8.17072
G1 X137.228 Y100.749 E8.19629
G1 X137.389 Y101.501 E8.22187
G1 X137.472 Y102.266 E8.24747
G1 X137.483 Y102.737 E8.26314
G1 X137.468 Y104.664 E8.32723
G1 X137.996 Y105.005 E8.34814
G1 X138.801 Y105.59 E8.38123
G1 X139.399 Y106.074 E8.40682
G1 X139.944 Y106.617 E8.43241
G1 X140.429 Y107.214 E8.45799
G1 X140.849 Y107.858 E8.48356
G1 X141.2 Y108.542 E8.50913
G1 X141.414 Y109.072 E8.52815
G1 X142.221 Y111.316 E8.60746
G1 X142.444 Y112.052 E8.63304
G1 X142.588 Y112.808 E8.65864
G1 X142.623 Y113.319 E8.67567
G1 X142.642 Y113.36 E8.67717
G1 X142.931 Y114.073 E8.70276
G1 X143.145 Y114.812 E8.72835
G1 X143.281 Y115.569 E8.75393
G1 X143.338 Y116.336 E8.77951
G1 X143.322 Y116.857 E8.79685
G1 X143.397 Y117.325 E8.81261
G1 X143.439 Y118.093 E8.8382
G1 X143.401 Y118.861 E8.86377
G1 X143.277 Y119.651 E8.89037
G1 X143.188 Y120.069 E8.90458
G1 X143.217 Y120.25 E8.91068
G1 X143.259 Y121.018 E8.93626
G1 X143.221 Y121.786 E8.96184
G1 X143.034 Y122.847 E8.99767
G1 X142.958 Y123.15 E9.00806
G1 X142.982 Y123.585 E9.02255
G1 X142.944 Y124.353 E9.04813
G1 X142.824 Y125.132 E9.07434
G1 X142.701 Y125.717 E9.09422
G1 X142.71 Y126.167 E9.10919
G1 X142.685 Y126.936 E9.13478
G1 X142.581 Y127.698 E9.16036
G1 X142.348 Y128.607 E9.19157
G1 X142.014 Y129.633 E9.22746
G1 X141.738 Y130.351 E9.25305
G1 X141.389 Y131.036 E9.27862
G1 X140.971 Y131.682 E9.30421
G1 X140.488 Y132.28 E9.32977
G1 X139.946 Y132.826 E9.35536
G1 X139.332 Y133.325 E9.38168
G1 X138.457 Y133.962 E9.41768
G1 X137.813 Y134.381 E9.44323
G1 X137.128 Y134.732 E9.46883
G1 X137.057 Y134.759 E9.47136
G1 X137.013 Y135.934 E9.51046
G1 X136.975 Y136.879 E9.54192
G1 X136.904 Y137.645 E9.56751
G1 X136.754 Y138.4 E9.59311
G1 X136.616 Y138.876 E9.60959
G1 X136.541 Y139.106 E9.61764
G1 X136.265 Y139.824 E9.64322
G1 X135.916 Y140.509 E9.66879
G1 X135.498 Y141.155 E9.69439
G1 X135.015 Y141.753 E9.71995
G1 X134.472 Y142.298 E9.74554
G1 X133.876 Y142.784 E9.77112
G1 X133.232 Y143.205 E9.79671
G1 X132.802 Y143.437 E9.81296
G1 X132.599 Y143.538 E9.8205
G1 X131.894 Y143.845 E9.84608
G1 X131.16 Y144.076 E9.87167
G1 X130.407 Y144.23 E9.89723
G1 X129.545 Y144.309 E9.92602
G1 X129.484 Y144.311 E9.92805
G1 X128.715 Y144.296 E9.95363
G1 X127.952 Y144.202 E9.9792
G1 X127.344 Y144.068 E9.99991
G1 X124.604 Y143.341 E10.0942
G1 X123.464 Y143.041 E10.13341
G1 X122.732 Y142.807 E10.15897
G1 X122.027 Y142.499 E10.18455
G1 X121.359 Y142.118 E10.21013
G1 X120.615 Y141.575 E10.24077
G1 X120.384 Y141.383 E10.25076
G1 X119.819 Y140.861 E10.27634
G1 X119.311 Y140.284 E10.30191
G1 X118.866 Y139.656 E10.32751
G1 X118.488 Y138.986 E10.3531
G1 X118.182 Y138.281 E10.37866
G1 X117.873 Y137.218 E10.41548
G1 X117.834 Y137.033 E10.42177
G1 X117.805 Y136.85 E10.42793
G1 X117.529 Y137.006 E10.43847
G1 X116.823 Y137.311 E10.46405
G1 X116.449 Y137.429 E10.4771
G1 X116.255 Y138.064 E10.49918
G1 X116.167 Y138.299 E10.50753
G1 X115.86 Y139.004 E10.5331
G1 X115.482 Y139.674 E10.55869
G1 X115.036 Y140.301 E10.58428
G1 X114.528 Y140.878 E10.60985
G1 X113.962 Y141.399 E10.63543
G1 X113.345 Y141.859 E10.66103
G1 X112.347 Y142.419 E10.69909
G1 X112.049 Y142.557 E10.71002
G1 X111.335 Y142.843 E10.7356
G1 X110.655 Y143.04 E10.75915
G1 X106.841 Y143.949 E10.88955
G1 X106.084 Y144.089 E10.91516
G1 X105.317 Y144.149 E10.94075
G1 X104.548 Y144.129 E10.96633
G1 X103.786 Y144.029 E10.99189
G1 X103.131 Y143.877 E11.01426
G1 X102.938 Y143.823 E11.02092
G1 X102.209 Y143.578 E11.0465
G1 X101.51 Y143.258 E11.07207
G1 X100.847 Y142.867 E11.09767
G1 X100.229 Y142.41 E11.12324
G1 X99.661 Y141.891 E11.14883
G1 X99.15 Y141.316 E11.17441
G1 X98.702 Y140.691 E11.19999
G1 X98.429 Y140.229 E11.21784
G1 X98.297 Y139.986 E11.22704
G1 X97.966 Y139.292 E11.25261
G1 X97.708 Y138.568 E11.27817
G1 X97.602 Y138.129 E11.29319
G1 X97.392 Y138.023 E11.30102
G1 X96.714 Y137.585 E11.32786
G1 X95.796 Y136.917 E11.36562
G1 X95.198 Y136.432 E11.39123
G1 X94.654 Y135.889 E11.4168
G1 X94.17 Y135.291 E11.44239
G1 X93.75 Y134.647 E11.46796
G1 X93.399 Y133.963 E11.49353
G1 X93.114 Y133.224 E11.51987
G1 X92.763 Y132.146 E11.55758
G1 X92.563 Y131.403 E11.58317
G1 X92.441 Y130.644 E11.60874
G1 X92.399 Y129.876 E11.63432
G1 X92.437 Y129.108 E11.6599
G1 X92.554 Y128.347 E11.68551
G1 X92.763 Y127.564 E11.71246
G1 X93.114 Y126.486 E11.75017
G1 X93.389 Y125.768 E11.77574
G1 X93.738 Y125.082 E11.80134
G1 X94.156 Y124.437 E11.8269
G1 X94.639 Y123.838 E11.8525
G1 X95.182 Y123.293 E11.87808
G1 X95.796 Y122.793 E11.90442
G1 X96.714 Y122.125 E11.94218
G1 X97.359 Y121.706 E11.96776
G1 X97.419 Y121.675 E11.97001
G1 X97.433 Y120.842 E11.99772
G1 X96.903 Y120.574 E12.01747
G1 X96.222 Y120.134 E12.04444
G1 X95.147 Y119.351 E12.08867
G1 X94.55 Y118.866 E12.11426
G1 X94.006 Y118.322 E12.13984
G1 X93.522 Y117.725 E12.16541
G1 X93.102 Y117.08 E12.19101
G1 X92.751 Y116.396 E12.21658
G1 X92.468 Y115.661 E12.24277
G1 X92.057 Y114.399 E12.28692
G1 X91.857 Y113.656 E12.31251
G1 X91.735 Y112.896 E12.33811
G1 X91.693 Y112.128 E12.36369
G1 X91.731 Y111.36 E12.38927
G1 X91.848 Y110.6 E12.41484
G1 X92.057 Y109.815 E12.44186
G1 X92.468 Y108.553 E12.486
G1 X92.744 Y107.835 E12.51159
G1 X93.093 Y107.15 E12.53716
G1 X93.511 Y106.504 E12.56275
G1 X93.994 Y105.906 E12.58832
G1 X94.536 Y105.361 E12.61388
G1 X95.147 Y104.863 E12.6401
G1 X96.222 Y104.08 E12.68433
G1 X96.867 Y103.661 E12.70991
G1 X97.551 Y103.31 E12.73548
G1 X97.741 Y103.236 E12.74227
