;FLAVOR:Marlin
;TIME:4711
;Filament used: 4.60039m
;Layer height: 0.28
;MINX:78.25
;MINY:78.25
;MINZ:0.28
;MAXX:156.75
;MAXY:156.75
;MAXZ:12.88
;Generated with Cura_SteamEngine 4.7.0
M140 S65
M105
M190 S65
M104 S225
M105
M109 S225
M82 ;absolute extrusion mode
; Ender 3 Custom Start G-code
G92 E0 ; Reset Extruder
G28 ; Home all axes
G1 Z2.0 F3000 ; Move Z Axis up little to prevent scratching of Heat Bed
G1 X0.1 Y20 Z0.3 F5000.0 ; Move to start position
G1 X0.1 Y200.0 Z0.3 F1500.0 E15 ; Draw the first line
G1 X0.4 Y200.0 Z0.3 F5000.0 ; Move to side a little
G1 X0.4 Y20 Z0.3 F1500.0 E30 ; Draw the second line
G92 E0 ; Reset Extruder
G1 Z2.0 F3000 ; Move Z Axis up little to prevent scratching of Heat Bed
G1 X5 Y20 Z0.3 F5000.0 ; Move over to prevent blob squish
G92 E0
G92 E0
G1 F2700 E-5
;LAYER_COUNT:46
;LAYER:0
M107
G0 F6000 X81.439 Y81.289 Z0.28
;TYPE:SKIRT
G1 F2700 E0
G1 F1200 X82.124 Y80.673 E0.0429
G1 X82.86 Y80.12 E0.08576
G1 X83.641 Y79.632 E0.12865
G1 X84.461 Y79.214 E0.1715
G1 X85.315 Y78.869 E0.21439
G1 X86.195 Y78.599 E0.25725
G1 X87.095 Y78.407 E0.3001
G1 X88.009 Y78.293 E0.34299
G1 X88.562 Y78.263 E0.36878
G1 X88.883 Y78.254 E0.38373
G1 X89.18 Y78.25 E0.39757
G1 X145.443 Y78.25 E3.01741
G1 X146.293 Y78.261 E3.05699
G1 X147.212 Y78.314 E3.09985
G1 X148.123 Y78.447 E3.14272
G1 X149.019 Y78.658 E3.18559
G1 X149.893 Y78.946 E3.22843
G1 X150.74 Y79.309 E3.27134
G1 X151.551 Y79.744 E3.3142
G1 X152.321 Y80.248 E3.35705
G1 X153.045 Y80.817 E3.39993
G1 X153.717 Y81.447 E3.44282
G1 X154.332 Y82.132 E3.48568
G1 X154.885 Y82.868 E3.52855
G1 X155.372 Y83.649 E3.57141
G1 X155.789 Y84.47 E3.61429
G1 X156.134 Y85.324 E3.65717
G1 X156.403 Y86.204 E3.70002
G1 X156.595 Y87.105 E3.74292
G1 X156.708 Y88.018 E3.78576
G1 X156.737 Y88.562 E3.81112
G1 X156.746 Y88.882 E3.82603
G1 X156.75 Y89.18 E3.83991
G1 X156.749 Y145.545 E6.4645
G1 X156.74 Y146.272 E6.49835
G1 X156.689 Y147.191 E6.54121
G1 X156.558 Y148.103 E6.58411
G1 X156.348 Y148.999 E6.62697
G1 X156.062 Y149.874 E6.66983
G1 X155.701 Y150.721 E6.7127
G1 X155.267 Y151.533 E6.75558
G1 X154.765 Y152.305 E6.79845
G1 X154.197 Y153.03 E6.84134
G1 X153.569 Y153.703 E6.8842
G1 X152.885 Y154.319 E6.92706
G1 X152.15 Y154.873 E6.96992
G1 X151.37 Y155.362 E7.01279
G1 X150.55 Y155.781 E7.05567
G1 X149.697 Y156.127 E7.09853
G1 X148.817 Y156.398 E7.14141
G1 X147.917 Y156.591 E7.18427
G1 X147.003 Y156.706 E7.22716
G1 X146.438 Y156.737 E7.25351
G1 X146.117 Y156.746 E7.26846
G1 X145.82 Y156.75 E7.28229
G1 X89.42 Y156.749 E9.90851
G1 X88.722 Y156.74 E9.94102
G1 X87.803 Y156.688 E9.98388
G1 X86.892 Y156.557 E10.02674
G1 X85.996 Y156.347 E10.06959
G1 X85.121 Y156.06 E10.11247
G1 X84.274 Y155.698 E10.15536
G1 X83.462 Y155.264 E10.19823
G1 X82.691 Y154.762 E10.24107
G1 X81.966 Y154.194 E10.28396
G1 X81.293 Y153.565 E10.32685
G1 X80.678 Y152.881 E10.36968
G1 X80.124 Y152.146 E10.41254
G1 X79.636 Y151.365 E10.45542
G1 X79.217 Y150.545 E10.4983
G1 X78.871 Y149.692 E10.54116
G1 X78.601 Y148.812 E10.58402
G1 X78.408 Y147.911 E10.62693
G1 X78.294 Y146.998 E10.66977
G1 X78.263 Y146.427 E10.6964
G1 X78.254 Y146.094 E10.71191
G1 X78.25 Y145.808 E10.72523
G1 X78.251 Y89.381 E13.35271
G1 X78.26 Y88.716 E13.38368
G1 X78.312 Y87.796 E13.42658
G1 X78.444 Y86.885 E13.46945
G1 X78.655 Y85.989 E13.51231
G1 X78.942 Y85.114 E13.55519
G1 X79.305 Y84.268 E13.59806
G1 X79.739 Y83.456 E13.64093
G1 X80.242 Y82.685 E13.68379
G1 X80.811 Y81.961 E13.72667
G1 X81.439 Y81.289 E13.7695
G0 F6000 X81.831 Y81.467
G1 F1200 X82.512 Y80.874 E13.81155
G1 X83.244 Y80.344 E13.85363
G1 X84.019 Y79.881 E13.89566
G1 X84.832 Y79.488 E13.93771
G1 X85.677 Y79.168 E13.97979
G1 X86.546 Y78.925 E14.0218
G1 X87.434 Y78.759 E14.06387
G1 X88.573 Y78.663 E14.11709
G1 X88.894 Y78.654 E14.13205
G1 X89.18 Y78.65 E14.14536
G1 X145.443 Y78.65 E16.76521
G1 X146.287 Y78.661 E16.80451
G1 X147.189 Y78.714 E16.84658
G1 X148.082 Y78.846 E16.88862
G1 X148.96 Y79.057 E16.93066
G1 X149.816 Y79.345 E16.97272
G1 X150.643 Y79.707 E17.01475
G1 X151.435 Y80.142 E17.05683
G1 X152.186 Y80.644 E17.09889
G1 X152.889 Y81.211 E17.14095
G1 X153.539 Y81.838 E17.183
G1 X154.131 Y82.52 E17.22505
G1 X154.661 Y83.251 E17.2671
G1 X155.123 Y84.027 E17.30915
G1 X155.516 Y84.84 E17.3512
G1 X155.834 Y85.685 E17.39324
G1 X156.077 Y86.555 E17.4353
G1 X156.242 Y87.443 E17.47736
G1 X156.337 Y88.573 E17.53016
G1 X156.346 Y88.893 E17.54506
G1 X156.35 Y89.18 E17.55843
G1 X156.349 Y145.54 E20.18279
G1 X156.34 Y146.267 E20.21664
G1 X156.289 Y147.169 E20.25871
G1 X156.158 Y148.063 E20.30078
G1 X155.949 Y148.941 E20.34281
G1 X155.663 Y149.798 E20.38488
G1 X155.302 Y150.626 E20.42694
G1 X154.87 Y151.418 E20.46895
G1 X154.369 Y152.17 E20.51102
G1 X153.803 Y152.874 E20.55308
G1 X153.178 Y153.525 E20.59511
G1 X152.497 Y154.119 E20.63718
G1 X151.766 Y154.65 E20.67926
G1 X150.992 Y155.114 E20.72128
G1 X150.179 Y155.508 E20.76334
G1 X149.335 Y155.828 E20.80537
G1 X148.465 Y156.073 E20.84746
G1 X147.578 Y156.239 E20.88948
G1 X146.427 Y156.337 E20.94327
G1 X146.106 Y156.346 E20.95822
G1 X145.82 Y156.35 E20.97154
G1 X89.425 Y156.349 E23.59753
G1 X88.727 Y156.34 E23.63003
G1 X87.826 Y156.289 E23.67205
G1 X86.932 Y156.157 E23.71413
G1 X86.054 Y155.948 E23.75616
G1 X85.197 Y155.661 E23.79824
G1 X84.37 Y155.3 E23.84026
G1 X83.577 Y154.867 E23.88233
G1 X82.826 Y154.366 E23.92437
G1 X82.122 Y153.8 E23.96643
G1 X81.471 Y153.174 E24.00849
G1 X80.878 Y152.493 E24.05053
G1 X80.348 Y151.762 E24.09258
G1 X79.884 Y150.987 E24.13464
G1 X79.49 Y150.174 E24.17671
G1 X79.17 Y149.33 E24.21874
G1 X78.926 Y148.46 E24.26081
G1 X78.76 Y147.572 E24.30288
G1 X78.663 Y146.417 E24.35685
G1 X78.654 Y146.084 E24.37236
G1 X78.65 Y145.808 E24.38521
G1 X78.651 Y89.386 E27.01246
G1 X78.66 Y88.721 E27.04342
G1 X78.712 Y87.819 E27.08549
G1 X78.844 Y86.926 E27.12753
G1 X79.054 Y86.048 E27.16956
G1 X79.341 Y85.191 E27.21165
G1 X79.703 Y84.364 E27.25368
G1 X80.136 Y83.572 E27.29571
G1 X80.638 Y82.821 E27.33778
G1 X81.205 Y82.117 E27.37987
G1 X81.831 Y81.467 E27.42189
G1 F2700 E22.42189
;MESH:drill_jig_v3.stl
G0 F6000 X133.514 Y100.335
G0 X132.154 Y99.807
G0 X132.276 Y100.053
;TYPE:WALL-INNER
G1 F2700 E27.42189
G1 F1200 X132.259 Y100.088 E27.4237
G1 X132.199 Y100.397 E27.43836
G1 X132.182 Y100.667 E27.45096
G1 X132.199 Y100.936 E27.46351
G1 X132.249 Y101.199 E27.47597
G1 X132.329 Y101.45 E27.48824
G1 X132.448 Y101.702 E27.50122
G1 X132.592 Y101.931 E27.51381
G1 X132.77 Y102.146 E27.52681
G1 X132.968 Y102.329 E27.53936
G1 X133.187 Y102.487 E27.55194
G1 X133.424 Y102.616 E27.5645
G1 X133.676 Y102.715 E27.57711
G1 X133.937 Y102.781 E27.58965
G1 X134.205 Y102.814 E27.60222
G1 X134.475 Y102.813 E27.61479
G1 X134.744 Y102.778 E27.62742
G1 X135.006 Y102.709 E27.64004
G1 X135.256 Y102.609 E27.65258
G1 X135.492 Y102.479 E27.66512
G1 X135.709 Y102.319 E27.67768
G1 X135.901 Y102.14 E27.6899
G1 X136.073 Y101.932 E27.70247
G1 X136.22 Y101.701 E27.71522
G1 X136.333 Y101.458 E27.7277
G1 X136.417 Y101.202 E27.74024
G1 X136.468 Y100.935 E27.7529
G1 X136.484 Y100.667 E27.7654
G1 X136.468 Y100.398 E27.77795
G1 X136.417 Y100.131 E27.79061
G1 X136.333 Y99.875 E27.80315
G1 X136.219 Y99.63 E27.81573
G1 X136.072 Y99.401 E27.82841
G1 X135.897 Y99.19 E27.84117
G1 X135.699 Y99.005 E27.85379
G1 X135.48 Y98.846 E27.86639
G1 X135.242 Y98.717 E27.87899
G1 X134.991 Y98.618 E27.89156
G1 X134.729 Y98.552 E27.90414
G1 X134.46 Y98.52 E27.91675
G1 X134.192 Y98.521 E27.92923
G1 X133.924 Y98.554 E27.94181
G1 X133.66 Y98.623 E27.95451
G1 X133.41 Y98.724 E27.96707
G1 X133.175 Y98.854 E27.97957
G1 X132.957 Y99.014 E27.99216
G1 X132.765 Y99.195 E28.00445
G1 X132.593 Y99.402 E28.01698
G1 X132.448 Y99.63 E28.02956
G1 X132.332 Y99.877 E28.04227
G1 X132.276 Y100.053 E28.05087
G0 F6000 X132.647 Y100.205
;TYPE:WALL-OUTER
G1 F1200 X132.641 Y100.217 E28.0515
G1 X132.597 Y100.447 E28.0624
G1 X132.583 Y100.667 E28.07267
G1 X132.597 Y100.886 E28.08288
G1 X132.638 Y101.101 E28.09308
G1 X132.702 Y101.304 E28.10299
G1 X132.799 Y101.509 E28.11355
G1 X132.917 Y101.696 E28.12384
G1 X133.061 Y101.87 E28.13436
G1 X133.222 Y102.019 E28.14457
G1 X133.401 Y102.148 E28.15485
G1 X133.593 Y102.253 E28.16504
G1 X133.798 Y102.333 E28.17528
G1 X134.011 Y102.387 E28.18552
G1 X134.229 Y102.414 E28.19575
G1 X134.449 Y102.413 E28.20599
G1 X134.667 Y102.385 E28.21622
G1 X134.88 Y102.329 E28.22648
G1 X135.084 Y102.247 E28.23672
G1 X135.276 Y102.141 E28.24693
G1 X135.453 Y102.011 E28.25716
G1 X135.609 Y101.865 E28.2671
G1 X135.749 Y101.696 E28.27732
G1 X135.868 Y101.509 E28.28764
G1 X135.96 Y101.311 E28.29781
G1 X136.029 Y101.102 E28.30806
G1 X136.07 Y100.886 E28.3183
G1 X136.083 Y100.667 E28.32851
G1 X136.07 Y100.447 E28.33877
G1 X136.029 Y100.231 E28.34901
G1 X135.96 Y100.022 E28.35926
G1 X135.868 Y99.823 E28.36947
G1 X135.749 Y99.638 E28.37971
G1 X135.605 Y99.465 E28.39019
G1 X135.444 Y99.314 E28.40047
G1 X135.266 Y99.185 E28.41071
G1 X135.073 Y99.08 E28.42094
G1 X134.868 Y99 E28.43118
G1 X134.656 Y98.946 E28.44137
G1 X134.437 Y98.92 E28.45164
G1 X134.218 Y98.921 E28.46184
G1 X134 Y98.948 E28.47207
G1 X133.786 Y99.004 E28.48237
G1 X133.582 Y99.086 E28.4926
G1 X133.391 Y99.192 E28.50278
G1 X133.213 Y99.322 E28.51304
G1 X133.057 Y99.469 E28.52302
G1 X132.917 Y99.638 E28.53324
G1 X132.799 Y99.823 E28.54346
G1 X132.705 Y100.023 E28.55375
G1 X132.647 Y100.205 E28.56264
G0 F6000 X132.24 Y100.039
G1 F2700 E23.56264
G0 F6000 X131.992 Y100.667
G0 X133.45 Y100.667
G0 X101.55 Y100.667
G0 X103.008 Y100.667
G0 X102.724 Y101.279
;TYPE:WALL-INNER
G1 F2700 E28.56264
G1 F1200 X102.741 Y101.245 E28.56441
G1 X102.801 Y100.937 E28.57902
G1 X102.818 Y100.667 E28.59162
G1 X102.801 Y100.397 E28.60422
G1 X102.751 Y100.134 E28.61668
G1 X102.671 Y99.883 E28.62895
G1 X102.552 Y99.629 E28.64201
G1 X102.407 Y99.402 E28.65455
G1 X102.231 Y99.19 E28.66738
G1 X102.033 Y99.005 E28.68
G1 X101.813 Y98.846 E28.69264
G1 X101.576 Y98.717 E28.70521
G1 X101.324 Y98.618 E28.71781
G1 X101.062 Y98.552 E28.73039
G1 X100.793 Y98.52 E28.74301
G1 X100.525 Y98.521 E28.75549
G1 X100.257 Y98.554 E28.76806
G1 X99.994 Y98.624 E28.78073
G1 X99.744 Y98.724 E28.79327
G1 X99.508 Y98.854 E28.80582
G1 X99.29 Y99.014 E28.81841
G1 X99.099 Y99.195 E28.83066
G1 X98.928 Y99.401 E28.84313
G1 X98.781 Y99.63 E28.8558
G1 X98.667 Y99.875 E28.86838
G1 X98.583 Y100.131 E28.88093
G1 X98.532 Y100.398 E28.89359
G1 X98.516 Y100.667 E28.90613
G1 X98.532 Y100.935 E28.91863
G1 X98.583 Y101.202 E28.93129
G1 X98.667 Y101.458 E28.94384
G1 X98.78 Y101.701 E28.95632
G1 X98.927 Y101.932 E28.96907
G1 X99.104 Y102.146 E28.982
G1 X99.302 Y102.329 E28.99455
G1 X99.52 Y102.487 E29.00709
G1 X99.758 Y102.616 E29.01969
G1 X100.009 Y102.715 E29.03226
G1 X100.27 Y102.781 E29.04479
G1 X100.538 Y102.814 E29.05737
G1 X100.808 Y102.813 E29.06994
G1 X101.076 Y102.778 E29.08253
G1 X101.34 Y102.71 E29.09522
G1 X101.59 Y102.609 E29.10777
G1 X101.825 Y102.479 E29.12028
G1 X102.043 Y102.32 E29.13284
G1 X102.235 Y102.14 E29.1451
G1 X102.408 Y101.931 E29.15773
G1 X102.552 Y101.702 E29.17033
G1 X102.668 Y101.457 E29.18295
G1 X102.724 Y101.279 E29.19164
G0 F6000 X102.353 Y101.128
;TYPE:WALL-OUTER
G1 F1200 X102.359 Y101.116 E29.19226
G1 X102.403 Y100.886 E29.20317
G1 X102.417 Y100.667 E29.21339
G1 X102.403 Y100.447 E29.22365
G1 X102.362 Y100.232 E29.23384
G1 X102.298 Y100.029 E29.24375
G1 X102.201 Y99.823 E29.25436
G1 X102.083 Y99.638 E29.26457
G1 X101.939 Y99.465 E29.27506
G1 X101.778 Y99.314 E29.28533
G1 X101.599 Y99.185 E29.29561
G1 X101.407 Y99.08 E29.3058
G1 X101.202 Y99 E29.31604
G1 X100.989 Y98.946 E29.32628
G1 X100.77 Y98.92 E29.33655
G1 X100.551 Y98.921 E29.34674
G1 X100.333 Y98.948 E29.35697
G1 X100.12 Y99.004 E29.36723
G1 X99.916 Y99.086 E29.37746
G1 X99.724 Y99.192 E29.38768
G1 X99.547 Y99.322 E29.3979
G1 X99.391 Y99.469 E29.40788
G1 X99.251 Y99.638 E29.4181
G1 X99.132 Y99.823 E29.42835
G1 X99.04 Y100.022 E29.43855
G1 X98.971 Y100.231 E29.4488
G1 X98.93 Y100.447 E29.45904
G1 X98.917 Y100.667 E29.4693
G1 X98.93 Y100.886 E29.47952
G1 X98.971 Y101.102 E29.48975
G1 X99.04 Y101.311 E29.5
G1 X99.132 Y101.509 E29.51017
G1 X99.251 Y101.696 E29.52049
G1 X99.395 Y101.87 E29.53101
G1 X99.556 Y102.019 E29.54122
G1 X99.734 Y102.148 E29.55146
G1 X99.927 Y102.253 E29.56169
G1 X100.132 Y102.333 E29.57194
G1 X100.344 Y102.387 E29.58212
G1 X100.562 Y102.414 E29.59235
G1 X100.782 Y102.413 E29.6026
G1 X101 Y102.385 E29.61283
G1 X101.214 Y102.329 E29.62313
G1 X101.418 Y102.247 E29.63337
G1 X101.609 Y102.141 E29.64354
G1 X101.787 Y102.011 E29.6538
G1 X101.943 Y101.865 E29.66375
G1 X102.083 Y101.696 E29.67397
G1 X102.201 Y101.509 E29.68427
G1 X102.295 Y101.31 E29.69452
G1 X102.353 Y101.128 E29.70341
G0 F6000 X102.76 Y101.294
G1 F2700 E24.70341
G0 F6000 X102.374 Y102.271
G0 X101.231 Y101.347
G0 X101.226 Y133.648
G0 X102.369 Y132.722
G0 X102.522 Y133.493
G0 X102.724 Y134.947
;TYPE:WALL-INNER
G1 F2700 E29.70341
G1 F1200 X102.741 Y134.912 E29.70522
G1 X102.801 Y134.603 E29.71988
G1 X102.818 Y134.333 E29.73248
G1 X102.801 Y134.064 E29.74503
G1 X102.751 Y133.801 E29.75749
G1 X102.671 Y133.55 E29.76976
G1 X102.552 Y133.298 E29.78274
G1 X102.408 Y133.069 E29.79533
G1 X102.23 Y132.854 E29.80833
G1 X102.032 Y132.671 E29.82088
G1 X101.813 Y132.513 E29.83346
G1 X101.576 Y132.384 E29.84602
G1 X101.324 Y132.285 E29.85863
G1 X101.063 Y132.219 E29.87117
G1 X100.795 Y132.186 E29.88374
G1 X100.525 Y132.187 E29.89631
G1 X100.256 Y132.222 E29.90894
G1 X99.994 Y132.291 E29.92156
G1 X99.744 Y132.391 E29.9341
G1 X99.508 Y132.521 E29.94664
G1 X99.291 Y132.681 E29.9592
G1 X99.099 Y132.86 E29.97142
G1 X98.927 Y133.068 E29.98399
G1 X98.78 Y133.299 E29.99674
G1 X98.667 Y133.542 E30.00922
G1 X98.583 Y133.798 E30.02176
G1 X98.532 Y134.065 E30.03442
G1 X98.516 Y134.333 E30.04692
G1 X98.532 Y134.602 E30.05947
G1 X98.583 Y134.869 E30.07213
G1 X98.667 Y135.125 E30.08467
G1 X98.781 Y135.37 E30.09725
G1 X98.928 Y135.599 E30.10993
G1 X99.103 Y135.81 E30.12269
G1 X99.301 Y135.995 E30.13531
G1 X99.52 Y136.154 E30.14791
G1 X99.758 Y136.283 E30.16052
G1 X100.009 Y136.382 E30.17308
G1 X100.271 Y136.448 E30.18566
G1 X100.54 Y136.48 E30.19827
G1 X100.808 Y136.479 E30.21075
G1 X101.076 Y136.446 E30.22333
G1 X101.34 Y136.377 E30.23603
G1 X101.59 Y136.276 E30.24859
G1 X101.825 Y136.146 E30.26109
G1 X102.043 Y135.986 E30.27368
G1 X102.235 Y135.805 E30.28597
G1 X102.407 Y135.598 E30.2985
G1 X102.552 Y135.37 E30.31109
G1 X102.668 Y135.123 E30.32379
G1 X102.724 Y134.947 E30.33239
G0 F6000 X102.353 Y134.795
;TYPE:WALL-OUTER
G1 F1200 X102.359 Y134.783 E30.33302
G1 X102.403 Y134.553 E30.34392
G1 X102.417 Y134.333 E30.35419
G1 X102.403 Y134.114 E30.3644
G1 X102.362 Y133.899 E30.3746
G1 X102.298 Y133.696 E30.38451
G1 X102.201 Y133.491 E30.39507
G1 X102.083 Y133.304 E30.40536
G1 X101.939 Y133.13 E30.41588
G1 X101.778 Y132.981 E30.42609
G1 X101.599 Y132.852 E30.43637
G1 X101.407 Y132.747 E30.44656
G1 X101.202 Y132.667 E30.45681
G1 X100.989 Y132.613 E30.46704
G1 X100.771 Y132.586 E30.47727
G1 X100.551 Y132.587 E30.48751
G1 X100.333 Y132.615 E30.49774
G1 X100.12 Y132.671 E30.508
G1 X99.916 Y132.753 E30.51824
G1 X99.724 Y132.859 E30.52845
G1 X99.547 Y132.989 E30.53868
G1 X99.391 Y133.135 E30.54862
G1 X99.251 Y133.304 E30.55884
G1 X99.132 Y133.491 E30.56916
G1 X99.04 Y133.689 E30.57933
G1 X98.971 Y133.898 E30.58958
G1 X98.93 Y134.114 E30.59982
G1 X98.917 Y134.333 E30.61003
G1 X98.93 Y134.553 E30.62029
G1 X98.971 Y134.769 E30.63053
G1 X99.04 Y134.978 E30.64078
G1 X99.132 Y135.177 E30.65099
G1 X99.251 Y135.362 E30.66123
G1 X99.395 Y135.535 E30.67171
G1 X99.556 Y135.686 E30.68199
G1 X99.734 Y135.815 E30.69223
G1 X99.927 Y135.92 E30.70246
G1 X100.132 Y136 E30.7127
G1 X100.344 Y136.054 E30.72289
G1 X100.563 Y136.08 E30.73316
G1 X100.782 Y136.079 E30.74336
G1 X101 Y136.052 E30.75359
G1 X101.214 Y135.996 E30.76389
G1 X101.418 Y135.914 E30.77413
G1 X101.609 Y135.808 E30.7843
G1 X101.787 Y135.678 E30.79456
G1 X101.943 Y135.531 E30.80454
G1 X102.083 Y135.362 E30.81476
G1 X102.201 Y135.177 E30.82498
G1 X102.295 Y134.977 E30.83527
G1 X102.353 Y134.795 E30.84416
G0 F6000 X102.76 Y134.961
G1 F2700 E25.84416
G0 F6000 X103.008 Y134.333
G0 X101.55 Y134.333
G0 X133.45 Y134.333
