;FLAVOR:Marlin
;TIME:7026
;Filament used: 5.49294m
;Layer height: 0.28
;MINX:85.613
;MINY:50.251
;MINZ:0.28
;MAXX:208.733
;MAXY:159.75
;MAXZ:9.8
;Generated with Cura_SteamEngine 4.6.1
M140 S60
M105
M190 S60
M104 S210
M105
M109 S210
M82 ;absolute extrusion mode
; Ender 3 Custom Start G-code
G92 E0 ; Reset Extruder
G28 ; Home all axes
G1 Z2.0 F3000 ; Move Z Axis up little to prevent scratching of Heat Bed
G1 X0.1 Y20 Z0.3 F5000.0 ; Move to start position
G1 X0.1 Y200.0 Z0.3 F1500.0 E15 ; Draw the first line
G1 X0.4 Y200.0 Z0.3 F5000.0 ; Move to side a little
G1 X0.4 Y20 Z0.3 F1500.0 E30 ; Draw the second line
G92 E0 ; Reset Extruder
G1 Z2.0 F3000 ; Move Z Axis up little to prevent scratching of Heat Bed
G1 X5 Y20 Z0.3 F5000.0 ; Move over to prevent blob squish
G92 E0
G92 E0
G1 F2700 E-5
;LAYER_COUNT:35
;LAYER:0
M107
G0 F6000 X150.97 Y51.06 Z0.28
;TYPE:SKIRT
G1 F2700 E0
G1 F1200 X151.587 Y51.087 E0.02876
G1 X152.002 Y51.118 E0.04814
G1 X152.899 Y51.225 E0.0902
G1 X153.576 Y51.361 E0.12235
G1 X153.878 Y51.432 E0.1368
G1 X154.747 Y51.677 E0.17884
G1 X155.224 Y51.848 E0.20244
G1 X155.679 Y52.024 E0.22515
G1 X156.506 Y52.387 E0.26721
G1 X157.305 Y52.826 E0.30966
G1 X157.612 Y53.013 E0.3264
G1 X158.362 Y53.516 E0.36845
G1 X158.756 Y53.822 E0.39168
G1 X159.001 Y54.022 E0.4064
G1 X159.675 Y54.624 E0.44848
G1 X160.126 Y55.093 E0.47878
G1 X160.466 Y55.47 E0.50242
G1 X161.04 Y56.167 E0.54446
G1 X161.536 Y56.887 E0.58518
G1 X161.722 Y57.184 E0.60149
G1 X162.167 Y57.97 E0.64355
G1 X162.419 Y58.504 E0.67105
G1 X162.575 Y58.86 E0.68915
G1 X162.867 Y59.604 E0.72636
G1 X163.025 Y60.061 E0.74888
G1 X163.68 Y62.048 E0.8463
G1 X164.532 Y64.403 E0.96291
G1 X165.465 Y66.772 E1.08147
G1 X166.469 Y69.124 E1.20055
G1 X167.524 Y71.413 E1.31791
G1 X168.657 Y73.699 E1.43671
G1 X169.847 Y75.939 E1.55482
G1 X171.1 Y78.144 E1.67292
G1 X172.419 Y80.321 E1.79144
G1 X173.797 Y82.456 E1.90976
G1 X175.232 Y84.546 E2.02781
G1 X176.732 Y86.605 E2.14643
G1 X178.286 Y88.616 E2.26478
G1 X179.88 Y90.56 E2.38184
G1 X181.573 Y92.512 E2.50215
G1 X183.253 Y94.342 E2.61783
G1 X185.061 Y96.201 E2.73858
G1 X186.861 Y97.952 E2.85551
G1 X188.734 Y99.671 E2.97389
G1 X190.673 Y101.353 E3.09341
G1 X192.608 Y102.939 E3.20991
G1 X194.633 Y104.504 E3.32908
G1 X196.675 Y105.994 E3.44679
G1 X198.76 Y107.424 E3.56452
G1 X200.949 Y108.838 E3.68586
G1 X202.098 Y109.543 E3.74863
G1 X202.708 Y109.948 E3.78273
G1 X202.913 Y110.095 E3.79447
G1 X203.738 Y110.754 E3.84364
G1 X203.933 Y110.927 E3.85578
G1 X204.582 Y111.556 E3.89786
G1 X204.961 Y111.981 E3.92438
G1 X205.155 Y112.211 E3.93839
G1 X205.706 Y112.926 E3.98042
G1 X206.102 Y113.535 E4.01425
G1 X206.281 Y113.833 E4.03043
G1 X206.711 Y114.627 E4.07248
G1 X207.028 Y115.348 E4.10915
G1 X207.128 Y115.602 E4.12186
G1 X207.421 Y116.457 E4.16395
G1 X207.54 Y116.897 E4.18517
G1 X207.612 Y117.189 E4.19918
G1 X207.79 Y118.075 E4.24126
G1 X207.869 Y118.729 E4.27193
G1 X207.91 Y119.226 E4.29515
G1 X207.932 Y120.175 E4.33935
G1 X207.871 Y121.076 E4.3814
G1 X207.731 Y121.968 E4.42345
G1 X207.512 Y122.844 E4.46549
G1 X207.216 Y123.698 E4.50758
G1 X206.846 Y124.522 E4.54964
G1 X206.405 Y125.31 E4.59169
G1 X205.895 Y126.055 E4.63373
G1 X205.322 Y126.753 E4.67578
G1 X204.689 Y127.398 E4.71786
G1 X204.06 Y127.938 E4.75646
G1 X203.192 Y128.624 E4.80798
G1 X201.188 Y130.254 E4.92826
G1 X199.235 Y131.939 E5.04837
G1 X197.874 Y133.169 E5.13379
G1 X197.242 Y133.752 E5.17383
G1 X196.552 Y134.335 E5.21589
G1 X195.812 Y134.853 E5.25795
G1 X195.03 Y135.305 E5.30001
G1 X194.211 Y135.685 E5.34205
G1 X193.553 Y135.931 E5.37476
G1 X192.306 Y136.345 E5.43594
G1 X191.934 Y136.462 E5.4541
G1 X189.549 Y137.291 E5.57168
G1 X187.171 Y138.193 E5.6901
G1 X184.809 Y139.168 E5.80909
G1 X182.486 Y140.204 E5.92753
G1 X180.206 Y141.298 E6.04528
G1 X177.979 Y142.447 E6.16197
G1 X175.715 Y143.695 E6.28235
G1 X173.539 Y144.978 E6.39997
G1 X171.401 Y146.321 E6.51754
G1 X169.291 Y147.731 E6.63571
G1 X167.203 Y149.212 E6.75491
G1 X165.159 Y150.752 E6.87407
G1 X163.198 Y152.319 E6.99096
G1 X161.248 Y153.969 E7.1099
G1 X159.906 Y155.161 E7.19348
G1 X159.189 Y155.811 E7.23855
G1 X158.494 Y156.387 E7.28058
G1 X157.693 Y156.935 E7.32577
G1 X157.372 Y157.133 E7.34333
G1 X156.583 Y157.573 E7.3854
G1 X156.047 Y157.822 E7.41292
G1 X155.775 Y157.939 E7.4267
G1 X154.931 Y158.259 E7.46873
G1 X154.447 Y158.405 E7.49227
G1 X154.032 Y158.519 E7.51231
G1 X153.151 Y158.719 E7.55438
G1 X152.487 Y158.817 E7.58563
G1 X152.084 Y158.863 E7.60452
G1 X151.122 Y158.927 E7.64942
G1 X149.986 Y158.947 E7.70232
G1 X131.048 Y158.95 E8.58415
G1 X130.124 Y158.933 E8.62719
G1 X128.777 Y158.876 E8.68996
G1 X126.166 Y158.802 E8.81159
G1 X123.668 Y158.802 E8.92791
G1 X119.964 Y158.922 E9.10047
G1 X118.592 Y158.947 E9.16437
G1 X99.673 Y158.95 E10.04532
G1 X99.031 Y158.941 E10.07522
G1 X98.403 Y158.913 E10.10449
G1 X97.994 Y158.882 E10.12359
G1 X97.097 Y158.774 E10.16566
G1 X96.46 Y158.647 E10.1959
G1 X96.154 Y158.576 E10.21053
G1 X95.284 Y158.333 E10.25259
G1 X94.779 Y158.153 E10.27755
G1 X94.399 Y158.006 E10.29653
G1 X93.572 Y157.643 E10.33858
G1 X92.998 Y157.337 E10.36887
G1 X92.575 Y157.094 E10.39158
G1 X91.813 Y156.61 E10.43362
G1 X91.086 Y156.052 E10.47629
G1 X90.877 Y155.876 E10.48902
G1 X90.212 Y155.264 E10.5311
G1 X89.88 Y154.913 E10.5536
G1 X89.542 Y154.539 E10.57707
G1 X88.966 Y153.843 E10.61914
G1 X88.431 Y153.059 E10.66333
G1 X88.234 Y152.74 E10.68079
G1 X87.793 Y151.952 E10.72284
G1 X87.556 Y151.444 E10.74894
G1 X87.437 Y151.17 E10.76285
G1 X87.115 Y150.327 E10.80487
G1 X86.953 Y149.793 E10.83085
G1 X86.84 Y149.379 E10.85084
G1 X86.641 Y148.498 E10.89289
G1 X86.546 Y147.855 E10.92316
G1 X86.5 Y147.454 E10.94195
G1 X86.436 Y146.485 E10.98717
G1 X86.416 Y145.346 E11.04022
G1 X86.413 Y139.121 E11.33008
G1 X86.431 Y138.165 E11.3746
G1 X86.491 Y136.734 E11.4413
G1 X86.556 Y134.612 E11.54015
G1 X86.566 Y132.074 E11.65833
G1 X86.442 Y128.01 E11.84766
G1 X86.416 Y126.627 E11.91207
G1 X86.413 Y120.42 E12.20109
G1 X86.431 Y119.464 E12.24561
G1 X86.489 Y118.075 E12.31035
G1 X86.553 Y116.074 E12.40357
G1 X86.568 Y113.5 E12.52343
G1 X86.512 Y110.97 E12.64126
G1 X86.438 Y109.215 E12.72306
G1 X86.416 Y107.945 E12.7822
G1 X86.413 Y101.72 E13.07207
G1 X86.431 Y100.764 E13.11659
G1 X86.488 Y99.41 E13.17969
G1 X86.553 Y97.374 E13.27455
G1 X86.568 Y94.8 E13.3944
G1 X86.512 Y92.27 E13.51224
G1 X86.438 Y90.515 E13.59403
G1 X86.416 Y89.245 E13.65318
G1 X86.413 Y83.02 E13.94304
G1 X86.431 Y82.064 E13.98756
G1 X86.488 Y80.71 E14.05067
G1 X86.553 Y78.674 E14.14552
G1 X86.568 Y76.067 E14.26691
G1 X86.512 Y73.569 E14.38326
G1 X86.438 Y71.815 E14.46501
G1 X86.416 Y70.545 E14.52415
G1 X86.413 Y64.32 E14.81402
G1 X86.423 Y63.641 E14.84564
G1 X86.451 Y63.022 E14.87449
G1 X86.481 Y62.625 E14.89303
G1 X86.589 Y61.729 E14.93505
G1 X86.737 Y61.002 E14.9696
G1 X86.813 Y60.687 E14.98469
G1 X87.214 Y59.402 E15.04737
G1 X87.379 Y58.975 E15.06868
G1 X87.741 Y58.148 E15.11072
G1 X88.151 Y57.396 E15.1506
G1 X88.35 Y57.065 E15.16858
G1 X88.849 Y56.313 E15.21061
G1 X89.256 Y55.791 E15.24143
G1 X89.451 Y55.557 E15.25561
G1 X90.059 Y54.89 E15.29764
G1 X90.457 Y54.511 E15.32323
G1 X90.772 Y54.227 E15.34298
G1 X91.469 Y53.653 E15.38502
G1 X91.978 Y53.293 E15.41405
G1 X92.379 Y53.028 E15.43643
G1 X93.154 Y52.564 E15.4785
G1 X94.017 Y52.149 E15.52309
G1 X94.269 Y52.042 E15.53583
G1 X95.542 Y51.598 E15.59861
G1 X96.024 Y51.465 E15.62189
G1 X96.904 Y51.264 E15.66393
G1 X97.785 Y51.143 E15.70533
G1 X98.073 Y51.116 E15.7188
G1 X98.847 Y51.073 E15.7549
G1 X99.996 Y51.054 E15.80841
G1 X118.953 Y51.051 E16.69113
G1 X119.873 Y51.068 E16.73397
G1 X121.228 Y51.125 E16.79712
G1 X123.833 Y51.198 E16.91847
G1 X126.354 Y51.198 E17.03586
G1 X130.141 Y51.074 E17.21229
G1 X131.345 Y51.054 E17.26836
G1 X150.327 Y51.051 E18.15224
G1 X150.97 Y51.06 E18.18219
G0 F6000 X150.975 Y50.66
G1 F1200 X151.617 Y50.688 E18.21211
G1 X152.032 Y50.719 E18.23149
G1 X152.946 Y50.828 E18.27435
G1 X153.668 Y50.971 E18.30862
G1 X153.97 Y51.042 E18.32307
G1 X154.856 Y51.292 E18.36594
G1 X155.368 Y51.475 E18.39125
G1 X155.823 Y51.651 E18.41397
G1 X156.667 Y52.02 E18.45686
G1 X157.513 Y52.484 E18.50179
G1 X157.82 Y52.671 E18.51853
G1 X158.585 Y53.184 E18.56142
G1 X159.009 Y53.513 E18.58641
G1 X159.254 Y53.713 E18.60114
G1 X159.941 Y54.325 E18.64398
G1 X160.423 Y54.825 E18.67632
G1 X160.763 Y55.202 E18.69996
G1 X161.349 Y55.912 E18.74282
G1 X161.875 Y56.675 E18.78597
G1 X162.061 Y56.972 E18.80229
G1 X162.515 Y57.773 E18.84516
G1 X162.786 Y58.344 E18.8746
G1 X162.942 Y58.7 E18.89269
G1 X163.245 Y59.473 E18.93135
G1 X163.405 Y59.936 E18.95416
G1 X164.061 Y61.924 E19.05164
G1 X164.904 Y64.257 E19.16715
G1 X165.834 Y66.617 E19.28527
G1 X166.83 Y68.949 E19.40335
G1 X167.902 Y71.276 E19.52265
G1 X169.003 Y73.498 E19.63812
G1 X170.204 Y75.759 E19.75733
G1 X171.44 Y77.934 E19.87382
G1 X172.754 Y80.102 E19.99186
G1 X174.13 Y82.235 E20.11006
G1 X175.558 Y84.313 E20.22746
G1 X177.055 Y86.37 E20.34593
G1 X178.58 Y88.341 E20.46197
G1 X180.208 Y90.328 E20.58158
G1 X181.854 Y92.225 E20.69853
G1 X183.551 Y94.075 E20.81542
G1 X185.344 Y95.917 E20.93512
G1 X187.145 Y97.669 E21.05212
G1 X189.003 Y99.375 E21.16957
G1 X190.905 Y101.025 E21.28682
G1 X192.882 Y102.646 E21.40586
G1 X194.845 Y104.163 E21.52138
G1 X196.931 Y105.684 E21.6416
G1 X198.982 Y107.091 E21.75741
G1 X201.144 Y108.488 E21.87727
G1 X202.308 Y109.202 E21.94086
G1 X202.941 Y109.623 E21.97625
G1 X203.146 Y109.77 E21.988
G1 X204.004 Y110.455 E22.03912
G1 X204.199 Y110.628 E22.05126
G1 X204.86 Y111.268 E22.0941
G1 X205.267 Y111.723 E22.12253
G1 X205.461 Y111.953 E22.13654
G1 X206.023 Y112.682 E22.1794
G1 X206.445 Y113.329 E22.21537
G1 X206.624 Y113.627 E22.23156
G1 X207.063 Y114.436 E22.27442
G1 X207.4 Y115.202 E22.31338
G1 X207.5 Y115.456 E22.3261
G1 X207.8 Y116.326 E22.36895
G1 X207.929 Y116.801 E22.39187
G1 X208.001 Y117.093 E22.40587
G1 X208.182 Y117.996 E22.44875
G1 X208.267 Y118.693 E22.48145
G1 X208.31 Y119.2 E22.50514
G1 X208.332 Y120.167 E22.55018
G1 X208.273 Y121.085 E22.59302
G1 X208.133 Y121.995 E22.63589
G1 X207.915 Y122.89 E22.67878
G1 X207.62 Y123.762 E22.72165
G1 X207.251 Y124.605 E22.7645
G1 X206.81 Y125.413 E22.80736
G1 X206.301 Y126.18 E22.85022
G1 X205.726 Y126.9 E22.89313
G1 X205.092 Y127.567 E22.93598
G1 X204.308 Y128.252 E22.98446
G1 X203.443 Y128.935 E23.03578
G1 X201.419 Y130.583 E23.15731
G1 X199.503 Y132.234 E23.27508
G1 X198.193 Y133.419 E23.35733
G1 X197.513 Y134.046 E23.4004
G1 X196.81 Y134.64 E23.44326
G1 X196.058 Y135.171 E23.48613
G1 X195.262 Y135.635 E23.52903
G1 X194.43 Y136.028 E23.57187
G1 X193.679 Y136.31 E23.60923
G1 X192.427 Y136.726 E23.67066
G1 X192.082 Y136.835 E23.68751
G1 X189.674 Y137.671 E23.8062
G1 X187.287 Y138.578 E23.9251
G1 X184.988 Y139.526 E24.0409
G1 X182.673 Y140.559 E24.15894
G1 X180.398 Y141.65 E24.27642
G1 X178.134 Y142.818 E24.39505
G1 X175.932 Y144.032 E24.51213
G1 X173.749 Y145.319 E24.63013
G1 X171.589 Y146.675 E24.74889
G1 X169.522 Y148.057 E24.86467
G1 X167.446 Y149.53 E24.98319
G1 X165.426 Y151.052 E25.10096
G1 X163.44 Y152.638 E25.21931
G1 X161.512 Y154.269 E25.3369
G1 X160.157 Y155.473 E25.42131
G1 X159.458 Y156.107 E25.46525
G1 X158.75 Y156.695 E25.5081
G1 X157.903 Y157.276 E25.55593
G1 X157.582 Y157.474 E25.57349
G1 X156.778 Y157.923 E25.61637
G1 X156.206 Y158.189 E25.64574
G1 X155.934 Y158.306 E25.65953
G1 X155.073 Y158.633 E25.70242
G1 X154.553 Y158.79 E25.72771
G1 X154.138 Y158.904 E25.74775
G1 X153.24 Y159.109 E25.79064
G1 X152.532 Y159.215 E25.82398
G1 X152.129 Y159.261 E25.84286
G1 X151.129 Y159.327 E25.88953
G1 X149.986 Y159.347 E25.94276
G1 X131.042 Y159.35 E26.82487
G1 X130.107 Y159.332 E26.86842
G1 X128.818 Y159.277 E26.92849
G1 X126.155 Y159.202 E27.05254
G1 X123.651 Y159.202 E27.16914
G1 X119.972 Y159.322 E27.34054
G1 X118.592 Y159.347 E27.40481
G1 X99.667 Y159.35 E28.28604
G1 X99.025 Y159.341 E28.31593
G1 X98.373 Y159.312 E28.34632
G1 X97.964 Y159.281 E28.36542
G1 X97.05 Y159.171 E28.40829
G1 X96.369 Y159.037 E28.44061
G1 X96.063 Y158.966 E28.45524
G1 X95.176 Y158.719 E28.49811
G1 X94.635 Y158.526 E28.52486
G1 X94.255 Y158.379 E28.54383
G1 X93.411 Y158.01 E28.58672
G1 X92.799 Y157.684 E28.61901
G1 X92.376 Y157.441 E28.64172
G1 X91.598 Y156.948 E28.68461
G1 X90.828 Y156.358 E28.72978
G1 X90.619 Y156.182 E28.7425
G1 X89.941 Y155.559 E28.78538
G1 X89.583 Y155.181 E28.80962
G1 X89.245 Y154.807 E28.83309
G1 X88.658 Y154.098 E28.87596
G1 X88.09 Y153.27 E28.92271
G1 X87.893 Y152.951 E28.94017
G1 X87.444 Y152.147 E28.98305
G1 X87.189 Y151.604 E29.01098
G1 X87.07 Y151.33 E29.02489
G1 X86.741 Y150.47 E29.06777
G1 X86.567 Y149.898 E29.09561
G1 X86.454 Y149.484 E29.11559
G1 X86.25 Y148.586 E29.15847
G1 X86.149 Y147.901 E29.19071
G1 X86.103 Y147.5 E29.20951
G1 X86.036 Y146.492 E29.25655
G1 X86.016 Y145.346 E29.30992
G1 X86.013 Y139.115 E29.60006
G1 X86.031 Y138.148 E29.64509
G1 X86.09 Y136.748 E29.71034
G1 X86.156 Y134.597 E29.81055
G1 X86.166 Y132.086 E29.92747
G1 X86.042 Y128.018 E30.11698
G1 X86.016 Y126.627 E30.18176
G1 X86.013 Y120.414 E30.47107
G1 X86.031 Y119.447 E30.5161
G1 X86.088 Y118.077 E30.57995
G1 X86.153 Y116.06 E30.67392
G1 X86.168 Y113.506 E30.79285
G1 X86.112 Y110.997 E30.90971
G1 X86.038 Y109.222 E30.99243
G1 X86.016 Y107.945 E31.0519
G1 X86.013 Y101.714 E31.34204
G1 X86.031 Y100.747 E31.38708
G1 X86.088 Y99.377 E31.45093
G1 X86.153 Y97.36 E31.54489
G1 X86.168 Y94.806 E31.66382
G1 X86.112 Y92.297 E31.78068
G1 X86.038 Y90.522 E31.8634
G1 X86.016 Y89.245 E31.92287
G1 X86.013 Y83.014 E32.21302
G1 X86.031 Y82.047 E32.25805
G1 X86.088 Y80.677 E32.3219
G1 X86.153 Y78.66 E32.41587
G1 X86.168 Y76.106 E32.5348
G1 X86.112 Y73.597 E32.65165
G1 X86.038 Y71.822 E32.73438
G1 X86.016 Y70.545 E32.79385
G1 X86.013 Y64.314 E33.08399
G1 X86.023 Y63.635 E33.11561
G1 X86.052 Y62.992 E33.14558
G1 X86.082 Y62.595 E33.16412
G1 X86.191 Y61.681 E33.20698
G1 X86.348 Y60.908 E33.24371
G1 X86.424 Y60.593 E33.2588
G1 X86.678 Y59.708 E33.30167
G1 X86.841 Y59.258 E33.32396
G1 X87.006 Y58.831 E33.34527
G1 X87.374 Y57.988 E33.3881
G1 X87.808 Y57.19 E33.4304
G1 X88.007 Y56.859 E33.44839
G1 X88.516 Y56.092 E33.49125
G1 X88.949 Y55.535 E33.5241
G1 X89.144 Y55.301 E33.53828
G1 X89.763 Y54.62 E33.58114
G1 X90.189 Y54.214 E33.60854
G1 X90.504 Y53.93 E33.62829
G1 X91.214 Y53.344 E33.67116
G1 X91.758 Y52.96 E33.70216
G1 X92.159 Y52.695 E33.72454
G1 X92.948 Y52.221 E33.7674
G1 X93.86 Y51.781 E33.81455
G1 X94.112 Y51.674 E33.8273
G1 X94.974 Y51.351 E33.87016
G1 X95.435 Y51.213 E33.89257
G1 X95.917 Y51.08 E33.91585
G1 X96.815 Y50.874 E33.95875
G1 X97.748 Y50.744 E34.00262
G1 X98.036 Y50.717 E34.01609
G1 X98.84 Y50.673 E34.05358
G1 X99.996 Y50.654 E34.10742
G1 X118.958 Y50.651 E34.99037
G1 X119.89 Y50.668 E35.03377
G1 X121.256 Y50.726 E35.09744
G1 X123.844 Y50.798 E35.21799
G1 X126.341 Y50.798 E35.33426
G1 X130.134 Y50.674 E35.51097
G1 X131.345 Y50.654 E35.56737
G1 X150.332 Y50.651 E36.45149
G1 X150.975 Y50.66 E36.48143
G0 F6000 X150.981 Y50.26
G1 F1200 X151.646 Y50.29 E36.51243
G1 X152.061 Y50.321 E36.5318
G1 X152.993 Y50.43 E36.5755
G1 X153.759 Y50.582 E36.61186
G1 X154.061 Y50.653 E36.62631
G1 X154.964 Y50.906 E36.66997
G1 X155.512 Y51.102 E36.69707
G1 X155.967 Y51.278 E36.71979
G1 X156.827 Y51.653 E36.76348
G1 X157.721 Y52.143 E36.81095
G1 X158.028 Y52.33 E36.82769
G1 X158.808 Y52.851 E36.87136
G1 X159.262 Y53.203 E36.89811
G1 X159.507 Y53.403 E36.91284
G1 X160.208 Y54.026 E36.95651
G1 X160.72 Y54.557 E36.99086
G1 X161.06 Y54.934 E37.0145
G1 X161.658 Y55.657 E37.05819
G1 X162.214 Y56.463 E37.10378
G1 X162.4 Y56.76 E37.1201
G1 X162.863 Y57.575 E37.16374
G1 X163.152 Y58.183 E37.19509
G1 X163.308 Y58.539 E37.21319
G1 X163.623 Y59.342 E37.25335
G1 X163.784 Y59.81 E37.2764
G1 X164.423 Y61.747 E37.37138
G1 X165.293 Y64.153 E37.49051
G1 X166.205 Y66.467 E37.60632
G1 X167.195 Y68.786 E37.72373
G1 X168.246 Y71.067 E37.84068
G1 X169.372 Y73.339 E37.95875
G1 X170.548 Y75.553 E38.07549
G1 X171.796 Y77.75 E38.19314
G1 X173.089 Y79.884 E38.30933
G1 X174.453 Y81.997 E38.42644
G1 X175.891 Y84.091 E38.54472
G1 X177.38 Y86.135 E38.66247
G1 X178.903 Y88.106 E38.77846
G1 X180.503 Y90.059 E38.89602
