;FLAVOR:Marlin
;TIME:4013
;Filament used: 2.02959m
;Layer height: 0.24
;MINX:92.528
;MINY:92.528
;MINZ:0.28
;MAXX:142.472
;MAXY:143.228
;MAXZ:37.96
;Generated with Cura_SteamEngine 4.5.0
M140 S65
M105
M190 S65
M104 S215
M105
M109 S215
M82 ;absolute extrusion mode
; Ender 3 Custom Start G-code
G92 E0 ; Reset Extruder
G28 ; Home all axes
G1 Z2.0 F3000 ; Move Z Axis up little to prevent scratching of Heat Bed
G1 X0.1 Y20 Z0.3 F5000.0 ; Move to start position
G1 X0.1 Y200.0 Z0.3 F1500.0 E15 ; Draw the first line
G1 X0.4 Y200.0 Z0.3 F5000.0 ; Move to side a little
G1 X0.4 Y20 Z0.3 F1500.0 E30 ; Draw the second line
G92 E0 ; Reset Extruder
G1 Z2.0 F3000 ; Move Z Axis up little to prevent scratching of Heat Bed
G1 X5 Y20 Z0.3 F5000.0 ; Move over to prevent blob squish
G92 E0
G92 E0
G1 F2700 E-5
;LAYER_COUNT:158
;LAYER:0
M107
G0 F6000 X117.31 Y114.31 Z0.28
;TYPE:SKIRT
G1 F2700 E0
G1 F1200 X117.716 Y114.277 E0.01897
G1 X117.676 Y114.346 E0.02268
G1 X117.351 Y114.363 E0.03784
G1 X117.31 Y114.31 E0.04096
G1 F2700 E-4.95904
G0 F6000 X117.467 Y117.128
G1 F2700 E0.04096
G1 F1200 X117.816 Y117.334 E0.05983
G1 X117.825 Y117.652 E0.07464
G1 X117.557 Y117.854 E0.09027
G1 X117.243 Y117.751 E0.10565
G1 X117.149 Y117.428 E0.12132
G1 X117.366 Y117.15 E0.13774
G1 X117.467 Y117.128 E0.14255
G0 F6000 X114.857 Y115.734
G1 F1200 X114.733 Y116.041 E0.15797
G1 X114.613 Y116.068 E0.1637
G1 X114.733 Y115.556 E0.18818
G1 X114.857 Y115.734 E0.19829
G0 F6000 X114.55 Y118.903
G1 F1200 X114.811 Y119.057 E0.2124
G1 X114.824 Y119.397 E0.22824
G1 X114.765 Y119.449 E0.2319
G1 X114.55 Y118.903 E0.25923
G0 F6000 X117.476 Y120.597
G1 F1200 X117.832 Y120.807 E0.27847
G1 X117.235 Y120.783 E0.30629
G1 X117.302 Y120.653 E0.3131
G1 X117.476 Y120.597 E0.32162
G0 F6000 X120.474 Y118.866
G1 F1200 X120.551 Y118.886 E0.32532
G1 X120.297 Y119.483 E0.35553
G1 X120.173 Y119.384 E0.36292
G1 X120.189 Y119.052 E0.3784
G1 X120.474 Y118.866 E0.39424
G0 F6000 X120.231 Y115.591
G1 F1200 X120.44 Y116.086 E0.41926
G1 X120.325 Y116.082 E0.42462
G1 X120.142 Y115.802 E0.4402
G1 X120.231 Y115.591 E0.45086
G1 F2700 E-4.54914
;MESH:ultimate-sink-drain.stl
G0 F6000 X120.835 Y118.515
G0 X120.848 Y118.602
G0 X121.084 Y119.651
G0 X121.091 Y119.755
G0 X121.904 Y123.68
G0 X121.006 Y122.51
G0 X120.432 Y123.126
;TYPE:WALL-INNER
G1 F2700 E0.45086
G1 F1200 X119.672 Y123.442 E0.48919
G1 X119.122 Y123.615 E0.51603
G1 X118.607 Y123.729 E0.54059
G1 X118.057 Y123.802 E0.56643
G1 X117.203 Y123.839 E0.60623
G1 X116.401 Y123.731 E0.64391
G1 X115.878 Y123.615 E0.66886
G1 X115.328 Y123.442 E0.69571
G1 X114.827 Y123.234 E0.72096
G1 X114.087 Y122.849 E0.75981
G1 X113.425 Y122.341 E0.79866
G1 X113.026 Y121.974 E0.82391
G1 X112.678 Y121.593 E0.84793
G1 X112.34 Y121.159 E0.87355
G1 X111.875 Y120.439 E0.91346
G1 X111.56 Y119.675 E0.95194
G1 X111.397 Y119.158 E0.97718
G1 X111.277 Y118.63 E1.00239
G1 X111.205 Y118.099 E1.02734
G1 X111.175 Y117.499 E1.05532
G1 X111.157 Y117.272 E1.06592
G1 X111.268 Y116.411 E1.10634
G1 X111.38 Y115.899 E1.13075
G1 X111.544 Y115.367 E1.15667
G1 X111.749 Y114.865 E1.18192
G1 X112.151 Y114.094 E1.22241
G1 X112.644 Y113.443 E1.26043
G1 X113.057 Y112.998 E1.2887
G1 X113.429 Y112.657 E1.3122
G1 X113.869 Y112.32 E1.33801
G1 X114.568 Y111.874 E1.37662
G1 X115.328 Y111.558 E1.41494
G1 X115.878 Y111.385 E1.44179
G1 X116.393 Y111.271 E1.46635
G1 X116.943 Y111.198 E1.49219
G1 X117.797 Y111.161 E1.53199
G1 X118.599 Y111.269 E1.56967
G1 X119.122 Y111.385 E1.59462
G1 X119.672 Y111.558 E1.62147
G1 X120.173 Y111.766 E1.64672
G1 X120.913 Y112.151 E1.68557
G1 X121.575 Y112.659 E1.72442
G1 X121.974 Y113.026 E1.74967
G1 X122.322 Y113.407 E1.77369
G1 X122.66 Y113.841 E1.79931
G1 X123.125 Y114.561 E1.83922
G1 X123.44 Y115.325 E1.8777
G1 X123.603 Y115.842 E1.90294
G1 X123.722 Y116.369 E1.9281
G1 X123.795 Y116.898 E1.95296
G1 X123.825 Y117.501 E1.98108
G1 X123.843 Y117.728 E1.99168
G1 X123.732 Y118.589 E2.0321
G1 X123.621 Y119.098 E2.05636
G1 X123.457 Y119.632 E2.08237
G1 X123.251 Y120.135 E2.10768
G1 X122.849 Y120.906 E2.14817
G1 X122.356 Y121.557 E2.18619
G1 X121.943 Y122.002 E2.21446
G1 X121.571 Y122.343 E2.23796
G1 X121.131 Y122.68 E2.26377
G1 X120.432 Y123.126 E2.30238
G0 F6000 X120.594 Y124.059
G1 F1200 X128.178 Y137.195 E3.00867
G1 X128.282 Y137.375 E3.01835
G1 X128.098 Y137.471 E3.02451
G1 X127.068 Y138.009 E3.07862
G1 X126.966 Y138.05 E3.08374
G1 X125.24 Y138.768 E3.17079
G1 X125.142 Y138.797 E3.17555
G1 X123.362 Y139.359 E3.26246
G1 X121.431 Y139.786 E3.35455
G1 X120.819 Y139.867 E3.3833
G1 X120.594 Y139.896 E3.39386
G1 X120.594 Y139.67 E3.40043
G1 X120.594 Y139.669 E3.40047
G1 X120.594 Y124.059 E4.12734
G0 F6000 X120.481 Y123.526
G0 X120.388 Y123.358
G0 X122.935 Y121.084
G0 X123.048 Y121.269
G0 X123.461 Y121.635
G1 F1200 X136.595 Y129.218 E4.83353
G1 X136.775 Y129.322 E4.84321
G1 X136.664 Y129.497 E4.84937
G1 X136.04 Y130.478 E4.90351
G1 X134.834 Y132.049 E4.99573
G1 X133.503 Y133.503 E5.08752
G1 X132.049 Y134.834 E5.17931
G1 X131.558 Y135.211 E5.20813
G1 X131.378 Y135.349 E5.21869
G1 X131.265 Y135.153 E5.22527
G1 X123.461 Y121.635 E5.95208
G1 F2700 E0.95208
G0 F6000 X131.256 Y135.476
G0 X130.827 Y135.812
G0 X128.693 Y137.274
G0 X128.746 Y137.378
;TYPE:WALL-OUTER
G1 F2700 E5.95208
G1 F1200 X130.594 Y136.201 E6.0541
G1 X131.158 Y135.768 E6.08721
G1 X122.912 Y121.485 E6.85517
G1 X122.663 Y121.814 E6.87438
G1 X122.224 Y122.287 E6.90443
G1 X121.826 Y122.652 E6.92958
G1 X121.365 Y123.005 E6.95662
G1 X120.695 Y123.433 E6.99364
G1 X128.746 Y137.378 E7.74342
G0 F6000 X128.693 Y137.274
G0 X130.497 Y136.071
G0 X131.256 Y135.476
G0 X133.382 Y133.382
G0 X134.701 Y131.94
G0 X136.923 Y129.209
G0 X137.931 Y127.293
G0 X138.442 Y126.018
;TYPE:WALL-INNER
G1 F1200 X138.246 Y125.905 E7.75396
G1 X137.669 Y125.572 E7.78498
G1 X125.373 Y118.472 E8.44613
G1 X124.729 Y118.1 E8.48076
G1 X125.472 Y118.1 E8.49864
G1 X125.473 Y118.1 E8.49868
G1 X139.896 Y118.1 E9.17028
G1 X139.897 Y118.1 E9.17033
G1 X140.104 Y118.1 E9.17997
G1 X140.095 Y118.307 E9.18613
G1 X140.043 Y119.478 E9.24071
G1 X139.788 Y121.428 E9.33228
G1 X139.764 Y121.533 E9.3373
G1 X139.36 Y123.359 E9.42438
G1 X138.77 Y125.228 E9.51564
G1 X138.529 Y125.809 E9.54493
G1 X138.442 Y126.018 E9.55152
G1 F2700 E4.55152
G0 F6000 X138.12 Y126.877
G0 X137.081 Y129.031
G0 X137.178 Y129.093
;TYPE:WALL-OUTER
G1 F2700 E9.55152
G1 F1200 X138.19 Y127.148 E9.65361
G1 X138.462 Y126.492 E9.68668
G1 X137.469 Y125.918 E9.74009
G1 X124.18 Y118.245 E10.45462
G1 X124.127 Y118.659 E10.47406
G1 X124.009 Y119.197 E10.4997
G1 X123.834 Y119.765 E10.52738
G1 X123.611 Y120.31 E10.5548
G1 X123.23 Y121.04 E10.59314
G1 X137.178 Y129.093 E11.3431
G1 F2700 E6.3431
G0 F6000 X137.081 Y129.031
G0 X136.923 Y129.209
G0 X122.926 Y121.128
G0 X123.564 Y118.558
G0 X123.654 Y117.513
G0 X123.554 Y116.401
G0 X123.28 Y115.385
G0 X122.973 Y114.64
G0 X122.191 Y113.517
G0 X121.466 Y112.792
G0 X120.818 Y112.294
G0 X119.607 Y111.716
G0 X118.568 Y111.437
G0 X117.79 Y111.333
G0 X116.424 Y111.439
G0 X115.393 Y111.716
G0 X114.646 Y112.027
G0 X113.538 Y112.79
G0 X112.065 Y113.916
G0 X112.009 Y113.817
G0 X111.539 Y113.365
;TYPE:WALL-INNER
G1 F2700 E11.3431
G1 F1200 X98.405 Y105.782 E12.04928
G1 X98.225 Y105.678 E12.05896
G1 X98.336 Y105.503 E12.06513
G1 X98.96 Y104.522 E12.11926
G1 X100.166 Y102.951 E12.21149
G1 X101.497 Y101.497 E12.30327
G1 X102.951 Y100.166 E12.39506
G1 X103.442 Y99.789 E12.42389
G1 X103.622 Y99.651 E12.43445
G1 X103.735 Y99.847 E12.44102
G1 X111.539 Y113.365 E13.16784
G0 F6000 X111.899 Y113.768
G0 X112.074 Y113.872
G0 X110.997 Y117.114
G0 X109.627 Y116.528
G1 F1200 X110.271 Y116.9 E13.20247
G1 X109.528 Y116.9 E13.22035
G1 X109.527 Y116.9 E13.2204
G1 X95.104 Y116.9 E13.89199
G1 X95.103 Y116.9 E13.89204
G1 X94.896 Y116.9 E13.90168
G1 X94.905 Y116.693 E13.90784
G1 X94.957 Y115.519 E13.96256
G1 X95.211 Y113.577 E14.05376
G1 X95.236 Y113.467 E14.05901
G1 X95.64 Y111.641 E14.14609
G1 X96.23 Y109.772 E14.23736
G1 X96.471 Y109.191 E14.26664
G1 X96.558 Y108.982 E14.27719
G1 X96.754 Y109.095 E14.28377
G1 X97.331 Y109.428 E14.31479
G1 X109.627 Y116.528 E14.97594
G0 F6000 X110.997 Y117.114
G0 X111.117 Y116.793
G0 X110.82 Y116.755
;TYPE:WALL-OUTER
G1 F1200 X110.873 Y116.341 E14.99537
G1 X110.991 Y115.803 E15.02102
G1 X111.167 Y115.234 E15.04875
G1 X111.389 Y114.69 E15.07611
G1 X111.77 Y113.96 E15.11446
G1 X97.822 Y105.907 E15.86441
G1 X96.809 Y107.853 E15.96657
G1 X96.62 Y108.313 E15.98972
G1 X96.536 Y108.507 E15.99957
G1 X97.531 Y109.082 E16.05308
G1 X110.82 Y116.755 E16.76761
G0 F6000 X111.117 Y116.793
G0 X111.902 Y114.94
G0 X112.296 Y114.186
G0 X113.775 Y112.19
G0 X114.612 Y111.642
G0 X114.527 Y111.492
G0 X114.406 Y110.941
;TYPE:WALL-INNER
G1 F1200 X106.822 Y97.805 E17.4739
G1 X106.718 Y97.625 E17.48358
G1 X106.902 Y97.529 E17.48975
G1 X107.932 Y96.991 E17.54385
G1 X108.034 Y96.95 E17.54897
G1 X109.76 Y96.232 E17.63602
G1 X109.858 Y96.203 E17.64078
G1 X111.638 Y95.641 E17.7277
G1 X113.569 Y95.214 E17.81978
G1 X114.181 Y95.133 E17.84853
G1 X114.406 Y95.104 E17.85909
G1 X114.406 Y95.33 E17.86566
G1 X114.406 Y95.331 E17.86571
G1 X114.406 Y110.941 E18.59257
G1 F2700 E13.59257
G0 F6000 X114.521 Y111.479
G0 X114.612 Y111.642
G0 X112.065 Y113.916
G0 X112.012 Y113.831
G0 X111.829 Y113.664
G0 X112.088 Y113.515
;TYPE:WALL-OUTER
G1 F2700 E18.59257
G1 F1200 X112.337 Y113.186 E18.61179
G1 X112.776 Y112.713 E18.64183
G1 X113.174 Y112.348 E18.66698
G1 X113.635 Y111.995 E18.69402
G1 X114.305 Y111.567 E18.73104
G1 X106.254 Y97.622 E19.48082
G1 X104.406 Y98.799 E19.58285
G1 X103.842 Y99.232 E19.61595
G1 X112.088 Y113.515 E20.38391
G0 F6000 X111.829 Y113.664
G0 X112.013 Y113.837
G0 X112.065 Y113.916
G0 X113.972 Y112.458
G0 X114.646 Y112.027
G0 X116.918 Y111.039
G0 X117.928 Y110.984
G0 X117.929 Y110.809
G0 X118.1 Y110.274
;TYPE:WALL-INNER
G1 F1200 X118.1 Y95.104 E21.09029
G1 X118.1 Y95.103 E21.09034
G1 X118.1 Y94.896 E21.09998
G1 X118.307 Y94.905 E21.10614
G1 X119.481 Y94.957 E21.16086
G1 X121.428 Y95.212 E21.25229
G1 X121.533 Y95.236 E21.25731
G1 X123.362 Y95.641 E21.34454
G1 X125.228 Y96.23 E21.43565
G1 X125.809 Y96.471 E21.46494
G1 X126.018 Y96.558 E21.47548
G1 X125.905 Y96.754 E21.48207
G1 X118.1 Y110.274 E22.20899
G1 F2700 E17.20899
G0 F6000 X117.93 Y110.797
G0 X117.928 Y110.984
G0 X114.584 Y111.675
G0 X114.58 Y111.576
G0 X114.506 Y111.342
G0 X114.806 Y111.342
;TYPE:WALL-OUTER
G1 F2700 E22.20899
G1 F1200 X115.201 Y111.178 E22.2289
G1 X115.765 Y111.001 E22.25643
G1 X116.332 Y110.875 E22.28348
G1 X116.908 Y110.799 E22.31053
G1 X117.7 Y110.765 E22.34744
G1 X117.7 Y94.662 E23.09726
G1 X115.511 Y94.758 E23.19929
G1 X114.806 Y94.851 E23.2324
G1 X114.806 Y111.342 E24.00029
G0 F6000 X114.506 Y111.342
G0 X114.579 Y111.582
G0 X114.584 Y111.675
G0 X116.955 Y111.369
G0 X117.79 Y111.333
G0 X120.258 Y111.629
G0 X121.129 Y112.071
G0 X121.217 Y111.92
G0 X121.633 Y111.542
;TYPE:WALL-INNER
G1 F1200 X122.005 Y110.898 E24.03492
G1 X129.218 Y98.405 E24.70665
G1 X129.322 Y98.225 E24.71633
G1 X129.497 Y98.336 E24.72249
G1 X130.482 Y98.963 E24.77686
G1 X132.049 Y100.166 E24.86885
G1 X133.503 Y101.497 E24.96064
G1 X134.834 Y102.951 E25.05243
G1 X135.212 Y103.442 E25.08128
G1 X135.35 Y103.622 E25.09184
G1 X135.154 Y103.735 E25.09841
G1 X134.575 Y104.07 E25.12956
G1 X122.277 Y111.17 E25.79079
G1 X121.633 Y111.542 E25.80869
G1 F2700 E20.80869
G0 F6000 X121.221 Y111.915
G0 X121.139 Y112.055
G0 X118.207 Y111.114
G0 X118.247 Y110.818
;TYPE:WALL-OUTER
G1 F2700 E25.80869
G1 F1200 X118.67 Y110.875 E25.82856
G1 X119.235 Y111.001 E25.85552
G1 X119.799 Y111.178 E25.88305
G1 X120.351 Y111.407 E25.91087
G1 X121.041 Y111.767 E25.94711
G1 X129.093 Y97.822 E26.69692
G1 X127.148 Y96.81 E26.79902
G1 X126.491 Y96.538 E26.83213
G1 X118.883 Y109.718 E27.54075
G1 X118.247 Y110.818 E27.59992
G0 F6000 X118.207 Y111.114
G0 X120.105 Y111.923
G0 X120.818 Y112.294
G0 X122.796 Y113.757
G0 X123.361 Y114.61
G0 X123.51 Y114.525
G0 X124.059 Y114.406
;TYPE:WALL-INNER
G1 F1200 X137.195 Y106.822 E28.30621
G1 X137.375 Y106.718 E28.31589
G1 X137.471 Y106.902 E28.32205
G1 X138.009 Y107.932 E28.37616
G1 X138.769 Y109.763 E28.46847
G1 X138.797 Y109.858 E28.47308
G1 X139.36 Y111.641 E28.56015
G1 X139.785 Y113.562 E28.65176
G1 X139.867 Y114.181 E28.68083
G1 X139.896 Y114.406 E28.6914
G1 X139.67 Y114.406 E28.69796
G1 X139.669 Y114.406 E28.69801
G1 X124.059 Y114.406 E29.42488
G0 F6000 X123.435 Y114.304
;TYPE:WALL-OUTER
G1 F1200 X137.378 Y106.254 E30.17456
G1 X136.201 Y104.406 E30.27658
G1 X135.768 Y103.842 E30.30969
G1 X134.775 Y104.416 E30.3631
G1 X121.487 Y112.088 E31.07757
G1 X121.831 Y112.352 E31.09776
G1 X122.257 Y112.743 E31.12468
G1 X122.628 Y113.148 E31.15026
G1 X122.987 Y113.611 E31.17754
G1 X123.435 Y114.304 E31.21596
G1 F2700 E26.21596
G0 F6000 X123.584 Y114.563
G0 X123.326 Y114.584
G0 X123.985 Y117.493
G0 X124.03 Y117.929
G0 X124.086 Y117.931
G0 X124.242 Y118
G0 X124.242 Y117.7
G1 F2700 E31.21596
G1 F1200 X140.338 Y117.7 E31.96546
G1 X140.242 Y115.511 E32.06749
G1 X140.149 Y114.806 E32.1006
G1 X123.659 Y114.806 E32.86844
G1 X123.817 Y115.188 E32.88769
G1 X123.988 Y115.731 E32.9142
G1 X124.116 Y116.297 E32.94122
G1 X124.195 Y116.869 E32.96811
G1 X124.224 Y117.475 E32.99636
G1 X124.242 Y117.7 E33.00687
G1 F2700 E28.00687
G0 F6000 X124.271 Y117.951
G0 X123.615 Y117.515
G0 X122.38 Y116.863
G0 X121.468 Y117.5
;TYPE:WALL-INNER
G1 F2700 E33.00687
G1 F1200 X121.493 Y117.487 E33.00818
G1 X121.544 Y117.456 E33.01096
G1 X121.594 Y117.424 E33.01373
G1 X121.637 Y117.396 E33.01612
G1 X121.663 Y117.376 E33.01764
G1 X121.776 Y117.29 E33.02426
G1 X121.8 Y117.268 E33.02577
G1 X121.905 Y117.172 E33.0324
G1 X122.014 Y117.052 E33.03994
G1 X122.12 Y116.916 E33.04797
G1 X122.213 Y116.77 E33.05603
G1 X122.294 Y116.617 E33.0641
G1 X122.36 Y116.46 E33.07203
G1 X122.414 Y116.294 E33.08015
G1 X122.452 Y116.124 E33.08827
G1 X122.476 Y115.954 E33.09626
G1 X122.484 Y115.784 E33.10418
G1 X122.48 Y115.61 E33.11229
G1 X122.458 Y115.437 E33.12041
G1 X122.422 Y115.265 E33.12859
G1 X122.368 Y115.098 E33.13676
G1 X122.305 Y114.94 E33.14468
G1 X122.225 Y114.786 E33.15277
G1 X122.133 Y114.639 E33.16084
G1 X122.029 Y114.502 E33.16885
G1 X121.913 Y114.373 E33.17693
G1 X121.777 Y114.248 E33.18553
G1 X121.64 Y114.142 E33.1936
G1 X121.491 Y114.046 E33.20185
G1 X121.339 Y113.969 E33.20978
G1 X121.179 Y113.902 E33.21786
G1 X121.012 Y113.85 E33.226
G1 X120.845 Y113.813 E33.23397
G1 X120.672 Y113.79 E33.2421
G1 X120.5 Y113.783 E33.25011
G1 X120.327 Y113.79 E33.25817
G1 X120.154 Y113.813 E33.2663
G1 X119.987 Y113.85 E33.27426
G1 X119.853 Y113.892 E33.2808
G1 X119.82 Y113.902 E33.28241
G1 X119.66 Y113.969 E33.29049
G1 X119.611 Y113.995 E33.29307
G1 X119.557 Y114.023 E33.2959
G1 X119.484 Y114.062 E33.29976
G1 X119.483 Y113.973 E33.30088
G1 X119.481 Y113.91 E33.30174
G1 X119.48 Y113.879 E33.30177
G1 X119.476 Y113.845 E33.30337
G1 X119.458 Y113.705 E33.3097
G1 X119.423 Y113.535 E33.31778
G1 X119.371 Y113.369 E33.32588
G1 X119.306 Y113.208 E33.33397
G1 X119.225 Y113.052 E33.34215
G1 X119.133 Y112.906 E33.35019
G1 X119.029 Y112.77 E33.35816
G1 X118.915 Y112.643 E33.36611
G1 X118.778 Y112.516 E33.3748
G1 X118.639 Y112.409 E33.38297
G1 X118.493 Y112.316 E33.39103
G1 X118.341 Y112.237 E33.39901
G1 X118.18 Y112.17 E33.40713
G1 X118.013 Y112.118 E33.41527
G1 X117.846 Y112.081 E33.42324
G1 X117.673 Y112.058 E33.43137
G1 X117.5 Y112.051 E33.43943
G1 X117.327 Y112.058 E33.44749
G1 X117.154 Y112.081 E33.45562
G1 X116.987 Y112.118 E33.46358
G1 X116.82 Y112.17 E33.47173
G1 X116.659 Y112.237 E33.47985
G1 X116.507 Y112.316 E33.48782
G1 X116.361 Y112.409 E33.49588
G1 X116.222 Y112.516 E33.50405
G1 X116.094 Y112.634 E33.51216
G1 X115.986 Y112.753 E33.51964
G1 X115.881 Y112.887 E33.52757
G1 X115.786 Y113.034 E33.53572
G1 X115.705 Y113.188 E33.54382
G1 X115.638 Y113.348 E33.5519
G1 X115.586 Y113.513 E33.55995
G1 X115.553 Y113.656 E33.56679
G1 X115.548 Y113.681 E33.56797
G1 X115.528 Y113.822 E33.5746
G1 X115.524 Y113.851 E33.57597
G1 X115.523 Y113.91 E33.57871
G1 X115.521 Y113.974 E33.5817
G1 X115.518 Y114.046 E33.58505
G1 X115.517 Y114.062 E33.5858
G1 X115.492 Y114.046
G1 X115.44 Y114.02 E33.58634
G1 X115.39 Y113.995 E33.58709
