;FLAVOR:Marlin
;TIME:3234
;Filament used: 1.11295m
;Layer height: 0.2
;MINX:96.922
;MINY:96.927
;MINZ:0.2
;MAXX:138.09
;MAXY:138.078
;MAXZ:55.4
;Generated with Cura_SteamEngine 4.7.0
M140 S65
M105
M190 S65
M104 S225
M105
M109 S225
M82 ;absolute extrusion mode
; Ender 3 Custom Start G-code
G92 E0 ; Reset Extruder
G28 ; Home all axes
G1 Z2.0 F3000 ; Move Z Axis up little to prevent scratching of Heat Bed
G1 X0.1 Y20 Z0.3 F5000.0 ; Move to start position
G1 X0.1 Y200.0 Z0.3 F1500.0 E15 ; Draw the first line
G1 X0.4 Y200.0 Z0.3 F5000.0 ; Move to side a little
G1 X0.4 Y20 Z0.3 F1500.0 E30 ; Draw the second line
G92 E0 ; Reset Extruder
G1 Z2.0 F3000 ; Move Z Axis up little to prevent scratching of Heat Bed
G1 X5 Y20 Z0.3 F5000.0 ; Move over to prevent blob squish
G92 E0
G92 E0
G1 F2700 E-5
;LAYER_COUNT:277
;LAYER:0
M107
G0 F6000 X103.026 Y102.879 Z0.2
;TYPE:SKIRT
G1 F2700 E0
G1 F1200 X103.788 Y102.171 E0.0346
G1 X104.076 Y101.912 E0.04748
G1 X104.449 Y101.59 E0.06387
G1 X105.435 Y100.836 E0.10515
G1 X106.289 Y100.258 E0.13945
G1 X106.599 Y100.056 E0.15176
G1 X107.02 Y99.792 E0.16828
G1 X108.115 Y99.192 E0.20981
G1 X109.021 Y98.763 E0.24315
G1 X109.351 Y98.613 E0.25521
G1 X109.846 Y98.399 E0.27315
G1 X111.043 Y97.965 E0.3155
G1 X111.999 Y97.682 E0.34866
G1 X112.353 Y97.584 E0.36087
G1 X112.867 Y97.451 E0.37853
G1 X114.091 Y97.21 E0.42002
G1 X115.089 Y97.074 E0.45352
G1 X115.445 Y97.032 E0.46545
G1 X115.955 Y96.98 E0.4825
G1 X117.228 Y96.927 E0.52487
G1 X118.245 Y96.946 E0.55871
G1 X118.606 Y96.959 E0.57072
G1 X119.117 Y96.986 E0.58774
G1 X120.363 Y97.126 E0.62944
G1 X121.37 Y97.3 E0.66343
G1 X121.736 Y97.37 E0.67583
G1 X122.233 Y97.474 E0.69271
G1 X123.434 Y97.8 E0.73411
G1 X124.48 Y98.151 E0.7708
G1 X124.786 Y98.258 E0.78158
G1 X125.125 Y98.385 E0.79362
G1 X125.418 Y98.499 E0.80408
G1 X126.279 Y98.879 E0.83538
G1 X126.386 Y98.932 E0.83935
G1 X126.622 Y99.053 E0.84818
G1 X127.172 Y99.344 E0.86887
G1 X127.476 Y99.51 E0.88039
G1 X128.052 Y99.834 E0.90237
G1 X129.112 Y100.517 E0.94431
G1 X129.953 Y101.132 E0.97897
G1 X130.238 Y101.348 E0.99086
G1 X130.623 Y101.65 E1.00713
G1 X131.571 Y102.489 E1.04924
G1 X132.282 Y103.199 E1.08266
G1 X132.536 Y103.462 E1.09482
G1 X132.893 Y103.844 E1.11221
G1 X133.691 Y104.806 E1.15378
G1 X134.292 Y105.624 E1.18754
G1 X134.501 Y105.919 E1.19957
G1 X134.786 Y106.336 E1.21637
G1 X135.441 Y107.429 E1.25875
G1 X135.916 Y108.343 E1.29301
G1 X136.069 Y108.651 E1.30445
G1 X136.287 Y109.106 E1.32123
G1 X136.769 Y110.288 E1.36368
G1 X137.1 Y111.266 E1.39803
G1 X137.213 Y111.622 E1.41045
G1 X137.352 Y112.086 E1.42656
G1 X137.637 Y113.288 E1.46765
G1 X137.811 Y114.275 E1.50098
G1 X137.856 Y114.554 E1.51038
G1 X137.927 Y115.031 E1.52642
G1 X137.973 Y115.37 E1.5378
G1 X138.031 Y115.946 E1.55705
G1 X138.048 Y116.177 E1.56476
G1 X138.074 Y116.702 E1.58224
G1 X138.087 Y117.246 E1.60034
G1 X138.09 Y117.548 E1.61038
G1 X138.089 Y117.766 E1.61763
G1 X138.075 Y118.263 E1.63417
G1 X138.047 Y118.806 E1.65225
G1 X137.96 Y119.719 E1.68276
G1 X137.839 Y120.584 E1.71181
G1 X137.767 Y121.05 E1.72749
G1 X137.715 Y121.356 E1.73782
G1 X137.65 Y121.708 E1.74972
G1 X137.443 Y122.605 E1.78034
G1 X137.336 Y122.98 E1.79331
G1 X137.18 Y123.491 E1.81108
G1 X137.053 Y123.891 E1.82504
G1 X136.857 Y124.483 E1.84578
G1 X136.387 Y125.66 E1.88793
G1 X135.963 Y126.562 E1.92108
G1 X135.807 Y126.881 E1.93289
G1 X135.564 Y127.356 E1.95064
G1 X134.918 Y128.451 E1.99292
G1 X134.346 Y129.3 E2.02697
G1 X134.13 Y129.608 E2.03949
G1 X133.835 Y130.014 E2.05618
G1 X133.049 Y130.973 E2.09742
G1 X132.353 Y131.727 E2.13155
G1 X132.101 Y131.99 E2.14366
G1 X131.744 Y132.351 E2.16055
G1 X130.796 Y133.201 E2.2029
G1 X130.016 Y133.82 E2.23602
G1 X129.743 Y134.03 E2.24747
G1 X129.313 Y134.349 E2.26528
G1 X128.245 Y135.046 E2.3077
G1 X127.357 Y135.552 E2.34169
G1 X127.035 Y135.728 E2.3539
G1 X126.591 Y135.961 E2.37057
G1 X125.448 Y136.477 E2.41228
G1 X124.448 Y136.859 E2.44789
G1 X124.121 Y136.978 E2.45946
G1 X123.715 Y137.118 E2.47375
G1 X123.391 Y137.224 E2.48508
G1 X122.325 Y137.506 E2.52176
G1 X121.619 Y137.654 E2.54575
G1 X121.324 Y137.712 E2.55575
G1 X120.597 Y137.843 E2.58032
G1 X119.339 Y137.993 E2.62246
G1 X118.352 Y138.051 E2.65534
G1 X117.974 Y138.066 E2.66792
G1 X117.452 Y138.078 E2.68529
G1 X116.212 Y138.034 E2.72656
G1 X115.195 Y137.938 E2.76054
G1 X114.818 Y137.896 E2.77315
G1 X114.305 Y137.829 E2.79036
G1 X113.069 Y137.592 E2.83222
G1 X112.108 Y137.348 E2.8652
G1 X111.766 Y137.255 E2.87698
G1 X111.252 Y137.106 E2.89478
G1 X110.056 Y136.68 E2.93701
G1 X109.115 Y136.28 E2.97102
G1 X108.796 Y136.138 E2.98263
G1 X108.344 Y135.928 E2.99921
G1 X107.23 Y135.327 E3.04131
G1 X106.353 Y134.784 E3.07562
G1 X106.043 Y134.585 E3.08787
G1 X105.627 Y134.307 E3.10451
G1 X104.625 Y133.548 E3.14632
G1 X103.842 Y132.878 E3.18059
G1 X103.566 Y132.633 E3.19287
G1 X103.201 Y132.298 E3.20935
G1 X102.327 Y131.395 E3.25114
G1 X101.646 Y130.602 E3.28591
G1 X101.409 Y130.315 E3.29829
G1 X101.102 Y129.931 E3.31464
G1 X100.385 Y128.918 E3.35592
G1 X99.859 Y128.074 E3.389
G1 X99.668 Y127.755 E3.40136
G1 X99.405 Y127.298 E3.4189
G1 X98.842 Y126.17 E3.46083
G1 X98.441 Y125.23 E3.49482
G1 X98.3 Y124.883 E3.50728
G1 X98.115 Y124.403 E3.52439
G1 X97.733 Y123.203 E3.56628
G1 X97.461 Y122.133 E3.603
G1 X97.38 Y121.794 E3.61459
G1 X97.333 Y121.584 E3.62175
G1 X97.261 Y121.244 E3.6333
G1 X97.075 Y120.015 E3.67465
G1 X97.002 Y119.218 E3.70127
G1 X96.959 Y118.668 E3.71962
G1 X96.94 Y118.371 E3.72951
G1 X96.922 Y117.999 E3.7419
G1 X96.93 Y116.84 E3.78045
G1 X96.969 Y116.202 E3.80171
G1 X96.982 Y116.015 E3.80794
G1 X97.025 Y115.47 E3.82613
G1 X97.055 Y115.154 E3.83669
G1 X97.092 Y114.815 E3.84803
G1 X97.228 Y113.92 E3.87814
G1 X97.304 Y113.549 E3.89073
G1 X97.427 Y112.996 E3.90957
G1 X97.517 Y112.606 E3.92289
G1 X97.615 Y112.205 E3.93662
G1 X97.673 Y111.979 E3.94438
G1 X97.738 Y111.737 E3.95271
G1 X98.017 Y110.854 E3.98351
G1 X98.075 Y110.695 E3.98914
G1 X98.163 Y110.463 E3.99739
G1 X98.351 Y109.985 E4.01448
G1 X98.502 Y109.613 E4.02783
G1 X98.736 Y109.055 E4.04796
G1 X99.291 Y107.925 E4.08983
G1 X99.802 Y107.024 E4.12428
G1 X99.989 Y106.706 E4.13655
G1 X100.258 Y106.268 E4.15365
G1 X100.982 Y105.233 E4.19566
G1 X101.603 Y104.449 E4.22892
G1 X101.836 Y104.165 E4.24114
G1 X102.165 Y103.778 E4.25803
G1 X103.026 Y102.879 E4.29944
G0 F6000 X103.298 Y103.172
G1 F1200 X104.06 Y102.464 E4.33403
G1 X104.338 Y102.215 E4.34644
G1 X104.711 Y101.893 E4.36283
G1 X105.659 Y101.167 E4.40255
G1 X106.513 Y100.589 E4.43685
G1 X106.811 Y100.394 E4.44869
G1 X107.232 Y100.13 E4.46522
G1 X108.286 Y99.553 E4.50518
G1 X109.192 Y99.124 E4.53853
G1 X109.509 Y98.98 E4.55011
G1 X110.004 Y98.766 E4.56804
G1 X111.157 Y98.349 E4.60882
G1 X112.113 Y98.066 E4.64198
G1 X112.453 Y97.971 E4.65372
G1 X112.967 Y97.838 E4.67138
G1 X114.145 Y97.606 E4.71132
G1 X115.143 Y97.47 E4.74482
G1 X115.485 Y97.43 E4.75627
G1 X115.995 Y97.378 E4.77332
G1 X117.221 Y97.327 E4.81413
G1 X118.238 Y97.346 E4.84796
G1 X118.585 Y97.358 E4.85951
G1 X119.096 Y97.385 E4.87653
G1 X120.295 Y97.52 E4.91666
G1 X121.302 Y97.694 E4.95065
G1 X121.654 Y97.761 E4.96257
G1 X122.151 Y97.865 E4.97946
G1 X123.307 Y98.179 E5.0193
G1 X124.353 Y98.53 E5.056
G1 X124.647 Y98.634 E5.06637
G1 X124.98 Y98.758 E5.07819
G1 X125.273 Y98.872 E5.08864
G1 X126.101 Y99.238 E5.11875
G1 X126.436 Y99.407 E5.13123
G1 X126.981 Y99.695 E5.15174
G1 X127.28 Y99.859 E5.16308
G1 X127.856 Y100.183 E5.18506
G1 X128.876 Y100.84 E5.22541
G1 X129.717 Y101.455 E5.26007
G1 X129.991 Y101.662 E5.27149
G1 X130.376 Y101.964 E5.28776
G1 X131.288 Y102.772 E5.32829
G1 X131.999 Y103.482 E5.36171
G1 X132.244 Y103.735 E5.37342
G1 X132.601 Y104.117 E5.39081
G1 X133.369 Y105.043 E5.43082
G1 X133.97 Y105.861 E5.46458
G1 X134.171 Y106.145 E5.47616
G1 X134.456 Y106.562 E5.49296
G1 X135.086 Y107.613 E5.53371
G1 X135.561 Y108.527 E5.56797
G1 X135.709 Y108.824 E5.57901
G1 X135.927 Y109.279 E5.59579
G1 X136.39 Y110.416 E5.63662
G1 X136.721 Y111.394 E5.67096
G1 X136.83 Y111.737 E5.68293
G1 X136.969 Y112.201 E5.69904
G1 X137.243 Y113.357 E5.73856
G1 X137.417 Y114.344 E5.77189
G1 X137.461 Y114.613 E5.78096
G1 X137.532 Y115.09 E5.797
G1 X137.576 Y115.421 E5.8081
G1 X137.632 Y115.975 E5.82662
G1 X137.649 Y116.206 E5.83433
G1 X137.674 Y116.711 E5.85114
G1 X137.687 Y117.255 E5.86924
G1 X137.69 Y117.546 E5.87892
G1 X137.689 Y117.764 E5.88617
G1 X137.675 Y118.242 E5.90208
G1 X137.647 Y118.785 E5.92016
G1 X137.564 Y119.664 E5.94953
G1 X137.466 Y120.369 E5.9732
G1 X137.371 Y120.988 E5.99403
G1 X137.321 Y121.283 E6.00398
G1 X137.256 Y121.635 E6.01589
G1 X137.058 Y122.498 E6.04534
G1 X137.029 Y122.603 E6.04896
G1 X136.953 Y122.863 E6.05797
G1 X136.798 Y123.371 E6.07563
G1 X136.673 Y123.765 E6.08938
G1 X136.477 Y124.357 E6.11012
G1 X136.025 Y125.49 E6.1507
G1 X135.601 Y126.392 E6.18385
G1 X135.451 Y126.699 E6.19521
G1 X135.208 Y127.174 E6.21296
G1 X134.586 Y128.227 E6.25363
G1 X134.014 Y129.076 E6.28768
G1 X133.807 Y129.373 E6.29972
G1 X133.512 Y129.779 E6.31641
G1 X132.755 Y130.701 E6.35609
G1 X132.059 Y131.455 E6.39022
G1 X131.817 Y131.709 E6.40189
G1 X131.46 Y132.07 E6.41878
G1 X130.548 Y132.888 E6.45952
G1 X129.768 Y133.507 E6.49264
G1 X129.504 Y133.709 E6.5037
G1 X129.074 Y134.028 E6.52151
G1 X128.047 Y134.698 E6.56229
G1 X127.159 Y135.204 E6.59628
G1 X126.849 Y135.374 E6.60804
G1 X126.405 Y135.607 E6.62472
G1 X125.305 Y136.103 E6.66485
G1 X124.305 Y136.485 E6.70046
G1 X123.99 Y136.6 E6.71161
G1 X123.584 Y136.74 E6.7259
G1 X123.268 Y136.844 E6.73696
G1 X122.243 Y137.115 E6.77222
G1 X121.537 Y137.263 E6.79622
G1 X121.253 Y137.318 E6.80584
G1 X120.526 Y137.449 E6.83041
G1 X119.315 Y137.593 E6.87097
G1 X118.328 Y137.651 E6.90385
G1 X117.964 Y137.666 E6.91597
G1 X117.442 Y137.678 E6.93334
G1 X116.249 Y137.636 E6.97304
G1 X115.232 Y137.54 E7.00702
G1 X114.87 Y137.499 E7.01913
G1 X114.357 Y137.432 E7.03634
G1 X113.168 Y137.204 E7.07661
G1 X112.207 Y136.96 E7.10958
G1 X111.877 Y136.871 E7.12095
G1 X111.363 Y136.722 E7.13875
G1 X110.213 Y136.312 E7.17936
G1 X109.272 Y135.912 E7.21337
G1 X108.964 Y135.775 E7.22458
G1 X108.512 Y135.565 E7.24116
G1 X107.441 Y134.987 E7.28163
G1 X106.564 Y134.444 E7.31594
G1 X106.266 Y134.253 E7.32771
G1 X105.85 Y133.975 E7.34436
G1 X104.885 Y133.244 E7.38462
G1 X104.102 Y132.574 E7.4189
G1 X103.837 Y132.339 E7.43068
G1 X103.472 Y132.004 E7.44715
G1 X102.631 Y131.134 E7.4874
G1 X101.95 Y130.341 E7.52217
G1 X101.721 Y130.065 E7.53409
G1 X101.414 Y129.681 E7.55045
G1 X100.725 Y128.707 E7.59013
G1 X100.199 Y127.863 E7.6232
G1 X100.014 Y127.556 E7.63513
G1 X99.751 Y127.099 E7.65266
G1 X99.21 Y126.013 E7.69302
G1 X98.809 Y125.073 E7.72701
G1 X98.673 Y124.739 E7.739
G1 X98.488 Y124.259 E7.75611
G1 X98.12 Y123.104 E7.79643
G1 X97.848 Y122.034 E7.83315
G1 X97.769 Y121.703 E7.84447
G1 X97.724 Y121.501 E7.85135
G1 X97.652 Y121.161 E7.86291
G1 X97.474 Y119.978 E7.9027
G1 X97.388 Y119.029 E7.93439
G1 X97.358 Y118.637 E7.94747
G1 X97.34 Y118.352 E7.95697
G1 X97.322 Y117.98 E7.96936
G1 X97.329 Y116.865 E8.00644
G1 X97.368 Y116.227 E8.0277
G1 X97.424 Y115.502 E8.05189
G1 X97.452 Y115.197 E8.06207
G1 X97.489 Y114.858 E8.07342
G1 X97.621 Y113.998 E8.10235
G1 X97.695 Y113.635 E8.11468
G1 X97.817 Y113.086 E8.13338
G1 X97.939 Y112.561 E8.15131
G1 X98.003 Y112.3 E8.16025
G1 X98.059 Y112.083 E8.1677
G1 X98.124 Y111.841 E8.17603
G1 X98.393 Y110.992 E8.20566
G1 X98.535 Y110.609 E8.21924
G1 X98.722 Y110.134 E8.23622
G1 X98.871 Y109.767 E8.24939
G1 X99.105 Y109.209 E8.26952
G1 X99.639 Y108.122 E8.3098
G1 X100.15 Y107.221 E8.34425
G1 X100.33 Y106.915 E8.35606
G1 X100.599 Y106.477 E8.37316
G1 X101.295 Y105.482 E8.41354
G1 X101.916 Y104.698 E8.44681
G1 X102.141 Y104.424 E8.4586
G1 X102.47 Y104.037 E8.47549
G1 X103.298 Y103.172 E8.51532
G1 F2700 E3.51532
;MESH:Filament_Guide.STL
G0 F6000 X115.112 Y115.112
G0 X114.079 Y114.079
G0 X116.115 Y113.234
G0 X116.799 Y113.07
G0 X117.5 Y113.013
G0 X118.201 Y113.07
G0 X119.134 Y113.335
G0 X119.766 Y113.642
G0 X120.136 Y113.872
G0 X120.672 Y114.328
G0 X121.128 Y114.864
G0 X121.497 Y115.464
G0 X121.766 Y116.115
G0 X121.93 Y116.799
G0 X121.961 Y117.195
G0 X121.949 Y118.809
;TYPE:WALL-INNER
G1 F2700 E8.51532
G1 F1200 X122.089 Y118.226 E8.53526
G1 X122.147 Y117.5 E8.55949
G1 X122.089 Y116.774 E8.58371
G1 X121.919 Y116.065 E8.60796
G1 X121.641 Y115.391 E8.63221
G1 X121.259 Y114.769 E8.65649
G1 X120.786 Y114.214 E8.68074
G1 X120.231 Y113.742 E8.70497
G1 X119.85 Y113.506 E8.71988
G1 X119.609 Y113.359 E8.72927
G1 X119.195 Y113.187 E8.74418
G1 X118.934 Y113.081 E8.75355
G1 X118.226 Y112.911 E8.77777
G1 X117.5 Y112.853 E8.80199
G1 X116.774 Y112.911 E8.82621
G1 X116.065 Y113.081 E8.85046
G1 X115.391 Y113.359 E8.87471
G1 X114.769 Y113.741 E8.89899
G1 X114.214 Y114.214 E8.92324
G1 X113.742 Y114.769 E8.94748
G1 X113.506 Y115.15 E8.96238
G1 X113.359 Y115.391 E8.97177
G1 X113.187 Y115.805 E8.98668
G1 X113.081 Y116.066 E8.99605
G1 X112.911 Y116.774 E9.02027
G1 X112.853 Y117.5 E9.04449
G1 X112.911 Y118.226 E9.06872
G1 X113.081 Y118.935 E9.09297
G1 X113.359 Y119.609 E9.11722
G1 X113.741 Y120.231 E9.14149
G1 X114.214 Y120.786 E9.16575
G1 X114.769 Y121.258 E9.18998
G1 X115.15 Y121.494 E9.20489
G1 X115.391 Y121.641 E9.21428
G1 X115.805 Y121.813 E9.22919
G1 X116.066 Y121.919 E9.23856
G1 X116.774 Y122.089 E9.26277
G1 X117.5 Y122.147 E9.287
G1 X118.226 Y122.089 E9.31122
G1 X118.935 Y121.919 E9.33547
G1 X119.609 Y121.641 E9.35972
G1 X120.231 Y121.259 E9.384
G1 X120.786 Y120.786 E9.40825
G1 X121.258 Y120.231 E9.43248
G1 X121.494 Y119.85 E9.44739
G1 X121.641 Y119.609 E9.45678
G1 X121.966 Y118.826 E9.48498
G1 X121.949 Y118.809 E9.48578
G0 F6000 X121.493 Y118.919
;TYPE:WALL-OUTER
G1 F1200 X121.537 Y118.811 E9.48965
G1 X121.693 Y118.163 E9.51182
G1 X121.746 Y117.5 E9.53394
G1 X121.693 Y116.837 E9.55607
G1 X121.537 Y116.189 E9.57824
G1 X121.283 Y115.573 E9.6004
G1 X120.934 Y115.005 E9.62257
G1 X120.502 Y114.498 E9.64472
G1 X119.995 Y114.066 E9.66688
G1 X119.641 Y113.847 E9.68072
G1 X119.427 Y113.717 E9.68905
G1 X119.043 Y113.557 E9.70289
G1 X118.811 Y113.463 E9.71121
G1 X118.163 Y113.307 E9.73338
G1 X117.5 Y113.254 E9.7555
G1 X116.837 Y113.307 E9.77762
G1 X116.189 Y113.463 E9.79979
G1 X115.573 Y113.717 E9.82195
G1 X115.005 Y114.066 E9.84413
G1 X114.498 Y114.498 E9.86628
G1 X114.066 Y115.005 E9.88844
G1 X113.847 Y115.359 E9.90228
G1 X113.717 Y115.573 E9.91061
G1 X113.557 Y115.957 E9.92445
G1 X113.463 Y116.189 E9.93277
G1 X113.307 Y116.837 E9.95494
G1 X113.254 Y117.5 E9.97706
G1 X113.307 Y118.163 E9.99918
G1 X113.463 Y118.811 E10.02135
G1 X113.717 Y119.427 E10.04351
G1 X114.066 Y119.995 E10.06569
G1 X114.498 Y120.502 E10.08784
G1 X115.005 Y120.934 E10.10999
G1 X115.359 Y121.153 E10.12384
G1 X115.573 Y121.283 E10.13217
G1 X115.957 Y121.443 E10.146
G1 X116.189 Y121.537 E10.15433
G1 X116.837 Y121.693 E10.1765
G1 X117.5 Y121.746 E10.19862
G1 X118.163 Y121.693 E10.22074
G1 X118.811 Y121.537 E10.24291
G1 X119.427 Y121.283 E10.26507
G1 X119.995 Y120.934 E10.28724
G1 X120.502 Y120.502 E10.3094
G1 X120.934 Y119.995 E10.33155
G1 X121.153 Y119.641 E10.3454
G1 X121.283 Y119.427 E10.35373
G1 X121.494 Y118.92 E10.37199
G1 X121.493 Y118.919 E10.37204
G0 F6000 X121.991 Y118.805
G1 F2700 E5.37204
G0 F6000 X120.344 Y121.413
G0 X119.484 Y120.234
G0 X121.97 Y127.175
G0 X121.266 Y125.88
G0 X119.982 Y126.565
;TYPE:WALL-INNER
G1 F2700 E10.37204
G1 F1200 X118.581 Y126.835 E10.41949
G1 X117.137 Y126.891 E10.46756
G1 X115.713 Y126.727 E10.51523
G1 X114.325 Y126.345 E10.56311
G1 X113.011 Y125.756 E10.61101
G1 X111.799 Y124.97 E10.65905
G1 X110.73 Y124.019 E10.70664
G1 X109.812 Y122.905 E10.75465
G1 X109.08 Y121.674 E10.80229
G1 X108.54 Y120.335 E10.85031
G1 X108.21 Y118.924 E10.8985
G1 X108.102 Y117.492 E10.94627
G1 X108.211 Y116.071 E10.99367
G1 X108.537 Y114.674 E11.04138
G1 X109.079 Y113.328 E11.08964
G1 X109.812 Y112.095 E11.13735
G1 X110.73 Y110.981 E11.18536
G1 X111.799 Y110.03 E11.23295
G1 X113.011 Y109.244 E11.281
G1 X114.325 Y108.655 E11.32889
G1 X115.713 Y108.273 E11.37677
G1 X117.137 Y108.109 E11.42445
G1 X118.581 Y108.165 E11.47251
G1 X119.994 Y108.438 E11.52038
G1 X121.34 Y108.921 E11.56794
