;FLAVOR:Marlin
;TIME:2795
;Filament used: 2.1078m
;Layer height: 0.28
;MINX:96.786
;MINY:99.998
;MINZ:0.28
;MAXX:138.214
;MAXY:134.876
;MAXZ:49.84
;Generated with Cura_SteamEngine 4.7.0
M140 S70
M105
M190 S70
M104 S240
M105
M109 S240
M82 ;absolute extrusion mode
; Ender 3 Custom Start G-code
G92 E0 ; Reset Extruder
G28 ; Home all axes
G1 Z2.0 F3000 ; Move Z Axis up little to prevent scratching of Heat Bed
G1 X0.1 Y20 Z0.3 F5000.0 ; Move to start position
G1 X0.1 Y200.0 Z0.3 F1500.0 E15 ; Draw the first line
G1 X0.4 Y200.0 Z0.3 F5000.0 ; Move to side a little
G1 X0.4 Y20 Z0.3 F1500.0 E30 ; Draw the second line
G92 E0 ; Reset Extruder
G1 Z2.0 F3000 ; Move Z Axis up little to prevent scratching of Heat Bed
G1 X5 Y20 Z0.3 F5000.0 ; Move over to prevent blob squish
G92 E0
G92 E0
G1 F2700 E-5
;LAYER_COUNT:178
;LAYER:0
M107
G0 F6000 X100.126 Y103.232 Z0.28
;TYPE:SKIRT
G1 F2700 E0
G1 F900 X100.817 Y102.598 E0.04367
G1 X101.559 Y102.024 E0.08735
G1 X102.348 Y101.517 E0.13102
G1 X103.176 Y101.078 E0.17466
G1 X104.04 Y100.711 E0.21837
G1 X104.931 Y100.419 E0.26203
G1 X105.844 Y100.205 E0.30569
G1 X106.772 Y100.068 E0.34937
G1 X107.533 Y100.016 E0.38489
G1 X107.681 Y100.011 E0.39179
G1 X107.915 Y100.006 E0.40269
G1 X108.577 Y99.999 E0.43351
G1 X109.078 Y100.001 E0.45684
G1 X126.167 Y100 E1.25258
G1 X126.35 Y99.998 E1.2611
G1 X127.253 Y100.011 E1.30315
G1 X128.19 Y100.065 E1.34685
G1 X129.118 Y100.198 E1.39051
G1 X130.032 Y100.409 E1.43419
G1 X130.924 Y100.698 E1.47785
G1 X131.789 Y101.062 E1.52155
G1 X132.619 Y101.498 E1.5652
G1 X133.409 Y102.003 E1.60886
G1 X134.154 Y102.573 E1.65254
G1 X134.908 Y103.266 E1.70023
G1 X135.02 Y103.379 E1.70764
G1 X135.651 Y104.073 E1.75131
G1 X136.221 Y104.818 E1.79499
G1 X136.725 Y105.609 E1.83866
G1 X137.16 Y106.44 E1.88234
G1 X137.523 Y107.304 E1.92598
G1 X137.811 Y108.197 E1.96967
G1 X138.021 Y109.111 E2.01334
G1 X138.154 Y110.04 E2.05704
G1 X138.204 Y110.858 E2.0952
G1 X138.212 Y111.19 E2.11066
G1 X138.214 Y111.623 E2.13082
G1 X138.206 Y112.147 E2.15523
G1 X138.151 Y113.083 E2.19889
G1 X137.968 Y114.258 E2.25426
G1 X137.889 Y114.631 E2.27201
G1 X137.618 Y115.662 E2.32165
G1 X137.541 Y115.906 E2.33356
G1 X137.296 Y116.6 E2.36783
G1 X137.151 Y116.971 E2.38638
G1 X136.775 Y117.825 E2.42983
G1 X136.498 Y118.385 E2.45892
G1 X135.697 Y119.943 E2.5405
G1 X134.6 Y122.233 E2.65873
G1 X133.586 Y124.513 E2.77492
G1 X132.687 Y126.687 E2.88447
G1 X132.399 Y127.408 E2.92062
G1 X132.014 Y128.263 E2.96428
G1 X131.608 Y129.001 E3.0035
G1 X131.47 Y129.23 E3.01595
G1 X130.952 Y130.012 E3.05963
G1 X130.369 Y130.746 E3.10328
G1 X129.726 Y131.429 E3.14696
G1 X129.027 Y132.055 E3.19065
G1 X128.277 Y132.618 E3.23432
G1 X127.482 Y133.116 E3.278
G1 X126.597 Y133.568 E3.32427
G1 X126.368 Y133.672 E3.33599
G1 X126.08 Y133.797 E3.3506
G1 X125.673 Y133.968 E3.37116
G1 X124.362 Y134.424 E3.43579
G1 X124.186 Y134.473 E3.4443
G1 X123.273 Y134.686 E3.48796
G1 X122.345 Y134.82 E3.53162
G1 X121.099 Y134.875 E3.58969
G1 X119.762 Y134.866 E3.65195
G1 X115.214 Y134.866 E3.86372
G1 X113.809 Y134.876 E3.92915
G1 X112.872 Y134.842 E3.97281
G1 X111.941 Y134.729 E4.01648
G1 X111.316 Y134.608 E4.04612
G1 X111.236 Y134.59 E4.04994
G1 X110.331 Y134.345 E4.09359
G1 X109.171 Y133.904 E4.15138
G1 X108.644 Y133.669 E4.17825
G1 X107.837 Y133.269 E4.22019
G1 X107.629 Y133.155 E4.23123
G1 X106.827 Y132.67 E4.27488
G1 X106.068 Y132.118 E4.31858
G1 X105.36 Y131.503 E4.36224
G1 X104.707 Y130.83 E4.40591
G1 X104.113 Y130.105 E4.44955
G1 X103.524 Y129.236 E4.49844
G1 X103.449 Y129.113 E4.50514
G1 X102.996 Y128.292 E4.54881
G1 X102.641 Y127.505 E4.58901
G1 X102.12 Y126.215 E4.65379
G1 X101.147 Y123.898 E4.77081
G1 X100.109 Y121.612 E4.88771
G1 X98.981 Y119.301 E5.00746
G1 X98.451 Y118.278 E5.0611
G1 X98.266 Y117.909 E5.08032
G1 X97.859 Y116.998 E5.12679
G1 X97.755 Y116.733 E5.14004
G1 X97.67 Y116.508 E5.15124
G1 X97.566 Y116.225 E5.16528
G1 X97.196 Y115.002 E5.22478
G1 X97.146 Y114.794 E5.23474
G1 X97.058 Y114.397 E5.25367
G1 X97.009 Y114.154 E5.26522
G1 X96.863 Y113.228 E5.30887
G1 X96.802 Y112.458 E5.34483
G1 X96.798 Y112.366 E5.34912
G1 X96.789 Y112.008 E5.3658
G1 X96.786 Y111.733 E5.3786
G1 X96.786 Y111.456 E5.3915
G1 X96.793 Y110.965 E5.41437
G1 X96.846 Y110.029 E5.45802
G1 X96.979 Y109.1 E5.50172
G1 X97.191 Y108.187 E5.54536
G1 X97.479 Y107.294 E5.58905
G1 X97.843 Y106.43 E5.63271
G1 X98.279 Y105.599 E5.67641
G1 X98.784 Y104.809 E5.72007
G1 X99.354 Y104.065 E5.76371
G1 X100.014 Y103.344 E5.80922
G1 X100.126 Y103.232 E5.8166
G0 F6000 X100.409 Y103.515
G1 F900 X101.087 Y102.893 E5.85944
G1 X101.817 Y102.332 E5.90231
G1 X102.593 Y101.836 E5.9452
G1 X103.409 Y101.41 E5.98806
G1 X104.259 Y101.056 E6.03094
G1 X105.137 Y100.778 E6.07382
G1 X106.035 Y100.576 E6.11668
G1 X106.948 Y100.453 E6.15958
G1 X107.546 Y100.416 E6.18747
G1 X107.694 Y100.411 E6.19437
G1 X107.92 Y100.406 E6.2049
G1 X108.575 Y100.399 E6.2354
G1 X109.076 Y100.401 E6.25873
G1 X126.191 Y100.4 E7.05567
G1 X126.191 Y100.404 E7.05586
G1 X126.345 Y100.398 E7.06303
G1 X127.248 Y100.411 E7.10509
G1 X128.167 Y100.464 E7.14795
G1 X129.078 Y100.597 E7.19082
G1 X129.974 Y100.808 E7.23368
G1 X130.848 Y101.097 E7.27655
G1 X131.694 Y101.46 E7.31941
G1 X132.506 Y101.895 E7.36231
G1 X133.276 Y102.399 E7.40516
G1 X134 Y102.968 E7.44804
G1 X134.624 Y103.548 E7.48771
G1 X134.736 Y103.661 E7.49511
G1 X135.355 Y104.342 E7.53797
G1 X135.912 Y105.075 E7.58083
G1 X136.404 Y105.853 E7.6237
G1 X136.827 Y106.671 E7.66658
G1 X137.177 Y107.523 E7.70947
G1 X137.452 Y108.401 E7.75231
G1 X137.649 Y109.301 E7.79521
G1 X137.768 Y110.214 E7.83808
G1 X137.804 Y110.868 E7.86858
G1 X137.812 Y111.2 E7.88405
G1 X137.814 Y111.617 E7.90346
G1 X137.806 Y112.141 E7.92787
G1 X137.752 Y113.06 E7.97073
G1 X137.577 Y114.175 E8.02329
G1 X137.498 Y114.548 E8.04104
G1 X137.237 Y115.542 E8.08889
G1 X137.16 Y115.786 E8.10081
G1 X136.924 Y116.455 E8.13384
G1 X136.779 Y116.826 E8.15239
G1 X136.416 Y117.649 E8.19427
G1 X136.225 Y118.037 E8.21441
G1 X136.142 Y118.202 E8.22301
G1 X135.338 Y119.766 E8.3049
G1 X134.251 Y122.034 E8.42201
G1 X133.203 Y124.393 E8.5422
G1 X132.364 Y126.42 E8.64436
G1 X132.028 Y127.26 E8.68648
G1 X131.649 Y128.099 E8.72935
G1 X131.265 Y128.794 E8.76632
G1 X131.127 Y129.023 E8.77877
G1 X130.618 Y129.79 E8.82164
G1 X130.044 Y130.51 E8.86451
G1 X129.41 Y131.178 E8.9074
G1 X128.721 Y131.788 E8.95025
G1 X127.981 Y132.336 E8.99312
G1 X127.196 Y132.818 E9.03602
G1 X126.431 Y133.203 E9.0759
G1 X126.202 Y133.307 E9.08761
G1 X125.925 Y133.428 E9.10168
G1 X125.518 Y133.599 E9.12224
G1 X124.255 Y134.039 E9.18452
G1 X124.079 Y134.088 E9.19302
G1 X123.182 Y134.296 E9.2359
G1 X122.271 Y134.425 E9.27874
G1 X121.104 Y134.475 E9.33313
G1 X119.764 Y134.466 E9.39553
G1 X115.211 Y134.466 E9.60754
G1 X113.806 Y134.476 E9.67296
G1 X112.886 Y134.442 E9.71583
G1 X111.973 Y134.329 E9.75867
G1 X111.404 Y134.217 E9.78567
G1 X111.324 Y134.199 E9.78949
G1 X110.436 Y133.959 E9.83232
G1 X109.334 Y133.539 E9.88724
G1 X108.807 Y133.304 E9.9141
G1 X108.029 Y132.918 E9.95455
G1 X107.821 Y132.804 E9.96559
G1 X107.034 Y132.327 E10.00844
G1 X106.291 Y131.784 E10.05129
G1 X105.598 Y131.178 E10.09416
G1 X104.96 Y130.514 E10.13704
G1 X104.382 Y129.797 E10.17992
G1 X103.866 Y129.027 E10.22308
G1 X103.791 Y128.904 E10.22979
G1 X103.346 Y128.098 E10.27266
G1 X103.012 Y127.356 E10.31055
G1 X102.491 Y126.066 E10.37533
G1 X101.516 Y123.745 E10.49256
G1 X100.461 Y121.421 E10.6114
G1 X99.346 Y119.137 E10.72975
G1 X98.808 Y118.099 E10.78419
G1 X98.623 Y117.73 E10.80341
G1 X98.232 Y116.851 E10.84821
G1 X98.128 Y116.586 E10.86146
G1 X98.046 Y116.37 E10.87222
G1 X97.942 Y116.087 E10.88626
G1 X97.585 Y114.909 E10.94358
G1 X97.535 Y114.701 E10.95354
G1 X97.45 Y114.318 E10.97181
G1 X97.401 Y114.075 E10.98335
G1 X97.259 Y113.166 E11.02619
G1 X97.202 Y112.44 E11.0601
G1 X97.198 Y112.348 E11.06439
G1 X97.189 Y112.004 E11.08041
G1 X97.186 Y111.729 E11.09322
G1 X97.186 Y111.462 E11.10565
G1 X97.193 Y110.971 E11.12851
G1 X97.246 Y110.052 E11.17138
G1 X97.379 Y109.141 E11.21425
G1 X97.59 Y108.245 E11.25711
G1 X97.878 Y107.37 E11.3
G1 X98.241 Y106.524 E11.34287
G1 X98.676 Y105.713 E11.38572
G1 X99.18 Y104.942 E11.42861
G1 X99.749 Y104.218 E11.47149
G1 X100.297 Y103.627 E11.50902
G1 X100.409 Y103.515 E11.5164
G0 F6000 X100.692 Y103.798
G1 F900 X101.358 Y103.188 E11.55845
G1 X102.075 Y102.639 E11.6005
G1 X102.839 Y102.157 E11.64256
G1 X103.642 Y101.743 E11.68463
G1 X104.478 Y101.403 E11.72666
G1 X105.341 Y101.137 E11.76871
G1 X106.224 Y100.949 E11.81074
G1 X107.56 Y100.816 E11.87326
G1 X107.925 Y100.806 E11.89026
G1 X108.574 Y100.799 E11.92048
G1 X109.075 Y100.801 E11.94381
G1 X126.191 Y100.8 E12.74081
G1 X126.191 Y100.802 E12.7409
G1 X126.339 Y100.798 E12.74779
G1 X127.242 Y100.811 E12.78985
G1 X128.143 Y100.864 E12.83187
G1 X129.037 Y100.997 E12.87396
G1 X129.915 Y101.208 E12.91601
G1 X130.771 Y101.495 E12.95805
G1 X131.598 Y101.858 E13.0001
G1 X132.39 Y102.292 E13.04215
G1 X133.14 Y102.794 E13.08418
G1 X133.843 Y103.361 E13.12623
G1 X134.339 Y103.83 E13.15802
G1 X134.451 Y103.943 E13.16543
G1 X135.058 Y104.612 E13.20749
G1 X135.603 Y105.332 E13.24954
G1 X136.083 Y106.097 E13.29159
G1 X136.493 Y106.902 E13.33366
G1 X136.83 Y107.74 E13.37571
G1 X137.091 Y108.604 E13.41774
G1 X137.275 Y109.488 E13.45979
G1 X137.38 Y110.385 E13.50184
G1 X137.404 Y110.877 E13.52478
G1 X137.412 Y111.209 E13.54024
G1 X137.414 Y111.611 E13.55896
G1 X137.406 Y112.135 E13.58336
G1 X137.352 Y113.036 E13.62539
G1 X137.186 Y114.092 E13.67517
G1 X137.107 Y114.465 E13.69292
G1 X136.855 Y115.422 E13.739
G1 X136.778 Y115.666 E13.75092
G1 X136.551 Y116.309 E13.78267
G1 X136.406 Y116.68 E13.80122
G1 X136.057 Y117.472 E13.84152
G1 X135.866 Y117.86 E13.86165
G1 X135.786 Y118.019 E13.86994
G1 X134.986 Y119.576 E13.95145
G1 X133.877 Y121.891 E14.07098
G1 X132.853 Y124.193 E14.1883
G1 X131.948 Y126.381 E14.29855
G1 X131.656 Y127.111 E14.33516
G1 X131.284 Y127.934 E14.37722
G1 X130.922 Y128.588 E14.41202
G1 X130.784 Y128.817 E14.42447
G1 X130.284 Y129.569 E14.46652
G1 X129.72 Y130.274 E14.50856
G1 X129.095 Y130.926 E14.55062
G1 X128.415 Y131.52 E14.59266
G1 X127.686 Y132.052 E14.63468
G1 X126.912 Y132.518 E14.67675
G1 X126.266 Y132.839 E14.71034
G1 X126.037 Y132.943 E14.72205
G1 X125.77 Y133.06 E14.73563
G1 X125.363 Y133.231 E14.75618
G1 X124.148 Y133.653 E14.81607
G1 X123.972 Y133.702 E14.82458
G1 X123.092 Y133.906 E14.86664
G1 X122.197 Y134.031 E14.90872
G1 X121.109 Y134.075 E14.95943
G1 X119.767 Y134.066 E15.02192
G1 X115.209 Y134.066 E15.23416
G1 X113.804 Y134.076 E15.29958
G1 X112.901 Y134.042 E15.34166
G1 X112.005 Y133.929 E15.38371
G1 X111.492 Y133.827 E15.40807
G1 X111.412 Y133.809 E15.41188
G1 X110.541 Y133.572 E15.45392
G1 X109.497 Y133.174 E15.50594
G1 X108.97 Y132.939 E15.53281
G1 X108.222 Y132.568 E15.57169
G1 X108.014 Y132.454 E15.58273
G1 X107.242 Y131.985 E15.6248
G1 X106.514 Y131.45 E15.66686
G1 X105.837 Y130.852 E15.70892
G1 X105.215 Y130.197 E15.75098
G1 X104.654 Y129.49 E15.79301
G1 X104.207 Y128.819 E15.83055
G1 X104.132 Y128.696 E15.83726
G1 X103.697 Y127.905 E15.8793
G1 X103.383 Y127.206 E15.91498
G1 X102.891 Y125.989 E15.9761
G1 X101.872 Y123.56 E16.09876
G1 X100.827 Y121.259 E16.21643
G1 X99.695 Y118.939 E16.33663
G1 X99.166 Y117.919 E16.39014
G1 X98.981 Y117.55 E16.40936
G1 X98.604 Y116.705 E16.45244
G1 X98.5 Y116.44 E16.4657
G1 X98.421 Y116.232 E16.47606
G1 X98.317 Y115.949 E16.4901
G1 X97.974 Y114.815 E16.54527
G1 X97.924 Y114.607 E16.55523
G1 X97.842 Y114.239 E16.57278
G1 X97.793 Y113.996 E16.58433
G1 X97.654 Y113.104 E16.62636
G1 X97.602 Y112.423 E16.65816
G1 X97.598 Y112.331 E16.66245
G1 X97.589 Y111.999 E16.67792
G1 X97.586 Y111.724 E16.69072
G1 X97.586 Y111.468 E16.70264
G1 X97.593 Y110.977 E16.72551
G1 X97.646 Y110.075 E16.76758
G1 X97.778 Y109.182 E16.80962
G1 X97.989 Y108.304 E16.85166
G1 X98.277 Y107.448 E16.89372
G1 X98.639 Y106.62 E16.9358
G1 X99.073 Y105.828 E16.97785
G1 X99.576 Y105.078 E17.0199
G1 X100.142 Y104.375 E17.06193
G1 X100.58 Y103.91 E17.09167
G1 X100.692 Y103.798 E17.09905
G1 F2700 E12.09905
G0 F6000 X107.896 Y113.857
G0 X116.077 Y118.141
G0 X116.543 Y118.141
G1 F2700 E17.09905
G1 F900 X118.458 Y118.14 E17.18822
G1 X118.457 Y120.066 E17.2779
G1 X116.542 Y120.066 E17.36707
G1 X116.543 Y118.141 E17.45671
G0 F6000 X116.143 Y117.741
G1 F900 X118.858 Y117.74 E17.58313
G1 X118.857 Y120.466 E17.71006
G1 X116.142 Y120.466 E17.83648
G1 X116.143 Y117.741 E17.96337
G0 F6000 X115.743 Y117.341
G1 F900 X119.258 Y117.34 E18.12704
G1 X119.257 Y120.866 E18.29123
G1 X115.742 Y120.866 E18.4549
G1 X115.743 Y117.341 E18.61904
G0 F6000 X115.343 Y116.941
G1 F900 X119.658 Y116.94 E18.81997
G1 X119.657 Y121.266 E19.0214
G1 X115.342 Y121.266 E19.22233
G1 X115.343 Y116.941 E19.42372
G0 F6000 X114.943 Y116.541
G1 F900 X120.058 Y116.54 E19.66189
G1 X120.057 Y121.666 E19.90058
G1 X114.942 Y121.666 E20.13876
G1 X114.943 Y116.541 E20.3774
G0 F6000 X114.543 Y116.141
G1 F900 X120.458 Y116.14 E20.65283
G1 X120.457 Y122.066 E20.92876
G1 X114.542 Y122.066 E21.20419
G1 X114.543 Y116.141 E21.48008
G0 F6000 X114.143 Y115.741
G1 F900 X120.858 Y115.74 E21.79276
G1 X120.857 Y122.466 E22.10595
G1 X114.142 Y122.466 E22.41863
G1 X114.143 Y115.741 E22.73178
G0 F6000 X113.743 Y115.341
G1 F900 X121.258 Y115.34 E23.08171
G1 X121.257 Y122.801 E23.42912
G1 X121.098 Y122.876 E23.43731
G1 X120.902 Y122.866 E23.44645
G1 X114.029 Y122.867 E23.76648
G1 X113.866 Y122.876 E23.77408
G1 X113.742 Y122.817 E23.78048
G1 X113.743 Y115.341 E24.12859
G0 F6000 X113.343 Y114.941
G1 F900 X121.658 Y114.94 E24.51577
G1 X121.657 Y122.952 E24.88885
G1 X121.64 Y123.064 E24.89412
G1 X121.179 Y123.28 E24.91783
G1 X120.902 Y123.266 E24.93074
G1 X114.051 Y123.267 E25.24975
G1 X113.789 Y123.281 E25.26197
G1 X113.359 Y123.08 E25.28407
G1 X113.342 Y122.935 E25.29087
G1 X113.343 Y114.941 E25.6631
G0 F6000 X112.943 Y114.541
G1 F900 X122.058 Y114.54 E26.08754
G1 X122.057 Y122.979 E26.48049
G1 X122.039 Y123.109 E26.4866
G1 X122.019 Y123.229 E26.49227
G1 X121.957 Y123.361 E26.49906
G1 X121.949 Y123.361 E26.49943
G1 X121.272 Y123.678 E26.53424
G1 X121.248 Y123.684 E26.53539
G1 X120.913 Y123.666 E26.55101
G1 X114.073 Y123.666 E26.86951
G1 X113.736 Y123.684 E26.88523
G1 X113.676 Y123.67 E26.88809
G1 X113.058 Y123.38 E26.91988
G1 X113.033 Y123.346 E26.92185
G1 X112.971 Y123.2 E26.92923
G1 X112.942 Y122.957 E26.94063
G1 X112.943 Y114.541 E27.33251
G1 F2700 E22.33251
G0 F6000 X112.944 Y115.005
G0 X116.077 Y118.541
G0 X116.943 Y118.541
;TYPE:SUPPORT
G1 F2700 E27.33251
G1 F900 X118.058 Y118.54 E27.38443
G1 X118.057 Y119.666 E27.43686
G1 X116.942 Y119.666 E27.48878
G1 X116.943 Y118.541 E27.54117
G0 F6000 X117.343 Y118.941
G1 F900 X117.658 Y118.94 E27.55583
G1 X117.657 Y119.266 E27.57101
G1 X117.342 Y119.266 E27.58568
G1 X117.343 Y118.941 E27.60082
G1 F2700 E22.60082
G0 F6000 X117.342 Y117.676
G0 X112.944 Y115.005
G0 X112.943 Y114.141
;TYPE:SUPPORT-INTERFACE
G1 F2700 E27.60082
G1 F900 X112.943 Y113.917 E27.61125
G1 X112.718 Y113.692 E27.62606
G1 X122.283 Y113.692 E28.07145
G1 X122.058 Y113.917 E28.08627
G1 X122.058 Y114.14 E28.09665
G1 X112.943 Y114.141 E28.52108
G1 F2700 E23.52108
;MESH:garbage_bag_Seamless_hook.stl
G0 F6000 X112.943 Y112.272
G0 X109.408 Y111.6
;TYPE:WALL-INNER
G1 F2700 E28.52108
G1 F900 X125.593 Y111.6 E29.27472
G1 X125.593 Y111.941 E29.2906
G1 X125.59 Y111.944 E29.2908
G1 X125.338 Y112.092 E29.30441
G1 X109.663 Y112.092 E30.0343
G1 X109.408 Y111.942 E30.04808
G1 X109.408 Y111.6 E30.064
G0 F6000 X109.008 Y111.2
;TYPE:WALL-OUTER
G1 F900 X125.992 Y111.2 E30.85485
G1 X125.993 Y111.991 E30.89168
G1 X125.976 Y112.124 E30.89792
G1 X125.837 Y112.263 E30.90708
G1 X125.447 Y112.492 E30.92814
G1 X109.555 Y112.492 E31.66813
G1 X109.163 Y112.262 E31.6893
G1 X109.024 Y112.125 E31.69839
G1 X109.008 Y111.986 E31.7049
G1 X109.008 Y111.2 E31.7415
G0 F6000 X109.794 Y111.774
;TYPE:SKIN
G1 F900 X109.936 Y111.915 E31.74616
G0 F6000 X110.147 Y111.844
G1 F900 X110.43 Y111.844 E31.75089
G1 X119.765 Y111.845 E31.90684
G1 X125.139 Y111.845 E31.99661
G1 X125.383 Y111.807 E32.00074
G0 F6000 X125.389 Y111.831
G1 F2700 E27.00074
;MESH:NONMESH
