;FLAVOR:Marlin
;TIME:735
;Filament used: 0.504936m
;Layer height: 0.28
;MINX:44.955
;MINY:66.045
;MINZ:0.28
;MAXX:190.043
;MAXY:168.937
;MAXZ:0.56
;Generated with Cura_SteamEngine 4.7.0
M140 S55
M105
M190 S55
M104 S210
M105
M109 S210
M82 ;absolute extrusion mode
; Ender 3 Custom Start G-code
G92 E0 ; Reset Extruder
G28 ; Home all axes
G1 Z2.0 F3000 ; Move Z Axis up little to prevent scratching of Heat Bed
G1 X0.1 Y20 Z0.3 F5000.0 ; Move to start position
G1 X0.1 Y200.0 Z0.3 F1500.0 E15 ; Draw the first line
G1 X0.4 Y200.0 Z0.3 F5000.0 ; Move to side a little
G1 X0.4 Y20 Z0.3 F1500.0 E30 ; Draw the second line
G92 E0 ; Reset Extruder
G1 Z2.0 F3000 ; Move Z Axis up little to prevent scratching of Heat Bed
G1 X5 Y20 Z0.3 F5000.0 ; Move over to prevent blob squish
G92 E0
G92 E0
G1 F2700 E-5
;LAYER_COUNT:2
;LAYER:0
M107
G0 F6000 X55.525 Y69.179 Z0.28
;TYPE:SKIRT
G1 F2700 E0
G1 F1200 X56.249 Y68.616 E0.04271
G1 X56.359 Y68.538 E0.04898
G1 X56.704 Y68.303 E0.06842
G1 X56.935 Y68.153 E0.08125
G1 X57.69 Y67.708 E0.12206
G1 X57.825 Y67.636 E0.12918
G1 X58.251 Y67.422 E0.15138
G1 X58.508 Y67.3 E0.16463
G1 X59.539 Y66.877 E0.21652
G1 X59.81 Y66.783 E0.22987
G1 X60.926 Y66.466 E0.28389
G1 X61.498 Y66.338 E0.31119
G1 X62.387 Y66.18 E0.35323
G1 X62.878 Y66.127 E0.37623
G1 X63.046 Y66.113 E0.38408
G1 X63.722 Y66.079 E0.4156
G1 X64.496 Y66.066 E0.45164
G1 X64.819 Y66.066 E0.46668
G1 X65.297 Y66.073 E0.48894
G1 X67.923 Y66.077 E0.61122
G1 X68.674 Y66.06 E0.6462
G1 X69.876 Y66.047 E0.70217
G1 X70.744 Y66.049 E0.74259
G1 X72.081 Y66.068 E0.80485
G1 X74.711 Y66.068 E0.92732
G1 X75.01 Y66.062 E0.94124
G1 X76.384 Y66.047 E1.00522
G1 X77.264 Y66.048 E1.0462
G1 X78.589 Y66.067 E1.1079
G1 X81.221 Y66.067 E1.23046
G1 X81.57 Y66.059 E1.24672
G1 X82.888 Y66.045 E1.30809
G1 X117.534 Y66.057 E2.92135
G1 X151.948 Y66.045 E4.52381
G1 X153.688 Y66.068 E4.60484
G1 X156.301 Y66.067 E4.72652
G1 X157.715 Y66.047 E4.79236
G1 X158.48 Y66.047 E4.82799
G1 X160.09 Y66.069 E4.90296
G1 X162.751 Y66.069 E5.02687
G1 X163.575 Y66.051 E5.06525
G1 X164.052 Y66.048 E5.08746
G1 X165.144 Y66.048 E5.13831
G1 X166.997 Y66.074 E5.2246
G1 X169.668 Y66.074 E5.34897
G1 X170.402 Y66.063 E5.38315
G1 X170.703 Y66.063 E5.39717
G1 X170.841 Y66.065 E5.40359
G1 X171.171 Y66.075 E5.41897
G1 X171.725 Y66.101 E5.44479
G1 X173.016 Y66.245 E5.50528
G1 X173.351 Y66.304 E5.52112
G1 X174.631 Y66.615 E5.58246
G1 X175.196 Y66.792 E5.61003
G1 X176.328 Y67.222 E5.66641
G1 X176.417 Y67.262 E5.67095
G1 X176.91 Y67.5 E5.69645
G1 X177.168 Y67.633 E5.70996
G1 X177.876 Y68.035 E5.74787
G1 X178.008 Y68.117 E5.75511
G1 X178.41 Y68.379 E5.77745
G1 X178.625 Y68.527 E5.78961
G1 X179.281 Y69.019 E5.82779
G1 X179.394 Y69.111 E5.83457
G1 X179.789 Y69.45 E5.85881
G1 X180.005 Y69.645 E5.87236
G1 X180.624 Y70.253 E5.91276
G1 X180.709 Y70.344 E5.91856
G1 X181.018 Y70.691 E5.9402
G1 X181.214 Y70.921 E5.95427
G1 X181.736 Y71.587 E5.99367
G1 X181.815 Y71.697 E5.99998
G1 X182.07 Y72.069 E6.02098
G1 X182.215 Y72.291 E6.03332
G1 X182.67 Y73.059 E6.07489
G1 X182.747 Y73.203 E6.08249
G1 X182.961 Y73.628 E6.10465
G1 X183.081 Y73.88 E6.11765
G1 X183.37 Y74.545 E6.15141
G1 X183.417 Y74.665 E6.15741
G1 X183.643 Y75.307 E6.1891
G1 X183.731 Y75.585 E6.20268
G1 X183.919 Y76.256 E6.23513
G1 X183.953 Y76.396 E6.24184
G1 X184.072 Y76.953 E6.26836
G1 X184.124 Y77.235 E6.28171
G1 X184.247 Y78.118 E6.32323
G1 X184.259 Y78.244 E6.32912
G1 X184.29 Y78.66 E6.34854
G1 X184.306 Y78.956 E6.36235
G1 X184.315 Y79.859 E6.4044
G1 X184.31 Y80.004 E6.41115
G1 X184.282 Y80.484 E6.43354
G1 X184.259 Y80.765 E6.44667
G1 X184.172 Y81.499 E6.48109
G1 X184.156 Y81.602 E6.48594
G1 X184.053 Y82.163 E6.5125
G1 X183.714 Y83.751 E6.58811
G1 X183.199 Y86.344 E6.71121
G1 X182.777 Y88.84 E6.82908
G1 X182.426 Y91.332 E6.94627
G1 X182.143 Y93.87 E7.06518
G1 X181.934 Y96.388 E7.18283
G1 X181.794 Y98.931 E7.30142
G1 X181.727 Y101.492 E7.42071
G1 X181.732 Y104.032 E7.53899
G1 X181.807 Y106.529 E7.65531
G1 X181.957 Y109.091 E7.77481
G1 X182.179 Y111.645 E7.89418
G1 X182.467 Y114.14 E8.01113
G1 X182.829 Y116.647 E8.12908
G1 X183.266 Y119.167 E8.24817
G1 X183.763 Y121.626 E8.36499
G1 X184.343 Y124.125 E8.48445
G1 X184.98 Y126.552 E8.60129
G1 X185.708 Y129.038 E8.72191
G1 X186.476 Y131.412 E8.83809
G1 X187.323 Y133.797 E8.95594
G1 X188.695 Y137.278 E9.13017
G1 X188.956 Y137.903 E9.16171
G1 X189.17 Y138.46 E9.18949
G1 X189.284 Y138.785 E9.20553
G1 X189.4 Y139.135 E9.2227
G1 X189.432 Y139.238 E9.22772
G1 X189.645 Y140.037 E9.26622
G1 X189.743 Y140.475 E9.28712
G1 X189.825 Y140.879 E9.30632
G1 X189.947 Y141.732 E9.34644
G1 X189.991 Y142.173 E9.36708
G1 X190.018 Y142.501 E9.3824
G1 X190.043 Y143.433 E9.42582
G1 X190.036 Y143.804 E9.44309
G1 X190.026 Y144.115 E9.45758
G1 X190.022 Y144.196 E9.46136
G1 X189.938 Y145.089 E9.50313
G1 X189.883 Y145.487 E9.52183
G1 X189.83 Y145.833 E9.53813
G1 X189.624 Y146.799 E9.58413
G1 X189.502 Y147.26 E9.60633
G1 X189.126 Y148.403 E9.66236
G1 X188.98 Y148.772 E9.68084
G1 X188.84 Y149.107 E9.69774
G1 X188.452 Y149.914 E9.73944
G1 X188.263 Y150.266 E9.75804
G1 X188.105 Y150.55 E9.77318
G1 X187.56 Y151.407 E9.82047
G1 X187.284 Y151.797 E9.84271
G1 X186.55 Y152.717 E9.89752
G1 X186.297 Y152.999 E9.91516
G1 X186.1 Y153.212 E9.92867
G1 X186.024 Y153.292 E9.93381
G1 X185.376 Y153.917 E9.97573
G1 X185.088 Y154.171 E9.99361
G1 X184.822 Y154.398 E10.00989
G1 X184.743 Y154.463 E10.01466
G1 X184.062 Y154.976 E10.05436
G1 X183.764 Y155.182 E10.07122
G1 X183.466 Y155.381 E10.08791
G1 X183.402 Y155.422 E10.09145
G1 X182.662 Y155.853 E10.13133
G1 X182.251 Y156.07 E10.15297
G1 X181.952 Y156.222 E10.16859
G1 X181.068 Y156.651 E10.21434
G1 X158.37 Y167.284 E11.38148
G1 X157.562 Y167.649 E11.42276
G1 X157.3 Y167.763 E11.43607
G1 X157.166 Y167.819 E11.44283
G1 X156.951 Y167.906 E11.45363
G1 X156.693 Y168.007 E11.46653
G1 X155.891 Y168.283 E11.50602
G1 X155.71 Y168.337 E11.51482
G1 X155.408 Y168.422 E11.52943
G1 X155.11 Y168.501 E11.54378
G1 X154.314 Y168.679 E11.58176
G1 X154.06 Y168.725 E11.59378
G1 X153.744 Y168.777 E11.60869
G1 X153.529 Y168.809 E11.61882
G1 X152.814 Y168.89 E11.65232
G1 X152.659 Y168.902 E11.65956
G1 X152.269 Y168.924 E11.67775
G1 X151.935 Y168.937 E11.69331
G1 X151.075 Y168.934 E11.73336
G1 X150.811 Y168.922 E11.74567
G1 X150.475 Y168.902 E11.76134
G1 X150.246 Y168.884 E11.77204
G1 X149.422 Y168.785 E11.81068
G1 X149.211 Y168.751 E11.82063
G1 X148.948 Y168.705 E11.83306
G1 X148.661 Y168.651 E11.84666
G1 X147.857 Y168.466 E11.88508
G1 X147.729 Y168.431 E11.89126
G1 X147.437 Y168.346 E11.90542
G1 X147.123 Y168.25 E11.92071
G1 X146.835 Y168.158 E11.93479
G1 X146.304 Y167.978 E11.96089
G1 X143.836 Y167.183 E12.08163
G1 X141.407 Y166.475 E12.19944
G1 X138.942 Y165.832 E12.31806
G1 X136.491 Y165.265 E12.4352
G1 X133.984 Y164.76 E12.55429
G1 X131.468 Y164.327 E12.67316
G1 X128.947 Y163.966 E12.79175
G1 X126.444 Y163.68 E12.90906
G1 X123.893 Y163.462 E13.02828
G1 X121.387 Y163.318 E13.14516
G1 X118.819 Y163.244 E13.26479
G1 X116.286 Y163.242 E13.38273
G1 X113.753 Y163.312 E13.50072
G1 X111.224 Y163.454 E13.61867
G1 X108.67 Y163.669 E13.73802
G1 X106.184 Y163.951 E13.85452
G1 X103.619 Y164.313 E13.97514
G1 X101.167 Y164.732 E14.09097
G1 X98.632 Y165.239 E14.21135
G1 X96.209 Y165.793 E14.32708
G1 X93.72 Y166.44 E14.44683
G1 X91.285 Y167.146 E14.56489
G1 X88.723 Y167.969 E14.69019
G1 X88.136 Y168.167 E14.71903
G1 X87.866 Y168.254 E14.73224
G1 X87.667 Y168.315 E14.74193
G1 X87.382 Y168.398 E14.75576
G1 X87.131 Y168.467 E14.76788
G1 X86.405 Y168.638 E14.80261
G1 X86.233 Y168.672 E14.81077
G1 X85.853 Y168.74 E14.82875
G1 X85.544 Y168.789 E14.84332
G1 X84.777 Y168.881 E14.87929
G1 X84.569 Y168.898 E14.889
G1 X84.209 Y168.921 E14.9058
G1 X83.928 Y168.934 E14.9189
G1 X83.062 Y168.937 E14.95923
G1 X82.83 Y168.928 E14.97004
G1 X82.578 Y168.915 E14.98179
G1 X82.342 Y168.9 E14.9928
G1 X81.657 Y168.834 E15.02484
G1 X81.49 Y168.812 E15.03268
G1 X81.064 Y168.746 E15.05276
G1 X80.744 Y168.69 E15.06788
G1 X79.843 Y168.49 E15.11086
G1 X79.606 Y168.426 E15.12229
G1 X79.331 Y168.348 E15.1356
G1 X79.078 Y168.272 E15.1479
G1 X78.415 Y168.048 E15.18049
G1 X78.277 Y167.996 E15.18736
G1 X77.915 Y167.851 E15.20551
G1 X77.547 Y167.696 E15.22411
G1 X77.296 Y167.587 E15.23685
G1 X76.678 Y167.306 E15.26846
G1 X53.932 Y156.651 E16.43806
G1 X52.883 Y156.142 E16.49235
G1 X52.611 Y156.004 E16.50655
G1 X52.506 Y155.949 E16.51207
G1 X51.714 Y155.488 E16.55474
G1 X51.264 Y155.198 E16.57967
G1 X50.316 Y154.507 E16.6343
G1 X50.042 Y154.282 E16.6508
G1 X49.792 Y154.07 E16.66607
G1 X49.703 Y153.992 E16.67158
G1 X49.061 Y153.377 E16.71298
G1 X48.81 Y153.115 E16.72987
G1 X48.576 Y152.863 E16.74588
G1 X48.499 Y152.777 E16.75126
G1 X47.954 Y152.115 E16.79119
G1 X47.73 Y151.818 E16.80851
G1 X47.518 Y151.525 E16.82535
G1 X47.462 Y151.445 E16.82989
G1 X46.995 Y150.714 E16.87029
G1 X46.803 Y150.383 E16.8881
G1 X46.637 Y150.086 E16.90395
G1 X46.202 Y149.195 E16.95012
G1 X45.972 Y148.656 E16.9774
G1 X45.945 Y148.59 E16.98072
G1 X45.604 Y147.619 E17.02865
G1 X45.497 Y147.257 E17.04622
G1 X45.402 Y146.915 E17.06275
G1 X45.205 Y146.016 E17.10561
G1 X45.138 Y145.628 E17.12394
G1 X45.078 Y145.24 E17.14222
G1 X45.066 Y145.15 E17.14645
G1 X44.992 Y144.346 E17.18404
G1 X44.97 Y143.934 E17.20326
G1 X44.956 Y143.524 E17.22236
G1 X44.955 Y143.448 E17.2259
G1 X44.975 Y142.658 E17.2627
G1 X44.998 Y142.301 E17.27935
G1 X45.03 Y141.922 E17.29706
G1 X45.04 Y141.824 E17.30165
G1 X45.15 Y141.043 E17.33838
G1 X45.226 Y140.623 E17.35825
G1 X45.368 Y139.965 E17.3896
G1 X45.379 Y139.921 E17.39171
G1 X45.537 Y139.356 E17.41903
G1 X45.679 Y138.901 E17.44122
G1 X45.793 Y138.557 E17.4581
G1 X46.011 Y137.982 E17.48673
G1 X46.456 Y136.906 E17.54095
G1 X47.41 Y134.502 E17.66138
G1 X48.278 Y132.123 E17.7793
G1 X49.089 Y129.685 E17.89894
G1 X49.811 Y127.292 E18.01533
G1 X50.483 Y124.811 E18.13502
G1 X51.072 Y122.371 E18.2519
G1 X51.6 Y119.873 E18.37078
G1 X52.054 Y117.369 E18.48928
G1 X52.435 Y114.875 E18.60676
G1 X52.753 Y112.313 E18.72697
G1 X52.992 Y109.799 E18.84456
G1 X53.162 Y107.263 E18.96292
G1 X53.258 Y104.767 E19.07923
G1 X53.284 Y102.152 E19.201
G1 X53.239 Y99.663 E19.31691
G1 X53.12 Y97.111 E19.43588
G1 X52.93 Y94.583 E19.55392
G1 X52.672 Y92.073 E19.67141
G1 X52.338 Y89.553 E19.78978
G1 X51.932 Y87.026 E19.90896
G1 X51.457 Y84.528 E20.02736
G1 X50.995 Y82.404 E20.12857
G1 X50.921 Y82.031 E20.14628
G1 X50.865 Y81.718 E20.16109
G1 X50.753 Y80.897 E20.19967
G1 X50.741 Y80.772 E20.20552
G1 X50.708 Y80.333 E20.22602
G1 X50.693 Y80.048 E20.23931
G1 X50.685 Y79.153 E20.28098
G1 X50.69 Y79.011 E20.2876
G1 X50.72 Y78.509 E20.31102
G1 X50.746 Y78.202 E20.32536
G1 X50.855 Y77.346 E20.36554
G1 X50.869 Y77.264 E20.36942
G1 X50.952 Y76.835 E20.38976
G1 X51.02 Y76.519 E20.40481
G1 X51.22 Y75.741 E20.44222
G1 X51.258 Y75.614 E20.44839
G1 X51.415 Y75.132 E20.472
G1 X51.511 Y74.861 E20.48538
G1 X51.832 Y74.064 E20.52539
G1 X51.884 Y73.949 E20.53127
G1 X52.098 Y73.505 E20.55422
G1 X52.229 Y73.249 E20.56761
G1 X52.677 Y72.461 E20.60982
G1 X52.762 Y72.326 E20.61725
G1 X52.992 Y71.977 E20.63671
G1 X53.14 Y71.762 E20.64886
G1 X53.632 Y71.106 E20.68705
G1 X53.724 Y70.993 E20.69383
G1 X54.096 Y70.562 E20.72034
G1 X54.302 Y70.336 E20.73458
G1 X54.855 Y69.774 E20.7713
G1 X54.938 Y69.696 E20.7766
G1 X55.299 Y69.372 E20.79919
G1 X55.525 Y69.179 E20.81302
G1 F2700 E15.81302
;MESH:S_Version.stl
G0 F6000 X171.388 Y75.624
G0 X172.377 Y75.889
G0 X173.263 Y76.401
G0 X173.987 Y77.125
G0 X174.499 Y78.011
G0 X174.763 Y78.999
G0 X174.763 Y80.023
G0 X174.499 Y81.012
G0 X173.987 Y81.898
G0 X173.263 Y82.621
G0 X124.666 Y114.067
G0 X172.164 Y144.904
G0 X170.709 Y144.779
G0 X171.569 Y146.225
;TYPE:WALL-INNER
G1 F2700 E20.81302
G1 F1200 X171.808 Y146.362 E20.82585
G1 X172.068 Y146.456 E20.83873
G1 X172.339 Y146.503 E20.85153
G1 X172.613 Y146.503 E20.86429
G1 X172.885 Y146.455 E20.87715
G1 X173.118 Y146.368 E20.88873
G1 X177.29 Y144.414 E21.10325
G1 X177.507 Y144.289 E21.11491
G1 X177.717 Y144.112 E21.1277
G1 X177.894 Y143.901 E21.14052
G1 X178.031 Y143.662 E21.15335
G1 X178.125 Y143.403 E21.16618
G1 X178.172 Y143.132 E21.17899
G1 X178.172 Y142.857 E21.19179
G1 X178.124 Y142.585 E21.20466
G1 X178.028 Y142.327 E21.21747
G1 X177.89 Y142.089 E21.23028
G1 X177.714 Y141.88 E21.24301
G1 X177.503 Y141.701 E21.25589
G1 X177.262 Y141.565 E21.26878
G1 X177.006 Y141.472 E21.28146
G1 X176.734 Y141.424 E21.29432
G1 X176.458 Y141.425 E21.30717
G1 X176.189 Y141.472 E21.31989
G1 X175.954 Y141.558 E21.33154
G1 X171.78 Y143.514 E21.54618
G1 X171.567 Y143.638 E21.55766
G1 X171.356 Y143.815 E21.57048
G1 X171.178 Y144.026 E21.58334
G1 X171.041 Y144.265 E21.59616
G1 X170.947 Y144.525 E21.60904
G1 X170.9 Y144.796 E21.62185
G1 X170.9 Y145.07 E21.6346
G1 X170.948 Y145.342 E21.64746
G1 X171.044 Y145.6 E21.66028
G1 X171.181 Y145.838 E21.67307
G1 X171.358 Y146.048 E21.68586
G1 X171.569 Y146.225 E21.69868
G0 F6000 X171.799 Y145.896
;TYPE:WALL-OUTER
G1 F1200 X171.977 Y145.998 E21.70824
G1 X172.171 Y146.068 E21.71784
G1 X172.373 Y146.103 E21.72739
G1 X172.578 Y146.103 E21.73693
G1 X172.78 Y146.067 E21.74649
G1 X172.964 Y145.999 E21.75562
G1 X177.105 Y144.059 E21.96855
G1 X177.276 Y143.96 E21.97775
G1 X177.433 Y143.828 E21.98731
G1 X177.565 Y143.671 E21.99686
G1 X177.667 Y143.493 E22.00641
G1 X177.737 Y143.3 E22.01597
G1 X177.772 Y143.098 E22.02551
G1 X177.772 Y142.892 E22.03511
G1 X177.736 Y142.69 E22.04466
G1 X177.665 Y142.498 E22.05419
G1 X177.562 Y142.32 E22.06377
G1 X177.43 Y142.164 E22.07328
G1 X177.273 Y142.031 E22.08287
G1 X177.094 Y141.93 E22.09244
G1 X176.902 Y141.86 E22.10195
G1 X176.7 Y141.824 E22.11151
G1 X176.494 Y141.825 E22.1211
G1 X176.293 Y141.86 E22.1306
G1 X176.108 Y141.928 E22.13978
G1 X171.966 Y143.869 E22.35277
G1 X171.797 Y143.967 E22.36187
G1 X171.639 Y144.099 E22.37146
G1 X171.507 Y144.256 E22.38101
G1 X171.405 Y144.434 E22.39056
G1 X171.335 Y144.628 E22.40016
G1 X171.3 Y144.83 E22.40971
G1 X171.3 Y145.035 E22.41926
G1 X171.336 Y145.237 E22.42881
G1 X171.407 Y145.429 E22.43834
G1 X171.51 Y145.607 E22.44792
G1 X171.642 Y145.764 E22.45747
G1 X171.799 Y145.896 E22.46702
G0 F6000 X171.548 Y146.256
G1 F2700 E17.46702
G0 F6000 X171.024 Y145.948
G0 X170.131 Y146.479
G0 X170.242 Y146.879
G0 X170.171 Y147.708
G0 X169.821 Y148.461
G0 X169.235 Y149.05
G0 X163.33 Y152.033
;TYPE:WALL-INNER
G1 F2700 E22.46702
G1 F1200 X168.965 Y149.393 E22.75678
G1 X169.327 Y149.182 E22.77629
G1 X169.667 Y148.894 E22.79704
G1 X169.953 Y148.554 E22.81772
G1 X170.175 Y148.168 E22.83846
G1 X170.327 Y147.75 E22.85917
G1 X170.404 Y147.31 E22.87997
G1 X170.403 Y146.864 E22.90074
G1 X170.325 Y146.426 E22.92145
G1 X170.172 Y146.008 E22.94218
G1 X169.948 Y145.622 E22.96296
G1 X169.661 Y145.283 E22.98364
G1 X169.32 Y144.995 E23.00443
G1 X168.933 Y144.775 E23.02516
G1 X168.516 Y144.623 E23.04582
G1 X168.076 Y144.546 E23.06662
G1 X167.631 Y144.547 E23.08734
G1 X167.193 Y144.624 E23.10805
G1 X166.798 Y144.768 E23.12763
G1 X161.166 Y147.418 E23.41746
G1 X161.814 Y148.798 E23.48845
G1 X166.15 Y146.768 E23.71138
G1 X166.307 Y146.73 E23.7189
G1 X166.48 Y146.716 E23.72699
G1 X166.651 Y146.733 E23.73499
G1 X166.813 Y146.776 E23.74279
G1 X166.977 Y146.852 E23.75121
G1 X167.116 Y146.947 E23.75905
G1 X167.244 Y147.07 E23.76731
G1 X167.341 Y147.202 E23.77494
G1 X167.422 Y147.364 E23.78338
G1 X167.471 Y147.521 E23.79103
G1 X167.494 Y147.695 E23.79921
G1 X167.487 Y147.868 E23.80727
G1 X167.451 Y148.038 E23.81536
G1 X167.388 Y148.198 E23.82337
G1 X167.302 Y148.341 E23.83114
G1 X167.186 Y148.475 E23.83939
G1 X167.054 Y148.584 E23.84736
G1 X166.878 Y148.686 E23.85683
G1 X162.861 Y150.568 E24.06339
G1 X162.681 Y150.652 E24.07264
G1 X162.765 Y150.832 E24.07862
G1 X163.33 Y152.033 E24.14042
G0 F6000 X163.522 Y151.501
;TYPE:WALL-OUTER
G1 F1200 X168.779 Y149.038 E24.41075
G1 X169.096 Y148.854 E24.42781
G1 X169.383 Y148.611 E24.44533
G1 X169.624 Y148.324 E24.46278
G1 X169.811 Y147.999 E24.48024
G1 X169.939 Y147.646 E24.49772
G1 X170.004 Y147.276 E24.51521
G1 X170.003 Y146.9 E24.53272
G1 X169.937 Y146.531 E24.55018
G1 X169.808 Y146.178 E24.56768
G1 X169.62 Y145.853 E24.58516
G1 X169.378 Y145.567 E24.6026
