;FLAVOR:Marlin
;TIME:2750
;Filament used: 0.991417m
;Layer height: 0.12
;MINX:96.927
;MINY:96.952
;MINZ:0.12
;MAXX:138.134
;MAXY:138.057
;MAXZ:15.96
;Generated with Cura_SteamEngine 4.7.0
M140 S55
M105
M190 S55
M104 S210
M105
M109 S210
M82 ;absolute extrusion mode
; Ender 3 Custom Start G-code
G92 E0 ; Reset Extruder
G28 ; Home all axes
G1 Z2.0 F3000 ; Move Z Axis up little to prevent scratching of Heat Bed
G1 X0.1 Y20 Z0.3 F5000.0 ; Move to start position
G1 X0.1 Y200.0 Z0.3 F1500.0 E15 ; Draw the first line
G1 X0.4 Y200.0 Z0.3 F5000.0 ; Move to side a little
G1 X0.4 Y20 Z0.3 F1500.0 E30 ; Draw the second line
G92 E0 ; Reset Extruder
G1 Z2.0 F3000 ; Move Z Axis up little to prevent scratching of Heat Bed
G1 X5 Y20 Z0.3 F5000.0 ; Move over to prevent blob squish
G92 E0
G92 E0
G1 F2700 E-5
;LAYER_COUNT:133
;LAYER:0
M107
G0 F6000 X103.081 Y102.768 Z0.12
;TYPE:SKIRT
G1 F2700 E0
G1 F1200 X103.787 Y102.17 E0.01846
G1 X104.436 Y101.666 E0.03486
G1 X104.595 Y101.545 E0.03885
G1 X105.17 Y101.115 E0.05318
G1 X105.841 Y100.627 E0.06974
G1 X106.331 Y100.291 E0.08159
G1 X106.591 Y100.123 E0.08777
G1 X106.885 Y99.94 E0.09468
G1 X107.212 Y99.743 E0.1023
G1 X107.649 Y99.493 E0.11235
G1 X108.017 Y99.3 E0.12064
G1 X108.638 Y98.99 E0.13449
G1 X108.844 Y98.89 E0.13906
G1 X109.047 Y98.795 E0.14353
G1 X109.655 Y98.515 E0.15689
G1 X110.846 Y98.048 E0.18242
G1 X110.892 Y98.033 E0.18338
G1 X111.427 Y97.873 E0.19453
G1 X112.158 Y97.676 E0.20964
G1 X112.635 Y97.555 E0.21946
G1 X113.34 Y97.384 E0.23393
G1 X114.26 Y97.202 E0.25265
G1 X114.856 Y97.127 E0.26464
G1 X115.11 Y97.102 E0.26973
G1 X115.473 Y97.072 E0.277
G1 X116.519 Y97.004 E0.29792
G1 X116.696 Y96.994 E0.30146
G1 X117.33 Y96.963 E0.31412
G1 X117.661 Y96.952 E0.32073
G1 X118.599 Y96.971 E0.33945
G1 X119.21 Y97.026 E0.3517
G1 X119.538 Y97.065 E0.35829
G1 X119.87 Y97.11 E0.36497
G1 X120.888 Y97.262 E0.38552
G1 X121.138 Y97.301 E0.39056
G1 X121.353 Y97.337 E0.39491
G1 X121.665 Y97.392 E0.40124
G1 X122.92 Y97.69 E0.42698
G1 X123.153 Y97.76 E0.43183
G1 X123.527 Y97.88 E0.43967
G1 X124.41 Y98.18 E0.45828
G1 X125.127 Y98.452 E0.47359
G1 X125.718 Y98.7 E0.48638
G1 X126.137 Y98.886 E0.49552
G1 X126.472 Y99.046 E0.50293
G1 X126.967 Y99.292 E0.51396
G1 X127.587 Y99.626 E0.52802
G1 X127.958 Y99.841 E0.53658
G1 X128.239 Y100.009 E0.54311
G1 X128.56 Y100.208 E0.55065
G1 X129.101 Y100.566 E0.56359
G1 X129.328 Y100.726 E0.56913
G1 X129.52 Y100.864 E0.57385
G1 X129.699 Y100.996 E0.57829
G1 X129.992 Y101.22 E0.58565
G1 X130.775 Y101.839 E0.60557
G1 X131.051 Y102.065 E0.61269
G1 X131.566 Y102.5 E0.62614
G1 X132.256 Y103.135 E0.64485
G1 X132.889 Y103.826 E0.66356
G1 X133.296 Y104.34 E0.67664
G1 X133.861 Y105.1 E0.69554
G1 X134.297 Y105.707 E0.71045
G1 X134.406 Y105.861 E0.71422
G1 X134.805 Y106.439 E0.72823
G1 X135.424 Y107.449 E0.75187
G1 X135.605 Y107.791 E0.7596
G1 X135.847 Y108.269 E0.77029
G1 X136.197 Y108.989 E0.78626
G1 X136.448 Y109.514 E0.79788
G1 X136.74 Y110.144 E0.81173
G1 X137.098 Y111.011 E0.83045
G1 X137.38 Y111.906 E0.84918
G1 X137.616 Y112.994 E0.8714
G1 X137.634 Y113.104 E0.87362
G1 X137.692 Y113.51 E0.8818
G1 X137.765 Y114.097 E0.89361
G1 X137.985 Y116.037 E0.93257
G1 X138.06 Y116.738 E0.94664
G1 X138.093 Y117.116 E0.95421
G1 X138.106 Y117.296 E0.95781
G1 X138.134 Y118.233 E0.97652
G1 X138.082 Y119.169 E0.99523
G1 X137.927 Y120.216 E1.01635
G1 X137.858 Y120.566 E1.02347
G1 X137.809 Y120.801 E1.02826
G1 X137.511 Y122.156 E1.05595
G1 X137.37 Y122.724 E1.06763
G1 X137.336 Y122.847 E1.07017
G1 X137.235 Y123.191 E1.07733
G1 X137.172 Y123.393 E1.08155
G1 X137.103 Y123.607 E1.08604
G1 X137.006 Y123.897 E1.09214
G1 X136.913 Y124.164 E1.09778
G1 X136.723 Y124.687 E1.10889
G1 X136.535 Y125.168 E1.11919
G1 X136.391 Y125.513 E1.12665
G1 X136.262 Y125.81 E1.13311
G1 X136.086 Y126.199 E1.14164
G1 X135.764 Y126.853 E1.15618
G1 X135.426 Y127.485 E1.17049
G1 X134.998 Y128.215 E1.18737
G1 X134.541 Y128.931 E1.20432
G1 X134.313 Y129.274 E1.21254
G1 X134.196 Y129.443 E1.21664
G1 X133.945 Y129.792 E1.22522
G1 X133.767 Y130.024 E1.23106
G1 X133.438 Y130.44 E1.24164
G1 X133.252 Y130.668 E1.24751
G1 X132.86 Y131.122 E1.25948
G1 X132.676 Y131.324 E1.26494
G1 X132.501 Y131.512 E1.27006
G1 X132.263 Y131.76 E1.27692
G1 X131.987 Y132.042 E1.2848
G1 X131.451 Y132.576 E1.2999
G1 X130.759 Y133.209 E1.31861
G1 X130.309 Y133.567 E1.33009
G1 X130.244 Y133.616 E1.33171
G1 X129.974 Y133.812 E1.33837
G1 X129.375 Y134.235 E1.353
G1 X129.051 Y134.457 E1.36084
G1 X128.445 Y134.861 E1.37538
G1 X127.678 Y135.327 E1.39329
G1 X126.926 Y135.743 E1.41044
G1 X126.408 Y136.02 E1.42216
G1 X125.608 Y136.434 E1.44013
G1 X124.757 Y136.829 E1.45886
G1 X123.875 Y137.149 E1.47758
G1 X122.667 Y137.456 E1.50245
G1 X122.513 Y137.486 E1.50559
G1 X122.271 Y137.53 E1.51049
G1 X121.737 Y137.621 E1.5213
G1 X121.159 Y137.713 E1.53298
G1 X120.343 Y137.832 E1.54944
G1 X120.047 Y137.871 E1.5554
G1 X119.919 Y137.886 E1.55797
G1 X119.61 Y137.918 E1.56417
G1 X119.091 Y137.964 E1.57457
G1 X118.831 Y137.984 E1.57977
G1 X118.028 Y138.036 E1.59583
G1 X117.09 Y138.057 E1.61455
G1 X116.473 Y138.027 E1.62688
G1 X116.395 Y138.021 E1.62844
G1 X116.073 Y137.991 E1.6349
G1 X115.529 Y137.933 E1.64581
G1 X115.243 Y137.899 E1.65156
G1 X114.845 Y137.846 E1.65957
G1 X114.464 Y137.788 E1.66726
G1 X113.6 Y137.642 E1.68475
G1 X113.158 Y137.558 E1.69373
G1 X112.964 Y137.517 E1.69769
G1 X112.056 Y137.284 E1.71639
G1 X111.171 Y136.975 E1.7351
G1 X110.315 Y136.591 E1.75382
G1 X109.495 Y136.136 E1.77254
G1 X109.067 Y135.86 E1.7827
G1 X108.238 Y135.298 E1.80269
G1 X108.093 Y135.198 E1.8062
G1 X107.824 Y135.009 E1.81276
G1 X106.307 Y133.997 E1.84915
G1 X105.903 Y133.713 E1.85901
G1 X105.553 Y133.456 E1.86767
G1 X105.17 Y133.162 E1.87731
G1 X104.833 Y132.891 E1.88594
G1 X104.36 Y132.488 E1.89834
G1 X104.187 Y132.332 E1.90299
G1 X103.337 Y131.477 E1.92705
G1 X102.513 Y130.551 E1.95179
G1 X100.667 Y128.538 E2.00629
G1 X100.597 Y128.464 E2.00832
G1 X99.983 Y127.756 E2.02703
G1 X99.431 Y126.998 E2.04574
G1 X98.946 Y126.195 E2.06446
G1 X98.516 Y125.321 E2.0839
G1 X98.326 Y124.887 E2.09335
G1 X98.212 Y124.616 E2.09922
G1 X98.108 Y124.36 E2.10473
G1 X97.792 Y123.477 E2.12345
G1 X97.484 Y122.231 E2.14906
G1 X97.322 Y121.36 E2.16674
G1 X97.178 Y120.518 E2.18379
G1 X97.15 Y120.346 E2.18727
G1 X97.042 Y119.644 E2.20144
G1 X96.939 Y118.711 E2.22017
G1 X96.927 Y117.446 E2.24542
G1 X96.949 Y117.016 E2.25401
G1 X96.975 Y116.616 E2.26201
G1 X97.003 Y116.265 E2.26904
G1 X97.067 Y115.56 E2.28316
G1 X97.1 Y115.243 E2.28952
G1 X97.127 Y115.018 E2.29405
G1 X97.168 Y114.718 E2.30009
G1 X97.261 Y114.09 E2.31276
G1 X97.322 Y113.719 E2.32026
G1 X97.363 Y113.491 E2.32488
G1 X97.484 Y112.869 E2.33753
G1 X97.703 Y111.956 E2.35627
G1 X97.897 Y111.343 E2.3691
G1 X98.199 Y110.478 E2.38738
G1 X98.347 Y110.075 E2.39595
G1 X98.397 Y109.942 E2.39878
G1 X98.639 Y109.318 E2.41214
G1 X99.002 Y108.485 E2.43027
G1 X99.055 Y108.376 E2.43269
G1 X99.344 Y107.806 E2.44545
G1 X99.453 Y107.597 E2.45015
G1 X99.601 Y107.321 E2.4564
G1 X100.079 Y106.514 E2.47512
G1 X100.423 Y106.017 E2.48718
G1 X101.205 Y104.95 E2.51358
G1 X101.359 Y104.744 E2.51871
G1 X101.816 Y104.15 E2.53367
G1 X102.419 Y103.432 E2.55238
G1 X103.081 Y102.768 E2.57109
G0 F6000 X103.377 Y103.039
G1 F1200 X104.032 Y102.486 E2.5882
G1 X104.681 Y101.982 E2.6046
G1 X104.835 Y101.865 E2.60846
G1 X105.41 Y101.435 E2.62278
G1 X106.076 Y100.951 E2.63921
G1 X106.548 Y100.627 E2.65064
G1 X106.808 Y100.459 E2.65682
G1 X107.091 Y100.282 E2.66348
G1 X107.418 Y100.085 E2.6711
G1 X107.839 Y99.845 E2.68077
G1 X108.196 Y99.658 E2.68881
G1 X108.813 Y99.35 E2.70257
G1 X109.019 Y99.25 E2.70714
G1 X109.214 Y99.158 E2.71144
G1 X109.822 Y98.878 E2.7248
G1 X110.97 Y98.428 E2.74941
G1 X111.016 Y98.413 E2.75037
G1 X111.532 Y98.259 E2.76112
G1 X112.123 Y98.099 E2.77334
G1 X112.592 Y97.978 E2.783
G1 X113.434 Y97.773 E2.8003
G1 X114.338 Y97.595 E2.81868
G1 X114.895 Y97.525 E2.82989
G1 X115.149 Y97.5 E2.83498
G1 X115.499 Y97.471 E2.84199
G1 X116.545 Y97.403 E2.86291
G1 X117.349 Y97.363 E2.87897
G1 X117.67 Y97.352 E2.88538
G1 X118.591 Y97.371 E2.90377
G1 X119.163 Y97.423 E2.91523
G1 X119.491 Y97.462 E2.92182
G1 X119.81 Y97.505 E2.92824
G1 X120.827 Y97.658 E2.94877
G1 X121.077 Y97.697 E2.95382
G1 X121.283 Y97.731 E2.95798
G1 X121.595 Y97.786 E2.9643
G1 X122.805 Y98.073 E2.98912
G1 X123.038 Y98.143 E2.99398
G1 X123.398 Y98.258 E3.00152
G1 X124.281 Y98.558 E3.02013
G1 X124.973 Y98.821 E3.0349
G1 X125.564 Y99.069 E3.04769
G1 X125.967 Y99.248 E3.05649
G1 X126.082 Y99.302 E3.05903
G1 X126.294 Y99.405 E3.06373
G1 X126.789 Y99.651 E3.07476
G1 X127.387 Y99.972 E3.08831
G1 X127.758 Y100.187 E3.09686
G1 X128.028 Y100.349 E3.10315
G1 X128.349 Y100.548 E3.11068
G1 X128.871 Y100.893 E3.12317
G1 X129.098 Y101.053 E3.12871
G1 X129.282 Y101.186 E3.13324
G1 X129.461 Y101.318 E3.13768
G1 X129.744 Y101.534 E3.14479
G1 X130.527 Y102.153 E3.16471
G1 X130.793 Y102.37 E3.17156
G1 X131.308 Y102.805 E3.18501
G1 X131.985 Y103.429 E3.20338
G1 X132.605 Y104.11 E3.22176
G1 X132.975 Y104.579 E3.23368
G1 X133.54 Y105.339 E3.25258
G1 X133.652 Y105.493 E3.25638
G1 X133.972 Y105.94 E3.26735
G1 X134.076 Y106.088 E3.27096
G1 X134.475 Y106.666 E3.28498
G1 X135.072 Y107.639 E3.30776
G1 X135.248 Y107.972 E3.31528
G1 X135.49 Y108.45 E3.32597
G1 X135.837 Y109.161 E3.34176
G1 X136.029 Y109.562 E3.35063
G1 X136.377 Y110.313 E3.36715
G1 X136.728 Y111.164 E3.38552
G1 X137.003 Y112.042 E3.40388
G1 X137.221 Y113.058 E3.42461
G1 X137.239 Y113.168 E3.42684
G1 X137.295 Y113.56 E3.43474
G1 X137.368 Y114.142 E3.44645
G1 X137.587 Y116.079 E3.48535
G1 X137.662 Y116.78 E3.49942
G1 X137.694 Y117.144 E3.50671
G1 X137.707 Y117.324 E3.51031
G1 X137.734 Y118.245 E3.5287
G1 X137.68 Y119.164 E3.54707
G1 X137.535 Y120.138 E3.56672
G1 X137.466 Y120.488 E3.57384
G1 X137.419 Y120.715 E3.57846
G1 X137.121 Y122.07 E3.60615
G1 X136.985 Y122.617 E3.6174
G1 X136.951 Y122.74 E3.61995
G1 X136.853 Y123.072 E3.62685
G1 X136.724 Y123.48 E3.63539
G1 X136.627 Y123.77 E3.6415
G1 X136.537 Y124.027 E3.64693
G1 X136.347 Y124.55 E3.65803
G1 X136.166 Y125.014 E3.66797
G1 X136.022 Y125.359 E3.67543
G1 X135.898 Y125.645 E3.68166
G1 X135.722 Y126.034 E3.69018
G1 X135.411 Y126.664 E3.7042
G1 X135.073 Y127.296 E3.7185
G1 X134.661 Y128 E3.73478
G1 X134.204 Y128.716 E3.75173
G1 X133.984 Y129.047 E3.75966
G1 X133.867 Y129.216 E3.76376
G1 X133.624 Y129.553 E3.77205
G1 X133.453 Y129.777 E3.77768
G1 X133.128 Y130.188 E3.78813
G1 X132.942 Y130.416 E3.794
G1 X132.564 Y130.853 E3.80554
G1 X132.38 Y131.055 E3.81099
G1 X132.212 Y131.236 E3.81592
G1 X131.977 Y131.481 E3.82269
G1 X131.803 Y131.659 E3.82766
G1 X131.168 Y132.292 E3.84555
G1 X130.488 Y132.913 E3.86393
G1 X130.068 Y133.247 E3.87464
G1 X129.743 Y133.486 E3.88269
G1 X129.268 Y133.822 E3.8943
G1 X128.829 Y134.124 E3.90493
G1 X128.223 Y134.528 E3.91947
G1 X127.484 Y134.978 E3.93673
G1 X126.88 Y135.313 E3.95052
G1 X126.082 Y135.74 E3.96858
G1 X125.425 Y136.079 E3.98333
G1 X124.589 Y136.465 E4.00171
G1 X123.723 Y136.777 E4.02008
G1 X122.591 Y137.063 E4.04338
G1 X122.437 Y137.093 E4.04651
G1 X122.203 Y137.136 E4.05126
G1 X121.674 Y137.226 E4.06196
G1 X120.949 Y137.341 E4.07661
G1 X120.286 Y137.437 E4.08998
G1 X120.001 Y137.474 E4.09572
G1 X119.873 Y137.489 E4.09829
G1 X119.575 Y137.52 E4.10427
G1 X119.056 Y137.566 E4.11467
G1 X118.805 Y137.585 E4.11969
G1 X118.002 Y137.637 E4.13575
G1 X117.082 Y137.656 E4.15411
G1 X116.504 Y137.628 E4.16566
G1 X116.426 Y137.622 E4.16722
G1 X116.115 Y137.593 E4.17345
G1 X115.571 Y137.535 E4.18437
G1 X115.296 Y137.502 E4.1899
G1 X114.898 Y137.449 E4.19791
G1 X114.531 Y137.394 E4.20532
G1 X113.667 Y137.248 E4.2228
G1 X113.241 Y137.167 E4.23146
G1 X113.047 Y137.126 E4.23541
G1 X112.156 Y136.897 E4.25377
G1 X111.287 Y136.591 E4.27216
G1 X110.449 Y136.211 E4.29052
G1 X109.291 Y135.529 E4.31734
G1 X108.322 Y134.871 E4.34071
G1 X108.014 Y134.655 E4.34822
G1 X106.529 Y133.664 E4.38385
G1 X106.139 Y133.391 E4.39335
G1 X105.789 Y133.134 E4.40202
G1 X105.42 Y132.85 E4.41131
G1 X105.083 Y132.579 E4.41994
G1 X104.627 Y132.191 E4.43189
G1 X104.454 Y132.035 E4.43653
G1 X103.636 Y131.211 E4.45971
G1 X102.823 Y130.297 E4.48412
G1 X100.97 Y128.276 E4.53883
G1 X100.888 Y128.19 E4.54121
G1 X100.286 Y127.494 E4.55957
G1 X99.746 Y126.748 E4.57795
G1 X99.272 Y125.958 E4.59633
G1 X98.883 Y125.161 E4.61403
G1 X98.693 Y124.727 E4.62349
G1 X98.582 Y124.466 E4.62915
G1 X98.478 Y124.21 E4.63466
G1 X98.169 Y123.342 E4.65305
G1 X97.878 Y122.158 E4.67738
G1 X97.687 Y121.127 E4.6983
G1 X97.545 Y120.285 E4.71534
G1 X97.437 Y119.583 E4.72952
G1 X97.337 Y118.668 E4.74789
G1 X97.326 Y117.465 E4.77189
G1 X97.338 Y117.214 E4.77691
G1 X97.374 Y116.646 E4.78827
G1 X97.401 Y116.301 E4.79517
G1 X97.465 Y115.596 E4.8093
G1 X97.498 Y115.291 E4.81542
G1 X97.525 Y115.066 E4.81994
G1 X97.563 Y114.776 E4.82578
G1 X97.656 Y114.148 E4.83845
G1 X97.716 Y113.787 E4.84575
G1 X97.756 Y113.567 E4.85022
G1 X97.877 Y112.945 E4.86286
G1 X98.092 Y112.05 E4.88123
G1 X98.274 Y111.475 E4.89327
G1 X98.576 Y110.61 E4.91155
G1 X98.652 Y110.4 E4.91601
G1 X98.77 Y110.086 E4.9227
G1 X99.012 Y109.462 E4.93606
G1 X99.362 Y108.66 E4.95352
G1 X99.501 Y108.378 E4.95979
G1 X99.7 Y107.987 E4.96855
G1 X99.805 Y107.786 E4.97307
G1 X99.953 Y107.51 E4.97932
G1 X100.423 Y106.718 E4.9977
G1 X100.745 Y106.253 E5.00899
G1 X101.527 Y105.186 E5.03539
G1 X101.676 Y104.988 E5.04033
G1 X102.133 Y104.394 E5.05529
G1 X102.725 Y103.69 E5.07365
G1 X103.377 Y103.039 E5.09203
G0 F6000 X103.672 Y103.311
G1 F1200 X104.278 Y102.802 E5.10783
G1 X105.074 Y102.185 E5.12792
G1 X105.649 Y101.755 E5.14225
G1 X106.311 Y101.274 E5.15858
G1 X106.765 Y100.963 E5.16956
G1 X107.025 Y100.795 E5.17574
G1 X107.297 Y100.625 E5.18214
G1 X107.624 Y100.428 E5.18976
G1 X108.03 Y100.196 E5.19909
G1 X108.374 Y100.016 E5.20684
G1 X108.988 Y99.71 E5.22053
G1 X109.381 Y99.521 E5.22923
G1 X109.989 Y99.241 E5.24259
G1 X111.094 Y98.809 E5.26627
G1 X111.14 Y98.794 E5.26723
G1 X111.637 Y98.645 E5.27759
G1 X112.357 Y98.451 E5.29247
G1 X112.824 Y98.332 E5.30209
G1 X113.529 Y98.161 E5.31656
G1 X114.415 Y97.988 E5.33458
G1 X114.934 Y97.923 E5.34502
G1 X115.188 Y97.898 E5.35011
G1 X115.525 Y97.87 E5.35686
G1 X116.571 Y97.802 E5.37778
G1 X117.369 Y97.762 E5.39372
G1 X117.679 Y97.752 E5.39991
G1 X118.582 Y97.771 E5.41794
G1 X119.115 Y97.82 E5.42862
G1 X119.443 Y97.859 E5.43521
G1 X119.751 Y97.901 E5.44141
G1 X120.765 Y98.053 E5.46187
G1 X121.015 Y98.092 E5.46692
G1 X121.214 Y98.125 E5.47095
G1 X121.526 Y98.18 E5.47727
G1 X122.69 Y98.456 E5.50114
G1 X122.923 Y98.526 E5.506
G1 X123.269 Y98.637 E5.51325
G1 X124.152 Y98.937 E5.53186
G1 X124.818 Y99.19 E5.54608
G1 X125.409 Y99.438 E5.55887
G1 X125.797 Y99.61 E5.56734
G1 X125.912 Y99.664 E5.56987
G1 X126.116 Y99.763 E5.5744
G1 X126.611 Y100.009 E5.58543
G1 X127.186 Y100.318 E5.59846
G1 X127.557 Y100.533 E5.60701
G1 X127.817 Y100.689 E5.61306
G1 X128.138 Y100.888 E5.6206
G1 X128.64 Y101.22 E5.63261
G1 X128.867 Y101.38 E5.63815
G1 X129.045 Y101.508 E5.64253
G1 X129.224 Y101.64 E5.64697
G1 X129.496 Y101.847 E5.65379
G1 X130.279 Y102.466 E5.67371
G1 X130.535 Y102.676 E5.68032
G1 X131.05 Y103.111 E5.69377
G1 X131.713 Y103.723 E5.71177
G1 X132.32 Y104.392 E5.7298
G1 X132.654 Y104.818 E5.7406
G1 X133.219 Y105.578 E5.7595
G1 X133.327 Y105.726 E5.76316
G1 X133.647 Y106.173 E5.77413
G1 X133.747 Y106.315 E5.7776
G1 X134.146 Y106.893 E5.79161
G1 X134.721 Y107.83 E5.81355
G1 X134.891 Y108.153 E5.82083
G1 X135.133 Y108.631 E5.83153
G1 X135.476 Y109.334 E5.84714
G1 X135.668 Y109.735 E5.85601
G1 X136.014 Y110.481 E5.87242
G1 X136.357 Y111.316 E5.89043
G1 X136.625 Y112.179 E5.90847
G1 X136.826 Y113.123 E5.92773
G1 X136.844 Y113.233 E5.92995
G1 X136.899 Y113.609 E5.93754
G1 X136.956 Y114.063 E5.94667
G1 X137.189 Y116.122 E5.98802
G1 X137.264 Y116.823 E6.00209
G1 X137.296 Y117.173 E6.0091
G1 X137.309 Y117.353 E6.0127
G1 X137.334 Y118.256 E6.03073
G1 X137.279 Y119.157 E6.04874
G1 X137.142 Y120.061 E6.06699
G1 X137.073 Y120.411 E6.07411
G1 X137.028 Y120.629 E6.07855
G1 X136.73 Y121.984 E6.10624
G1 X136.599 Y122.511 E6.11708
G1 X136.565 Y122.634 E6.11962
G1 X136.471 Y122.953 E6.12626
