;FLAVOR:Marlin
;TIME:4135
;Filament used: 2.13378m
;Layer height: 0.2
;MINX:91.39
;MINY:78.26
;MINZ:0.2
;MAXX:145.508
;MAXY:141.744
;MAXZ:10.6
;Generated with Cura_SteamEngine 4.9.1
M140 S55
M105
M190 S55
M104 S215
M105
M109 S215
M82 ;absolute extrusion mode
; Ender 3 Custom Start G-code
G92 E0 ; Reset Extruder
G28 ; Home all axes
G1 Z2.0 F3000 ; Move Z Axis up little to prevent scratching of Heat Bed
G1 X0.1 Y20 Z0.3 F5000.0 ; Move to start position
G1 X0.1 Y200.0 Z0.3 F1500.0 E15 ; Draw the first line
G1 X0.4 Y200.0 Z0.3 F5000.0 ; Move to side a little
G1 X0.4 Y20 Z0.3 F1500.0 E30 ; Draw the second line
G92 E0 ; Reset Extruder
G1 Z2.0 F3000 ; Move Z Axis up little to prevent scratching of Heat Bed
G1 X5 Y20 Z0.3 F5000.0 ; Move over to prevent blob squish
G92 E0
G92 E0
G1 F2700 E-5
;LAYER_COUNT:53
;LAYER:0
M107
G0 F6000 X99.808 Y82.395 Z0.2
;TYPE:SKIRT
G1 F2700 E0
G1 F1200 X100.132 Y82.033 E0.01616
G1 X100.368 Y81.785 E0.02754
G1 X100.94 Y81.241 E0.0538
G1 X101.565 Y80.758 E0.08007
G1 X102.202 Y80.359 E0.10507
G1 X102.555 Y80.161 E0.11853
G1 X103.263 Y79.81 E0.14482
G1 X104.002 Y79.532 E0.17108
G1 X104.642 Y79.358 E0.19314
G1 X104.95 Y79.288 E0.20364
G1 X105.94 Y79.129 E0.23699
G1 X109.229 Y78.816 E0.34688
G1 X110.018 Y78.781 E0.37315
G1 X110.455 Y78.806 E0.3877
G1 X110.965 Y78.683 E0.40515
G1 X111.67 Y78.584 E0.42883
G1 X114.715 Y78.295 E0.53056
G1 X115.504 Y78.26 E0.55683
G1 X116.292 Y78.305 E0.58308
G1 X117.072 Y78.43 E0.60936
G1 X117.835 Y78.633 E0.63562
G1 X118.039 Y78.706 E0.64282
G1 X118.538 Y78.792 E0.65967
G1 X118.737 Y78.833 E0.66642
G1 X119.714 Y79.102 E0.70013
G1 X119.74 Y79.111 E0.70104
G1 X120.733 Y79.534 E0.73694
G1 X120.982 Y79.661 E0.74624
G1 X121.765 Y80.119 E0.77641
G1 X121.789 Y80.135 E0.77737
G1 X122.674 Y80.822 E0.81463
G1 X122.998 Y81.113 E0.82912
G1 X123.558 Y81.67 E0.85539
G1 X123.941 Y82.125 E0.87517
G1 X124.397 Y82.77 E0.90144
G1 X124.668 Y83.232 E0.91926
G1 X124.898 Y83.657 E0.93533
G1 X125.299 Y84.519 E0.96695
G1 X126.12 Y86.612 E1.04173
G1 X126.401 Y86.991 E1.05742
G1 X126.624 Y87.203 E1.06765
G1 X127.138 Y87.803 E1.09393
G1 X127.589 Y88.451 E1.12019
G1 X127.805 Y88.821 E1.13444
G1 X128.448 Y89.993 E1.1789
G1 X128.525 Y90.152 E1.18478
G1 X133.576 Y90.607 E1.35345
G1 X134.568 Y90.666 E1.38651
G1 X137.624 Y90.901 E1.48845
G1 X138.703 Y91.06 E1.52472
G1 X139.021 Y91.13 E1.53555
G1 X139.782 Y91.339 E1.5618
G1 X140.767 Y91.739 E1.59716
G1 X140.81 Y91.76 E1.59875
G1 X141.501 Y92.142 E1.62501
G1 X142.15 Y92.592 E1.65128
G1 X142.658 Y93.019 E1.67335
G1 X142.85 Y93.195 E1.68202
G1 X143.404 Y93.758 E1.70829
G1 X143.899 Y94.373 E1.73455
G1 X144.188 Y94.802 E1.75175
G1 X144.576 Y95.489 E1.77799
G1 X144.889 Y96.205 E1.80398
G1 X144.995 Y96.484 E1.81391
G1 X145.238 Y97.235 E1.84016
G1 X145.404 Y98.007 E1.86643
G1 X145.475 Y98.584 E1.88576
G1 X145.48 Y98.642 E1.8877
G1 X145.508 Y99.431 E1.91396
G1 X145.456 Y100.219 E1.94022
G1 X145.398 Y100.625 E1.95386
G1 X145.35 Y100.906 E1.96334
G1 X145.177 Y101.677 E1.98963
G1 X144.928 Y102.426 E2.01588
G1 X144.521 Y103.304 E2.04807
G1 X144.355 Y103.606 E2.05953
G1 X140.63 Y110.077 E2.30787
G1 X144.415 Y116.944 E2.56866
G1 X144.761 Y117.654 E2.59493
G1 X145.006 Y118.309 E2.61819
G1 X145.093 Y118.578 E2.62759
G1 X145.297 Y119.34 E2.65383
G1 X145.451 Y120.422 E2.69018
G1 X145.454 Y120.464 E2.69158
G1 X145.47 Y121.254 E2.71786
G1 X145.407 Y122.041 E2.74412
G1 X145.326 Y122.534 E2.76074
G1 X145.269 Y122.822 E2.7705
G1 X145.076 Y123.588 E2.79678
G1 X144.67 Y124.639 E2.83425
G1 X144.653 Y124.675 E2.83557
G1 X144.28 Y125.371 E2.86184
G1 X143.671 Y126.242 E2.89719
G1 X143.504 Y126.449 E2.90603
G1 X142.977 Y127.037 E2.93229
G1 X142.394 Y127.57 E2.95857
G1 X142.037 Y127.847 E2.9736
G1 X141.97 Y127.896 E2.97636
G1 X141.31 Y128.329 E3.00261
G1 X140.61 Y128.694 E3.02887
G1 X139.941 Y128.963 E3.05285
G1 X139.698 Y129.048 E3.06141
G1 X138.941 Y129.27 E3.08765
G1 X138.164 Y129.415 E3.11394
G1 X137.6 Y129.47 E3.13279
G1 X131.005 Y129.874 E3.35255
G1 X130.592 Y129.919 E3.36637
G1 X130.332 Y129.943 E3.37505
G1 X128.363 Y130.092 E3.44073
G1 X128.298 Y130.235 E3.44595
G1 X127.902 Y130.918 E3.47221
G1 X127.208 Y131.831 E3.51036
G1 X127.132 Y131.922 E3.5143
G1 X126.013 Y133.5 E3.57864
G1 X125.767 Y133.812 E3.59186
G1 X125.004 Y135.661 E3.65838
G1 X124.585 Y136.522 E3.69023
G1 X124.359 Y136.922 E3.70551
G1 X123.841 Y137.721 E3.73718
G1 X123.824 Y137.744 E3.73813
G1 X123.166 Y138.522 E3.77202
G1 X123.004 Y138.69 E3.77979
G1 X122.196 Y139.419 E3.81598
G1 X122.173 Y139.437 E3.81695
G1 X121.355 Y139.997 E3.84993
G1 X120.945 Y140.241 E3.86579
G1 X120.247 Y140.61 E3.89205
G1 X119.542 Y140.897 E3.91737
G1 X119.505 Y140.91 E3.91868
G1 X118.747 Y141.134 E3.94496
G1 X118.255 Y141.236 E3.96168
G1 X118.025 Y141.276 E3.96944
G1 X117.768 Y141.303 E3.97804
G1 X117.679 Y141.338 E3.98122
G1 X116.919 Y141.552 E4.00748
G1 X116.141 Y141.688 E4.03375
G1 X115.354 Y141.744 E4.05999
G1 X114.31 Y141.696 E4.09475
G1 X111.243 Y141.348 E4.19741
G1 X110.463 Y141.22 E4.2237
G1 X109.824 Y141.047 E4.24572
G1 X109.314 Y141.075 E4.26271
G1 X108.392 Y141.025 E4.29342
G1 X105.426 Y140.687 E4.39271
G1 X105.301 Y140.67 E4.3969
G1 X104.525 Y140.524 E4.42317
G1 X103.549 Y140.22 E4.45717
G1 X103.162 Y140.071 E4.47096
G1 X102.68 Y139.867 E4.48837
G1 X101.979 Y139.503 E4.51464
G1 X101.318 Y139.07 E4.54092
G1 X100.865 Y138.712 E4.56012
G1 X100.557 Y138.45 E4.57357
G1 X99.982 Y137.909 E4.59983
G1 X99.465 Y137.312 E4.6261
G1 X99.058 Y136.74 E4.64945
G1 X98.874 Y136.455 E4.66073
G1 X98.48 Y135.77 E4.68701
G1 X98.249 Y135.277 E4.70512
G1 X98.172 Y135.096 E4.71166
G1 X97.957 Y134.53 E4.7318
G1 X97.107 Y132.005 E4.82042
G1 X96.992 Y131.718 E4.8307
G1 X96.773 Y130.96 E4.85694
G1 X96.631 Y130.183 E4.88321
G1 X96.575 Y129.471 E4.90697
G1 X96.358 Y129.088 E4.92161
G1 X96.239 Y128.924 E4.92835
G1 X95.843 Y128.241 E4.95461
G1 X95.519 Y127.521 E4.98087
G1 X95.302 Y126.891 E5.00303
G1 X95.18 Y126.479 E5.01732
G1 X95.086 Y126.135 E5.02918
G1 X95.033 Y125.986 E5.03444
G1 X94.838 Y125.478 E5.05254
G1 X94.63 Y124.716 E5.07881
G1 X94.588 Y124.446 E5.0879
G1 X94.464 Y124.077 E5.10085
G1 X94.378 Y123.807 E5.11027
G1 X94.147 Y123.027 E5.13733
G1 X94.06 Y122.708 E5.14832
G1 X93.828 Y121.782 E5.18008
G1 X93.657 Y121.037 E5.2055
G1 X93.549 Y120.642 E5.21912
G1 X93.244 Y119.663 E5.25322
G1 X91.913 Y115.695 E5.39243
G1 X91.7 Y114.935 E5.41868
G1 X91.565 Y114.157 E5.44494
G1 X91.519 Y113.62 E5.46287
G1 X91.503 Y113.313 E5.47309
G1 X91.501 Y112.523 E5.49937
G1 X91.611 Y111.551 E5.5319
G1 X91.617 Y111.517 E5.53305
G1 X91.793 Y110.748 E5.55929
G1 X92.048 Y110.01 E5.58526
G1 X91.804 Y109.366 E5.60817
G1 X91.599 Y108.604 E5.63441
G1 X91.515 Y108.144 E5.64996
G1 X91.469 Y107.842 E5.66012
G1 X91.39 Y107.056 E5.6864
G1 X91.39 Y106.266 E5.71267
G1 X91.471 Y105.481 E5.73892
G1 X91.587 Y104.88 E5.75928
G1 X91.647 Y104.625 E5.76799
G1 X91.893 Y103.793 E5.79685
G1 X93.283 Y99.893 E5.93456
G1 X93.586 Y98.966 E5.96699
G1 X93.702 Y98.563 E5.98094
G1 X93.808 Y98.119 E5.99612
G1 X93.861 Y97.91 E6.0033
G1 X94.14 Y96.872 E6.03904
G1 X94.238 Y96.54 E6.05056
G1 X94.677 Y95.154 E6.09891
G1 X94.852 Y94.469 E6.12243
G1 X95.12 Y93.733 E6.14848
G1 X95.221 Y93.493 E6.15714
G1 X95.381 Y92.964 E6.17552
G1 X95.598 Y92.33 E6.19781
G1 X95.892 Y91.597 E6.22408
G1 X96.257 Y90.897 E6.25034
G1 X96.692 Y90.238 E6.2766
G1 X96.764 Y90.149 E6.28041
G1 X96.773 Y89.962 E6.28663
G1 X96.889 Y89.181 E6.31289
G1 X97.195 Y88.085 E6.35074
G1 X98.269 Y85.093 E6.45647
G1 X98.749 Y84.017 E6.49566
G1 X98.921 Y83.699 E6.50768
G1 X99.332 Y83.024 E6.53397
G1 X99.808 Y82.395 E6.56021
G0 F6000 X100.14 Y82.621
G1 F1200 X100.421 Y82.309 E6.57417
G1 X100.657 Y82.061 E6.58556
G1 X101.216 Y81.532 E6.61116
G1 X101.826 Y81.064 E6.63673
G1 X102.398 Y80.708 E6.65914
G1 X102.751 Y80.51 E6.6726
G1 X103.44 Y80.169 E6.69817
G1 X104.162 Y79.902 E6.72377
G1 X104.731 Y79.748 E6.74338
G1 X105.039 Y79.678 E6.75388
G1 X105.978 Y79.527 E6.78551
G1 X109.267 Y79.214 E6.8954
G1 X110.035 Y79.181 E6.92097
G1 X110.492 Y79.209 E6.9362
G1 X110.678 Y79.154 E6.94265
G1 X111.708 Y78.982 E6.97738
G1 X114.753 Y78.693 E7.07911
G1 X115.521 Y78.66 E7.10468
G1 X116.289 Y78.707 E7.13027
G1 X117.048 Y78.834 E7.15587
G1 X117.789 Y79.039 E7.18144
G1 X118.004 Y79.105 E7.18892
G1 X118.457 Y79.184 E7.20421
G1 X118.656 Y79.225 E7.21097
G1 X119.584 Y79.48 E7.24298
G1 X119.61 Y79.489 E7.24389
G1 X120.551 Y79.89 E7.27792
G1 X120.8 Y80.017 E7.28721
G1 X121.543 Y80.452 E7.31585
G1 X121.567 Y80.468 E7.31681
G1 X122.407 Y81.12 E7.35217
G1 X122.731 Y81.411 E7.36666
G1 X123.275 Y81.954 E7.39222
G1 X123.627 Y82.372 E7.4104
G1 X124.07 Y83.001 E7.43599
G1 X124.316 Y83.422 E7.45221
G1 X124.546 Y83.847 E7.46828
G1 X124.926 Y84.665 E7.49828
G1 X125.77 Y86.815 E7.5751
G1 X125.823 Y86.88 E7.57789
G1 X126.101 Y87.258 E7.5935
G1 X126.375 Y87.522 E7.60615
G1 X126.87 Y88.111 E7.63174
G1 X127.455 Y89.014 E7.66753
G1 X128.098 Y90.186 E7.71199
G1 X128.265 Y90.531 E7.72474
G1 X133.517 Y91.004 E7.90013
G1 X134.537 Y91.065 E7.93411
G1 X137.593 Y91.3 E8.03605
G1 X138.617 Y91.451 E8.07048
G1 X138.935 Y91.521 E8.08131
G1 X139.676 Y91.725 E8.10687
G1 X140.591 Y92.099 E8.13975
G1 X140.634 Y92.12 E8.14134
G1 X141.307 Y92.493 E8.16694
G1 X141.937 Y92.933 E8.19249
G1 X142.387 Y93.314 E8.2121
G1 X142.579 Y93.49 E8.22077
G1 X143.119 Y94.039 E8.24638
G1 X143.598 Y94.64 E8.27194
G1 X143.85 Y95.016 E8.287
G1 X144.227 Y95.686 E8.31257
G1 X144.516 Y96.347 E8.33656
G1 X144.622 Y96.626 E8.34649
G1 X144.857 Y97.358 E8.37206
G1 X145.015 Y98.111 E8.39765
G1 X145.077 Y98.618 E8.41464
G1 X145.082 Y98.676 E8.41657
G1 X145.108 Y99.445 E8.44216
G1 X145.003 Y100.558 E8.47935
G1 X144.955 Y100.839 E8.48883
G1 X144.787 Y101.589 E8.51439
G1 X144.541 Y102.318 E8.53998
G1 X144.17 Y103.114 E8.56919
G1 X144.009 Y103.406 E8.58028
G1 X140.172 Y110.073 E8.83613
G1 X144.065 Y117.137 E9.10439
G1 X144.401 Y117.829 E9.12998
G1 X144.625 Y118.432 E9.15138
G1 X144.712 Y118.701 E9.16078
G1 X144.91 Y119.444 E9.18635
G1 X145.052 Y120.451 E9.22018
G1 X145.055 Y120.493 E9.22158
G1 X145.07 Y121.262 E9.24716
G1 X145.005 Y122.028 E9.27273
G1 X144.933 Y122.457 E9.2872
G1 X144.876 Y122.745 E9.29696
G1 X144.688 Y123.49 E9.32252
G1 X144.308 Y124.468 E9.35742
G1 X144.291 Y124.504 E9.35874
G1 X143.927 Y125.181 E9.3843
G1 X143.359 Y125.99 E9.41718
G1 X143.192 Y126.197 E9.42603
G1 X142.679 Y126.77 E9.45161
G1 X142.109 Y127.287 E9.4772
G1 X141.801 Y127.524 E9.49013
G1 X141.734 Y127.573 E9.49289
G1 X141.091 Y127.994 E9.51845
G1 X140.407 Y128.346 E9.54404
G1 X139.809 Y128.585 E9.56546
G1 X139.566 Y128.67 E9.57402
G1 X138.828 Y128.886 E9.5996
G1 X138.071 Y129.024 E9.62519
G1 X137.575 Y129.071 E9.64176
G1 X130.96 Y129.476 E9.86219
G1 X130.549 Y129.521 E9.87594
G1 X130.302 Y129.544 E9.88419
G1 X128.096 Y129.711 E9.95777
G1 X127.933 Y130.07 E9.97088
G1 X127.545 Y130.734 E9.99646
G1 X126.909 Y131.566 E10.03129
G1 X126.821 Y131.669 E10.0358
G1 X125.686 Y133.269 E10.10105
G1 X125.419 Y133.607 E10.11537
G1 X124.634 Y135.508 E10.18378
G1 X124.237 Y136.325 E10.21399
G1 X124.011 Y136.725 E10.22927
G1 X123.519 Y137.483 E10.25933
G1 X123.502 Y137.506 E10.26028
G1 X122.878 Y138.245 E10.29245
G1 X122.716 Y138.413 E10.30021
G1 X121.95 Y139.104 E10.33452
G1 X121.927 Y139.122 E10.33549
G1 X121.15 Y139.653 E10.3668
G1 X120.74 Y139.897 E10.38266
G1 X120.06 Y140.256 E10.40824
G1 X119.409 Y140.52 E10.4316
G1 X119.372 Y140.533 E10.43291
G1 X118.634 Y140.75 E10.45849
G1 X118.187 Y140.842 E10.47367
G1 X117.957 Y140.882 E10.48144
G1 X117.651 Y140.914 E10.49167
G1 X117.208 Y141.065 E10.50724
G1 X116.458 Y141.236 E10.53282
G1 X115.694 Y141.329 E10.55842
G1 X114.925 Y141.341 E10.584
G1 X114.355 Y141.299 E10.60301
G1 X111.288 Y140.951 E10.70567
G1 X110.529 Y140.825 E10.73126
G1 X109.867 Y140.642 E10.75411
G1 X109.601 Y140.668 E10.763
G1 X108.832 Y140.662 E10.78858
G1 X108.437 Y140.628 E10.80176
G1 X105.643 Y140.311 E10.89529
G1 X105.355 Y140.273 E10.90495
G1 X104.599 Y140.13 E10.93054
G1 X103.693 Y139.847 E10.96211
G1 X103.306 Y139.698 E10.9759
G1 X102.846 Y139.503 E10.99252
G1 X102.164 Y139.147 E11.01811
G1 X101.522 Y138.723 E11.0437
G1 X101.124 Y138.408 E11.06058
G1 X100.816 Y138.146 E11.07403
G1 X100.257 Y137.617 E11.09963
G1 X99.756 Y137.034 E11.12519
G1 X99.394 Y136.523 E11.14602
G1 X99.21 Y136.238 E11.1573
G1 X98.827 Y135.571 E11.18289
G1 X98.618 Y135.121 E11.19939
G1 X98.541 Y134.94 E11.20593
G1 X98.336 Y134.403 E11.22505
G1 X97.48 Y131.858 E11.31436
G1 X97.357 Y131.55 E11.32539
G1 X97.149 Y130.81 E11.35095
G1 X97.018 Y130.052 E11.37654
G1 X96.971 Y129.34 E11.40027
G1 X96.908 Y129.251 E11.4039
G1 X96.696 Y128.873 E11.41831
G1 X96.564 Y128.69 E11.42582
G1 X96.181 Y128.023 E11.4514
G1 X95.869 Y127.32 E11.47698
G1 X95.686 Y126.777 E11.49604
G1 X95.564 Y126.365 E11.51033
G1 X95.496 Y126.121 E11.51875
G1 X95.398 Y125.838 E11.52871
G1 X95.403 Y125.836 E11.52889
G1 X95.205 Y125.316 E11.5474
G1 X95.008 Y124.572 E11.573
G1 X94.972 Y124.335 E11.58097
G1 X94.843 Y123.95 E11.59448
G1 X94.762 Y123.693 E11.60344
G1 X94.531 Y122.913 E11.6305
G1 X94.448 Y122.61 E11.64094
G1 X94.178 Y121.526 E11.6781
G1 X94.042 Y120.929 E11.69847
G1 X93.932 Y120.527 E11.71233
G1 X93.63 Y119.556 E11.74615
G1 X92.292 Y115.568 E11.88606
G1 X92.086 Y114.827 E11.91164
G1 X91.958 Y114.069 E11.9372
G1 X91.918 Y113.599 E11.95289
G1 X91.902 Y113.292 E11.96312
G1 X91.902 Y112.523 E11.9887
G1 X92.005 Y111.621 E12.01889
G1 X92.011 Y111.587 E12.02004
G1 X92.183 Y110.838 E12.0456
G1 X92.453 Y110.062 E12.07293
G1 X92.468 Y109.985 E12.07554
G1 X92.45 Y109.944 E12.07703
G1 X92.178 Y109.224 E12.10262
G1 X91.982 Y108.481 E12.12818
G1 X91.91 Y108.083 E12.14163
G1 X91.864 Y107.781 E12.1518
G1 X91.788 Y107.016 E12.17736
G1 X91.792 Y106.247 E12.20294
G1 X91.875 Y105.482 E12.22854
G1 X91.977 Y104.972 E12.24583
G1 X92.037 Y104.717 E12.25455
G1 X92.27 Y103.927 E12.28194
G1 X93.654 Y100.045 E12.41902
G1 X93.973 Y99.068 E12.4532
G1 X94.086 Y98.675 E12.4668
G1 X94.197 Y98.212 E12.48264
G1 X94.248 Y98.014 E12.48944
G1 X94.527 Y96.976 E12.52519
G1 X94.619 Y96.661 E12.5361
G1 X95.063 Y95.26 E12.58498
G1 X95.24 Y94.568 E12.60874
G1 X95.489 Y93.889 E12.63279
G1 X95.598 Y93.631 E12.64211
G1 X95.76 Y93.094 E12.66077
G1 X95.977 Y92.46 E12.68305
G1 X96.263 Y91.746 E12.70864
G1 X96.622 Y91.066 E12.73421
G1 X97.05 Y90.426 E12.75982
G1 X97.158 Y90.296 E12.76544
G1 X97.179 Y89.922 E12.7779
G1 X97.302 Y89.162 E12.80351
G1 X97.571 Y88.22 E12.83609
G1 X98.645 Y85.228 E12.94182
G1 X99.101 Y84.207 E12.97901
G1 X99.273 Y83.889 E12.99104
G1 X99.674 Y83.233 E13.01661
G1 X100.14 Y82.621 E13.04219
G0 F6000 X100.711 Y82.584
G1 F1200 X100.947 Y82.336 E13.05358
G1 X101.491 Y81.823 E13.07845
G1 X102.087 Y81.37 E13.10335
G1 X102.594 Y81.057 E13.12317
G1 X102.947 Y80.859 E13.13663
G1 X103.618 Y80.528 E13.16151
G1 X104.32 Y80.271 E13.18638
G1 X104.82 Y80.138 E13.20359
G1 X105.128 Y80.068 E13.21409
G1 X106.016 Y79.925 E13.24401
G1 X109.305 Y79.612 E13.35389
G1 X110.052 Y79.582 E13.37876
G1 X110.521 Y79.612 E13.39439
G1 X111.153 Y79.462 E13.41599
G1 X111.746 Y79.38 E13.4359
G1 X114.791 Y79.091 E13.53764
G1 X115.538 Y79.061 E13.5625
G1 X116.284 Y79.11 E13.58737
G1 X117.021 Y79.238 E13.61225
G1 X117.74 Y79.445 E13.63713
G1 X117.968 Y79.504 E13.64497
G1 X118.377 Y79.576 E13.65878
G1 X118.576 Y79.617 E13.66554
G1 X119.453 Y79.858 E13.69579
G1 X119.479 Y79.867 E13.6967
G1 X120.369 Y80.246 E13.72888
G1 X120.618 Y80.373 E13.73817
G1 X121.321 Y80.785 E13.76527
G1 X121.345 Y80.801 E13.76623
G1 X122.139 Y81.417 E13.79966
G1 X122.463 Y81.708 E13.81414
G1 X122.992 Y82.237 E13.83902
G1 X123.312 Y82.619 E13.8556
G1 X123.742 Y83.231 E13.88048
G1 X123.964 Y83.612 E13.89514
G1 X124.194 Y84.037 E13.91122
G1 X124.554 Y84.812 E13.93964
G1 X125.42 Y87.018 E14.01846
G1 X125.514 Y87.133 E14.0234
G1 X125.799 Y87.521 E14.03941
G1 X126.125 Y87.841 E14.05461
G1 X126.6 Y88.418 E14.07946
G1 X127.104 Y89.206 E14.11057
G1 X127.747 Y90.378 E14.15504
G1 X128.002 Y90.909 E14.17463
G1 X133.489 Y91.402 E14.35786
G1 X134.507 Y91.464 E14.39178
G1 X137.563 Y91.699 E14.49373
G1 X138.531 Y91.842 E14.52627
G1 X138.849 Y91.912 E14.5371
G1 X139.57 Y92.111 E14.56198
