;FLAVOR:Marlin
;TIME:1059
;Filament used: 1.03727m
;Layer height: 0.28
;MINX:94.51
;MINY:94.511
;MINZ:0.28
;MAXX:140.49
;MAXY:140.489
;MAXZ:16.8
;Generated with Cura_SteamEngine 4.7.0
M140 S55
M105
M190 S55
M104 S210
M105
M109 S210
M82 ;absolute extrusion mode
; Ender 3 Custom Start G-code
G92 E0 ; Reset Extruder
G28 ; Home all axes
G1 Z2.0 F3000 ; Move Z Axis up little to prevent scratching of Heat Bed
G1 X0.1 Y20 Z0.3 F5000.0 ; Move to start position
G1 X0.1 Y200.0 Z0.3 F1500.0 E15 ; Draw the first line
G1 X0.4 Y200.0 Z0.3 F5000.0 ; Move to side a little
G1 X0.4 Y20 Z0.3 F1500.0 E30 ; Draw the second line
G92 E0 ; Reset Extruder
G1 Z2.0 F3000 ; Move Z Axis up little to prevent scratching of Heat Bed
G1 X5 Y20 Z0.3 F5000.0 ; Move over to prevent blob squish
G92 E0
G92 E0
G1 F2700 E-5
;LAYER_COUNT:60
;LAYER:0
M107
G0 F6000 X101.372 Y101.115 Z0.28
;TYPE:SKIRT
G1 F2700 E0
G1 F1200 X101.567 Y100.928 E0.01258
G1 X101.983 Y100.538 E0.03913
G1 X102.245 Y100.3 E0.05561
G1 X102.547 Y100.037 E0.07426
G1 X102.647 Y99.952 E0.08037
G1 X102.888 Y99.752 E0.09496
G1 X103.358 Y99.375 E0.12301
G1 X103.65 Y99.15 E0.14018
G1 X103.813 Y99.028 E0.14966
G1 X104.033 Y98.867 E0.16235
G1 X104.334 Y98.656 E0.17947
G1 X104.793 Y98.344 E0.20531
G1 X105.032 Y98.186 E0.21865
G1 X105.278 Y98.028 E0.23227
G1 X105.743 Y97.745 E0.25761
G1 X106.286 Y97.433 E0.28677
G1 X106.499 Y97.314 E0.29814
G1 X106.697 Y97.206 E0.30864
G1 X107.009 Y97.042 E0.32505
G1 X107.12 Y96.986 E0.33084
G1 X107.343 Y96.877 E0.3424
G1 X107.855 Y96.633 E0.36881
G1 X108.129 Y96.507 E0.38285
G1 X108.323 Y96.421 E0.39273
G1 X108.672 Y96.273 E0.41038
G1 X108.941 Y96.164 E0.4239
G1 X109.479 Y95.956 E0.45076
G1 X109.771 Y95.848 E0.46525
G1 X109.96 Y95.781 E0.47459
G1 X110.335 Y95.655 E0.49301
G1 X110.602 Y95.571 E0.50604
G1 X111.158 Y95.404 E0.53308
G1 X111.437 Y95.324 E0.54659
G1 X111.632 Y95.271 E0.556
G1 X111.89 Y95.204 E0.56841
G1 X112.012 Y95.174 E0.57426
G1 X112.302 Y95.107 E0.58812
G1 X112.9 Y94.977 E0.61662
G1 X113.318 Y94.895 E0.63645
G1 X113.634 Y94.839 E0.6514
G1 X114.016 Y94.778 E0.66941
G1 X114.576 Y94.699 E0.69574
G1 X114.893 Y94.659 E0.71062
G1 X115.349 Y94.61 E0.73198
G1 X115.471 Y94.599 E0.73768
G1 X115.781 Y94.576 E0.75216
G1 X116.38 Y94.539 E0.7801
G1 X116.754 Y94.522 E0.79753
G1 X117.043 Y94.514 E0.811
G1 X117.509 Y94.511 E0.8327
G1 X118.121 Y94.52 E0.8612
G1 X118.52 Y94.533 E0.87978
G1 X118.853 Y94.55 E0.89531
G1 X119.295 Y94.582 E0.91595
G1 X119.885 Y94.636 E0.94353
G1 X120.329 Y94.686 E0.96434
G1 X120.668 Y94.731 E0.98026
G1 X121.057 Y94.789 E0.99858
G1 X121.624 Y94.885 E1.02535
G1 X121.898 Y94.935 E1.03832
G1 X122.327 Y95.021 E1.0587
G1 X122.75 Y95.118 E1.0789
G1 X123.383 Y95.277 E1.1093
G1 X123.757 Y95.379 E1.12735
G1 X124.058 Y95.466 E1.14194
G1 X124.465 Y95.592 E1.16178
G1 X124.996 Y95.768 E1.18782
G1 X125.316 Y95.879 E1.2036
G1 X125.51 Y95.95 E1.21321
G1 X125.843 Y96.077 E1.22981
G1 X126.123 Y96.191 E1.24389
G1 X126.68 Y96.425 E1.27202
G1 X127.089 Y96.606 E1.29285
G1 X127.409 Y96.756 E1.3093
G1 X127.764 Y96.93 E1.32771
G1 X128.251 Y97.18 E1.3532
G1 X128.637 Y97.389 E1.37364
G1 X128.922 Y97.55 E1.38888
G1 X129.271 Y97.755 E1.40773
G1 X129.769 Y98.061 E1.43495
G1 X129.984 Y98.197 E1.44679
G1 X130.202 Y98.338 E1.45888
G1 X130.503 Y98.539 E1.47573
G1 X130.732 Y98.701 E1.4888
G1 X131.211 Y99.048 E1.51634
G1 X131.581 Y99.327 E1.53792
G1 X131.882 Y99.565 E1.55578
G1 X132.164 Y99.797 E1.57279
G1 X132.58 Y100.149 E1.59816
G1 X132.908 Y100.437 E1.61849
G1 X133.148 Y100.657 E1.63365
G1 X133.456 Y100.95 E1.65344
G1 X133.873 Y101.363 E1.68077
G1 X134.119 Y101.616 E1.6972
G1 X134.333 Y101.842 E1.7117
G1 X134.663 Y102.206 E1.73457
G1 X135.062 Y102.667 E1.76296
G1 X135.239 Y102.877 E1.77575
G1 X135.369 Y103.035 E1.78528
G1 X135.543 Y103.252 E1.79823
G1 X135.643 Y103.38 E1.80579
G1 X135.823 Y103.616 E1.81961
G1 X136.151 Y104.06 E1.84532
G1 X136.324 Y104.302 E1.85917
G1 X136.576 Y104.666 E1.87979
G1 X136.644 Y104.768 E1.88549
G1 X136.813 Y105.03 E1.90001
G1 X137.13 Y105.536 E1.92781
G1 X137.289 Y105.799 E1.94213
G1 X137.505 Y106.17 E1.96212
G1 X137.697 Y106.52 E1.9807
G1 X137.977 Y107.052 E2.0087
G1 X138.162 Y107.419 E2.02784
G1 X138.302 Y107.711 E2.04291
G1 X138.485 Y108.114 E2.06352
G1 X138.722 Y108.664 E2.09141
G1 X138.84 Y108.948 E2.10573
G1 X138.928 Y109.169 E2.11681
G1 X139.064 Y109.528 E2.13468
G1 X139.139 Y109.739 E2.14511
G1 X139.329 Y110.29 E2.17225
G1 X139.475 Y110.744 E2.19446
G1 X139.576 Y111.084 E2.21097
G1 X139.678 Y111.453 E2.2288
G1 X139.821 Y112.004 E2.2553
G1 X139.891 Y112.29 E2.26902
G1 X139.937 Y112.489 E2.27853
G1 X140.012 Y112.837 E2.2951
G1 X140.068 Y113.121 E2.30858
G1 X140.172 Y113.698 E2.33588
G1 X140.222 Y114.001 E2.35018
G1 X140.257 Y114.232 E2.36106
G1 X140.3 Y114.545 E2.37577
G1 X140.317 Y114.684 E2.38229
G1 X140.34 Y114.894 E2.39213
G1 X140.395 Y115.429 E2.41717
G1 X140.423 Y115.741 E2.43176
G1 X140.441 Y115.984 E2.44311
G1 X140.459 Y116.288 E2.45729
G1 X140.473 Y116.646 E2.47397
G1 X140.487 Y117.241 E2.50168
G1 X140.49 Y117.545 E2.51584
G1 X140.489 Y117.792 E2.52734
G1 X140.475 Y118.293 E2.55068
G1 X140.441 Y118.977 E2.58257
G1 X140.408 Y119.443 E2.60432
G1 X140.38 Y119.746 E2.61849
G1 X140.335 Y120.157 E2.63774
G1 X140.257 Y120.755 E2.66582
G1 X140.196 Y121.162 E2.68499
G1 X140.14 Y121.494 E2.70066
G1 X140.061 Y121.913 E2.72052
G1 X139.943 Y122.478 E2.74739
G1 X139.873 Y122.789 E2.76224
G1 X139.817 Y123.023 E2.77344
G1 X139.726 Y123.378 E2.79051
G1 X139.668 Y123.587 E2.80061
G1 X139.499 Y124.172 E2.82896
G1 X139.37 Y124.588 E2.84924
G1 X139.265 Y124.904 E2.86475
G1 X139.122 Y125.308 E2.8847
G1 X138.92 Y125.845 E2.91142
G1 X138.817 Y126.109 E2.92461
G1 X138.644 Y126.53 E2.94581
G1 X138.453 Y126.96 E2.96772
G1 X138.219 Y127.459 E2.99338
G1 X138.099 Y127.708 E3.00625
G1 X137.97 Y127.966 E3.01968
G1 X137.818 Y128.26 E3.03509
G1 X137.705 Y128.466 E3.04603
G1 X137.419 Y128.977 E3.0733
G1 X137.226 Y129.308 E3.09114
G1 X136.989 Y129.697 E3.11235
G1 X136.924 Y129.8 E3.11802
G1 X136.774 Y130.031 E3.13085
G1 X136.454 Y130.511 E3.15771
G1 X136.192 Y130.885 E3.17897
G1 X136.015 Y131.128 E3.19297
G1 X135.786 Y131.432 E3.2107
G1 X135.397 Y131.929 E3.24008
G1 X135.084 Y132.311 E3.26308
G1 X134.891 Y132.536 E3.27688
G1 X134.661 Y132.796 E3.29305
G1 X134.256 Y133.239 E3.321
G1 X134.009 Y133.5 E3.33773
G1 X133.847 Y133.666 E3.34853
G1 X133.628 Y133.885 E3.36295
G1 X133.444 Y134.062 E3.37484
G1 X133.028 Y134.453 E3.40142
G1 X132.727 Y134.726 E3.42034
G1 X132.453 Y134.963 E3.43721
G1 X132.353 Y135.048 E3.44332
G1 X132.11 Y135.249 E3.45801
G1 X131.651 Y135.617 E3.4854
G1 X131.291 Y135.894 E3.50655
G1 X131.003 Y136.106 E3.52321
G1 X130.666 Y136.344 E3.54242
G1 X130.207 Y136.656 E3.56826
G1 X129.968 Y136.814 E3.5816
G1 X129.722 Y136.972 E3.59522
G1 X129.257 Y137.255 E3.62056
G1 X128.714 Y137.567 E3.64972
G1 X128.501 Y137.686 E3.66108
G1 X128.303 Y137.794 E3.67159
G1 X127.991 Y137.958 E3.688
G1 X127.88 Y138.014 E3.69379
G1 X127.657 Y138.123 E3.70535
G1 X127.145 Y138.367 E3.73176
G1 X126.871 Y138.493 E3.7458
G1 X126.677 Y138.579 E3.75568
G1 X126.328 Y138.727 E3.77333
G1 X126.059 Y138.836 E3.78685
G1 X125.521 Y139.044 E3.81371
G1 X125.229 Y139.152 E3.8282
G1 X125.04 Y139.219 E3.83754
G1 X124.665 Y139.345 E3.85596
G1 X124.398 Y139.429 E3.86899
G1 X123.842 Y139.596 E3.89603
G1 X123.563 Y139.676 E3.90954
G1 X123.368 Y139.729 E3.91895
G1 X123.11 Y139.796 E3.93136
G1 X122.988 Y139.826 E3.93721
G1 X122.698 Y139.893 E3.95107
G1 X122.1 Y140.023 E3.97957
G1 X121.682 Y140.105 E3.9994
G1 X121.366 Y140.161 E4.01435
G1 X120.984 Y140.222 E4.03236
G1 X120.424 Y140.301 E4.05869
G1 X120.107 Y140.341 E4.07357
G1 X119.651 Y140.39 E4.09493
G1 X119.529 Y140.401 E4.10063
G1 X119.219 Y140.424 E4.11511
G1 X118.62 Y140.461 E4.14305
G1 X118.246 Y140.478 E4.16048
G1 X117.957 Y140.486 E4.17395
G1 X117.491 Y140.489 E4.19564
G1 X116.879 Y140.48 E4.22415
G1 X116.48 Y140.467 E4.24273
G1 X116.147 Y140.45 E4.25826
G1 X115.705 Y140.418 E4.2789
G1 X115.115 Y140.364 E4.30648
G1 X114.675 Y140.315 E4.3271
G1 X114.335 Y140.27 E4.34307
G1 X113.939 Y140.21 E4.36172
G1 X113.373 Y140.114 E4.38845
G1 X113.102 Y140.065 E4.40127
G1 X112.673 Y139.979 E4.42165
G1 X112.262 Y139.885 E4.44128
G1 X111.63 Y139.727 E4.47161
G1 X111.226 Y139.617 E4.49111
G1 X110.92 Y139.528 E4.50595
G1 X110.525 Y139.405 E4.52521
G1 X109.998 Y139.23 E4.55107
G1 X109.702 Y139.127 E4.56566
G1 X109.29 Y138.975 E4.58611
G1 X109.156 Y138.923 E4.5928
G1 X108.878 Y138.81 E4.60678
G1 X108.323 Y138.577 E4.63481
G1 X107.896 Y138.387 E4.65657
G1 X107.571 Y138.234 E4.6733
G1 X107.232 Y138.067 E4.69089
G1 X106.749 Y137.819 E4.71617
G1 X106.354 Y137.607 E4.73705
G1 X106.059 Y137.44 E4.75283
G1 X105.717 Y137.238 E4.77133
G1 X105.229 Y136.938 E4.798
G1 X105.016 Y136.803 E4.80974
G1 X104.798 Y136.662 E4.82183
G1 X104.475 Y136.446 E4.83993
G1 X104.268 Y136.299 E4.85175
G1 X103.786 Y135.95 E4.87946
G1 X103.429 Y135.68 E4.9003
G1 X103.132 Y135.446 E4.91791
G1 X102.818 Y135.189 E4.9368
G1 X102.399 Y134.833 E4.9624
G1 X102.102 Y134.571 E4.98084
G1 X101.859 Y134.349 E4.99617
G1 X101.528 Y134.035 E5.01742
G1 X101.118 Y133.628 E5.04432
G1 X100.898 Y133.403 E5.05897
G1 X100.722 Y133.218 E5.07086
G1 X100.467 Y132.941 E5.08839
G1 X100.323 Y132.778 E5.09852
G1 X99.934 Y132.329 E5.12618
G1 X99.656 Y131.994 E5.14645
G1 X99.425 Y131.705 E5.16368
G1 X99.171 Y131.376 E5.18303
G1 X98.845 Y130.935 E5.20857
G1 X98.613 Y130.609 E5.2272
G1 X98.42 Y130.327 E5.24311
G1 X98.178 Y129.957 E5.2637
G1 X97.867 Y129.461 E5.29096
G1 X97.685 Y129.161 E5.3073
G1 X97.58 Y128.981 E5.317
G1 X97.421 Y128.699 E5.33208
G1 X97.299 Y128.472 E5.34408
G1 X97.008 Y127.918 E5.37322
G1 X96.814 Y127.531 E5.39337
G1 X96.685 Y127.26 E5.40735
G1 X96.518 Y126.892 E5.42617
G1 X96.281 Y126.343 E5.45401
G1 X96.16 Y126.052 E5.46868
G1 X96.072 Y125.831 E5.47976
G1 X95.936 Y125.472 E5.49764
G1 X95.855 Y125.244 E5.5089
G1 X95.665 Y124.69 E5.53618
G1 X95.536 Y124.288 E5.55583
G1 X95.435 Y123.952 E5.57217
G1 X95.317 Y123.531 E5.59253
G1 X95.168 Y122.953 E5.62032
G1 X95.082 Y122.593 E5.63756
G1 X95.02 Y122.314 E5.65087
G1 X94.931 Y121.874 E5.67177
G1 X94.823 Y121.273 E5.7002
G1 X94.771 Y120.956 E5.71516
G1 X94.74 Y120.749 E5.72491
G1 X94.699 Y120.446 E5.73915
G1 X94.659 Y120.103 E5.75523
G1 X94.604 Y119.567 E5.78032
G1 X94.578 Y119.267 E5.79434
G1 X94.56 Y119.027 E5.80554
G1 X94.541 Y118.708 E5.82042
G1 X94.527 Y118.354 E5.83692
G1 X94.513 Y117.76 E5.86459
G1 X94.51 Y117.457 E5.8787
G1 X94.511 Y117.209 E5.89025
G1 X94.525 Y116.707 E5.91363
G1 X94.559 Y116.023 E5.94552
G1 X94.592 Y115.557 E5.96727
G1 X94.62 Y115.254 E5.98144
G1 X94.665 Y114.849 E6.00042
G1 X94.745 Y114.233 E6.02934
G1 X94.812 Y113.786 E6.05039
G1 X94.866 Y113.472 E6.06522
G1 X94.938 Y113.092 E6.08323
G1 X95.057 Y112.521 E6.11039
G1 X95.133 Y112.185 E6.12643
G1 X95.188 Y111.957 E6.13735
G1 X95.274 Y111.622 E6.15346
G1 X95.333 Y111.411 E6.16366
G1 X95.505 Y110.816 E6.1925
G1 X95.636 Y110.392 E6.21316
G1 X95.738 Y110.086 E6.22818
G1 X95.879 Y109.69 E6.24776
G1 X96.086 Y109.14 E6.27512
G1 X96.197 Y108.857 E6.28928
G1 X96.348 Y108.49 E6.30775
G1 X96.547 Y108.04 E6.33067
G1 X96.781 Y107.541 E6.35633
G1 X96.901 Y107.292 E6.3692
G1 X97.03 Y107.034 E6.38263
G1 X97.182 Y106.74 E6.39804
G1 X97.301 Y106.524 E6.40953
G1 X97.595 Y106 E6.4375
G1 X97.78 Y105.683 E6.45459
G1 X98.011 Y105.303 E6.4753
G1 X98.076 Y105.2 E6.48097
G1 X98.226 Y104.969 E6.4938
G1 X98.546 Y104.489 E6.52066
G1 X98.808 Y104.115 E6.54192
G1 X98.985 Y103.872 E6.55592
G1 X99.214 Y103.568 E6.57364
G1 X99.603 Y103.071 E6.60303
G1 X99.916 Y102.689 E6.62603
G1 X100.109 Y102.464 E6.63983
G1 X100.351 Y102.191 E6.65682
G1 X100.76 Y101.745 E6.685
G1 X100.969 Y101.524 E6.69916
G1 X101.127 Y101.361 E6.70973
G1 X101.372 Y101.115 E6.7259
G0 F6000 X101.653 Y101.4
G1 F1200 X101.84 Y101.22 E6.73798
G1 X102.256 Y100.83 E6.76454
G1 X102.509 Y100.601 E6.78043
G1 X102.806 Y100.341 E6.79881
G1 X102.906 Y100.256 E6.80492
G1 X103.139 Y100.064 E6.81898
G1 X103.609 Y99.687 E6.84703
G1 X103.889 Y99.47 E6.86353
G1 X104.052 Y99.348 E6.87301
G1 X104.264 Y99.193 E6.88524
G1 X104.378 Y99.112 E6.89175
G1 X104.559 Y98.987 E6.90199
G1 X105.018 Y98.675 E6.92783
G1 X105.249 Y98.522 E6.94074
G1 X105.495 Y98.364 E6.95435
G1 X105.942 Y98.092 E6.97871
G1 X106.485 Y97.78 E7.00788
G1 X106.69 Y97.665 E7.01882
G1 X106.888 Y97.557 E7.02932
G1 X107.189 Y97.399 E7.04515
G1 X107.3 Y97.343 E7.05094
G1 X107.515 Y97.238 E7.06208
G1 X108.027 Y96.994 E7.08849
G1 X108.291 Y96.872 E7.10203
G1 X108.485 Y96.786 E7.11192
G1 X108.826 Y96.642 E7.12915
G1 X109.086 Y96.537 E7.14221
G1 X109.624 Y96.329 E7.16907
G1 X109.904 Y96.225 E7.18298
G1 X110.093 Y96.158 E7.19231
G1 X110.46 Y96.035 E7.21034
G1 X110.717 Y95.954 E7.22288
G1 X111.273 Y95.787 E7.24992
G1 X111.542 Y95.71 E7.26294
G1 X111.737 Y95.657 E7.27235
G1 X112.108 Y95.563 E7.29017
G1 X112.387 Y95.498 E7.30351
G1 X112.985 Y95.368 E7.33201
G1 X113.387 Y95.289 E7.35109
G1 X113.703 Y95.233 E7.36603
G1 X114.072 Y95.174 E7.38343
G1 X114.632 Y95.095 E7.40976
G1 X114.937 Y95.056 E7.42408
G1 X115.161 Y95.031 E7.43458
G1 X115.507 Y94.998 E7.45076
G1 X115.805 Y94.975 E7.46468
G1 X116.404 Y94.938 E7.49262
G1 X116.765 Y94.922 E7.50945
G1 X117.054 Y94.914 E7.52291
G1 X117.503 Y94.911 E7.54382
G1 X118.115 Y94.92 E7.57232
G1 X118.499 Y94.933 E7.59021
G1 X118.832 Y94.95 E7.60574
G1 X119.258 Y94.98 E7.62562
G1 X119.848 Y95.034 E7.65321
G1 X120.277 Y95.082 E7.67331
G1 X120.616 Y95.127 E7.68924
G1 X120.991 Y95.184 E7.7069
G1 X121.558 Y95.28 E7.73368
G1 X121.821 Y95.328 E7.74612
G1 X122.245 Y95.413 E7.76626
G1 X122.652 Y95.506 E7.7857
G1 X123.285 Y95.665 E7.81609
G1 X123.646 Y95.763 E7.83351
G1 X123.947 Y95.85 E7.8481
G1 X124.339 Y95.971 E7.8672
G1 X124.87 Y96.147 E7.89325
G1 X125.178 Y96.255 E7.90845
G1 X125.564 Y96.398 E7.92762
G1 X125.698 Y96.45 E7.93431
G1 X125.969 Y96.559 E7.94791
G1 X126.526 Y96.793 E7.97604
G1 X126.919 Y96.968 E7.99607
G1 X127.239 Y97.118 E8.01253
G1 X127.581 Y97.286 E8.03027
G1 X128.068 Y97.536 E8.05576
G1 X128.441 Y97.737 E8.07549
G1 X128.726 Y97.898 E8.09073
G1 X129.061 Y98.096 E8.10885
G1 X129.559 Y98.402 E8.13607
G1 X129.767 Y98.532 E8.14749
G1 X129.985 Y98.673 E8.15958
G1 X130.277 Y98.869 E8.17596
G1 X130.498 Y99.025 E8.18855
G1 X130.977 Y99.372 E8.2161
G1 X131.332 Y99.641 E8.23684
G1 X131.633 Y99.879 E8.2547
G1 X131.906 Y100.102 E8.27112
G1 X132.322 Y100.454 E8.29649
G1 X132.638 Y100.732 E8.31609
G1 X132.878 Y100.952 E8.33125
G1 X133.174 Y101.235 E8.35032
G1 X133.591 Y101.648 E8.37765
G1 X133.829 Y101.891 E8.39349
G1 X134.043 Y102.117 E8.40798
G1 X134.361 Y102.468 E8.43003
G1 X134.76 Y102.929 E8.45842
G1 X134.93 Y103.131 E8.47072
G1 X135.06 Y103.289 E8.48024
G1 X135.228 Y103.498 E8.49273
G1 X135.328 Y103.626 E8.50029
G1 X135.501 Y103.854 E8.51362
G1 X135.829 Y104.298 E8.53932
G1 X135.996 Y104.531 E8.55267
G1 X136.243 Y104.888 E8.57289
G1 X136.311 Y104.99 E8.5786
G1 X136.474 Y105.242 E8.59257
G1 X136.791 Y105.748 E8.62037
G1 X136.945 Y106.002 E8.63421
G1 X137.157 Y106.366 E8.65382
G1 X137.202 Y106.446 E8.65809
G1 X137.343 Y106.706 E8.67187
G1 X137.623 Y107.238 E8.69986
G1 X137.801 Y107.592 E8.71831
G1 X137.941 Y107.884 E8.73339
G1 X138.118 Y108.272 E8.75325
G1 X138.355 Y108.822 E8.78113
G1 X138.468 Y109.096 E8.79493
G1 X138.556 Y109.317 E8.80601
G1 X138.688 Y109.666 E8.82339
G1 X138.761 Y109.869 E8.83343
G1 X138.951 Y110.42 E8.86057
G1 X139.091 Y110.858 E8.88198
G1 X139.192 Y111.198 E8.8985
G1 X139.291 Y111.553 E8.91566
G1 X139.434 Y112.104 E8.94217
G1 X139.502 Y112.38 E8.9554
G1 X139.548 Y112.579 E8.96491
G1 X139.621 Y112.918 E8.98106
G1 X139.674 Y113.192 E8.99405
G1 X139.778 Y113.769 E9.02135
G1 X139.826 Y114.061 E9.03513
G1 X139.861 Y114.292 E9.04601
G1 X139.903 Y114.593 E9.06016
G1 X139.92 Y114.732 E9.06669
G1 X139.997 Y115.47 E9.10124
G1 X140.024 Y115.771 E9.11531
G1 X140.042 Y116.014 E9.12665
G1 X140.06 Y116.307 E9.14032
G1 X140.073 Y116.656 E9.15659
G1 X140.087 Y117.251 E9.1843
G1 X140.09 Y117.543 E9.1979
G1 X140.089 Y117.79 E9.2094
G1 X140.076 Y118.273 E9.2319
G1 X140.042 Y118.957 E9.26379
G1 X140.01 Y119.406 E9.28475
G1 X139.982 Y119.709 E9.29891
