;FLAVOR:Marlin
;TIME:9719
;Filament used: 6.69143m
;Layer height: 0.2
;MINX:16.979
;MINY:65.111
;MINZ:0.2
;MAXX:218.022
;MAXY:170.325
;MAXZ:21
;Generated with Cura_SteamEngine 4.7.0
M140 S55
M105
M190 S55
M104 S210
M105
M109 S210
M82 ;absolute extrusion mode
; Ender 3 Custom Start G-code
G92 E0 ; Reset Extruder
G28 ; Home all axes
G1 Z2.0 F3000 ; Move Z Axis up little to prevent scratching of Heat Bed
G1 X0.1 Y20 Z0.3 F5000.0 ; Move to start position
G1 X0.1 Y200.0 Z0.3 F1500.0 E15 ; Draw the first line
G1 X0.4 Y200.0 Z0.3 F5000.0 ; Move to side a little
G1 X0.4 Y20 Z0.3 F1500.0 E30 ; Draw the second line
G92 E0 ; Reset Extruder
G1 Z2.0 F3000 ; Move Z Axis up little to prevent scratching of Heat Bed
G1 X5 Y20 Z0.3 F5000.0 ; Move over to prevent blob squish
G92 E0
G92 E0
G1 F2700 E-5
;LAYER_COUNT:105
;LAYER:0
M107
G0 F6000 X24.909 Y65.761 Z0.2
;TYPE:SKIRT
G1 F2700 E0
G1 F1200 X25.806 Y65.488 E0.03119
G1 X26.399 Y65.353 E0.05141
G1 X26.479 Y65.337 E0.05413
G1 X27.405 Y65.192 E0.0853
G1 X28.239 Y65.13 E0.11312
G1 X28.488 Y65.121 E0.1214
G1 X28.724 Y65.115 E0.12926
G1 X29.116 Y65.111 E0.14229
G1 X30.053 Y65.114 E0.17346
G1 X30.892 Y65.123 E0.20137
G1 X31.602 Y65.14 E0.22499
G1 X32.538 Y65.203 E0.25619
G1 X33.465 Y65.344 E0.28738
G1 X34.377 Y65.565 E0.31859
G1 X35.266 Y65.862 E0.34976
G1 X36.127 Y66.234 E0.38096
G1 X36.953 Y66.678 E0.41215
G1 X37.739 Y67.19 E0.44335
G1 X38.478 Y67.768 E0.47455
G1 X39.165 Y68.407 E0.50576
G1 X39.795 Y69.101 E0.53693
G1 X40.363 Y69.847 E0.56812
G1 X40.665 Y70.304 E0.58634
G1 X40.955 Y70.77 E0.60459
G1 X41.947 Y72.414 E0.66846
G1 X43.291 Y74.508 E0.75121
G1 X44.727 Y76.612 E0.83594
G1 X46.175 Y78.606 E0.9179
G1 X47.744 Y80.645 E1.00347
G1 X49.314 Y82.571 E1.08612
G1 X50.966 Y84.485 E1.17021
G1 X52.671 Y86.349 E1.25423
G1 X54.417 Y88.154 E1.33776
G1 X56.21 Y89.906 E1.42114
G1 X58.069 Y91.622 E1.50528
G1 X59.948 Y93.26 E1.58819
G1 X61.919 Y94.882 E1.67309
G1 X63.894 Y96.416 E1.75627
G1 X65.945 Y97.919 E1.84084
G1 X67.98 Y99.323 E1.92307
G1 X70.108 Y100.703 E2.00743
G1 X72.26 Y102.015 E2.09125
G1 X74.449 Y103.265 E2.1751
G1 X76.667 Y104.45 E2.25873
G1 X78.909 Y105.568 E2.34206
G1 X81.21 Y106.635 E2.42642
G1 X83.506 Y107.622 E2.50954
G1 X85.85 Y108.552 E2.59342
G1 X88.208 Y109.411 E2.67689
G1 X90.626 Y110.215 E2.76164
G1 X93.008 Y110.934 E2.84439
G1 X95.465 Y111.599 E2.92905
G1 X97.836 Y112.17 E3.01017
G1 X100.372 Y112.706 E3.09638
G1 X102.806 Y113.147 E3.17865
G1 X105.338 Y113.533 E3.26384
G1 X107.839 Y113.842 E3.34766
G1 X110.301 Y114.077 E3.42992
G1 X112.85 Y114.246 E3.51488
G1 X115.371 Y114.343 E3.59879
G1 X117.859 Y114.367 E3.68155
G1 X120.383 Y114.321 E3.76551
G1 X122.916 Y114.203 E3.84985
G1 X125.405 Y114.016 E3.93287
G1 X127.91 Y113.756 E4.01663
G1 X130.4 Y113.427 E4.10017
G1 X132.909 Y113.022 E4.1847
G1 X135.378 Y112.553 E4.26829
G1 X137.839 Y112.012 E4.35209
G1 X140.289 Y111.399 E4.43609
G1 X142.696 Y110.725 E4.51923
G1 X145.092 Y109.982 E4.60267
G1 X147.463 Y109.171 E4.68601
G1 X149.848 Y108.279 E4.7707
G1 X152.179 Y107.332 E4.85439
G1 X154.46 Y106.328 E4.93728
G1 X156.748 Y105.244 E5.02148
G1 X159.009 Y104.093 E5.10587
G1 X161.215 Y102.89 E5.18944
G1 X163.37 Y101.634 E5.2724
G1 X165.503 Y100.31 E5.3559
G1 X167.604 Y98.92 E5.43969
G1 X169.687 Y97.458 E5.52433
G1 X171.689 Y95.965 E5.6074
G1 X173.667 Y94.402 E5.69125
G1 X175.613 Y92.772 E5.77568
G1 X177.48 Y91.116 E5.85868
G1 X179.314 Y89.395 E5.94233
G1 X181.095 Y87.627 E6.0258
G1 X182.84 Y85.792 E6.11002
G1 X184.505 Y83.94 E6.19285
G1 X186.162 Y81.987 E6.27804
G1 X187.719 Y80.046 E6.3608
G1 X189.243 Y78.029 E6.44488
G1 X190.705 Y75.976 E6.52871
G1 X192.094 Y73.906 E6.61162
G1 X193.64 Y71.446 E6.70826
G1 X194.254 Y70.435 E6.7476
G1 X194.774 Y69.655 E6.77878
G1 X195.36 Y68.922 E6.80999
G1 X196.005 Y68.241 E6.84119
G1 X196.707 Y67.619 E6.87238
G1 X197.458 Y67.058 E6.90356
G1 X198.255 Y66.563 E6.93477
G1 X199.091 Y66.138 E6.96596
G1 X199.96 Y65.786 E6.99714
G1 X200.856 Y65.509 E7.02834
G1 X201.773 Y65.309 E7.05955
G1 X202.703 Y65.188 E7.09075
G1 X203.329 Y65.152 E7.1116
G1 X204.343 Y65.122 E7.14534
G1 X204.566 Y65.117 E7.15276
G1 X205.082 Y65.113 E7.16992
G1 X205.704 Y65.112 E7.19061
G1 X205.925 Y65.114 E7.19796
G1 X206.574 Y65.126 E7.21955
G1 X207.51 Y65.183 E7.25074
G1 X208.438 Y65.32 E7.28194
G1 X209.031 Y65.45 E7.30213
G1 X209.34 Y65.527 E7.31272
G1 X210.239 Y65.793 E7.34391
G1 X211.113 Y66.134 E7.37511
G1 X211.954 Y66.548 E7.40629
G1 X212.758 Y67.032 E7.4375
G1 X213.516 Y67.583 E7.46867
G1 X214.43 Y68.395 E7.50933
G1 X214.568 Y68.532 E7.5158
G1 X215.205 Y69.22 E7.54698
G1 X215.78 Y69.96 E7.57815
G1 X216.13 Y70.483 E7.59908
G1 X216.279 Y70.72 E7.6084
G1 X216.744 Y71.535 E7.6396
G1 X217.138 Y72.386 E7.6708
G1 X217.458 Y73.268 E7.702
G1 X217.702 Y74.173 E7.73318
G1 X217.912 Y75.473 E7.77698
G1 X217.941 Y75.761 E7.7866
G1 X217.986 Y76.395 E7.80774
G1 X217.998 Y76.763 E7.81999
G1 X218.006 Y77.247 E7.83609
G1 X218.019 Y80.071 E7.93002
G1 X218.019 Y80.738 E7.9522
G1 X218.007 Y84.05 E8.06236
G1 X218.007 Y98.414 E8.54011
G1 X218.014 Y100.632 E8.61388
G1 X218.022 Y104.526 E8.74339
G1 X218.012 Y105.397 E8.77237
G1 X217.96 Y106.333 E8.80355
G1 X217.829 Y107.262 E8.83475
G1 X217.619 Y108.176 E8.86594
G1 X217.331 Y109.069 E8.89715
G1 X216.859 Y110.162 E8.93675
G1 X216.72 Y110.441 E8.94712
G1 X216.526 Y110.812 E8.96104
G1 X216.189 Y111.429 E8.98442
G1 X215.763 Y112.196 E9.0136
G1 X215.388 Y112.862 E9.03903
G1 X214.465 Y114.474 E9.10081
G1 X213.649 Y115.861 E9.15433
G1 X212.888 Y117.109 E9.20295
G1 X211.92 Y118.651 E9.2635
G1 X211.193 Y119.773 E9.30797
G1 X210.309 Y121.098 E9.36095
G1 X209.469 Y122.318 E9.41021
G1 X209.386 Y122.437 E9.41504
G1 X208.472 Y123.726 E9.4676
G1 X207.552 Y124.985 E9.51946
G1 X206.606 Y126.244 E9.57184
G1 X206.503 Y126.379 E9.57748
G1 X205.71 Y127.401 E9.62051
G1 X204.565 Y128.838 E9.68162
G1 X203.635 Y129.967 E9.73027
G1 X202.681 Y131.1 E9.77953
G1 X202.564 Y131.237 E9.78553
G1 X201.625 Y132.314 E9.83305
G1 X200.444 Y133.636 E9.89201
G1 X199.581 Y134.575 E9.93443
G1 X198.432 Y135.793 E9.99012
G1 X198.315 Y135.915 E9.99574
G1 X197.386 Y136.869 E10.04003
G1 X196.249 Y138.008 E10.09356
G1 X196.125 Y138.13 E10.09935
G1 X195.098 Y139.125 E10.14691
G1 X193.826 Y140.328 E10.20514
G1 X192.841 Y141.234 E10.24965
G1 X191.54 Y142.398 E10.30771
G1 X190.494 Y143.304 E10.35374
G1 X189.25 Y144.355 E10.4079
G1 X189.124 Y144.46 E10.41336
G1 X188.036 Y145.351 E10.46013
G1 X186.77 Y146.362 E10.51402
G1 X185.684 Y147.205 E10.55974
G1 X185.568 Y147.294 E10.56461
G1 X184.276 Y148.268 E10.61842
G1 X182.996 Y149.203 E10.67114
G1 X181.746 Y150.091 E10.72214
G1 X180.38 Y151.029 E10.77725
G1 X179.187 Y151.828 E10.82501
G1 X179.046 Y151.921 E10.83063
G1 X177.925 Y152.647 E10.87505
G1 X176.327 Y153.651 E10.93782
G1 X175.326 Y154.259 E10.97677
G1 X173.754 Y155.189 E11.03752
G1 X173.598 Y155.28 E11.04353
G1 X172.379 Y155.973 E11.09017
G1 X170.928 Y156.775 E11.14531
G1 X169.779 Y157.389 E11.18864
G1 X168.283 Y158.164 E11.24468
G1 X168.13 Y158.242 E11.25039
G1 X166.931 Y158.839 E11.29494
G1 X165.333 Y159.61 E11.35395
G1 X164.053 Y160.205 E11.4009
G1 X162.647 Y160.834 E11.45213
G1 X162.504 Y160.897 E11.45732
G1 X161.121 Y161.49 E11.50737
G1 X159.551 Y162.141 E11.5639
G1 X158.314 Y162.635 E11.6082
G1 X156.663 Y163.265 E11.66698
G1 X155.286 Y163.766 E11.71572
G1 X153.78 Y164.294 E11.76879
G1 X153.625 Y164.347 E11.77424
G1 X152.421 Y164.749 E11.81646
G1 X150.675 Y165.307 E11.87743
G1 X149.328 Y165.715 E11.92424
G1 X147.848 Y166.142 E11.97547
G1 X146.301 Y166.564 E12.02881
G1 X144.743 Y166.967 E12.08233
G1 X143.362 Y167.303 E12.1296
G1 X143.223 Y167.336 E12.13435
G1 X141.69 Y167.687 E12.18666
G1 X141.522 Y167.724 E12.19238
G1 X140.252 Y167.994 E12.23557
G1 X138.45 Y168.352 E12.29667
G1 X137.156 Y168.59 E12.34043
G1 X135.395 Y168.89 E12.39985
G1 X133.975 Y169.109 E12.44764
G1 X132.385 Y169.335 E12.50105
G1 X130.772 Y169.539 E12.55513
G1 X129.194 Y169.717 E12.60794
G1 X127.735 Y169.86 E12.6567
G1 X126.223 Y169.987 E12.70717
G1 X124.655 Y170.098 E12.75945
G1 X123.082 Y170.188 E12.81186
G1 X122.921 Y170.196 E12.81722
G1 X121.334 Y170.262 E12.87005
G1 X119.8 Y170.303 E12.92109
G1 X118.309 Y170.324 E12.97068
G1 X116.83 Y170.325 E13.01987
G1 X115.238 Y170.305 E13.07283
G1 X113.499 Y170.256 E13.13069
G1 X112.176 Y170.201 E13.17473
G1 X110.478 Y170.107 E13.23129
G1 X110.318 Y170.097 E13.23663
G1 X108.955 Y170.001 E13.28207
G1 X107.355 Y169.867 E13.33547
G1 X107.201 Y169.853 E13.34062
G1 X105.684 Y169.703 E13.39132
G1 X104.218 Y169.537 E13.44039
G1 X102.763 Y169.353 E13.48917
G1 X102.613 Y169.333 E13.4942
G1 X100.931 Y169.095 E13.5507
G1 X99.621 Y168.891 E13.5948
G1 X97.983 Y168.614 E13.65005
G1 X96.433 Y168.328 E13.70248
G1 X94.861 Y168.017 E13.75577
G1 X93.49 Y167.725 E13.8024
G1 X91.78 Y167.337 E13.86072
G1 X91.621 Y167.3 E13.86615
G1 X90.243 Y166.964 E13.91332
G1 X88.779 Y166.586 E13.96361
G1 X87.102 Y166.128 E14.02143
G1 X85.674 Y165.715 E14.07087
G1 X84.289 Y165.296 E14.119
G1 X82.782 Y164.816 E14.17161
G1 X82.634 Y164.768 E14.17678
G1 X81.377 Y164.347 E14.22087
G1 X79.563 Y163.712 E14.28479
G1 X78.223 Y163.221 E14.33226
G1 X76.798 Y162.677 E14.38299
G1 X75.309 Y162.083 E14.43631
G1 X73.921 Y161.51 E14.48626
G1 X72.361 Y160.838 E14.54275
G1 X71.079 Y160.264 E14.58947
G1 X69.639 Y159.596 E14.64227
G1 X68.242 Y158.925 E14.69381
G1 X68.091 Y158.851 E14.69941
G1 X66.763 Y158.187 E14.74879
G1 X65.339 Y157.452 E14.80209
G1 X64.08 Y156.779 E14.84957
G1 X62.591 Y155.958 E14.90612
G1 X61.387 Y155.271 E14.95223
G1 X59.712 Y154.285 E15.01688
G1 X58.511 Y153.55 E15.06371
G1 X57.223 Y152.742 E15.11428
G1 X55.938 Y151.911 E15.16518
G1 X55.801 Y151.821 E15.17063
G1 X54.527 Y150.968 E15.22162
G1 X53.414 Y150.201 E15.26658
G1 X51.874 Y149.109 E15.32937
G1 X50.855 Y148.364 E15.37135
G1 X49.351 Y147.233 E15.43394
G1 X48.221 Y146.355 E15.48154
G1 X47.029 Y145.406 E15.53222
G1 X46.892 Y145.295 E15.53808
G1 X45.763 Y144.365 E15.58673
G1 X44.63 Y143.411 E15.63599
G1 X44.494 Y143.295 E15.64194
G1 X43.408 Y142.349 E15.68984
G1 X42.209 Y141.278 E15.74331
G1 X41.052 Y140.214 E15.79559
G1 X39.941 Y139.166 E15.84639
G1 X39.814 Y139.044 E15.85225
G1 X38.759 Y138.016 E15.90124
G1 X37.725 Y136.984 E15.94983
G1 X36.608 Y135.832 E16.0032
G1 X35.501 Y134.664 E16.05672
G1 X34.388 Y133.453 E16.11143
G1 X33.31 Y132.245 E16.16528
G1 X32.425 Y131.223 E16.21025
G1 X31.271 Y129.856 E16.26975
G1 X30.368 Y128.753 E16.31716
G1 X29.357 Y127.487 E16.37105
G1 X28.407 Y126.261 E16.42263
G1 X27.453 Y124.994 E16.47538
G1 X26.525 Y123.722 E16.52775
G1 X25.635 Y122.468 E16.5789
G1 X24.737 Y121.165 E16.63153
G1 X23.884 Y119.89 E16.68255
G1 X23.086 Y118.661 E16.73129
G1 X22.158 Y117.186 E16.78925
G1 X22.068 Y117.041 E16.79493
G1 X21.469 Y116.054 E16.83333
G1 X20.539 Y114.481 E16.8941
G1 X20.452 Y114.331 E16.89987
G1 X19.523 Y112.703 E16.96222
G1 X19.221 Y112.167 E16.98268
G1 X18.773 Y111.358 E17.01344
G1 X18.587 Y111.019 E17.0263
G1 X18.454 Y110.768 E17.03574
G1 X18.221 Y110.316 E17.05266
G1 X17.827 Y109.465 E17.08385
G1 X17.507 Y108.583 E17.11505
G1 X17.263 Y107.678 E17.14623
G1 X17.098 Y106.754 E17.17745
G1 X17 Y105.481 E17.21991
G1 X16.981 Y104.46 E17.25388
G1 X16.979 Y104.239 E17.26123
G1 X16.985 Y100.111 E17.39853
G1 X16.993 Y97.623 E17.48128
G1 X16.992 Y83.415 E17.95384
G1 X16.982 Y80.598 E18.04753
G1 X16.982 Y79.842 E18.07268
G1 X16.992 Y77.466 E18.1517
G1 X17.008 Y76.546 E18.18231
G1 X17.065 Y75.61 E18.2135
G1 X17.202 Y74.682 E18.2447
G1 X17.389 Y73.87 E18.27241
G1 X17.46 Y73.608 E18.28144
G1 X17.744 Y72.714 E18.31264
G1 X18.102 Y71.847 E18.34384
G1 X18.534 Y71.015 E18.37502
G1 X19.255 Y69.914 E18.41879
G1 X19.401 Y69.718 E18.42692
G1 X19.993 Y68.99 E18.45813
G1 X20.645 Y68.316 E18.48932
G1 X21.352 Y67.699 E18.52053
G1 X22.108 Y67.145 E18.5517
G1 X22.909 Y66.657 E18.5829
G1 X23.705 Y66.26 E18.61248
G1 X24.038 Y66.11 E18.62463
G1 X24.909 Y65.761 E18.65584
G0 F6000 X25.058 Y66.133
G1 F1200 X25.939 Y65.867 E18.68645
G1 X26.477 Y65.745 E18.7048
G1 X26.557 Y65.729 E18.70751
G1 X27.467 Y65.588 E18.73814
G1 X28.253 Y65.53 E18.76435
G1 X28.502 Y65.521 E18.77264
G1 X28.73 Y65.515 E18.78022
G1 X29.115 Y65.511 E18.79303
G1 X30.049 Y65.514 E18.82409
G1 X30.883 Y65.523 E18.85184
G1 X31.593 Y65.54 E18.87546
G1 X32.511 Y65.602 E18.90606
G1 X33.421 Y65.743 E18.93669
G1 X34.315 Y65.963 E18.96731
G1 X35.187 Y66.26 E18.99795
G1 X36.029 Y66.631 E19.02855
G1 X36.836 Y67.074 E19.05917
G1 X37.602 Y67.585 E19.0898
G1 X38.32 Y68.161 E19.12041
G1 X38.986 Y68.797 E19.15104
G1 X39.594 Y69.488 E19.18165
G1 X40.326 Y70.516 E19.22363
G1 X40.612 Y70.976 E19.24164
G1 X41.595 Y72.605 E19.30492
G1 X42.968 Y74.744 E19.38946
G1 X44.39 Y76.827 E19.47335
G1 X45.867 Y78.863 E19.55701
G1 X47.433 Y80.896 E19.64236
G1 X49.017 Y82.84 E19.72576
G1 X50.651 Y84.734 E19.80896
G1 X52.371 Y86.614 E19.89371
G1 X54.133 Y88.436 E19.97801
G1 X55.96 Y90.22 E20.06295
G1 X57.8 Y91.919 E20.14624
G1 X59.677 Y93.555 E20.22906
G1 X61.683 Y95.205 E20.31545
G1 X63.641 Y96.726 E20.39791
G1 X65.704 Y98.239 E20.483
G1 X67.781 Y99.671 E20.56691
G1 X69.887 Y101.038 E20.65042
G1 X72.034 Y102.346 E20.73404
G1 X74.256 Y103.615 E20.81915
G1 X76.492 Y104.81 E20.90347
G1 X78.742 Y105.932 E20.98709
G1 X81.033 Y106.994 E21.07108
G1 X83.368 Y107.997 E21.15561
G1 X85.714 Y108.929 E21.23957
G1 X88.082 Y109.791 E21.32338
G1 X90.489 Y110.591 E21.40774
G1 X92.894 Y111.317 E21.4913
G1 X95.347 Y111.981 E21.57582
G1 X97.798 Y112.572 E21.65968
G1 X100.249 Y113.089 E21.743
G1 X102.781 Y113.549 E21.82859
G1 X105.266 Y113.927 E21.91219
G1 X107.788 Y114.239 E21.99671
G1 X110.273 Y114.476 E22.07974
G1 X112.842 Y114.647 E22.16537
G1 X115.352 Y114.743 E22.24892
G1 X117.862 Y114.767 E22.3324
G1 X120.408 Y114.721 E22.4171
G1 X122.928 Y114.603 E22.50101
G1 X125.443 Y114.415 E22.58489
G1 X127.967 Y114.153 E22.66929
G1 X130.449 Y113.824 E22.75256
G1 X132.976 Y113.417 E22.83769
G1 X135.434 Y112.949 E22.92091
G1 X137.95 Y112.396 E23.00659
G1 X140.379 Y111.789 E23.08987
G1 X142.827 Y111.104 E23.17442
G1 X145.224 Y110.359 E23.2579
G1 X147.595 Y109.548 E23.34125
G1 X150.002 Y108.649 E23.42671
G1 X152.312 Y107.71 E23.50964
G1 X154.643 Y106.684 E23.59435
G1 X156.936 Y105.598 E23.67874
G1 X159.186 Y104.452 E23.76272
G1 X161.387 Y103.252 E23.8461
G1 X163.602 Y101.961 E23.93137
G1 X165.704 Y100.656 E24.01366
G1 X167.857 Y99.232 E24.09952
G1 X169.91 Y97.791 E24.18294
G1 X171.931 Y96.284 E24.26679
G1 X173.926 Y94.707 E24.35137
G1 X175.852 Y93.094 E24.43493
G1 X177.755 Y91.406 E24.51953
G1 X179.586 Y89.688 E24.60304
G1 X181.384 Y87.903 E24.68731
G1 X183.126 Y86.071 E24.77139
G1 X184.824 Y84.183 E24.85585
G1 X186.463 Y82.251 E24.94011
G1 X188.034 Y80.292 E25.02363
G1 X189.572 Y78.257 E25.10847
G1 X191.031 Y76.209 E25.19211
G1 X192.421 Y74.136 E25.27512
G1 X193.958 Y71.69 E25.3712
G1 X194.595 Y70.642 E25.412
G1 X195.107 Y69.877 E25.44261
G1 X195.684 Y69.159 E25.47325
G1 X196.32 Y68.494 E25.50385
G1 X197.012 Y67.886 E25.53449
G1 X197.754 Y67.341 E25.56511
G1 X198.54 Y66.862 E25.59573
G1 X199.365 Y66.454 E25.62634
G1 X200.222 Y66.118 E25.65695
G1 X201.105 Y65.858 E25.68757
G1 X202.008 Y65.676 E25.71821
G1 X203.341 Y65.552 E25.76274
G1 X204.355 Y65.522 E25.79648
G1 X204.57 Y65.517 E25.80363
G1 X205.083 Y65.513 E25.82069
G1 X205.705 Y65.512 E25.84138
G1 X205.918 Y65.514 E25.84846
G1 X206.567 Y65.526 E25.87005
G1 X207.486 Y65.583 E25.90068
G1 X208.396 Y65.719 E25.93128
G1 X208.934 Y65.839 E25.94962
G1 X209.243 Y65.916 E25.96021
G1 X210.126 Y66.177 E25.99083
G1 X210.983 Y66.514 E26.02146
G1 X211.807 Y66.923 E26.05206
G1 X212.593 Y67.403 E26.08269
G1 X213.334 Y67.95 E26.11332
G1 X214.148 Y68.678 E26.14964
G1 X214.286 Y68.815 E26.15611
G1 X214.911 Y69.492 E26.18676
G1 X215.474 Y70.22 E26.21737
G1 X215.792 Y70.696 E26.23641
G1 X215.941 Y70.933 E26.24572
G1 X216.397 Y71.733 E26.27634
G1 X216.781 Y72.57 E26.30697
G1 X217.092 Y73.436 E26.33758
G1 X217.326 Y74.327 E26.36822
G1 X217.514 Y75.513 E26.40816
G1 X217.543 Y75.801 E26.41778
G1 X217.586 Y76.412 E26.43816
G1 X217.598 Y76.771 E26.4501
G1 X217.606 Y77.249 E26.466
G1 X217.619 Y80.073 E26.55993
G1 X217.619 Y80.736 E26.58198
G1 X217.607 Y84.048 E26.69214
