;FLAVOR:Marlin
;TIME:21401
;Filament used: 18.8558m
;Layer height: 0.28
;MINX:48.5
;MINY:67.5
;MINZ:0.28
;MAXX:185.5
;MAXY:167.499
;MAXZ:74.76
;Generated with Cura_SteamEngine 4.6.1
M140 S60
M105
M190 S60
M104 S210
M105
M109 S210
M82 ;absolute extrusion mode
; Ender 3 Custom Start G-code
G92 E0 ; Reset Extruder
G28 ; Home all axes
G1 Z2.0 F3000 ; Move Z Axis up little to prevent scratching of Heat Bed
G1 X0.1 Y20 Z0.3 F5000.0 ; Move to start position
G1 X0.1 Y200.0 Z0.3 F1500.0 E15 ; Draw the first line
G1 X0.4 Y200.0 Z0.3 F5000.0 ; Move to side a little
G1 X0.4 Y20 Z0.3 F1500.0 E30 ; Draw the second line
G92 E0 ; Reset Extruder
G1 Z2.0 F3000 ; Move Z Axis up little to prevent scratching of Heat Bed
G1 X5 Y20 Z0.3 F5000.0 ; Move over to prevent blob squish
G92 E0
G92 E0
G1 F2700 E-5
;LAYER_COUNT:267
;LAYER:0
M107
G0 F6000 X84.637 Y68.311 Z0.28
;TYPE:SKIRT
G1 F2700 E0
G1 F1200 X85.539 Y68.364 E0.04207
G1 X86.432 Y68.496 E0.08411
G1 X87.31 Y68.707 E0.12615
G1 X88.166 Y68.995 E0.16821
G1 X88.779 Y69.255 E0.19921
G1 X89.368 Y69.528 E0.22944
G1 X91.739 Y70.6 E0.35061
G1 X94.11 Y71.593 E0.4703
G1 X96.42 Y72.48 E0.58552
G1 X98.848 Y73.338 E0.70543
G1 X101.27 Y74.117 E0.8239
G1 X103.714 Y74.828 E0.94242
G1 X106.162 Y75.465 E1.06021
G1 X108.636 Y76.036 E1.17843
G1 X111.142 Y76.538 E1.29744
G1 X113.613 Y76.961 E1.41418
G1 X116.14 Y77.321 E1.53303
G1 X118.673 Y77.609 E1.65174
G1 X121.209 Y77.825 E1.77025
G1 X123.713 Y77.968 E1.88704
G1 X126.298 Y78.041 E2.00746
G1 X127.622 Y78.05 E2.06911
G1 X137.939 Y78.051 E2.54951
G1 X138.637 Y78.061 E2.58202
G1 X139.539 Y78.114 E2.62409
G1 X140.349 Y78.231 E2.6622
G1 X141.473 Y78.44 E2.71543
G1 X142.098 Y78.566 E2.74512
G1 X144.59 Y78.995 E2.86287
G1 X147.109 Y79.356 E2.98136
G1 X149.613 Y79.642 E3.09872
G1 X152.179 Y79.862 E3.21864
G1 X154.762 Y80.011 E3.33911
G1 X157.377 Y80.128 E3.461
G1 X159.488 Y80.204 E3.55936
G1 X162.078 Y80.227 E3.67997
G1 X164.622 Y80.176 E3.79845
G1 X166.885 Y80.075 E3.90393
G1 X168.49 Y80.039 E3.97868
G1 X169.825 Y80.035 E4.04085
G1 X173.976 Y80.043 E4.23414
G1 X174.634 Y80.053 E4.26478
G1 X175.536 Y80.107 E4.30685
G1 X176.429 Y80.24 E4.34889
G1 X177.307 Y80.452 E4.39095
G1 X178.162 Y80.74 E4.43296
G1 X178.989 Y81.103 E4.47502
G1 X179.781 Y81.538 E4.51709
G1 X180.531 Y82.041 E4.55914
G1 X181.233 Y82.609 E4.60119
G1 X181.883 Y83.236 E4.64324
G1 X182.475 Y83.919 E4.68533
G1 X183.003 Y84.651 E4.72736
G1 X183.465 Y85.427 E4.76941
G1 X183.857 Y86.24 E4.81144
G1 X184.175 Y87.086 E4.85352
G1 X184.417 Y87.956 E4.89557
G1 X184.581 Y88.844 E4.93762
G1 X184.677 Y90.037 E4.99335
G1 X184.7 Y91.25 E5.04984
G1 X184.699 Y145.266 E7.56505
G1 X184.683 Y146.094 E7.60362
G1 X184.668 Y146.432 E7.61937
G1 X184.588 Y147.332 E7.66144
G1 X184.451 Y148.121 E7.69873
G1 X184.407 Y148.326 E7.7085
G1 X184.178 Y149.199 E7.75052
G1 X183.874 Y150.049 E7.79256
G1 X183.492 Y150.875 E7.83493
G1 X183.361 Y151.128 E7.8482
G1 X182.91 Y151.911 E7.89027
G1 X182.393 Y152.651 E7.93231
G1 X181.69 Y153.472 E7.98264
G1 X181.511 Y153.66 E7.99473
G1 X180.86 Y154.285 E8.03675
G1 X180.156 Y154.851 E8.07881
G1 X179.052 Y155.556 E8.1398
G1 X178.782 Y155.705 E8.15416
G1 X177.973 Y156.106 E8.19621
G1 X177.131 Y156.434 E8.23828
G1 X176.42 Y156.647 E8.27285
G1 X176.193 Y156.706 E8.28377
G1 X175.31 Y156.894 E8.3258
G1 X174.303 Y157.012 E8.37302
G1 X174.017 Y157.031 E8.38636
G1 X173.478 Y157.052 E8.41148
G1 X172.818 Y157.06 E8.44221
G1 X169.055 Y157.059 E8.61743
G1 X168.584 Y157.052 E8.63937
G1 X168.257 Y157.042 E8.6546
G1 X166.577 Y156.961 E8.73292
G1 X166.12 Y156.931 E8.75425
G1 X163.578 Y156.835 E8.8727
G1 X161.009 Y156.81 E8.99233
G1 X158.52 Y156.857 E9.10825
G1 X154.943 Y157.038 E9.27502
G1 X154.569 Y157.05 E9.29244
G1 X153.779 Y157.06 E9.32923
G1 X150.061 Y157.059 E9.50236
G1 X149.13 Y157.041 E9.54572
G1 X147.79 Y156.981 E9.60817
G1 X146.984 Y156.934 E9.64577
G1 X144.476 Y156.859 E9.7626
G1 X141.907 Y156.854 E9.88223
G1 X138.17 Y156.95 E10.0563
G1 X127.632 Y156.95 E10.54699
G1 X125.026 Y156.987 E10.66835
G1 X122.461 Y157.096 E10.78789
G1 X119.954 Y157.274 E10.90492
G1 X117.413 Y157.525 E11.02382
G1 X114.905 Y157.846 E11.14155
G1 X112.4 Y158.24 E11.25963
G1 X109.913 Y158.702 E11.37742
G1 X107.392 Y159.245 E11.4975
G1 X104.967 Y159.84 E11.61377
G1 X102.501 Y160.517 E11.73284
G1 X100.074 Y161.26 E11.85103
G1 X97.672 Y162.071 E11.96908
G1 X95.259 Y162.961 E12.08884
G1 X92.95 Y163.888 E12.2047
G1 X89.904 Y165.227 E12.35963
G1 X88.776 Y165.746 E12.41745
G1 X87.94 Y166.087 E12.45949
G1 X87.077 Y166.353 E12.50154
G1 X86.194 Y166.541 E12.54358
G1 X85.297 Y166.651 E12.58566
G1 X84.723 Y166.679 E12.61242
G1 X83.939 Y166.693 E12.64893
G1 X63.066 Y166.699 E13.62086
G1 X62.507 Y166.691 E13.6469
G1 X61.578 Y166.635 E13.69023
G1 X61.427 Y166.619 E13.6973
G1 X60.534 Y166.484 E13.73936
G1 X59.657 Y166.271 E13.78138
G1 X58.801 Y165.981 E13.82347
G1 X57.975 Y165.616 E13.86552
G1 X57.184 Y165.18 E13.90757
G1 X56.435 Y164.676 E13.94961
G1 X55.427 Y163.823 E14.0111
G1 X54.588 Y163.012 E14.06543
G1 X52.655 Y161.079 E14.19272
G1 X52.188 Y160.597 E14.22398
G1 X51.589 Y159.921 E14.26603
G1 X51.052 Y159.195 E14.30808
G1 X50.582 Y158.424 E14.35013
G1 X50.181 Y157.615 E14.39217
G1 X49.854 Y156.773 E14.43423
G1 X49.602 Y155.906 E14.47627
G1 X49.428 Y155.019 E14.51836
G1 X49.317 Y153.753 E14.57754
G1 X49.3 Y152.938 E14.6155
G1 X49.3 Y82.207 E17.90903
G1 X49.301 Y82.061 E17.91583
G1 X49.311 Y81.363 E17.94833
G1 X49.364 Y80.461 E17.9904
G1 X49.496 Y79.568 E18.03244
G1 X49.707 Y78.69 E18.07449
G1 X49.995 Y77.834 E18.11654
G1 X50.357 Y77.007 E18.15858
G1 X50.792 Y76.215 E18.20065
G1 X51.294 Y75.464 E18.24271
G1 X51.943 Y74.669 E18.2905
G1 X52.084 Y74.513 E18.30029
G1 X52.541 Y74.035 E18.33109
G1 X54.906 Y71.671 E18.48679
G1 X55.389 Y71.201 E18.51817
G1 X56.063 Y70.6 E18.56022
G1 X56.788 Y70.062 E18.60226
G1 X57.558 Y69.589 E18.64434
G1 X58.366 Y69.187 E18.68636
G1 X59.207 Y68.858 E18.72841
G1 X60.074 Y68.604 E18.77048
G1 X60.96 Y68.428 E18.81254
G1 X62.302 Y68.313 E18.87526
G1 X63.062 Y68.3 E18.91066
G1 X83.939 Y68.301 E19.88278
G1 X84.637 Y68.311 E19.91528
G0 F6000 X84.643 Y67.911
G1 F1200 X85.562 Y67.964 E19.95815
G1 X86.473 Y68.097 E20.00102
G1 X87.369 Y68.308 E20.04388
G1 X88.243 Y68.596 E20.08673
G1 X88.947 Y68.892 E20.12229
G1 X89.479 Y69.139 E20.1496
G1 X91.912 Y70.239 E20.27393
G1 X94.242 Y71.214 E20.39154
G1 X96.592 Y72.117 E20.50877
G1 X98.967 Y72.956 E20.62606
G1 X101.389 Y73.735 E20.74453
G1 X103.789 Y74.433 E20.86091
G1 X106.281 Y75.082 E20.98082
G1 X108.733 Y75.648 E21.098
G1 X111.182 Y76.138 E21.21429
G1 X113.701 Y76.57 E21.3333
G1 X116.21 Y76.927 E21.45131
G1 X118.68 Y77.207 E21.56706
G1 X121.23 Y77.425 E21.68623
G1 X123.748 Y77.568 E21.80367
G1 X126.312 Y77.641 E21.9231
G1 X127.624 Y77.65 E21.9842
G1 X137.945 Y77.651 E22.46479
G1 X138.643 Y77.661 E22.49729
G1 X139.562 Y77.714 E22.54016
G1 X140.422 Y77.837 E22.58061
G1 X141.552 Y78.048 E22.63414
G1 X142.174 Y78.173 E22.66368
G1 X144.649 Y78.599 E22.78062
G1 X147.174 Y78.961 E22.8994
G1 X149.656 Y79.245 E23.01572
G1 X152.2 Y79.463 E23.13462
G1 X154.805 Y79.613 E23.25612
G1 X157.314 Y79.725 E23.37306
G1 X159.506 Y79.804 E23.4752
G1 X162.074 Y79.827 E23.59478
G1 X164.596 Y79.777 E23.71224
G1 X166.875 Y79.675 E23.81846
G1 X168.489 Y79.639 E23.89364
G1 X169.875 Y79.635 E23.95817
G1 X173.982 Y79.643 E24.14941
G1 X174.64 Y79.653 E24.18006
G1 X175.559 Y79.707 E24.22292
G1 X176.47 Y79.841 E24.2658
G1 X177.366 Y80.053 E24.30867
G1 X178.24 Y80.342 E24.35154
G1 X179.086 Y80.705 E24.3944
G1 X179.897 Y81.141 E24.43728
G1 X180.667 Y81.646 E24.48016
G1 X181.39 Y82.215 E24.523
G1 X182.062 Y82.845 E24.56589
G1 X182.676 Y83.531 E24.60876
G1 X183.228 Y84.268 E24.65163
G1 X183.714 Y85.049 E24.69447
G1 X184.131 Y85.87 E24.73734
G1 X184.475 Y86.724 E24.78022
G1 X184.743 Y87.605 E24.82309
G1 X184.934 Y88.506 E24.86598
G1 X185.046 Y89.42 E24.90886
G1 X185.077 Y90.029 E24.93725
G1 X185.1 Y91.25 E24.99412
G1 X185.099 Y145.271 E27.50956
G1 X185.083 Y146.112 E27.54873
G1 X185.068 Y146.45 E27.56448
G1 X184.987 Y147.367 E27.60735
G1 X184.842 Y148.204 E27.6469
G1 X184.798 Y148.409 E27.65667
G1 X184.566 Y149.3 E27.69954
G1 X184.257 Y150.168 E27.74244
G1 X183.847 Y151.059 E27.78811
G1 X183.716 Y151.312 E27.80138
G1 X183.258 Y152.11 E27.84422
G1 X182.732 Y152.866 E27.88711
G1 X181.98 Y153.747 E27.94104
G1 X181.801 Y153.935 E27.95313
G1 X181.138 Y154.574 E27.99601
G1 X180.422 Y155.152 E28.03885
G1 X179.658 Y155.667 E28.08176
G1 X179.246 Y155.907 E28.10396
G1 X178.976 Y156.056 E28.11832
G1 X178.151 Y156.465 E28.1612
G1 X177.294 Y156.801 E28.20406
G1 X176.52 Y157.034 E28.2417
G1 X176.293 Y157.093 E28.25262
G1 X175.393 Y157.286 E28.29548
G1 X174.33 Y157.411 E28.34532
G1 X174.044 Y157.43 E28.35866
G1 X173.483 Y157.452 E28.38481
G1 X172.818 Y157.46 E28.41577
G1 X169.049 Y157.459 E28.59128
G1 X168.578 Y157.452 E28.61321
G1 X168.238 Y157.441 E28.62905
G1 X166.551 Y157.36 E28.70769
G1 X166.079 Y157.329 E28.72972
G1 X163.594 Y157.235 E28.84551
G1 X161.013 Y157.21 E28.9657
G1 X158.516 Y157.257 E29.08199
G1 X154.963 Y157.437 E29.24765
G1 X154.574 Y157.45 E29.26577
G1 X153.779 Y157.46 E29.30279
G1 X150.055 Y157.459 E29.4762
G1 X149.112 Y157.441 E29.52012
G1 X147.767 Y157.38 E29.58281
G1 X146.985 Y157.335 E29.61928
G1 X144.463 Y157.259 E29.73677
G1 X141.917 Y157.254 E29.85532
G1 X138.17 Y157.35 E30.02986
G1 X127.638 Y157.35 E30.52027
G1 X125.013 Y157.387 E30.64251
G1 X122.505 Y157.494 E30.7594
G1 X119.985 Y157.672 E30.87704
G1 X117.47 Y157.921 E30.99472
G1 X114.981 Y158.24 E31.11157
G1 X112.429 Y158.641 E31.23186
G1 X109.998 Y159.093 E31.34699
G1 X107.499 Y159.631 E31.46602
G1 X105.063 Y160.228 E31.58281
G1 X102.597 Y160.906 E31.7019
G1 X100.204 Y161.639 E31.81844
G1 X97.79 Y162.453 E31.93706
G1 X95.44 Y163.32 E32.0537
G1 X93.08 Y164.268 E32.17212
G1 X90.054 Y165.598 E32.32604
G1 X88.943 Y166.109 E32.38298
G1 X88.091 Y166.458 E32.42585
G1 X87.212 Y166.731 E32.46871
G1 X86.312 Y166.927 E32.5116
G1 X85.399 Y167.044 E32.55446
G1 X84.732 Y167.079 E32.58556
G1 X83.94 Y167.093 E32.62244
G1 X63.06 Y167.099 E33.5947
G1 X62.501 Y167.091 E33.62074
G1 X61.536 Y167.033 E33.66575
G1 X61.385 Y167.017 E33.67282
G1 X60.475 Y166.88 E33.71567
G1 X59.579 Y166.665 E33.75858
G1 X58.706 Y166.373 E33.80144
G1 X57.862 Y166.006 E33.8443
G1 X57.052 Y165.568 E33.88718
G1 X56.284 Y165.061 E33.93003
G1 X55.563 Y164.489 E33.97288
G1 X55.149 Y164.111 E33.99899
G1 X54.305 Y163.295 E34.05365
G1 X52.368 Y161.357 E34.18124
G1 X51.901 Y160.875 E34.21249
G1 X51.29 Y160.187 E34.25534
G1 X50.741 Y159.448 E34.2982
G1 X50.257 Y158.664 E34.34111
G1 X49.844 Y157.841 E34.38398
G1 X49.504 Y156.986 E34.42683
G1 X49.239 Y156.104 E34.46971
G1 X49.052 Y155.203 E34.51256
G1 X48.943 Y154.288 E34.55547
G1 X48.917 Y153.763 E34.57994
G1 X48.9 Y152.938 E34.61837
G1 X48.9 Y82.207 E37.9119
G1 X48.901 Y82.055 E37.91898
G1 X48.911 Y81.357 E37.95148
G1 X48.964 Y80.438 E37.99434
G1 X49.097 Y79.527 E38.03721
G1 X49.308 Y78.631 E38.08008
G1 X49.596 Y77.757 E38.12293
G1 X49.959 Y76.91 E38.16584
G1 X50.394 Y76.099 E38.20869
G1 X50.898 Y75.329 E38.25154
G1 X51.646 Y74.401 E38.30704
G1 X51.787 Y74.245 E38.31683
G1 X52.074 Y73.94 E38.33633
G1 X52.255 Y73.755 E38.34839
G1 X54.627 Y71.384 E38.50455
G1 X55.11 Y70.914 E38.53593
G1 X55.797 Y70.301 E38.57881
G1 X56.534 Y69.75 E38.62166
G1 X57.317 Y69.266 E38.66452
G1 X58.139 Y68.851 E38.7074
G1 X58.994 Y68.508 E38.75029
G1 X59.875 Y68.242 E38.79315
G1 X60.776 Y68.053 E38.83601
G1 X61.69 Y67.942 E38.87888
G1 X62.294 Y67.913 E38.90704
G1 X63.062 Y67.9 E38.94281
G1 X83.945 Y67.901 E39.91521
G1 X84.643 Y67.911 E39.94771
G0 F6000 X84.649 Y67.511
G1 F1200 X85.585 Y67.565 E39.99137
G1 X86.513 Y67.697 E40.03502
G1 X87.427 Y67.909 E40.07871
G1 X88.319 Y68.198 E40.12237
G1 X89.115 Y68.529 E40.16251
G1 X89.715 Y68.807 E40.1933
G1 X92.052 Y69.863 E40.31271
G1 X94.403 Y70.848 E40.43141
G1 X96.72 Y71.739 E40.547
G1 X99.075 Y72.57 E40.66328
G1 X101.528 Y73.359 E40.78327
G1 X103.896 Y74.048 E40.89811
G1 X106.357 Y74.688 E41.01651
G1 X108.836 Y75.261 E41.13499
G1 X111.256 Y75.745 E41.24991
G1 X113.753 Y76.173 E41.36787
G1 X116.24 Y76.527 E41.48484
G1 X118.758 Y76.813 E41.60285
G1 X121.25 Y77.026 E41.71931
G1 X123.748 Y77.168 E41.83581
G1 X126.325 Y77.241 E41.95586
G1 X127.627 Y77.25 E42.01648
G1 X137.951 Y77.251 E42.49721
G1 X138.649 Y77.261 E42.52972
G1 X139.585 Y77.315 E42.57338
G1 X140.495 Y77.444 E42.61617
G1 X141.631 Y77.656 E42.66998
G1 X142.221 Y77.775 E42.69801
G1 X144.73 Y78.207 E42.81656
G1 X147.206 Y78.561 E42.93302
G1 X149.703 Y78.847 E43.05005
G1 X152.221 Y79.063 E43.16773
G1 X154.845 Y79.214 E43.29012
G1 X157.348 Y79.326 E43.40679
G1 X159.523 Y79.404 E43.50813
G1 X162.069 Y79.427 E43.62669
G1 X164.609 Y79.376 E43.74498
G1 X166.866 Y79.275 E43.85018
G1 X168.488 Y79.239 E43.92573
G1 X169.875 Y79.235 E43.99031
G1 X173.988 Y79.243 E44.18183
G1 X174.646 Y79.253 E44.21248
G1 X175.582 Y79.307 E44.25613
G1 X176.511 Y79.441 E44.29984
G1 X177.424 Y79.654 E44.34349
G1 X178.316 Y79.943 E44.38715
G1 X179.181 Y80.307 E44.43085
G1 X180.011 Y80.744 E44.47453
G1 X180.8 Y81.25 E44.51818
G1 X181.544 Y81.821 E44.56185
G1 X182.237 Y82.453 E44.60552
G1 X182.873 Y83.143 E44.64921
G1 X183.448 Y83.884 E44.69289
G1 X183.958 Y84.671 E44.73656
G1 X184.399 Y85.498 E44.7802
G1 X184.768 Y86.361 E44.8239
G1 X185.062 Y87.251 E44.86755
G1 X185.279 Y88.164 E44.91124
G1 X185.418 Y89.091 E44.95489
G1 X185.477 Y90.021 E44.99828
G1 X185.5 Y91.25 E45.05552
G1 X185.499 Y145.277 E47.57124
G1 X185.492 Y145.792 E47.59523
G1 X185.467 Y146.468 E47.62673
G1 X185.386 Y147.402 E47.67038
G1 X185.233 Y148.288 E47.71225
G1 X185.189 Y148.493 E47.72201
G1 X184.953 Y149.401 E47.76569
G1 X184.641 Y150.286 E47.80939
G1 X184.202 Y151.243 E47.85842
G1 X184.071 Y151.496 E47.87168
G1 X183.605 Y152.31 E47.91536
G1 X183.071 Y153.081 E47.95903
G1 X182.27 Y154.023 E48.01661
G1 X182.091 Y154.211 E48.02869
G1 X181.415 Y154.862 E48.07239
G1 X180.687 Y155.453 E48.11606
G1 X179.912 Y155.98 E48.1597
G1 X179.439 Y156.257 E48.18522
G1 X179.169 Y156.406 E48.19958
G1 X178.329 Y156.824 E48.24327
G1 X177.457 Y157.168 E48.28692
G1 X176.621 Y157.421 E48.32759
G1 X176.394 Y157.48 E48.33851
G1 X175.477 Y157.677 E48.38218
G1 X174.356 Y157.81 E48.43475
G1 X174.07 Y157.829 E48.4481
G1 X173.488 Y157.852 E48.47522
G1 X172.818 Y157.86 E48.50642
G1 X169.044 Y157.859 E48.68215
G1 X168.573 Y157.852 E48.70409
G1 X168.219 Y157.841 E48.72058
G1 X166.525 Y157.759 E48.79955
G1 X166.074 Y157.729 E48.8206
G1 X163.54 Y157.633 E48.93867
G1 X161.052 Y157.61 E49.05453
G1 X158.545 Y157.657 E49.17129
G1 X154.984 Y157.837 E49.33731
G1 X154.58 Y157.85 E49.35614
G1 X153.779 Y157.86 E49.39344
G1 X150.049 Y157.859 E49.56712
G1 X149.422 Y157.85 E49.59632
G1 X149.094 Y157.84 E49.6116
G1 X147.743 Y157.78 E49.67457
G1 X146.948 Y157.734 E49.71165
G1 X144.45 Y157.659 E49.82802
G1 X141.927 Y157.654 E49.9455
G1 X138.17 Y157.75 E50.1205
G1 X127.644 Y157.75 E50.61064
G1 X125.036 Y157.787 E50.73209
G1 X122.515 Y157.894 E50.84958
G1 X120.02 Y158.071 E50.96605
G1 X117.52 Y158.319 E51.08303
G1 X115.027 Y158.638 E51.20006
G1 X112.534 Y159.029 E51.31757
G1 X110.044 Y159.492 E51.4355
G1 X107.581 Y160.022 E51.55281
G1 X105.185 Y160.61 E51.66769
G1 X102.715 Y161.289 E51.78697
G1 X100.312 Y162.025 E51.904
G1 X97.92 Y162.832 E52.02155
G1 X95.58 Y163.695 E52.13768
G1 X93.236 Y164.636 E52.25529
G1 X90.273 Y165.938 E52.406
G1 X89.111 Y166.473 E52.46556
G1 X88.243 Y166.828 E52.50923
G1 X87.348 Y167.109 E52.55291
G1 X86.432 Y167.312 E52.5966
G1 X85.503 Y167.436 E52.64024
G1 X84.74 Y167.479 E52.67582
G1 X83.94 Y167.493 E52.71308
G1 X63.055 Y167.499 E53.68557
G1 X62.496 Y167.491 E53.71161
G1 X61.494 Y167.431 E53.75835
G1 X61.343 Y167.415 E53.76542
G1 X60.415 Y167.276 E53.80911
G1 X59.503 Y167.059 E53.85276
G1 X58.612 Y166.765 E53.89645
G1 X57.75 Y166.397 E53.9401
G1 X56.922 Y165.956 E53.98378
G1 X56.135 Y165.446 E54.02745
G1 X55.394 Y164.871 E54.07112
G1 X54.872 Y164.4 E54.10386
G1 X54.022 Y163.578 E54.15892
G1 X52.081 Y161.635 E54.2868
G1 X51.614 Y161.153 E54.31805
G1 X50.991 Y160.452 E54.36172
G1 X50.429 Y159.701 E54.4054
G1 X49.934 Y158.905 E54.44905
