;FLAVOR:Marlin
;TIME:22341
;Filament used: 18.4921m
;Layer height: 0.28
;MINX:8.875
;MINY:78.868
;MINZ:0.28
;MAXX:226.125
;MAXY:156.402
;MAXZ:63.28
;Generated with Cura_SteamEngine 4.7.0
M140 S55
M105
M190 S55
M104 S210
M105
M109 S210
M82 ;absolute extrusion mode
; Ender 3 Custom Start G-code
G92 E0 ; Reset Extruder
G28 ; Home all axes
G1 Z2.0 F3000 ; Move Z Axis up little to prevent scratching of Heat Bed
G1 X0.1 Y20 Z0.3 F5000.0 ; Move to start position
G1 X0.1 Y200.0 Z0.3 F1500.0 E15 ; Draw the first line
G1 X0.4 Y200.0 Z0.3 F5000.0 ; Move to side a little
G1 X0.4 Y20 Z0.3 F1500.0 E30 ; Draw the second line
G92 E0 ; Reset Extruder
G1 Z2.0 F3000 ; Move Z Axis up little to prevent scratching of Heat Bed
G1 X5 Y20 Z0.3 F5000.0 ; Move over to prevent blob squish
G92 E0
G92 E0
G1 F2700 E-5
;LAYER_COUNT:226
;LAYER:0
M107
G0 F6000 X37.582 Y94.973 Z0.28
;TYPE:SKIRT
G1 F2700 E0
G1 F1200 X42.818 Y92.863 E0.26286
G1 X42.986 Y92.797 E0.27127
G1 X44.714 Y92.136 E0.35742
G1 X44.894 Y92.069 E0.36636
G1 X49.968 Y90.237 E0.61755
G1 X50.145 Y90.175 E0.62629
G1 X51.893 Y89.58 E0.71227
G1 X52.066 Y89.523 E0.72075
G1 X57.436 Y87.802 E0.98333
G1 X58.485 Y87.481 E1.03441
G1 X58.712 Y87.415 E1.04542
G1 X64.31 Y85.843 E1.31616
G1 X64.492 Y85.794 E1.32494
G1 X66.419 Y85.292 E1.41767
G1 X71.917 Y83.962 E1.68106
G1 X72.897 Y83.738 E1.72787
G1 X73.412 Y83.629 E1.75238
G1 X79.33 Y82.424 E2.0336
G1 X80.154 Y82.266 E2.07267
G1 X80.687 Y82.172 E2.09787
G1 X86.565 Y81.198 E2.37531
G1 X88.076 Y80.971 E2.44646
G1 X88.29 Y80.941 E2.45652
G1 X93.906 Y80.221 E2.72016
G1 X94.093 Y80.199 E2.72893
G1 X96.094 Y79.981 E2.82266
G1 X101.417 Y79.495 E3.07155
G1 X101.601 Y79.48 E3.08015
G1 X103.354 Y79.352 E3.16199
G1 X103.539 Y79.34 E3.17062
G1 X109.073 Y79.037 E3.42869
G1 X110.527 Y78.979 E3.49645
G1 X110.744 Y78.973 E3.50656
G1 X116.445 Y78.87 E3.77207
G1 X116.635 Y78.868 E3.78091
G1 X118.459 Y78.869 E3.86585
G1 X118.638 Y78.871 E3.87418
G1 X123.875 Y78.966 E4.11808
G1 X124.059 Y78.971 E4.12665
G1 X125.911 Y79.038 E4.21294
G1 X126.099 Y79.046 E4.22171
G1 X131.406 Y79.336 E4.46919
G1 X131.593 Y79.348 E4.47792
G1 X133.397 Y79.48 E4.56214
G1 X133.581 Y79.495 E4.57074
G1 X138.964 Y79.987 E4.82244
G1 X139.152 Y80.006 E4.83124
G1 X140.987 Y80.208 E4.9172
G1 X141.17 Y80.23 E4.92578
G1 X146.38 Y80.899 E5.17037
G1 X146.567 Y80.925 E5.17916
G1 X148.428 Y81.199 E5.26675
G1 X148.608 Y81.227 E5.27524
G1 X153.844 Y82.094 E5.52237
G1 X154.029 Y82.126 E5.53111
G1 X155.806 Y82.454 E5.61525
G1 X155.99 Y82.49 E5.62398
G1 X161.274 Y83.566 E5.87508
G1 X161.458 Y83.605 E5.88383
G1 X163.248 Y84.004 E5.96923
G1 X168.531 Y85.28 E6.2223
G1 X168.709 Y85.324 E6.23084
G1 X170.503 Y85.792 E6.31717
G1 X170.686 Y85.842 E6.326
G1 X175.821 Y87.284 E6.57436
G1 X176.001 Y87.336 E6.58309
G1 X177.763 Y87.866 E6.66876
G1 X177.943 Y87.922 E6.67754
G1 X183.055 Y89.563 E6.92754
G1 X183.23 Y89.621 E6.93613
G1 X184.942 Y90.205 E7.02035
G1 X185.115 Y90.266 E7.0289
G1 X190.124 Y92.076 E7.2769
G1 X190.3 Y92.141 E7.28563
G1 X191.998 Y92.79 E7.37028
G1 X192.173 Y92.859 E7.37904
G1 X197.156 Y94.87 E7.62925
G1 X197.329 Y94.942 E7.63797
G1 X199.147 Y95.716 E7.72998
G1 X204.022 Y97.893 E7.97859
G1 X204.187 Y97.969 E7.98705
G1 X205.834 Y98.74 E8.07172
G1 X206.005 Y98.822 E8.08055
G1 X211.112 Y101.33 E8.34549
G1 X211.745 Y101.653 E8.37858
G1 X212.531 Y102.099 E8.42066
G1 X213.274 Y102.613 E8.46273
G1 X213.968 Y103.19 E8.50475
G1 X214.609 Y103.826 E8.5468
G1 X215.191 Y104.516 E8.58883
G1 X215.71 Y105.256 E8.63092
G1 X216.291 Y106.297 E8.68643
G1 X216.652 Y107.045 E8.7251
G1 X224.864 Y124.658 E9.63
G1 X225.207 Y125.42 E9.66891
G1 X225.541 Y126.259 E9.71096
G1 X225.799 Y127.125 E9.75304
G1 X225.979 Y128.01 E9.79509
G1 X226.08 Y128.907 E9.83712
G1 X226.102 Y129.395 E9.85987
G1 X226.123 Y130.428 E9.90798
G1 X226.125 Y130.635 E9.91762
G1 X226.124 Y145.606 E10.61473
G1 X226.114 Y146.333 E10.64859
G1 X226.062 Y147.235 E10.69066
G1 X225.93 Y148.128 E10.73269
G1 X225.719 Y149.007 E10.77478
G1 X225.432 Y149.863 E10.81682
G1 X225.07 Y150.69 E10.85886
G1 X224.636 Y151.482 E10.90091
G1 X224.134 Y152.233 E10.94298
G1 X223.568 Y152.936 E10.985
G1 X222.941 Y153.587 E11.02709
G1 X222.26 Y154.179 E11.06911
G1 X221.529 Y154.709 E11.11115
G1 X220.753 Y155.172 E11.15323
G1 X219.94 Y155.565 E11.19527
G1 X219.095 Y155.885 E11.23735
G1 X218.226 Y156.128 E11.27936
G1 X217.338 Y156.293 E11.32142
G1 X216.202 Y156.389 E11.37451
G1 X215.882 Y156.398 E11.38941
G1 X215.595 Y156.402 E11.40278
G1 X19.782 Y156.402 E20.52065
G1 X18.952 Y156.392 E20.5593
G1 X18.051 Y156.341 E20.60132
G1 X17.157 Y156.209 E20.6434
G1 X16.279 Y156 E20.68543
G1 X15.422 Y155.713 E20.72751
G1 X14.595 Y155.352 E20.76953
G1 X13.802 Y154.919 E20.8116
G1 X13.051 Y154.418 E20.85364
G1 X12.347 Y153.852 E20.8957
G1 X11.696 Y153.226 E20.93776
G1 X11.103 Y152.545 E20.9798
G1 X10.573 Y151.814 E21.02185
G1 X10.109 Y151.039 E21.06391
G1 X9.715 Y150.226 E21.10598
G1 X9.395 Y149.382 E21.14801
G1 X9.151 Y148.512 E21.19008
G1 X8.985 Y147.624 E21.23214
G1 X8.888 Y146.469 E21.28612
G1 X8.879 Y146.136 E21.30163
G1 X8.875 Y145.86 E21.31448
G1 X8.876 Y130.18 E22.04461
G1 X8.886 Y129.501 E22.07623
G1 X8.939 Y128.599 E22.1183
G1 X9.072 Y127.706 E22.16034
G1 X9.283 Y126.828 E22.20239
G1 X9.572 Y125.972 E22.24446
G1 X9.755 Y125.528 E22.26682
G1 X10.166 Y124.598 E22.31416
G1 X10.252 Y124.41 E22.32379
G1 X18.405 Y106.927 E23.22204
G1 X18.702 Y106.312 E23.25384
G1 X19.13 Y105.517 E23.29588
G1 X19.627 Y104.763 E23.33794
G1 X20.189 Y104.056 E23.37999
G1 X20.811 Y103.401 E23.42205
G1 X21.326 Y102.938 E23.4543
G1 X21.351 Y102.917 E23.45582
G1 X22.068 Y102.367 E23.4979
G1 X22.83 Y101.883 E23.53993
G1 X23.296 Y101.631 E23.5646
G1 X23.895 Y101.327 E23.59588
G1 X29 Y98.82 E23.8607
G1 X29.166 Y98.74 E23.86928
G1 X30.873 Y97.94 E23.95707
G1 X31.044 Y97.862 E23.96582
G1 X36.241 Y95.542 E24.23083
G1 X36.85 Y95.277 E24.26176
G1 X37.022 Y95.204 E24.27046
G1 X37.582 Y94.973 E24.29866
G1 F2700 E19.29866
;MESH:hat_rack_v3.stl
G0 F6000 X37.093 Y110.516
G0 X36.496 Y109.189
G0 X29.971 Y112.736
G0 X21.811 Y130.231
G0 X21.65 Y143.627
;TYPE:WALL-INNER
G1 F2700 E24.29866
G1 F1200 X213.35 Y143.627 E33.22502
G1 X213.35 Y130.194 E33.85052
G1 X205.152 Y112.615 E34.7537
G1 X198.426 Y109.363 E35.10158
G1 X191.775 Y106.45 E35.43968
G1 X185.016 Y103.789 E35.77792
G1 X178.159 Y101.381 E36.11633
G1 X171.228 Y99.236 E36.45416
G1 X164.202 Y97.348 E36.79293
G1 X157.149 Y95.732 E37.12986
G1 X149.997 Y94.376 E37.46882
G1 X142.847 Y93.294 E37.80554
G1 X135.641 Y92.479 E38.14322
G1 X128.375 Y91.932 E38.48252
G1 X121.126 Y91.661 E38.8203
G1 X113.874 Y91.661 E39.15798
G1 X106.625 Y91.932 E39.49576
G1 X99.422 Y92.473 E39.83211
G1 X92.181 Y93.29 E40.17142
G1 X85.004 Y94.375 E40.5094
G1 X77.833 Y95.736 E40.84928
G1 X70.799 Y97.347 E41.18529
G1 X63.745 Y99.244 E41.52542
G1 X56.829 Y101.385 E41.86254
G1 X49.959 Y103.798 E42.2016
G1 X43.206 Y106.458 E42.53956
G1 X36.575 Y109.362 E42.87664
G1 X29.848 Y112.615 E43.22458
G1 X21.65 Y130.194 E44.12776
G1 X21.65 Y143.627 E44.75326
G0 F6000 X22.05 Y143.227
;TYPE:WALL-OUTER
G1 F1200 X212.95 Y143.227 E53.64236
G1 X212.95 Y130.283 E54.24509
G1 X204.85 Y112.913 E55.13753
G1 X198.259 Y109.726 E55.47843
G1 X191.621 Y106.819 E55.81586
G1 X184.876 Y104.164 E56.15339
G1 X178.034 Y101.761 E56.49107
G1 X171.117 Y99.62 E56.82823
G1 X164.105 Y97.736 E57.16631
G1 X157.067 Y96.124 E57.50252
G1 X149.93 Y94.77 E57.84078
G1 X142.795 Y93.691 E58.17679
G1 X135.603 Y92.877 E58.51382
G1 X128.353 Y92.331 E58.85236
G1 X121.119 Y92.061 E59.18944
G1 X113.881 Y92.061 E59.52647
G1 X106.647 Y92.331 E59.86355
G1 X99.459 Y92.871 E60.1992
G1 X92.233 Y93.687 E60.53781
G1 X85.071 Y94.769 E60.87509
G1 X77.915 Y96.128 E61.21426
G1 X70.896 Y97.735 E61.54955
G1 X63.856 Y99.628 E61.889
G1 X56.954 Y101.765 E62.22544
G1 X50.099 Y104.173 E62.56376
G1 X43.36 Y106.827 E62.90102
G1 X36.742 Y109.725 E63.23743
G1 X30.15 Y112.913 E63.57839
G1 X22.05 Y130.283 E64.47083
G1 X22.05 Y143.227 E65.07356
G1 F2700 E60.07356
G0 F6000 X21.75 Y143.227
G0 X21.822 Y143.455
G0 X213.178 Y143.455
G0 X215.115 Y143.427
G0 X215.325 Y145.602
;TYPE:WALL-INNER
G1 F2700 E65.07356
G1 F1200 X19.675 Y145.602 E74.18384
G1 X19.675 Y129.757 E74.92165
G1 X28.34 Y111.175 E75.87635
G1 X34.601 Y108.102 E76.20112
G1 X41.023 Y105.234 E76.52862
G1 X41.184 Y105.166 E76.53675
G1 X47.707 Y102.536 E76.86425
G1 X54.492 Y100.086 E77.20016
G1 X61.235 Y97.925 E77.52987
G1 X61.377 Y97.884 E77.53675
G1 X68.087 Y96 E77.86128
G1 X74.956 Y94.338 E78.19036
G1 X75.175 Y94.291 E78.20079
G1 X81.908 Y92.921 E78.52073
G1 X82.151 Y92.877 E78.53223
G1 X89.075 Y91.729 E78.85904
G1 X96.177 Y90.818 E79.19245
G1 X103.257 Y90.172 E79.52349
G1 X110.391 Y89.782 E79.85618
G1 X110.544 Y89.778 E79.8633
G1 X117.532 Y89.652 E80.18875
G1 X124.601 Y89.781 E80.51796
G1 X131.721 Y90.17 E80.84999
G1 X138.878 Y90.824 E81.18464
G1 X145.923 Y91.729 E81.51538
G1 X152.97 Y92.897 E81.848
G1 X159.996 Y94.328 E82.18187
G1 X166.896 Y95.996 E82.51242
G1 X173.774 Y97.926 E82.84506
G1 X180.602 Y100.118 E83.17898
G1 X187.306 Y102.541 E83.51091
G1 X193.928 Y105.214 E83.84343
G1 X200.44 Y108.121 E84.1755
G1 X206.66 Y111.175 E84.49816
G1 X215.325 Y129.757 E85.45286
G1 X215.325 Y145.602 E86.19067
G0 F6000 X215.725 Y146.002
;TYPE:WALL-OUTER
G1 F1200 X19.275 Y146.002 E95.33821
G1 X19.275 Y129.667 E96.09883
G1 X28.036 Y110.879 E97.06412
G1 X34.425 Y107.743 E97.39553
G1 X40.868 Y104.865 E97.72411
G1 X41.034 Y104.795 E97.7325
G1 X47.557 Y102.165 E98.06
G1 X54.37 Y99.705 E98.39728
G1 X61.113 Y97.544 E98.727
G1 X61.269 Y97.499 E98.73456
G1 X67.993 Y95.611 E99.05976
G1 X74.862 Y93.949 E99.38884
G1 X75.095 Y93.899 E99.39994
G1 X81.837 Y92.527 E99.72031
G1 X82.086 Y92.482 E99.73209
G1 X89.01 Y91.335 E100.0589
G1 X89.211 Y91.308 E100.06834
G1 X96.126 Y90.421 E100.39297
G1 X103.227 Y89.773 E100.72499
G1 X110.381 Y89.382 E101.05861
G1 X110.534 Y89.378 E101.06574
G1 X117.532 Y89.252 E101.39165
G1 X124.608 Y89.381 E101.72119
G1 X131.751 Y89.771 E102.05429
G1 X138.929 Y90.427 E102.38992
G1 X145.983 Y91.333 E102.72109
G1 X153.035 Y92.502 E103.05394
G1 X160.086 Y93.938 E103.389
G1 X166.99 Y95.607 E103.71974
G1 X173.896 Y97.545 E104.05374
G1 X180.724 Y99.737 E104.38766
G1 X187.456 Y102.17 E104.72097
G1 X194.078 Y104.843 E105.05349
G1 X200.616 Y107.762 E105.38689
G1 X206.964 Y110.879 E105.7162
G1 X215.725 Y129.667 E106.68148
G1 X215.725 Y146.002 E107.44211
G0 F6000 X215.455 Y145.732
G0 X215.215 Y145.212
G0 X214.935 Y145.212
;TYPE:SKIN
G1 F1200 X20.065 Y145.212 E116.51607
G1 X20.065 Y129.842 E117.23176
G1 X28.634 Y111.466 E118.17589
G1 X34.767 Y108.455 E118.49403
G1 X41.209 Y105.578 E118.82255
G1 X41.336 Y105.525 E118.82896
G1 X47.84 Y102.903 E119.15549
G1 X54.625 Y100.453 E119.4914
G1 X61.348 Y98.298 E119.82014
G1 X68.204 Y96.373 E120.15173
G1 X75.016 Y94.724 E120.47808
G1 X75.257 Y94.673 E120.48955
G1 X81.978 Y93.305 E120.80893
G1 X82.221 Y93.261 E120.82043
G1 X89.136 Y92.113 E121.14683
G1 X96.212 Y91.206 E121.47901
G1 X103.278 Y90.562 E121.8094
G1 X110.412 Y90.172 E122.14208
G1 X110.554 Y90.168 E122.1487
G1 X117.532 Y90.042 E122.47367
G1 X124.58 Y90.171 E122.80191
G1 X131.7 Y90.56 E123.13394
G1 X138.843 Y91.212 E123.46794
G1 X145.862 Y92.113 E123.79745
G1 X152.892 Y93.279 E124.12927
G1 X159.911 Y94.709 E124.46282
G1 X166.779 Y96.369 E124.79183
G1 X173.697 Y98.31 E125.1264
G1 X180.469 Y100.485 E125.4576
G1 X187.173 Y102.907 E125.78951
G1 X193.749 Y105.561 E126.11971
G1 X200.274 Y108.475 E126.45247
G1 X206.366 Y111.466 E126.76848
G1 X214.935 Y129.842 E127.71261
G1 X214.935 Y145.212 E128.4283
G1 F2700 E123.4283
G0 F6000 X215.215 Y145.212
G0 X215.115 Y143.767
G0 X213.54 Y143.767
G0 X213.46 Y143.767
G0 X213.74 Y144.017
G1 F2700 E128.4283
G1 F1200 X213.74 Y130.108 E129.07596
G1 X205.447 Y112.324 E129.98967
G1 X198.589 Y109.008 E130.34437
G1 X191.925 Y106.09 E130.68312
G1 X185.152 Y103.424 E131.02205
G1 X178.282 Y101.011 E131.36111
G1 X171.337 Y98.861 E131.69964
G1 X164.296 Y96.97 E132.03912
G1 X157.229 Y95.35 E132.37672
G1 X150.063 Y93.992 E132.71634
G1 X142.898 Y92.908 E133.05377
G1 X135.678 Y92.091 E133.39211
G1 X128.397 Y91.542 E133.7321
G1 X121.134 Y91.271 E134.07053
G1 X113.866 Y91.271 E134.40896
G1 X106.603 Y91.542 E134.74739
G1 X99.385 Y92.085 E135.08444
G1 X92.13 Y92.904 E135.42441
G1 X84.938 Y93.991 E135.7631
G1 X77.753 Y95.354 E136.10364
G1 X70.705 Y96.969 E136.44033
G1 X63.636 Y98.869 E136.78117
G1 X56.706 Y101.015 E137.11898
G1 X49.823 Y103.433 E137.45868
G1 X43.056 Y106.098 E137.79734
G1 X36.411 Y109.007 E138.13511
G1 X29.553 Y112.324 E138.48983
G1 X21.26 Y130.108 E139.40354
G1 X21.26 Y144.017 E140.0512
G1 X213.74 Y144.017 E149.01388
G1 F2700 E144.01388
G0 F6000 X213.46 Y143.767
G0 X213.189 Y130.231
G0 X205.297 Y112.472
G0 X206.724 Y111.807
G0 X206.809 Y111.756
G0 X206.41 Y111.94
G1 F2700 E149.01388
G1 F1200 X205.872 Y111.402 E149.04931
G0 F6000 X205.52 Y112.182
G1 F1200 X203.65 Y110.312 E149.17245
G0 F6000 X203.329 Y111.123
G1 F1200 X201.427 Y109.221 E149.2977
G0 F6000 X201.139 Y110.063
G1 F1200 X199.286 Y108.21 E149.41972
G0 F6000 X198.948 Y109.004
G1 F1200 X197.241 Y107.297 E149.53213
G0 F6000 X196.911 Y108.098
G1 F1200 X195.196 Y106.384 E149.64503
G0 F6000 X194.898 Y107.217
G1 F1200 X193.187 Y105.506 E149.75771
G0 F6000 X192.885 Y106.335
G1 F1200 X191.291 Y104.741 E149.86267
G0 F6000 X190.954 Y105.535
G1 F1200 X189.395 Y103.976 E149.96534
G0 F6000 X189.088 Y104.801
G1 F1200 X187.498 Y103.211 E150.07004
G0 F6000 X187.222 Y104.067
G1 F1200 X185.701 Y102.546 E150.1702
G0 F6000 X185.357 Y103.333
G1 F1200 X183.93 Y101.906 E150.26417
G0 F6000 X183.603 Y102.71
G1 F1200 X182.158 Y101.265 E150.35933
G0 F6000 X181.859 Y102.097
G1 F1200 X180.388 Y100.626 E150.45619
G0 F6000 X179.555 Y100.359
G1 F1200 X180.987 Y101.791 E150.55049
G0 F6000 X181.273 Y100.945
G1 F1200 X182.731 Y102.404 E150.64654
G0 F6000 X183.044 Y101.585
G1 F1200 X184.475 Y103.016 E150.74077
G0 F6000 X184.815 Y102.225
G1 F1200 X186.29 Y103.7 E150.8379
G0 F6000 X186.587 Y102.866
G1 F1200 X188.155 Y104.434 E150.94116
G0 F6000 X188.446 Y103.593
G1 F1200 X190.021 Y105.168 E151.04488
G0 F6000 X190.343 Y104.359
G1 F1200 X191.886 Y105.902 E151.14649
G0 F6000 X192.239 Y105.124
G1 F1200 X193.892 Y106.776 E151.25531
G0 F6000 X194.174 Y105.927
G1 F1200 X195.905 Y107.658 E151.36929
G0 F6000 X196.218 Y106.84
G1 F1200 X197.918 Y108.54 E151.48124
G0 F6000 X198.263 Y107.753
G1 F1200 X200.044 Y109.534 E151.59852
G0 F6000 X200.316 Y108.675
G1 F1200 X202.234 Y110.593 E151.72483
G0 F6000 X202.538 Y109.766
G1 F1200 X204.425 Y111.652 E151.84906
G0 F6000 X204.761 Y110.857
G1 F1200 X206.904 Y113 E151.99018
G0 F6000 X206.082 Y113.309
G1 F1200 X207.892 Y115.12 E152.1094
G0 F6000 X207.07 Y115.429
G1 F1200 X208.881 Y117.24 E152.22866
G0 F6000 X208.059 Y117.55
G1 F1200 X209.869 Y119.36 E152.34785
G0 F6000 X209.048 Y119.67
G1 F1200 X210.858 Y121.48 E152.46704
G0 F6000 X210.036 Y121.789
G1 F1200 X211.847 Y123.6 E152.5863
G0 F6000 X211.025 Y123.909
G1 F1200 X212.835 Y125.72 E152.70552
G0 F6000 X212.013 Y126.029
G1 F1200 X213.824 Y127.839 E152.82475
G0 F6000 X213.002 Y128.149
G1 F1200 X214.774 Y129.921 E152.94144
G0 F6000 X214.774 Y130.487
G1 F1200 X213.496 Y129.209 E153.0256
G0 F6000 X214.318 Y128.899
G1 F1200 X212.508 Y127.089 E153.14479
G0 F6000 X213.329 Y126.78
G1 F1200 X211.519 Y124.969 E153.26401
G0 F6000 X212.341 Y124.66
G1 F1200 X210.531 Y122.849 E153.38324
G0 F6000 X211.352 Y122.54
G1 F1200 X209.542 Y120.729 E153.50246
G0 F6000 X210.364 Y120.42
G1 F1200 X208.554 Y118.61 E153.62165
G0 F6000 X209.375 Y118.3
G1 F1200 X207.565 Y116.49 E153.74085
G0 F6000 X208.387 Y116.18
G1 F1200 X206.576 Y114.369 E153.8601
G0 F6000 X207.398 Y114.06
G1 F1200 X205.587 Y112.249 E153.97936
G0 F6000 X205.24 Y112.528
G0 X213.46 Y130.177
G0 X213.899 Y130.177
G1 F1200 X214.774 Y131.053 E154.03701
G0 F6000 X214.774 Y131.618
G1 F1200 X213.899 Y130.743 E154.09463
G0 F6000 X213.899 Y131.309
G1 F1200 X214.774 Y132.184 E154.15225
G0 F6000 X214.774 Y132.75
G1 F1200 X213.899 Y131.874 E154.20991
G0 F6000 X213.899 Y132.44
G1 F1200 X214.774 Y133.315 E154.26753
G0 F6000 X214.774 Y133.881
G1 F1200 X213.899 Y133.006 E154.32515
