;FLAVOR:Marlin
;TIME:10162
;Filament used: 8.77681m
;Layer height: 0.28
;MINX:50.525
;MINY:65.02
;MINZ:0.28
;MAXX:184.468
;MAXY:169.983
;MAXZ:6.16
;Generated with Cura_SteamEngine 4.6.1
M140 S65
M105
M190 S65
M104 S215
M105
M109 S215
M82 ;absolute extrusion mode
; Ender 3 Custom Start G-code
G92 E0 ; Reset Extruder
G28 ; Home all axes
G1 Z2.0 F3000 ; Move Z Axis up little to prevent scratching of Heat Bed
G1 X0.1 Y20 Z0.3 F5000.0 ; Move to start position
G1 X0.1 Y200.0 Z0.3 F1500.0 E15 ; Draw the first line
G1 X0.4 Y200.0 Z0.3 F5000.0 ; Move to side a little
G1 X0.4 Y20 Z0.3 F1500.0 E30 ; Draw the second line
G92 E0 ; Reset Extruder
G1 Z2.0 F3000 ; Move Z Axis up little to prevent scratching of Heat Bed
G1 X5 Y20 Z0.3 F5000.0 ; Move over to prevent blob squish
G92 E0
G92 E0
G1 F2700 E-5
;LAYER_COUNT:22
;LAYER:0
M107
G0 F6000 X136.351 Y68.938 Z0.28
;TYPE:SKIRT
G1 F2700 E0
G1 F1200 X142.662 Y69.231 E0.29418
G1 X144.41 Y69.337 E0.37573
G1 X145.246 Y69.399 E0.41476
G1 X147.764 Y69.515 E0.53213
G1 X149.959 Y69.567 E0.63437
G1 X169.821 Y70.483 E1.56021
G1 X170.497 Y70.524 E1.59175
G1 X171.395 Y70.618 E1.63379
G1 X172.281 Y70.792 E1.67583
G1 X173.148 Y71.043 E1.71786
G1 X173.99 Y71.37 E1.75992
G1 X174.8 Y71.77 E1.80199
G1 X175.571 Y72.241 E1.84406
G1 X176.297 Y72.777 E1.88608
G1 X176.973 Y73.376 E1.92814
G1 X177.594 Y74.032 E1.9702
G1 X178.154 Y74.741 E2.01227
G1 X178.649 Y75.496 E2.05431
G1 X179.075 Y76.292 E2.09635
G1 X179.429 Y77.123 E2.13841
G1 X179.709 Y77.982 E2.18048
G1 X179.911 Y78.862 E2.22252
G1 X180.035 Y79.757 E2.26459
G1 X180.078 Y80.586 E2.30324
G1 X180.087 Y81.41 E2.34162
G1 X180.077 Y86.312 E2.56987
G1 X180.029 Y88.433 E2.66866
G1 X179.976 Y89.698 E2.72762
G1 X179.915 Y90.721 E2.77534
G1 X179.895 Y90.955 E2.78627
G1 X179.861 Y91.289 E2.80191
G1 X179.625 Y93.265 E2.89457
G1 X179.498 Y94.184 E2.93777
G1 X179.444 Y94.52 E2.95362
G1 X179.378 Y94.884 E2.97084
G1 X179.239 Y95.588 E3.00426
G1 X178.765 Y98.159 E3.12599
G1 X178.381 Y100.642 E3.24298
G1 X178.059 Y103.199 E3.36299
G1 X177.814 Y105.712 E3.48056
G1 X177.641 Y108.24 E3.59855
G1 X177.537 Y110.806 E3.71813
G1 X177.506 Y113.308 E3.83464
G1 X177.548 Y115.88 E3.95442
G1 X177.659 Y118.4 E4.07188
G1 X177.845 Y120.941 E4.19051
G1 X178.101 Y123.471 E4.30892
G1 X178.427 Y125.982 E4.42683
G1 X178.817 Y128.437 E4.54257
G1 X179.529 Y132.11 E4.71679
G1 X183.34 Y149.887 E5.56337
G1 X183.475 Y150.564 E5.59551
G1 X183.612 Y151.457 E5.63758
G1 X183.67 Y152.358 E5.67962
G1 X183.648 Y153.261 E5.72168
G1 X183.546 Y154.158 E5.76372
G1 X183.365 Y155.043 E5.80578
G1 X183.106 Y155.908 E5.84783
G1 X182.772 Y156.748 E5.88992
G1 X182.365 Y157.554 E5.93196
G1 X181.889 Y158.321 E5.974
G1 X181.346 Y159.043 E6.01606
G1 X180.742 Y159.714 E6.0581
G1 X180.346 Y160.095 E6.08369
G1 X178.461 Y161.814 E6.20248
G1 X176.619 Y163.579 E6.32127
G1 X174.141 Y166.111 E6.48624
G1 X173.481 Y166.728 E6.52831
G1 X172.77 Y167.284 E6.57034
G1 X172.012 Y167.775 E6.61239
G1 X171.213 Y168.197 E6.65447
G1 X170.38 Y168.546 E6.69652
G1 X169.52 Y168.821 E6.73856
G1 X168.639 Y169.018 E6.7806
G1 X167.743 Y169.137 E6.82269
G1 X166.988 Y169.175 E6.85789
G1 X166.091 Y169.183 E6.89966
G1 X114.336 Y168.358 E9.30989
G1 X75.699 Y167.742 E11.10922
G1 X74.96 Y167.72 E11.14365
G1 X74.06 Y167.654 E11.18567
G1 X73.169 Y167.507 E11.22772
G1 X72.294 Y167.283 E11.26978
G1 X71.442 Y166.982 E11.31185
G1 X70.621 Y166.607 E11.35388
G1 X69.836 Y166.161 E11.39592
G1 X69.093 Y165.647 E11.43799
G1 X68.399 Y165.069 E11.48004
G1 X67.796 Y164.473 E11.51952
G1 X67.189 Y163.819 E11.56107
G1 X66.368 Y162.909 E11.61814
G1 X65.737 Y162.183 E11.66293
G1 X65.33 Y161.687 E11.69281
G1 X64.139 Y160.162 E11.78291
G1 X63.726 Y159.618 E11.81471
G1 X63.425 Y159.2 E11.8387
G1 X63.04 Y158.634 E11.87057
G1 X62.146 Y157.28 E11.94612
G1 X61.585 Y156.399 E11.99476
G1 X61.185 Y155.712 E12.03177
G1 X60.337 Y154.183 E12.11319
G1 X59.998 Y153.554 E12.14646
G1 X59.782 Y153.13 E12.16862
G1 X59.483 Y152.504 E12.20092
G1 X58.768 Y150.936 E12.28116
G1 X58.486 Y150.295 E12.31377
G1 X58.317 Y149.89 E12.33421
G1 X58.056 Y149.213 E12.36799
G1 X57.468 Y147.609 E12.44754
G1 X57.157 Y146.708 E12.49193
G1 X57.071 Y146.439 E12.50508
G1 X56.969 Y146.097 E12.52169
G1 X56.434 Y144.193 E12.61379
G1 X56.188 Y143.246 E12.65935
G1 X56.117 Y142.944 E12.67379
G1 X56.041 Y142.593 E12.69051
G1 X55.678 Y140.759 E12.77757
G1 X55.544 Y140.034 E12.8119
G1 X55.472 Y139.589 E12.83289
G1 X55.381 Y138.921 E12.86428
G1 X55.181 Y137.239 E12.94316
G1 X55.101 Y136.486 E12.97842
G1 X55.06 Y135.981 E13.00201
G1 X55.022 Y135.276 E13.03488
G1 X54.966 Y133.871 E13.10036
G1 X54.926 Y131.905 E13.19192
G1 X54.837 Y129.299 E13.31334
G1 X54.679 Y126.773 E13.43119
G1 X54.447 Y124.237 E13.54977
G1 X54.144 Y121.702 E13.66865
G1 X53.774 Y119.214 E13.78578
G1 X53.325 Y116.687 E13.90529
G1 X52.817 Y114.234 E14.02193
G1 X52.236 Y111.779 E14.13941
G1 X51.985 Y110.846 E14.18439
G1 X51.641 Y109.496 E14.24927
G1 X51.457 Y108.611 E14.29136
G1 X51.352 Y107.715 E14.33336
G1 X51.326 Y106.812 E14.37543
G1 X51.381 Y105.91 E14.41751
G1 X51.522 Y104.98 E14.46131
G1 X51.681 Y104.193 E14.49869
G1 X58.059 Y74.445 E15.91536
G1 X58.221 Y73.738 E15.94914
G1 X58.461 Y72.867 E15.99121
G1 X58.778 Y72.022 E16.03323
G1 X59.168 Y71.207 E16.0753
G1 X59.628 Y70.43 E16.11735
G1 X60.156 Y69.697 E16.15941
G1 X60.746 Y69.014 E16.20144
G1 X61.395 Y68.385 E16.24352
G1 X62.096 Y67.816 E16.28556
G1 X62.845 Y67.312 E16.3276
G1 X63.636 Y66.876 E16.36966
G1 X64.462 Y66.511 E16.41171
G1 X65.317 Y66.221 E16.45375
G1 X66.195 Y66.008 E16.49582
G1 X67.088 Y65.873 E16.53787
G1 X68.437 Y65.82 E16.60073
G1 X68.92 Y65.833 E16.62323
G1 X136.351 Y68.938 E19.76643
G0 F6000 X136.37 Y68.538
G1 F1200 X142.686 Y68.831 E20.06085
G1 X144.439 Y68.938 E20.14263
G1 X145.257 Y68.999 E20.18082
G1 X147.833 Y69.117 E20.3009
G1 X149.978 Y69.167 E20.4008
G1 X169.845 Y70.083 E21.32688
G1 X170.521 Y70.124 E21.35841
G1 X171.436 Y70.22 E21.40125
G1 X172.34 Y70.395 E21.44413
G1 X173.226 Y70.647 E21.48702
G1 X174.086 Y70.976 E21.52989
G1 X174.914 Y71.377 E21.57273
G1 X175.705 Y71.849 E21.61562
G1 X176.451 Y72.388 E21.65848
G1 X177.148 Y72.99 E21.70136
G1 X177.79 Y73.65 E21.74424
G1 X178.372 Y74.363 E21.7871
G1 X178.891 Y75.124 E21.82999
G1 X179.341 Y75.927 E21.87285
G1 X179.72 Y76.766 E21.91572
G1 X180.025 Y77.635 E21.9586
G1 X180.253 Y78.526 E22.00143
G1 X180.403 Y79.435 E22.04433
G1 X180.478 Y80.582 E22.09785
G1 X180.487 Y81.411 E22.13645
G1 X180.477 Y86.32 E22.36504
G1 X180.429 Y88.45 E22.46424
G1 X180.376 Y89.72 E22.52343
G1 X180.336 Y90.44 E22.55701
G1 X180.293 Y90.989 E22.58265
G1 X180.258 Y91.337 E22.59894
G1 X180.021 Y93.318 E22.69184
G1 X179.893 Y94.247 E22.73551
G1 X179.839 Y94.583 E22.75135
G1 X179.771 Y94.962 E22.76928
G1 X179.63 Y95.673 E22.80303
G1 X179.162 Y98.216 E22.92344
G1 X178.775 Y100.722 E23.04151
G1 X178.456 Y103.251 E23.1602
G1 X178.213 Y105.745 E23.27688
G1 X178.038 Y108.283 E23.39534
G1 X177.937 Y110.791 E23.51222
G1 X177.906 Y113.307 E23.62939
G1 X177.948 Y115.857 E23.74814
G1 X178.06 Y118.387 E23.86606
G1 X178.244 Y120.908 E23.98376
G1 X178.497 Y123.411 E24.10091
G1 X178.826 Y125.944 E24.21985
G1 X179.215 Y128.388 E24.33508
G1 X179.914 Y131.996 E24.50621
G1 X183.732 Y149.809 E25.3545
G1 X183.867 Y150.486 E25.38664
G1 X184.008 Y151.396 E25.42952
G1 X184.069 Y152.315 E25.47241
G1 X184.05 Y153.235 E25.51525
G1 X183.952 Y154.15 E25.5581
G1 X183.774 Y155.054 E25.60101
G1 X183.519 Y155.938 E25.64385
G1 X183.188 Y156.797 E25.68671
G1 X182.783 Y157.624 E25.72959
G1 X182.309 Y158.413 E25.77245
G1 X181.767 Y159.158 E25.81535
G1 X181.164 Y159.853 E25.8582
G1 X180.615 Y160.391 E25.89399
G1 X178.723 Y162.116 E26.01321
G1 X176.915 Y163.85 E26.12986
G1 X174.427 Y166.391 E26.29545
G1 X173.755 Y167.02 E26.33831
G1 X173.031 Y167.589 E26.38119
G1 X172.26 Y168.093 E26.42408
G1 X171.449 Y168.528 E26.46693
G1 X170.602 Y168.89 E26.50982
G1 X169.728 Y169.178 E26.55267
G1 X168.832 Y169.389 E26.59553
G1 X167.921 Y169.522 E26.6384
G1 X166.994 Y169.575 E26.68164
G1 X166.085 Y169.583 E26.72397
G1 X114.33 Y168.758 E29.1342
G1 X75.688 Y168.142 E30.93377
G1 X74.949 Y168.12 E30.96819
G1 X74.03 Y168.053 E31.0111
G1 X73.122 Y167.906 E31.05393
G1 X72.229 Y167.681 E31.09681
G1 X71.359 Y167.379 E31.13969
G1 X70.519 Y167.003 E31.18255
G1 X69.714 Y166.556 E31.22542
G1 X68.951 Y166.04 E31.26831
G1 X68.236 Y165.46 E31.31118
G1 X67.503 Y164.745 E31.35886
G1 X66.892 Y164.087 E31.40067
G1 X66.067 Y163.172 E31.45804
G1 X65.429 Y162.439 E31.50329
G1 X65.22 Y162.188 E31.5185
G1 X65.015 Y161.933 E31.53373
G1 X63.82 Y160.404 E31.6241
G1 X63.407 Y159.86 E31.6559
G1 X63.095 Y159.426 E31.68079
G1 X62.706 Y158.854 E31.713
G1 X61.81 Y157.497 E31.78872
G1 X61.242 Y156.605 E31.83796
G1 X60.836 Y155.906 E31.8756
G1 X59.985 Y154.373 E31.95724
G1 X59.646 Y153.744 E31.99052
G1 X59.422 Y153.303 E32.01355
G1 X59.12 Y152.67 E32.04621
G1 X58.401 Y151.098 E32.1267
G1 X58.119 Y150.457 E32.15931
G1 X57.945 Y150.035 E32.18056
G1 X57.681 Y149.351 E32.2147
G1 X57.09 Y147.741 E32.29456
G1 X56.776 Y146.83 E32.33943
G1 X56.69 Y146.561 E32.35258
G1 X56.583 Y146.205 E32.36989
G1 X56.047 Y144.295 E32.46226
G1 X55.798 Y143.338 E32.50831
G1 X55.727 Y143.036 E32.52275
G1 X55.648 Y142.671 E32.54014
G1 X55.285 Y140.832 E32.62743
G1 X55.151 Y140.107 E32.66176
G1 X55.076 Y139.644 E32.6836
G1 X54.983 Y138.968 E32.71537
G1 X54.783 Y137.281 E32.79448
G1 X54.703 Y136.528 E32.82974
G1 X54.661 Y136.003 E32.85426
G1 X54.622 Y135.292 E32.88742
G1 X54.566 Y133.879 E32.95326
G1 X54.527 Y131.927 E33.04418
G1 X54.437 Y129.302 E33.16648
G1 X54.28 Y126.798 E33.2833
G1 X54.05 Y124.285 E33.40081
G1 X53.75 Y121.776 E33.51847
G1 X53.378 Y119.271 E33.63639
G1 X52.933 Y116.767 E33.75482
G1 X52.424 Y114.31 E33.87165
G1 X51.847 Y111.871 E33.98836
G1 X51.597 Y110.944 E34.03307
G1 X51.253 Y109.594 E34.09794
G1 X51.065 Y108.693 E34.14079
G1 X50.955 Y107.779 E34.18366
G1 X50.926 Y106.859 E34.22652
G1 X50.976 Y105.94 E34.26938
G1 X51.13 Y104.901 E34.31829
G1 X51.289 Y104.109 E34.3559
G1 X57.669 Y74.356 E35.77282
G1 X57.831 Y73.649 E35.80659
G1 X58.075 Y72.761 E35.84947
G1 X58.396 Y71.898 E35.89235
G1 X58.79 Y71.066 E35.93522
G1 X59.255 Y70.271 E35.9781
G1 X59.787 Y69.52 E36.02096
G1 X60.382 Y68.818 E36.06381
G1 X61.036 Y68.17 E36.10668
G1 X61.744 Y67.581 E36.14956
G1 X62.5 Y67.056 E36.19242
G1 X63.299 Y66.598 E36.2353
G1 X64.134 Y66.211 E36.27816
G1 X65 Y65.899 E36.32102
G1 X65.89 Y65.663 E36.36389
G1 X66.797 Y65.504 E36.40677
G1 X67.714 Y65.425 E36.44963
G1 X68.448 Y65.42 E36.48381
G1 X68.931 Y65.433 E36.50631
G1 X136.37 Y68.538 E39.64987
G0 F6000 X136.388 Y68.139
G1 F1200 X142.71 Y68.432 E39.94457
G1 X144.469 Y68.539 E40.02663
G1 X145.305 Y68.601 E40.06566
G1 X147.819 Y68.717 E40.18285
G1 X149.996 Y68.768 E40.28425
G1 X169.869 Y69.684 E41.2106
G1 X170.545 Y69.725 E41.24213
G1 X171.478 Y69.822 E41.28581
G1 X172.399 Y69.998 E41.32947
G1 X173.302 Y70.251 E41.37314
G1 X174.18 Y70.581 E41.41682
G1 X175.027 Y70.984 E41.46049
G1 X175.836 Y71.458 E41.50415
G1 X176.602 Y71.999 E41.54782
G1 X177.319 Y72.603 E41.59147
G1 X177.983 Y73.266 E41.63517
G1 X178.587 Y73.984 E41.67886
G1 X179.128 Y74.75 E41.72252
G1 X179.601 Y75.559 E41.76616
G1 X180.004 Y76.406 E41.80984
G1 X180.334 Y77.284 E41.85351
G1 X180.587 Y78.187 E41.89718
G1 X180.763 Y79.109 E41.94089
G1 X180.859 Y80.042 E41.98456
G1 X180.878 Y80.577 E42.00949
G1 X180.887 Y81.412 E42.04837
G1 X180.876 Y86.329 E42.27733
G1 X180.829 Y88.466 E42.37686
G1 X180.775 Y89.742 E42.43633
G1 X180.712 Y90.789 E42.48517
G1 X180.692 Y91.023 E42.49611
G1 X180.655 Y91.384 E42.513
G1 X180.418 Y93.372 E42.60623
G1 X180.288 Y94.31 E42.65032
G1 X180.234 Y94.646 E42.66617
G1 X180.163 Y95.039 E42.68477
G1 X180.026 Y95.731 E42.71761
G1 X179.556 Y98.284 E42.83849
G1 X179.168 Y100.797 E42.95689
G1 X178.856 Y103.269 E43.07291
G1 X178.611 Y105.778 E43.1903
G1 X178.439 Y108.29 E43.30754
G1 X178.337 Y110.812 E43.42507
G1 X178.306 Y113.305 E43.54116
G1 X178.348 Y115.868 E43.66052
G1 X178.457 Y118.341 E43.77579
G1 X178.642 Y120.871 E43.89391
G1 X178.894 Y123.36 E44.0104
G1 X179.223 Y125.896 E44.12948
G1 X179.606 Y128.304 E44.24301
G1 X180.294 Y131.854 E44.41139
G1 X184.125 Y149.731 E45.26272
G1 X184.26 Y150.408 E45.29487
G1 X184.404 Y151.335 E45.33855
G1 X184.468 Y152.27 E45.38219
G1 X184.453 Y153.208 E45.42587
G1 X184.358 Y154.141 E45.46954
G1 X184.183 Y155.063 E45.51324
G1 X183.931 Y155.966 E45.55689
G1 X183.603 Y156.844 E45.60053
G1 X183.201 Y157.692 E45.64423
G1 X182.728 Y158.502 E45.68791
G1 X182.189 Y159.269 E45.73156
G1 X181.585 Y159.987 E45.77525
G1 X180.885 Y160.686 E45.82131
G1 X179.009 Y162.397 E45.93954
G1 X177.195 Y164.136 E46.05656
G1 X174.713 Y166.671 E46.22175
G1 X174.029 Y167.312 E46.2654
G1 X173.292 Y167.893 E46.3091
G1 X172.509 Y168.41 E46.35279
G1 X171.685 Y168.857 E46.39644
G1 X170.826 Y169.233 E46.44011
G1 X169.938 Y169.534 E46.48377
G1 X169.027 Y169.759 E46.52746
G1 X168.101 Y169.905 E46.57111
G1 X166.999 Y169.975 E46.62253
G1 X166.079 Y169.983 E46.66537
G1 X114.324 Y169.158 E49.07561
G1 X75.676 Y168.542 E50.87545
G1 X74.937 Y168.52 E50.90987
G1 X74.001 Y168.452 E50.95357
G1 X73.075 Y168.305 E50.99723
G1 X72.165 Y168.079 E51.04089
G1 X71.277 Y167.777 E51.08457
G1 X70.418 Y167.4 E51.12825
G1 X69.595 Y166.951 E51.1719
G1 X68.812 Y166.434 E51.21559
G1 X68.077 Y165.852 E51.25925
G1 X67.211 Y165.018 E51.31523
G1 X66.596 Y164.355 E51.35734
G1 X65.767 Y163.436 E51.41497
G1 X65.122 Y162.695 E51.46072
G1 X64.913 Y162.444 E51.47592
G1 X64.7 Y162.18 E51.49172
G1 X63.502 Y160.645 E51.58239
G1 X63.089 Y160.101 E51.61419
G1 X62.765 Y159.651 E51.64001
G1 X62.373 Y159.075 E51.67245
G1 X61.473 Y157.713 E51.74847
G1 X61.076 Y157.096 E51.78263
G1 X60.786 Y156.623 E51.80847
G1 X60.486 Y156.1 E51.83654
G1 X59.633 Y154.563 E51.9184
G1 X59.294 Y153.934 E51.95167
G1 X59.061 Y153.476 E51.9756
G1 X58.756 Y152.837 E52.00857
G1 X58.035 Y151.259 E52.08935
G1 X57.753 Y150.618 E52.12196
G1 X57.572 Y150.18 E52.14403
G1 X57.305 Y149.489 E52.17852
G1 X56.713 Y147.872 E52.2587
G1 X56.395 Y146.952 E52.30403
G1 X56.309 Y146.683 E52.31718
G1 X56.198 Y146.313 E52.33517
G1 X55.661 Y144.398 E52.42778
G1 X55.409 Y143.429 E52.4744
G1 X55.338 Y143.127 E52.48884
G1 X55.256 Y142.749 E52.50685
G1 X54.891 Y140.904 E52.59443
G1 X54.757 Y140.179 E52.62876
G1 X54.679 Y139.7 E52.65136
G1 X54.586 Y139.015 E52.68355
G1 X54.386 Y137.323 E52.76288
G1 X54.306 Y136.57 E52.79814
G1 X54.261 Y136.026 E52.82356
G1 X54.222 Y135.309 E52.857
G1 X54.166 Y133.887 E52.92326
G1 X54.127 Y131.947 E53.01362
G1 X54.036 Y129.306 E53.13666
G1 X53.881 Y126.827 E53.25232
G1 X53.653 Y124.333 E53.36894
G1 X53.351 Y121.811 E53.48721
G1 X52.982 Y119.329 E53.60405
G1 X52.547 Y116.88 E53.71988
G1 X52.029 Y114.378 E53.83885
G1 X51.461 Y111.978 E53.95369
G1 X51.21 Y111.043 E53.99877
G1 X50.866 Y109.693 E54.06364
G1 X50.673 Y108.775 E54.10732
G1 X50.559 Y107.844 E54.151
G1 X50.525 Y106.907 E54.19465
G1 X50.571 Y105.97 E54.23834
G1 X50.738 Y104.823 E54.29231
G1 X50.898 Y104.025 E54.33021
G1 X57.279 Y74.266 E55.74741
G1 X57.441 Y73.559 E55.78118
G1 X57.689 Y72.655 E55.82483
G1 X58.014 Y71.775 E55.86851
G1 X58.412 Y70.926 E55.91218
G1 X58.881 Y70.113 E55.95588
G1 X59.417 Y69.344 E55.99953
G1 X60.017 Y68.623 E56.0432
G1 X60.677 Y67.956 E56.0869
G1 X61.39 Y67.348 E56.13053
G1 X62.153 Y66.803 E56.17419
G1 X62.96 Y66.324 E56.21789
G1 X63.805 Y65.916 E56.26158
G1 X64.681 Y65.582 E56.30524
G1 X65.582 Y65.323 E56.34889
G1 X66.503 Y65.142 E56.3926
G1 X67.435 Y65.04 E56.43625
G1 X68.459 Y65.02 E56.48394
G1 X68.942 Y65.033 E56.50644
G1 X136.388 Y68.139 E59.65034
G1 F2700 E54.65034
;MESH:1911_Grips_-__The_Brave_.stl
G0 F6000 X170.542 Y80.072
G0 X170.541 Y87.07
G0 X170.396 Y90.142
G0 X170.041 Y92.95
G0 X169.539 Y95.473
G0 X168.686 Y98.442
G0 X167.693 Y101.09
G0 X166.62 Y103.429
G0 X165.247 Y105.904
G0 X163.526 Y108.467
G0 X161.943 Y110.493
G0 X160.039 Y112.597
G0 X148.571 Y112.781
G0 X155.796 Y139.256
G0 X154.928 Y138.082
G0 X153.824 Y139.992
G0 X153.59 Y140.655
G0 X153.471 Y141.35
G0 X153.471 Y142.053
G0 X153.59 Y142.747
G0 X153.824 Y143.411
G0 X154.167 Y144.024
G0 X154.417 Y144.334
G0 X155.668 Y145.553
