;FLAVOR:Marlin
;TIME:3441
;Filament used: 2.20657m
;Layer height: 0.2
;MINX:76.481
;MINY:70.979
;MINZ:0.2
;MAXX:162.589
;MAXY:158.494
;MAXZ:3.4
;Generated with Cura_SteamEngine 4.7.0
M140 S55
M105
M190 S55
M104 S210
M105
M109 S210
M82 ;absolute extrusion mode
; Ender 3 Custom Start G-code
G92 E0 ; Reset Extruder
G28 ; Home all axes
G1 Z2.0 F3000 ; Move Z Axis up little to prevent scratching of Heat Bed
G1 X0.1 Y20 Z0.3 F5000.0 ; Move to start position
G1 X0.1 Y200.0 Z0.3 F1500.0 E15 ; Draw the first line
G1 X0.4 Y200.0 Z0.3 F5000.0 ; Move to side a little
G1 X0.4 Y20 Z0.3 F1500.0 E30 ; Draw the second line
G92 E0 ; Reset Extruder
G1 Z2.0 F3000 ; Move Z Axis up little to prevent scratching of Heat Bed
G1 X5 Y20 Z0.3 F5000.0 ; Move over to prevent blob squish
G92 E0
G92 E0
G1 F2700 E-5
;LAYER_COUNT:17
;LAYER:0
M107
G0 F6000 X81.162 Y84.314 Z0.2
;TYPE:SKIRT
G1 F2700 E0
G1 F1200 X81.569 Y83.943 E0.01832
G1 X81.688 Y83.84 E0.02355
G1 X82.197 Y83.427 E0.04535
G1 X82.421 Y83.257 E0.05471
G1 X82.929 Y82.895 E0.07545
G1 X83.151 Y82.747 E0.08433
G1 X83.495 Y82.527 E0.09791
G1 X83.631 Y82.444 E0.10321
G1 X84.089 Y82.181 E0.12077
G1 X84.27 Y82.083 E0.12762
G1 X84.551 Y81.936 E0.13817
G1 X85.649 Y81.385 E0.17903
G1 X86.179 Y81.128 E0.19862
G1 X86.393 Y81.017 E0.20664
G1 X87.034 Y80.702 E0.23039
G1 X89.266 Y79.527 E0.31429
G1 X91.478 Y78.281 E0.39873
G1 X93.681 Y76.955 E0.48425
G1 X95.799 Y75.599 E0.56789
G1 X97.902 Y74.166 E0.65253
G1 X98.222 Y73.939 E0.66558
G1 X99.369 Y73.132 E0.71223
G1 X100.219 Y72.594 E0.74569
G1 X100.426 Y72.477 E0.7536
G1 X101.547 Y71.931 E0.79507
G1 X101.68 Y71.876 E0.79985
G1 X102.752 Y71.501 E0.83763
G1 X103.026 Y71.422 E0.84711
G1 X104.191 Y71.159 E0.88684
G1 X104.391 Y71.126 E0.89358
G1 X105.288 Y71.019 E0.92362
G1 X105.804 Y70.993 E0.94081
G1 X106.092 Y70.986 E0.95039
G1 X107.228 Y71.022 E0.98819
G1 X107.809 Y71.074 E1.00759
G1 X109.458 Y71.246 E1.06274
G1 X111.958 Y71.434 E1.14612
G1 X114.538 Y71.555 E1.23203
G1 X117.035 Y71.602 E1.31509
G1 X119.603 Y71.577 E1.40051
G1 X122.136 Y71.481 E1.48482
G1 X124.671 Y71.313 E1.56932
G1 X125.761 Y71.211 E1.60573
G1 X127.889 Y71.02 E1.67679
G1 X128.791 Y70.979 E1.70682
G1 X129.77 Y71.025 E1.73942
G1 X130.095 Y71.056 E1.75028
G1 X130.989 Y71.182 E1.78031
G1 X131.571 Y71.307 E1.80011
G1 X131.814 Y71.367 E1.80843
G1 X132.68 Y71.622 E1.83846
G1 X133.258 Y71.84 E1.859
G1 X133.452 Y71.92 E1.86598
G1 X134.503 Y72.426 E1.90478
G1 X134.727 Y72.55 E1.91329
G1 X135.551 Y73.059 E1.94551
G1 X135.751 Y73.196 E1.95357
G1 X135.955 Y73.339 E1.96186
G1 X136.194 Y73.512 E1.97167
G1 X138.331 Y75.005 E2.05838
G1 X140.45 Y76.399 E2.14274
G1 X142.616 Y77.737 E2.22742
G1 X144.807 Y79.006 E2.31163
G1 X147.029 Y80.212 E2.39572
G1 X149.782 Y81.598 E2.49823
G1 X150.353 Y81.873 E2.51931
G1 X150.949 Y82.185 E2.54169
G1 X151.145 Y82.296 E2.54918
G1 X151.546 Y82.536 E2.56472
G1 X151.799 Y82.695 E2.57466
G1 X152.465 Y83.151 E2.60151
G1 X152.712 Y83.335 E2.61175
G1 X153.246 Y83.761 E2.63447
G1 X153.418 Y83.908 E2.642
G1 X153.689 Y84.148 E2.65404
G1 X153.884 Y84.327 E2.66284
G1 X154.388 Y84.823 E2.68636
G1 X154.558 Y85.004 E2.69462
G1 X154.771 Y85.235 E2.70507
G1 X155.21 Y85.743 E2.7274
G1 X155.383 Y85.958 E2.73658
G1 X155.982 Y86.789 E2.77065
G1 X156.345 Y87.35 E2.79287
G1 X156.785 Y88.098 E2.82174
G1 X156.892 Y88.299 E2.82931
G1 X157.173 Y88.869 E2.85045
G1 X157.294 Y89.135 E2.86017
G1 X157.476 Y89.561 E2.87557
G1 X157.549 Y89.743 E2.8821
G1 X157.867 Y90.661 E2.91441
G1 X158.02 Y91.181 E2.93244
G1 X158.182 Y91.804 E2.95385
G1 X158.204 Y91.901 E2.95716
G1 X158.321 Y92.495 E2.97729
G1 X158.374 Y92.816 E2.98811
G1 X158.424 Y93.155 E2.99951
G1 X158.452 Y93.369 E3.00669
G1 X158.524 Y94.165 E3.03327
G1 X158.545 Y94.571 E3.04679
G1 X158.557 Y94.884 E3.05721
G1 X158.577 Y95.837 E3.08892
G1 X158.593 Y97.321 E3.13828
G1 X158.694 Y99.861 E3.22282
G1 X158.867 Y102.421 E3.30816
G1 X159.109 Y104.934 E3.39213
G1 X159.425 Y107.462 E3.47687
G1 X159.809 Y109.956 E3.5608
G1 X160.264 Y112.45 E3.64512
G1 X160.79 Y114.93 E3.72944
G1 X161.389 Y117.405 E3.81413
G1 X162.141 Y120.142 E3.90854
G1 X162.236 Y120.515 E3.92134
G1 X162.285 Y120.724 E3.92848
G1 X162.482 Y121.843 E3.96627
G1 X162.52 Y122.192 E3.97795
G1 X162.547 Y122.488 E3.98783
G1 X162.589 Y123.391 E4.0179
G1 X162.575 Y123.942 E4.03623
G1 X162.569 Y124.058 E4.0401
G1 X162.531 Y124.564 E4.05697
G1 X162.503 Y124.839 E4.06617
G1 X162.371 Y125.733 E4.09622
G1 X162.178 Y126.555 E4.12431
G1 X162.11 Y126.798 E4.1327
G1 X162.026 Y127.081 E4.14252
G1 X161.993 Y127.187 E4.14621
G1 X161.687 Y128.036 E4.17623
G1 X161.216 Y129.025 E4.21266
G1 X161.097 Y129.244 E4.22095
G1 X160.583 Y130.089 E4.25385
G1 X160.445 Y130.293 E4.26204
G1 X159.671 Y131.297 E4.3042
G1 X159.474 Y131.522 E4.31415
G1 X158.663 Y132.349 E4.35267
G1 X158.42 Y132.57 E4.3636
G1 X157.609 Y133.235 E4.39848
G1 X157.377 Y133.406 E4.40807
G1 X156.946 Y133.707 E4.42555
G1 X156.893 Y133.742 E4.42767
G1 X156.073 Y134.229 E4.45939
G1 X155.022 Y134.79 E4.49901
G1 X152.72 Y136.06 E4.58645
G1 X150.519 Y137.357 E4.67142
G1 X148.38 Y138.7 E4.75543
G1 X146.273 Y140.108 E4.83971
G1 X144.186 Y141.59 E4.92485
G1 X142.162 Y143.114 E5.00912
G1 X140.19 Y144.689 E5.09306
G1 X138.253 Y146.328 E5.17745
G1 X136.343 Y148.039 E5.26274
G1 X134.462 Y149.822 E5.34894
G1 X133.578 Y150.7 E5.39038
G1 X132.799 Y151.463 E5.42665
G1 X132.587 Y151.665 E5.43639
G1 X132.339 Y151.892 E5.44757
G1 X131.95 Y152.235 E5.46482
G1 X131.734 Y152.42 E5.47428
G1 X131.483 Y152.626 E5.48508
G1 X131.166 Y152.879 E5.49857
G1 X130.96 Y153.039 E5.50725
G1 X130.75 Y153.198 E5.51601
G1 X130.484 Y153.393 E5.52698
G1 X130.214 Y153.584 E5.53798
G1 X130.057 Y153.693 E5.54433
G1 X129.595 Y154.007 E5.56291
G1 X129.045 Y154.356 E5.58458
G1 X128.157 Y154.88 E5.61887
G1 X127.856 Y155.05 E5.63037
G1 X127.436 Y155.279 E5.64628
G1 X126.9 Y155.551 E5.66627
G1 X126.346 Y155.812 E5.68664
G1 X126.061 Y155.941 E5.69705
G1 X125.856 Y156.03 E5.70448
G1 X125.57 Y156.149 E5.71478
G1 X124.516 Y156.569 E5.75252
G1 X124.156 Y156.705 E5.76532
G1 X123.945 Y156.78 E5.77277
G1 X123.653 Y156.879 E5.78302
G1 X122.792 Y157.156 E5.8131
G1 X122.492 Y157.247 E5.82353
G1 X122.138 Y157.349 E5.83578
G1 X121.816 Y157.436 E5.84688
G1 X120.982 Y157.647 E5.87549
G1 X120.672 Y157.721 E5.88609
G1 X120.322 Y157.798 E5.89801
G1 X120 Y157.863 E5.90894
G1 X119.346 Y157.985 E5.93106
G1 X118.968 Y158.048 E5.94381
G1 X117.46 Y158.271 E5.99451
G1 X117.13 Y158.315 E6.00558
G1 X116.877 Y158.344 E6.01405
G1 X116.234 Y158.397 E6.03551
G1 X115.075 Y158.456 E6.07411
G1 X114.716 Y158.468 E6.08606
G1 X113.062 Y158.494 E6.14108
G1 X112.599 Y158.494 E6.15648
G1 X111.767 Y158.483 E6.18415
G1 X111.448 Y158.474 E6.19477
G1 X111.181 Y158.462 E6.20366
G1 X110.763 Y158.434 E6.21759
G1 X109.835 Y158.354 E6.24857
G1 X109.506 Y158.321 E6.25957
G1 X107.884 Y158.128 E6.31389
G1 X107.484 Y158.072 E6.32733
G1 X105.984 Y157.833 E6.37785
G1 X105.636 Y157.771 E6.3896
G1 X104.831 Y157.614 E6.41688
G1 X104.576 Y157.561 E6.42555
G1 X104.364 Y157.514 E6.43277
G1 X104.192 Y157.474 E6.43864
G1 X103.321 Y157.265 E6.46843
G1 X103.037 Y157.193 E6.47818
G1 X102.612 Y157.078 E6.49282
G1 X102.367 Y157.009 E6.50129
G1 X101.725 Y156.818 E6.52357
G1 X101.438 Y156.727 E6.53358
G1 X100.841 Y156.53 E6.55449
G1 X100.572 Y156.437 E6.56396
G1 X100.129 Y156.277 E6.57962
G1 X99.836 Y156.167 E6.59003
G1 X99.137 Y155.89 E6.61504
G1 X98.844 Y155.768 E6.6256
G1 X98.472 Y155.607 E6.63908
G1 X98.201 Y155.485 E6.64896
G1 X97.457 Y155.137 E6.67628
G1 X97.119 Y154.971 E6.68881
G1 X96.862 Y154.839 E6.69841
G1 X96.616 Y154.709 E6.70767
G1 X95.865 Y154.297 E6.73616
G1 X95.549 Y154.116 E6.74827
G1 X95.351 Y153.998 E6.75594
G1 X95.099 Y153.843 E6.76578
G1 X94.283 Y153.324 E6.79794
G1 X93.948 Y153.101 E6.81133
G1 X93.808 Y153.004 E6.81699
G1 X93.576 Y152.839 E6.82646
G1 X92.806 Y152.273 E6.85825
G1 X92.549 Y152.077 E6.869
G1 X92.456 Y152.004 E6.87293
G1 X92.173 Y151.774 E6.88506
G1 X91.376 Y151.101 E6.91975
G1 X91.118 Y150.875 E6.93116
G1 X90.812 Y150.591 E6.94505
G1 X90.046 Y149.847 E6.98056
G1 X89.806 Y149.605 E6.9919
G1 X89.702 Y149.497 E6.99689
G1 X89.469 Y149.247 E7.00825
G1 X88.836 Y148.544 E7.03972
G1 X88.634 Y148.314 E7.0499
G1 X88.534 Y148.196 E7.05504
G1 X88.305 Y147.915 E7.0671
G1 X87.695 Y147.141 E7.09988
G1 X87.496 Y146.879 E7.11082
G1 X87.381 Y146.723 E7.11726
G1 X87.19 Y146.456 E7.12818
G1 X86.657 Y145.682 E7.15944
G1 X86.455 Y145.377 E7.17161
G1 X86.283 Y145.107 E7.18225
G1 X86.128 Y144.856 E7.19207
G1 X85.725 Y144.181 E7.21821
G1 X85.567 Y143.906 E7.22876
G1 X85.367 Y143.546 E7.24246
G1 X85.232 Y143.296 E7.25191
G1 X84.89 Y142.638 E7.27657
G1 X84.746 Y142.35 E7.28728
G1 X84.515 Y141.869 E7.30503
G1 X84.389 Y141.594 E7.31509
G1 X84.114 Y140.975 E7.33762
G1 X83.998 Y140.704 E7.34743
G1 X83.745 Y140.087 E7.36961
G1 X83.655 Y139.861 E7.3777
G1 X83.463 Y139.359 E7.39557
G1 X83.359 Y139.073 E7.40569
G1 X83.086 Y138.29 E7.43327
G1 X82.928 Y137.797 E7.45049
G1 X82.583 Y136.618 E7.49135
G1 X82.471 Y136.203 E7.50565
G1 X82.253 Y135.322 E7.53583
G1 X82.166 Y134.943 E7.54877
G1 X81.951 Y133.906 E7.58399
G1 X81.878 Y133.512 E7.59732
G1 X81.726 Y132.6 E7.62807
G1 X81.671 Y132.23 E7.64051
G1 X81.521 Y131.069 E7.67945
G1 X81.484 Y130.739 E7.69049
G1 X81.423 Y130.105 E7.71168
G1 X81.403 Y129.875 E7.71936
G1 X81.301 Y128.351 E7.77016
G1 X81.258 Y127.536 E7.7973
G1 X81.248 Y127.271 E7.80612
G1 X81.233 Y126.687 E7.82555
G1 X81.212 Y125.133 E7.87724
G1 X81.139 Y122.525 E7.96402
G1 X80.997 Y119.997 E8.04823
G1 X80.779 Y117.425 E8.13409
G1 X80.497 Y114.939 E8.2173
G1 X80.14 Y112.416 E8.30205
G1 X79.713 Y109.923 E8.38618
G1 X79.211 Y107.416 E8.47122
G1 X78.65 Y104.968 E8.55475
G1 X78.005 Y102.49 E8.63991
G1 X77.084 Y99.357 E8.74853
G1 X77.008 Y99.089 E8.75779
G1 X76.911 Y98.723 E8.77038
G1 X76.735 Y97.887 E8.7988
G1 X76.652 Y97.391 E8.81553
G1 X76.559 Y96.689 E8.83908
G1 X76.53 Y96.389 E8.8491
G1 X76.489 Y95.749 E8.87043
G1 X76.481 Y95.51 E8.87839
G1 X76.482 Y94.785 E8.9025
G1 X76.503 Y94.228 E8.92104
G1 X76.584 Y93.272 E8.95295
G1 X76.615 Y93.038 E8.9608
G1 X76.661 Y92.73 E8.97116
G1 X76.763 Y92.176 E8.98989
G1 X76.809 Y91.96 E8.99724
G1 X76.877 Y91.663 E9.00737
G1 X76.91 Y91.528 E9.012
G1 X77.017 Y91.124 E9.0259
G1 X77.079 Y90.909 E9.03334
G1 X77.203 Y90.509 E9.04727
G1 X77.259 Y90.341 E9.05316
G1 X77.468 Y89.773 E9.07329
G1 X77.585 Y89.481 E9.08375
G1 X77.829 Y88.92 E9.1041
G1 X77.956 Y88.651 E9.11399
G1 X78.265 Y88.049 E9.1365
G1 X78.404 Y87.799 E9.14601
G1 X78.738 Y87.242 E9.16761
G1 X78.88 Y87.021 E9.17635
G1 X79.21 Y86.538 E9.19581
G1 X79.375 Y86.311 E9.20514
G1 X79.702 Y85.885 E9.223
G1 X79.779 Y85.79 E9.22707
G1 X80.251 Y85.248 E9.25097
G1 X80.594 Y84.881 E9.26768
G1 X80.964 Y84.505 E9.28523
G1 X81.162 Y84.314 E9.29438
G1 F2700 E4.29438
;MESH:toothpasteSqueezer01.stl
G0 F6000 X92.603 Y94.44
G0 X92.602 Y92.986
G0 X90.493 Y93.509
G0 X89.932 Y93.93
G0 X89.584 Y94.51
G0 X89.48 Y95.247
G0 X89.641 Y95.868
G0 X90.038 Y96.42
G0 X90.611 Y96.782
G0 X91.13 Y96.881
G0 X111.277 Y97.065
;TYPE:WALL-INNER
G1 F2700 E9.29438
G1 F1200 X142.826 Y97.064 E10.3437
G1 X143.894 Y97.06 E10.37922
G1 X144.016 Y97.048 E10.3833
G1 X144.166 Y97.023 E10.38836
G1 X144.315 Y96.984 E10.39348
G1 X144.466 Y96.933 E10.39878
G1 X144.617 Y96.866 E10.40428
G1 X144.758 Y96.789 E10.40962
G1 X144.897 Y96.7 E10.41511
G1 X145.031 Y96.594 E10.42079
G1 X145.147 Y96.484 E10.42611
G1 X145.19 Y96.438 E10.4282
G1 X145.291 Y96.322 E10.43332
G1 X145.362 Y96.226 E10.43729
G1 X145.397 Y96.172 E10.43943
G1 X145.471 Y96.046 E10.44429
G1 X145.528 Y95.937 E10.44838
G1 X145.589 Y95.787 E10.45377
G1 X145.638 Y95.637 E10.45902
G1 X145.673 Y95.485 E10.4642
G1 X145.696 Y95.333 E10.46932
G1 X145.706 Y95.186 E10.47422
G1 X145.705 Y95.004 E10.48027
G1 X145.689 Y94.851 E10.48539
G1 X145.662 Y94.704 E10.49036
G1 X145.625 Y94.555 E10.49546
G1 X145.573 Y94.407 E10.50068
G1 X145.524 Y94.294 E10.50478
G1 X145.45 Y94.148 E10.51022
G1 X145.359 Y94.007 E10.5158
G1 X145.261 Y93.879 E10.52117
G1 X145.147 Y93.751 E10.52687
G1 X145.032 Y93.645 E10.53207
G1 X144.983 Y93.603 E10.53422
G1 X144.857 Y93.51 E10.53942
G1 X144.754 Y93.445 E10.54347
G1 X144.633 Y93.378 E10.54807
G1 X144.51 Y93.321 E10.55258
G1 X144.391 Y93.277 E10.5568
G1 X144.27 Y93.24 E10.56101
G1 X144.149 Y93.212 E10.56514
G1 X143.983 Y93.183 E10.57075
G1 X143.882 Y93.18 E10.57411
G1 X143.785 Y93.173 E10.57734
G1 X135.975 Y93.175 E10.8371
G1 X92.602 Y93.176 E12.2797
G1 X91.246 Y93.174 E12.3248
G1 X91.091 Y93.182 E12.32996
G1 X90.963 Y93.197 E12.33425
G1 X90.898 Y93.209 E12.33644
G1 X90.726 Y93.248 E12.34231
G1 X90.548 Y93.31 E12.34858
G1 X90.425 Y93.364 E12.35305
G1 X90.364 Y93.394 E12.35531
G1 X90.244 Y93.461 E12.35988
G1 X90.088 Y93.568 E12.36617
G1 X90.031 Y93.614 E12.36861
G1 X89.926 Y93.705 E12.37323
G1 X89.812 Y93.822 E12.37866
G1 X89.716 Y93.939 E12.3837
G1 X89.63 Y94.059 E12.38861
G1 X89.552 Y94.189 E12.39365
G1 X89.488 Y94.321 E12.39853
G1 X89.433 Y94.454 E12.40331
G1 X89.389 Y94.591 E12.4081
G1 X89.356 Y94.727 E12.41276
G1 X89.333 Y94.864 E12.41738
G1 X89.317 Y95.03 E12.42292
G1 X89.316 Y95.158 E12.42718
G1 X89.32 Y95.26 E12.43058
G1 X89.335 Y95.398 E12.43519
G1 X89.366 Y95.556 E12.44055
G1 X89.393 Y95.665 E12.44428
G1 X89.451 Y95.832 E12.45016
G1 X89.496 Y95.937 E12.45396
G1 X89.577 Y96.093 E12.45981
G1 X89.657 Y96.223 E12.46488
G1 X89.752 Y96.351 E12.47019
G1 X89.851 Y96.46 E12.47508
G1 X89.928 Y96.537 E12.47871
G1 X90.041 Y96.636 E12.4837
G1 X90.162 Y96.725 E12.4887
G1 X90.287 Y96.804 E12.49362
G1 X90.417 Y96.874 E12.49853
G1 X90.552 Y96.932 E12.50341
G1 X90.687 Y96.98 E12.50818
G1 X90.829 Y97.017 E12.51306
G1 X90.99 Y97.047 E12.51851
G1 X91.096 Y97.059 E12.52206
G1 X91.249 Y97.066 E12.52715
G1 X92.198 Y97.065 E12.55871
G1 X93.136 Y97.067 E12.58991
G1 X110.012 Y97.067 E13.15121
G1 X111.277 Y97.065 E13.19328
G0 F6000 X111.276 Y96.665
;TYPE:WALL-OUTER
G1 F1200 X142.825 Y96.664 E14.24261
G1 X143.874 Y96.66 E14.2775
G1 X143.963 Y96.651 E14.28047
G1 X144.082 Y96.631 E14.28449
G1 X144.201 Y96.6 E14.28858
G1 X144.321 Y96.56 E14.29278
G1 X144.44 Y96.507 E14.29712
G1 X144.554 Y96.445 E14.30143
G1 X144.664 Y96.374 E14.30579
G1 X144.769 Y96.291 E14.31024
G1 X144.863 Y96.202 E14.31454
G1 X144.893 Y96.17 E14.316
G1 X144.978 Y96.072 E14.32032
G1 X145.034 Y95.996 E14.32346
G1 X145.058 Y95.96 E14.3249
G1 X145.121 Y95.852 E14.32906
G1 X145.165 Y95.768 E14.33221
G1 X145.213 Y95.65 E14.33645
G1 X145.252 Y95.53 E14.34064
G1 X145.28 Y95.41 E14.34474
G1 X145.298 Y95.29 E14.34878
G1 X145.306 Y95.174 E14.35265
G1 X145.305 Y95.026 E14.35757
G1 X145.293 Y94.908 E14.36151
G1 X145.271 Y94.789 E14.36554
G1 X145.241 Y94.67 E14.36962
G1 X145.2 Y94.552 E14.37377
G1 X145.162 Y94.464 E14.37696
G1 X145.103 Y94.348 E14.38129
G1 X145.031 Y94.237 E14.38569
G1 X144.952 Y94.133 E14.39004
G1 X144.862 Y94.032 E14.39453
G1 X144.767 Y93.945 E14.39882
G1 X144.734 Y93.917 E14.40026
G1 X144.63 Y93.84 E14.40456
G1 X144.55 Y93.789 E14.40772
G1 X144.452 Y93.735 E14.41144
G1 X144.357 Y93.691 E14.41492
G1 X144.262 Y93.656 E14.41829
G1 X144.166 Y93.626 E14.42163
G1 X144.07 Y93.604 E14.42491
G1 X143.944 Y93.582 E14.42916
G1 X143.86 Y93.58 E14.43196
G1 X143.77 Y93.573 E14.43496
G1 X135.975 Y93.575 E14.69422
G1 X92.602 Y93.576 E16.13682
G1 X91.257 Y93.574 E16.18155
G1 X91.125 Y93.581 E16.18595
G1 X91.022 Y93.593 E16.1894
G1 X90.978 Y93.601 E16.19088
G1 X90.837 Y93.633 E16.19569
G1 X90.694 Y93.683 E16.20073
G1 X90.593 Y93.727 E16.2044
G1 X90.55 Y93.748 E16.20599
G1 X90.456 Y93.801 E16.20958
G1 X90.326 Y93.89 E16.21482
G1 X90.287 Y93.921 E16.21647
G1 X90.201 Y93.996 E16.22027
G1 X90.11 Y94.089 E16.2246
G1 X90.034 Y94.182 E16.22859
G1 X89.965 Y94.279 E16.23255
G1 X89.904 Y94.38 E16.23647
G1 X89.853 Y94.485 E16.24036
G1 X89.809 Y94.592 E16.24421
G1 X89.774 Y94.7 E16.24798
G1 X89.748 Y94.807 E16.25164
G1 X89.73 Y94.916 E16.25532
G1 X89.717 Y95.051 E16.25983
G1 X89.716 Y95.152 E16.26319
G1 X89.719 Y95.23 E16.26578
G1 X89.731 Y95.337 E16.26937
G1 X89.757 Y95.47 E16.27387
G1 X89.777 Y95.552 E16.27668
G1 X89.824 Y95.687 E16.28143
G1 X89.858 Y95.766 E16.2843
G1 X89.925 Y95.896 E16.28916
G1 X89.988 Y95.998 E16.29315
