;FLAVOR:Marlin
;TIME:21360
;Filament used: 19.4656m
;Layer height: 0.28
;MINX:57.812
;MINY:49.088
;MINZ:0.28
;MAXX:168.323
;MAXY:185.431
;MAXZ:17.36
;Generated with Cura_SteamEngine 4.7.0
M140 S55
M105
M190 S55
M104 S210
M105
M109 S210
M82 ;absolute extrusion mode
; Ender 3 Custom Start G-code
G92 E0 ; Reset Extruder
G28 ; Home all axes
G1 Z2.0 F3000 ; Move Z Axis up little to prevent scratching of Heat Bed
G1 X0.1 Y20 Z0.3 F5000.0 ; Move to start position
G1 X0.1 Y200.0 Z0.3 F1500.0 E15 ; Draw the first line
G1 X0.4 Y200.0 Z0.3 F5000.0 ; Move to side a little
G1 X0.4 Y20 Z0.3 F1500.0 E30 ; Draw the second line
G92 E0 ; Reset Extruder
G1 Z2.0 F3000 ; Move Z Axis up little to prevent scratching of Heat Bed
G1 X5 Y20 Z0.3 F5000.0 ; Move over to prevent blob squish
G92 E0
G92 E0
G1 F2700 E-5
;LAYER_COUNT:62
;LAYER:0
M107
G0 F6000 X63.459 Y55.973 Z0.28
;TYPE:SKIRT
G1 F2700 E0
G1 F1200 X63.67 Y55.742 E0.01457
G1 X64.291 Y55.119 E0.05553
G1 X64.912 Y54.547 E0.09484
G1 X65.176 Y54.311 E0.11133
G1 X65.417 Y54.104 E0.12612
G1 X66.155 Y53.527 E0.16974
G1 X66.853 Y53.031 E0.20962
G1 X67.123 Y52.846 E0.22486
G1 X67.417 Y52.651 E0.24128
G1 X68.172 Y52.196 E0.28233
G1 X68.801 Y51.853 E0.31569
G1 X69.084 Y51.704 E0.33058
G1 X69.555 Y51.466 E0.35516
G1 X70.071 Y51.223 E0.38171
G1 X70.174 Y51.178 E0.38695
G1 X70.427 Y51.072 E0.39972
G1 X70.881 Y50.888 E0.42253
G1 X71.164 Y50.778 E0.43667
G1 X71.598 Y50.617 E0.45822
G1 X72.183 Y50.42 E0.48697
G1 X73.237 Y50.1 E0.53826
G1 X73.581 Y50.002 E0.55491
G1 X73.901 Y49.917 E0.57033
G1 X74.485 Y49.78 E0.59826
G1 X75.315 Y49.611 E0.6377
G1 X75.637 Y49.551 E0.65296
G1 X76.265 Y49.444 E0.68262
G1 X76.602 Y49.392 E0.6985
G1 X76.907 Y49.352 E0.71282
G1 X77.367 Y49.299 E0.73438
G1 X77.81 Y49.254 E0.75512
G1 X78.187 Y49.22 E0.77274
G1 X78.555 Y49.194 E0.78992
G1 X79.82 Y49.126 E0.84891
G1 X80.205 Y49.112 E0.86685
G1 X81.646 Y49.089 E0.93396
G1 X144.202 Y49.088 E3.84683
G1 X144.377 Y49.089 E3.85497
G1 X146.069 Y49.118 E3.93377
G1 X146.379 Y49.129 E3.94822
G1 X146.757 Y49.147 E3.96584
G1 X147.101 Y49.169 E3.98189
G1 X148.339 Y49.27 E4.03973
G1 X148.701 Y49.306 E4.05667
G1 X149.271 Y49.373 E4.08339
G1 X149.795 Y49.448 E4.10804
G1 X150.352 Y49.543 E4.13435
G1 X150.768 Y49.62 E4.15405
G1 X151.364 Y49.739 E4.18235
G1 X151.951 Y49.875 E4.21041
G1 X152.707 Y50.073 E4.2468
G1 X153.019 Y50.16 E4.26188
G1 X153.566 Y50.322 E4.28844
G1 X154.113 Y50.501 E4.31524
G1 X154.509 Y50.643 E4.33483
G1 X154.792 Y50.749 E4.3489
G1 X154.986 Y50.826 E4.35862
G1 X155.697 Y51.115 E4.39436
G1 X156.18 Y51.326 E4.4189
G1 X156.274 Y51.37 E4.42374
G1 X156.586 Y51.523 E4.43992
G1 X156.974 Y51.721 E4.4602
G1 X157.191 Y51.835 E4.47161
G1 X157.74 Y52.132 E4.50068
G1 X158.495 Y52.583 E4.54163
G1 X159.089 Y52.974 E4.57474
G1 X159.362 Y53.16 E4.59012
G1 X159.712 Y53.407 E4.61007
G1 X160.44 Y53.971 E4.65295
G1 X161.049 Y54.489 E4.69018
G1 X161.314 Y54.723 E4.70664
G1 X161.553 Y54.941 E4.72171
G1 X162.181 Y55.567 E4.763
G1 X162.753 Y56.188 E4.80231
G1 X162.989 Y56.452 E4.8188
G1 X163.196 Y56.693 E4.83359
G1 X163.773 Y57.431 E4.87721
G1 X164.269 Y58.129 E4.91708
G1 X164.459 Y58.406 E4.93272
G1 X164.651 Y58.696 E4.94892
G1 X165.105 Y59.45 E4.9899
G1 X165.467 Y60.115 E5.02516
G1 X165.611 Y60.39 E5.03961
G1 X165.839 Y60.841 E5.06314
G1 X166.111 Y61.425 E5.09314
G1 X166.224 Y61.692 E5.10664
G1 X166.398 Y62.119 E5.12811
G1 X166.503 Y62.388 E5.14156
G1 X166.741 Y63.023 E5.17314
G1 X166.939 Y63.603 E5.20167
G1 X167.051 Y63.967 E5.21941
G1 X167.124 Y64.215 E5.23145
G1 X167.223 Y64.572 E5.2487
G1 X167.395 Y65.224 E5.28009
G1 X167.527 Y65.793 E5.30729
G1 X167.682 Y66.555 E5.3435
G1 X167.74 Y66.864 E5.35814
G1 X167.852 Y67.517 E5.38899
G1 X167.891 Y67.76 E5.40045
G1 X167.907 Y67.869 E5.40558
G1 X167.948 Y68.183 E5.42033
G1 X168.018 Y68.8 E5.44924
G1 X168.046 Y69.087 E5.46267
G1 X168.08 Y69.465 E5.48034
G1 X168.106 Y69.831 E5.49743
G1 X168.174 Y71.094 E5.55632
G1 X168.188 Y71.479 E5.57426
G1 X168.211 Y72.922 E5.64146
G1 X168.212 Y100.992 E6.94852
G1 X168.211 Y101.154 E6.95606
G1 X168.186 Y102.732 E7.02955
G1 X168.177 Y103.042 E7.04399
G1 X168.155 Y103.505 E7.06557
G1 X168.133 Y103.852 E7.08176
G1 X168.029 Y105.123 E7.14114
G1 X167.994 Y105.479 E7.1578
G1 X167.896 Y106.315 E7.197
G1 X167.638 Y108.82 E7.31426
G1 X167.445 Y111.395 E7.4345
G1 X167.328 Y113.924 E7.55238
G1 X167.283 Y116.455 E7.67025
G1 X167.31 Y118.992 E7.78839
G1 X167.407 Y121.524 E7.90638
G1 X167.576 Y124.051 E8.02431
G1 X167.82 Y126.6 E8.14355
G1 X167.903 Y127.26 E8.17452
G1 X167.912 Y127.367 E8.17952
G1 X167.914 Y127.367 E8.17961
G1 X168.129 Y129.243 E8.26754
G1 X168.157 Y129.528 E8.28088
G1 X168.191 Y129.905 E8.2985
G1 X168.217 Y130.273 E8.31568
G1 X168.285 Y131.538 E8.37467
G1 X168.299 Y131.923 E8.39261
G1 X168.322 Y133.364 E8.45972
G1 X168.323 Y161.435 E9.76682
G1 X168.322 Y161.596 E9.77432
G1 X168.297 Y163.175 E9.84785
G1 X168.288 Y163.488 E9.86243
G1 X168.266 Y163.949 E9.88392
G1 X168.245 Y164.288 E9.89974
G1 X168.142 Y165.556 E9.95897
G1 X168.104 Y165.934 E9.97666
G1 X168.039 Y166.481 E10.00231
G1 X167.996 Y166.804 E10.01749
G1 X167.946 Y167.119 E10.03234
G1 X167.845 Y167.698 E10.05971
G1 X167.791 Y167.983 E10.07321
G1 X167.672 Y168.58 E10.10156
G1 X167.533 Y169.181 E10.13028
G1 X167.337 Y169.926 E10.16615
G1 X167.258 Y170.211 E10.17992
G1 X167.087 Y170.792 E10.20813
G1 X166.916 Y171.318 E10.23388
G1 X166.809 Y171.62 E10.2488
G1 X166.693 Y171.933 E10.26434
G1 X166.568 Y172.249 E10.28017
G1 X166.294 Y172.922 E10.314
G1 X166.078 Y173.415 E10.33906
G1 X166.031 Y173.515 E10.34421
G1 X165.888 Y173.807 E10.35935
G1 X165.702 Y174.172 E10.37842
G1 X165.587 Y174.392 E10.38998
G1 X165.281 Y174.958 E10.41994
G1 X164.824 Y175.722 E10.4614
G1 X164.433 Y176.315 E10.49447
G1 X164.251 Y176.581 E10.50948
G1 X164.004 Y176.931 E10.52943
G1 X163.44 Y177.659 E10.57231
G1 X162.922 Y178.268 E10.60954
G1 X162.692 Y178.528 E10.6257
G1 X162.477 Y178.764 E10.64057
G1 X161.849 Y179.396 E10.68205
G1 X161.225 Y179.971 E10.72156
G1 X160.959 Y180.208 E10.73815
G1 X160.718 Y180.415 E10.75295
G1 X159.98 Y180.992 E10.79657
G1 X159.282 Y181.488 E10.83644
G1 X159.012 Y181.673 E10.85168
G1 X158.718 Y181.868 E10.86811
G1 X157.963 Y182.323 E10.90915
G1 X157.334 Y182.666 E10.94251
G1 X157.051 Y182.815 E10.95741
G1 X156.58 Y183.053 E10.98198
G1 X156.045 Y183.304 E11.0095
G1 X155.9 Y183.367 E11.01686
G1 X155.662 Y183.467 E11.02888
G1 X155.237 Y183.639 E11.05023
G1 X154.981 Y183.739 E11.06303
G1 X154.387 Y183.961 E11.09255
G1 X153.857 Y184.142 E11.11863
G1 X153.54 Y184.241 E11.1341
G1 X153.301 Y184.313 E11.14572
G1 X153.056 Y184.383 E11.15758
G1 X152.847 Y184.44 E11.16767
G1 X152.185 Y184.614 E11.19954
G1 X151.624 Y184.745 E11.22637
G1 X150.832 Y184.906 E11.264
G1 X150.52 Y184.964 E11.27878
G1 X149.877 Y185.074 E11.30915
G1 X149.533 Y185.127 E11.32536
G1 X149.228 Y185.167 E11.33969
G1 X148.768 Y185.22 E11.36125
G1 X148.325 Y185.265 E11.38198
G1 X147.948 Y185.299 E11.39961
G1 X147.58 Y185.325 E11.41679
G1 X146.315 Y185.393 E11.47577
G1 X145.93 Y185.407 E11.49371
G1 X144.49 Y185.43 E11.56077
G1 X81.932 Y185.431 E14.47374
G1 X81.76 Y185.43 E14.48175
G1 X80.044 Y185.401 E14.56166
G1 X79.723 Y185.39 E14.57662
G1 X79.413 Y185.375 E14.59107
G1 X79.072 Y185.353 E14.60698
G1 X77.78 Y185.247 E14.66734
G1 X77.441 Y185.213 E14.68321
G1 X76.897 Y185.15 E14.70871
G1 X76.535 Y185.102 E14.72571
G1 X76.235 Y185.054 E14.73986
G1 X75.668 Y184.955 E14.76666
G1 X75.37 Y184.899 E14.78078
G1 X74.778 Y184.781 E14.80889
G1 X74.176 Y184.642 E14.83766
G1 X73.401 Y184.438 E14.87497
G1 X73.102 Y184.355 E14.88942
G1 X72.558 Y184.194 E14.91584
G1 X72.031 Y184.022 E14.94165
G1 X71.68 Y183.897 E14.959
G1 X71.394 Y183.79 E14.97322
G1 X71.081 Y183.667 E14.98888
G1 X70.42 Y183.397 E15.02213
G1 X69.938 Y183.185 E15.04665
G1 X69.838 Y183.138 E15.05179
G1 X69.548 Y182.996 E15.06683
G1 X69.169 Y182.803 E15.08663
G1 X68.932 Y182.679 E15.09909
G1 X68.383 Y182.381 E15.12817
G1 X67.643 Y181.937 E15.16836
G1 X67.038 Y181.539 E15.20208
G1 X66.759 Y181.349 E15.2178
G1 X66.432 Y181.118 E15.23644
G1 X65.716 Y180.563 E15.27862
G1 X65.081 Y180.024 E15.31741
G1 X64.811 Y179.786 E15.33417
G1 X64.585 Y179.58 E15.3484
G1 X63.95 Y178.948 E15.39012
G1 X63.375 Y178.323 E15.42967
G1 X63.15 Y178.071 E15.4454
G1 X62.946 Y177.834 E15.45996
G1 X62.362 Y177.088 E15.50407
G1 X61.866 Y176.39 E15.54395
G1 X61.681 Y176.12 E15.55919
G1 X61.486 Y175.826 E15.57561
G1 X61.031 Y175.071 E15.61666
G1 X60.688 Y174.442 E15.65002
G1 X60.535 Y174.151 E15.66533
G1 X60.291 Y173.667 E15.69057
G1 X60.039 Y173.128 E15.71827
G1 X59.906 Y172.815 E15.73411
G1 X59.729 Y172.379 E15.75602
G1 X59.624 Y172.11 E15.76947
G1 X59.388 Y171.478 E15.80088
G1 X59.197 Y170.916 E15.82852
G1 X59.102 Y170.608 E15.84353
G1 X58.974 Y170.171 E15.86473
G1 X58.908 Y169.933 E15.87623
G1 X58.736 Y169.279 E15.90772
G1 X58.605 Y168.716 E15.93464
G1 X58.45 Y167.953 E15.97089
G1 X58.391 Y167.636 E15.98591
G1 X58.278 Y166.973 E16.01722
G1 X58.225 Y166.627 E16.03352
G1 X58.187 Y166.336 E16.04719
G1 X58.134 Y165.876 E16.06875
G1 X58.089 Y165.433 E16.08948
G1 X58.055 Y165.056 E16.10711
G1 X58.029 Y164.688 E16.12429
G1 X57.961 Y163.425 E16.18318
G1 X57.947 Y163.04 E16.20112
G1 X57.924 Y161.598 E16.26828
G1 X57.923 Y133.529 E17.57529
G1 X57.924 Y133.364 E17.58297
G1 X57.95 Y131.76 E17.65767
G1 X57.959 Y131.463 E17.6715
G1 X57.979 Y131.022 E17.69206
G1 X58.004 Y130.644 E17.7097
G1 X58.109 Y129.374 E17.76904
G1 X58.143 Y129.029 E17.78518
G1 X58.234 Y128.248 E17.82179
G1 X58.499 Y125.683 E17.94187
G1 X58.689 Y123.129 E18.06112
G1 X58.807 Y120.588 E18.17957
G1 X58.852 Y118.057 E18.29744
G1 X58.826 Y115.526 E18.4153
G1 X58.727 Y112.986 E18.53366
G1 X58.558 Y110.461 E18.6515
G1 X58.316 Y107.934 E18.76971
G1 X58.238 Y107.315 E18.79876
G1 X58.228 Y107.195 E18.80436
G1 X58.226 Y107.195 E18.80446
G1 X58.006 Y105.263 E18.895
G1 X57.976 Y104.961 E18.90913
G1 X57.94 Y104.56 E18.92788
G1 X57.913 Y104.191 E18.94511
G1 X57.85 Y103.009 E19.00022
G1 X57.837 Y102.629 E19.01793
G1 X57.813 Y101.13 E19.08774
G1 X57.812 Y73.085 E20.39363
G1 X57.813 Y72.924 E20.40113
G1 X57.838 Y71.344 E20.47471
G1 X57.847 Y71.031 E20.48929
G1 X57.869 Y70.57 E20.51078
G1 X57.89 Y70.231 E20.5266
G1 X57.993 Y68.963 E20.58583
G1 X58.031 Y68.586 E20.60348
G1 X58.098 Y68.022 E20.62992
G1 X58.146 Y67.666 E20.64665
G1 X58.189 Y67.403 E20.65906
G1 X58.278 Y66.889 E20.68335
G1 X58.32 Y66.66 E20.69419
G1 X58.454 Y65.979 E20.72651
G1 X58.6 Y65.342 E20.75694
G1 X58.809 Y64.551 E20.79504
G1 X58.895 Y64.248 E20.8097
G1 X59.003 Y63.885 E20.82734
G1 X59.199 Y63.293 E20.85637
G1 X59.559 Y62.308 E20.90521
G1 X59.701 Y61.941 E20.92353
G1 X59.851 Y61.575 E20.94195
G1 X60.071 Y61.077 E20.9673
G1 X60.217 Y60.776 E20.98288
G1 X60.446 Y60.324 E21.00647
G1 X60.577 Y60.075 E21.01957
G1 X60.862 Y59.549 E21.04743
G1 X61.318 Y58.788 E21.08874
G1 X61.724 Y58.173 E21.12305
G1 X61.912 Y57.899 E21.13853
G1 X62.14 Y57.577 E21.1569
G1 X62.691 Y56.866 E21.19878
G1 X63.217 Y56.247 E21.23661
G1 X63.459 Y55.973 E21.25363
G1 F2700 E16.25363
;MESH:altoids_9v.stl
G0 F6000 X70.746 Y62.119
G0 X71.559 Y62.837
G0 X69.985 Y65.751
G0 X69.558 Y66.845
G0 X69.222 Y68.038
G0 X68.977 Y69.362
G0 X68.834 Y70.758
G0 X68.783 Y72.314
G0 X68.783 Y101.788
G0 X68.833 Y103.296
G0 X68.977 Y104.714
G0 X69.221 Y106.035
G0 X69.556 Y107.228
G0 X69.981 Y108.314
G0 X70.502 Y109.313
G0 X71.11 Y110.202
G0 X71.809 Y110.991
G0 X72.598 Y111.69
G0 X73.493 Y112.302
G0 X74.479 Y112.817
G0 X75.569 Y113.244
G0 X76.765 Y113.579
G0 X78.066 Y113.819
G0 X79.478 Y113.965
G0 X79.92 Y113.979
G0 X144.993 Y114.188
;TYPE:WALL-INNER
G1 F2700 E21.25363
G1 F1200 X81.032 Y114.188 E24.23192
G1 X79.465 Y114.136 E24.30493
G1 X78.037 Y113.988 E24.37178
G1 X76.733 Y113.747 E24.43353
G1 X75.508 Y113.404 E24.49276
G1 X74.415 Y112.976 E24.54742
G1 X73.403 Y112.447 E24.60059
G1 X72.495 Y111.826 E24.65182
G1 X71.688 Y111.112 E24.70199
G1 X70.974 Y110.305 E24.75216
G1 X70.357 Y109.403 E24.80305
G1 X69.822 Y108.378 E24.85689
G1 X69.397 Y107.293 E24.91115
G1 X69.053 Y106.067 E24.97044
G1 X68.809 Y104.747 E25.03295
G1 X68.662 Y103.307 E25.10035
G1 X68.612 Y101.788 E25.17112
G1 X68.612 Y72.307 E26.54388
G1 X68.663 Y70.753 E26.61628
G1 X68.809 Y69.329 E26.68293
G1 X69.053 Y68.009 E26.74544
G1 X69.396 Y66.789 E26.80445
G1 X69.828 Y65.684 E26.85969
G1 X70.359 Y64.669 E26.91303
G1 X70.979 Y63.765 E26.96408
G1 X71.688 Y62.964 E27.01389
G1 X72.495 Y62.25 E27.06406
G1 X73.403 Y61.629 E27.11528
G1 X74.4 Y61.107 E27.16768
G1 X75.527 Y60.668 E27.224
G1 X76.733 Y60.329 E27.28234
G1 X78.047 Y60.086 E27.34456
G1 X79.478 Y59.939 E27.41154
G1 X81.031 Y59.888 E27.4839
G1 X145.005 Y59.888 E30.46279
G1 X146.559 Y59.94 E30.53519
G1 X147.976 Y60.086 E30.60153
G1 X149.291 Y60.329 E30.66379
G1 X150.508 Y60.671 E30.72266
G1 X151.617 Y61.104 E30.77809
G1 X152.621 Y61.629 E30.83085
G1 X153.535 Y62.256 E30.88246
G1 X154.336 Y62.964 E30.93224
G1 X155.05 Y63.771 E30.98241
G1 X155.667 Y64.673 E31.0333
G1 X156.202 Y65.698 E31.08714
G1 X156.627 Y66.78 E31.14127
G1 X156.971 Y68.009 E31.2007
G1 X157.215 Y69.329 E31.2632
G1 X157.361 Y70.754 E31.3299
G1 X157.412 Y72.288 E31.40137
G1 X157.412 Y101.769 E32.77413
G1 X157.361 Y103.323 E32.84653
G1 X157.215 Y104.747 E32.91319
G1 X156.971 Y106.067 E32.97569
G1 X156.628 Y107.293 E33.03497
G1 X156.2 Y108.385 E33.08959
G1 X155.671 Y109.397 E33.14276
G1 X155.05 Y110.305 E33.19398
G1 X154.336 Y111.112 E33.24416
G1 X153.529 Y111.826 E33.29433
G1 X152.621 Y112.447 E33.34555
G1 X151.619 Y112.971 E33.3982
G1 X150.503 Y113.408 E33.45401
G1 X149.291 Y113.747 E33.51261
G1 X147.977 Y113.99 E33.57484
G1 X146.546 Y114.137 E33.64182
G1 X144.993 Y114.188 E33.71417
G0 F6000 X145.006 Y114.588
;TYPE:WALL-OUTER
G1 F1200 X81.019 Y114.588 E36.69368
G1 X79.439 Y114.536 E36.76729
G1 X77.985 Y114.385 E36.83536
G1 X76.641 Y114.136 E36.899
G1 X75.383 Y113.784 E36.95983
G1 X74.251 Y113.341 E37.01643
G1 X73.193 Y112.788 E37.07202
G1 X72.247 Y112.141 E37.12539
G1 X71.404 Y111.396 E37.17778
G1 X70.659 Y110.553 E37.23016
G1 X70.012 Y109.607 E37.28353
G1 X69.46 Y108.55 E37.33905
G1 X69.017 Y107.418 E37.39566
G1 X68.664 Y106.159 E37.45654
G1 X68.412 Y104.799 E37.52095
G1 X68.263 Y103.337 E37.58938
G1 X68.212 Y101.788 E37.66154
G1 X68.212 Y72.294 E39.03491
G1 X68.263 Y70.728 E39.10787
G1 X68.412 Y69.277 E39.17579
G1 X68.664 Y67.917 E39.24019
G1 X69.018 Y66.655 E39.30122
G1 X69.459 Y65.527 E39.35762
G1 X70.018 Y64.459 E39.41375
G1 X70.665 Y63.516 E39.467
G1 X71.404 Y62.68 E39.51896
G1 X72.247 Y61.935 E39.57134
G1 X73.193 Y61.288 E39.62471
G1 X74.241 Y60.74 E39.67978
G1 X75.397 Y60.289 E39.73756
G1 X76.641 Y59.94 E39.79772
G1 X77.995 Y59.689 E39.86184
G1 X79.452 Y59.539 E39.93005
G1 X81.018 Y59.488 E40.003
G1 X145.018 Y59.488 E42.98311
G1 X146.585 Y59.54 E43.05612
G1 X148.028 Y59.689 E43.12367
G1 X149.383 Y59.94 E43.18784
G1 X150.642 Y60.293 E43.24872
G1 X151.773 Y60.735 E43.30526
G1 X152.831 Y61.288 E43.36085
G1 X153.784 Y61.941 E43.41465
G1 X154.62 Y62.68 E43.4666
G1 X155.365 Y63.523 E43.51899
G1 X156.012 Y64.469 E43.57235
G1 X156.564 Y65.526 E43.62788
G1 X157.007 Y66.655 E43.68435
G1 X157.36 Y67.917 E43.74537
G1 X157.612 Y69.277 E43.80978
G1 X157.761 Y70.728 E43.8777
G1 X157.812 Y72.288 E43.95038
G1 X157.812 Y101.782 E45.32374
G1 X157.761 Y103.348 E45.3967
G1 X157.612 Y104.799 E45.46462
G1 X157.36 Y106.159 E45.52902
G1 X157.008 Y107.418 E45.5899
G1 X156.565 Y108.549 E45.64646
G1 X156.012 Y109.607 E45.70205
G1 X155.365 Y110.553 E45.75541
G1 X154.62 Y111.396 E45.8078
G1 X153.777 Y112.141 E45.86018
G1 X152.831 Y112.788 E45.91355
G1 X151.783 Y113.336 E45.96862
G1 X150.628 Y113.788 E46.02637
G1 X149.383 Y114.136 E46.08657
G1 X148.029 Y114.387 E46.15069
G1 X146.572 Y114.537 E46.21889
G1 X145.006 Y114.588 E46.29185
G0 F6000 X144.999 Y114.149
G0 X144.98 Y113.798
;TYPE:SKIN
G1 F1200 X81.045 Y113.798 E49.26893
G1 X79.49 Y113.746 E49.34138
G1 X78.097 Y113.602 E49.40659
G1 X76.82 Y113.366 E49.46706
G1 X75.626 Y113.032 E49.52479
G1 X74.575 Y112.62 E49.57735
G1 X73.606 Y112.113 E49.62828
G1 X72.737 Y111.519 E49.67729
G1 X71.964 Y110.836 E49.72532
G1 X71.281 Y110.063 E49.77336
G1 X70.691 Y109.2 E49.82203
