;FLAVOR:Marlin
;TIME:12470
;Filament used: 10.354m
;Layer height: 0.24
;MINX:69.837
;MINY:80.36
;MINZ:0.28
;MAXX:165.163
;MAXY:154.64
;MAXZ:23.32
;Generated with Cura_SteamEngine 4.6.1
M140 S50
M105
M190 S50
M104 S200
M105
M109 S200
M82 ;absolute extrusion mode
; Ender 3 Custom Start G-code
G92 E0 ; Reset Extruder
G28 ; Home all axes
G1 Z2.0 F3000 ; Move Z Axis up little to prevent scratching of Heat Bed
G1 X0.1 Y20 Z0.3 F5000.0 ; Move to start position
G1 X0.1 Y200.0 Z0.3 F1500.0 E15 ; Draw the first line
G1 X0.4 Y200.0 Z0.3 F5000.0 ; Move to side a little
G1 X0.4 Y20 Z0.3 F1500.0 E30 ; Draw the second line
G92 E0 ; Reset Extruder
G1 Z2.0 F3000 ; Move Z Axis up little to prevent scratching of Heat Bed
G1 X5 Y20 Z0.3 F5000.0 ; Move over to prevent blob squish
G92 E0
G92 E0
G1 F2700 E-5
;LAYER_COUNT:97
;LAYER:0
M107
;MESH:Freak_Insert_Cigar_Case_lid_v1.stl
G0 F6000 X149.638 Y144.546 Z0.28
;TYPE:WALL-INNER
G1 F2700 E0
G1 F1200 X85.362 Y144.545 E2.99296
G1 X84.177 Y144.484 E3.04821
G1 X83.103 Y144.314 E3.09884
G1 X82.072 Y144.038 E3.14854
G1 X81.059 Y143.647 E3.1991
G1 X80.103 Y143.161 E3.24904
G1 X79.186 Y142.565 E3.29997
G1 X78.358 Y141.895 E3.34956
G1 X77.591 Y141.127 E3.4001
G1 X76.915 Y140.292 E3.45013
G1 X76.326 Y139.386 E3.50045
G1 X75.837 Y138.428 E3.55053
G1 X75.45 Y137.418 E3.6009
G1 X75.175 Y136.387 E3.65058
G1 X75.003 Y135.309 E3.70141
G1 X74.942 Y134.125 E3.75662
G1 X74.941 Y124.385 E4.21015
G1 X74.941 Y124.186 E4.21942
G1 X75.14 Y124.186 E4.22542
G1 X160.058 Y124.186 E8.17955
G1 X160.058 Y126.071 E8.26733
G1 X160.059 Y134.126 E8.6424
G1 X159.997 Y135.315 E8.69784
G1 X159.828 Y136.376 E8.74787
G1 X159.552 Y137.413 E8.79784
G1 X159.162 Y138.433 E8.84869
G1 X158.672 Y139.39 E8.89875
G1 X158.538 Y139.594 E8.91011
G1 X158.084 Y140.295 E8.949
G1 X157.405 Y141.132 E8.99919
G1 X156.65 Y141.887 E9.04891
G1 X155.813 Y142.568 E9.09915
G1 X154.897 Y143.162 E9.14999
G1 X153.946 Y143.647 E9.1997
G1 X153.712 Y143.735 E9.21134
G1 X152.933 Y144.038 E9.25026
G1 X151.895 Y144.316 E9.3003
G1 X151.648 Y144.353 E9.31193
G1 X150.837 Y144.483 E9.35017
G1 X149.638 Y144.546 E9.40608
G0 F6000 X149.64 Y144.946
;TYPE:WALL-OUTER
G1 F1200 X85.36 Y144.945 E12.39922
G1 X84.133 Y144.882 E12.45643
G1 X83.02 Y144.706 E12.5089
G1 X81.947 Y144.418 E12.56064
G1 X80.892 Y144.011 E12.61329
G1 X79.901 Y143.507 E12.66506
G1 X78.952 Y142.891 E12.71774
G1 X78.09 Y142.193 E12.76939
G1 X77.293 Y141.395 E12.82191
G1 X76.594 Y140.532 E12.87362
G1 X75.979 Y139.585 E12.9262
G1 X75.473 Y138.594 E12.97801
G1 X75.069 Y137.541 E13.03053
G1 X74.782 Y136.466 E13.08234
G1 X74.605 Y135.355 E13.13472
G1 X74.542 Y134.125 E13.19207
G1 X74.541 Y123.786 E13.6735
G1 X160.458 Y123.786 E17.67415
G1 X160.458 Y126.071 E17.78055
G1 X160.459 Y134.126 E18.15563
G1 X160.395 Y135.361 E18.21321
G1 X160.219 Y136.464 E18.26522
G1 X159.934 Y137.536 E18.31687
G1 X159.53 Y138.591 E18.36948
G1 X159.02 Y139.588 E18.42162
G1 X158.873 Y139.812 E18.4341
G1 X158.407 Y140.533 E18.47407
G1 X157.707 Y141.396 E18.52582
G1 X157.514 Y141.587 E18.53846
G1 X156.911 Y142.192 E18.57823
G1 X156.703 Y142.358 E18.59063
G1 X156.046 Y142.894 E18.63011
G1 X155.103 Y143.506 E18.68245
G1 X154.106 Y144.014 E18.73456
G1 X153.855 Y144.109 E18.74705
G1 X153.061 Y144.417 E18.78671
G1 X151.979 Y144.707 E18.83887
G1 X151.71 Y144.748 E18.85154
G1 X150.875 Y144.882 E18.89092
G1 X150.58 Y144.896 E18.90467
G1 X149.64 Y144.946 E18.9485
G0 F6000 X149.629 Y144.507
G0 X149.618 Y144.156
;TYPE:SKIN
G1 F1200 X85.382 Y144.155 E21.9396
G1 X84.22 Y144.096 E21.99378
G1 X83.18 Y143.931 E22.04281
G1 X82.191 Y143.666 E22.09049
G1 X81.213 Y143.289 E22.13929
G1 X80.304 Y142.826 E22.1868
G1 X79.409 Y142.244 E22.23651
G1 X78.619 Y141.605 E22.28382
G1 X77.886 Y140.871 E22.33212
G1 X77.231 Y140.062 E22.38059
G1 X76.659 Y139.182 E22.42946
G1 X76.195 Y138.274 E22.47694
G1 X75.821 Y137.297 E22.52566
G1 X75.557 Y136.305 E22.57346
G1 X75.391 Y135.262 E22.62263
G1 X75.332 Y134.105 E22.67658
G1 X75.331 Y124.576 E23.12029
G1 X159.668 Y124.576 E27.04737
G1 X159.668 Y126.071 E27.11699
G1 X159.669 Y134.106 E27.49113
G1 X159.609 Y135.271 E27.54545
G1 X159.446 Y136.295 E27.59373
G1 X159.182 Y137.286 E27.64149
G1 X158.803 Y138.278 E27.69093
G1 X158.334 Y139.194 E27.73885
G1 X158.211 Y139.381 E27.74927
G1 X157.771 Y140.061 E27.78699
G1 X157.106 Y140.881 E27.83615
G1 X156.394 Y141.593 E27.88304
G1 X155.585 Y142.251 E27.93159
G1 X154.701 Y142.825 E27.98067
G1 X153.791 Y143.289 E28.02824
G1 X153.573 Y143.37 E28.03906
G1 X152.815 Y143.666 E28.07696
G1 X151.815 Y143.933 E28.12515
G1 X151.588 Y143.967 E28.13584
G1 X150.801 Y144.094 E28.17296
G1 X149.618 Y144.156 E28.22812
G0 F6000 X149.617 Y144.435
G0 X151.862 Y144.148
G0 X152.878 Y143.876
G0 X153.885 Y143.487
G0 X154.811 Y143.014
G0 X155.707 Y142.434
G0 X156.543 Y141.753
G0 X157.275 Y141.021
G0 X157.946 Y140.194
G0 X158.524 Y139.304
G0 X159.007 Y138.36
G0 X159.389 Y137.362
G0 X159.662 Y136.336
G0 X159.826 Y135.302
G0 X159.843 Y134.966
G0 X159.948 Y125
G0 X159.507 Y125
G1 F1200 X159.242 Y124.735 E28.24557
G0 F6000 X158.676 Y124.735
G1 F1200 X159.507 Y125.565 E28.30026
G0 F6000 X159.507 Y126.132
G1 F1200 X158.111 Y124.735 E28.39222
G0 F6000 X157.545 Y124.735
G1 F1200 X159.507 Y126.697 E28.52142
G0 F6000 X159.507 Y127.263
G1 F1200 X156.979 Y124.735 E28.6879
G0 F6000 X156.414 Y124.735
G1 F1200 X159.507 Y127.829 E28.89161
G0 F6000 X159.507 Y128.395
G1 F1200 X155.848 Y124.735 E29.13259
G0 F6000 X155.282 Y124.735
G1 F1200 X159.507 Y128.96 E29.41082
G0 F6000 X159.507 Y129.526
G1 F1200 X154.717 Y124.735 E29.72628
G0 F6000 X154.151 Y124.735
G1 F1200 X159.507 Y130.092 E30.07901
G0 F6000 X159.507 Y130.657
G1 F1200 X153.585 Y124.735 E30.46899
G0 F6000 X153.02 Y124.735
G1 F1200 X159.507 Y131.223 E30.8962
G0 F6000 X159.507 Y131.789
G1 F1200 X152.454 Y124.735 E31.36069
G0 F6000 X151.888 Y124.735
G1 F1200 X159.507 Y132.354 E31.86241
G0 F6000 X159.507 Y132.92
G1 F1200 X151.322 Y124.735 E32.40141
G0 F6000 X150.757 Y124.735
G1 F1200 X159.507 Y133.486 E32.97764
G0 F6000 X159.507 Y134.051
G1 F1200 X150.191 Y124.735 E33.59112
G0 F6000 X149.625 Y124.735
G1 F1200 X159.482 Y134.592 E34.24022
G0 F6000 X159.455 Y135.13
G1 F1200 X149.06 Y124.735 E34.92475
G0 F6000 X148.494 Y124.735
G1 F1200 X159.389 Y135.63 E35.6422
G0 F6000 X159.311 Y136.118
G1 F1200 X147.928 Y124.735 E36.39179
G0 F6000 X147.363 Y124.735
G1 F1200 X159.205 Y136.577 E37.17161
G0 F6000 X159.086 Y137.024
G1 F1200 X146.797 Y124.735 E37.98086
G0 F6000 X146.231 Y124.735
G1 F1200 X158.947 Y137.451 E38.81823
G0 F6000 X158.791 Y137.861
G1 F1200 X145.666 Y124.735 E39.68256
G0 F6000 X145.1 Y124.735
G1 F1200 X158.63 Y138.265 E40.57354
G0 F6000 X158.438 Y138.639
G1 F1200 X144.534 Y124.735 E41.48914
G0 F6000 X143.969 Y124.735
G1 F1200 X158.246 Y139.013 E42.42934
G0 F6000 X158.031 Y139.363
G1 F1200 X143.403 Y124.735 E43.39262
G0 F6000 X142.837 Y124.735
G1 F1200 X157.808 Y139.706 E44.37848
G0 F6000 X157.579 Y140.043
G1 F1200 X142.272 Y124.735 E45.38651
G0 F6000 X141.706 Y124.735
G1 F1200 X157.326 Y140.355 E46.41511
G0 F6000 X157.073 Y140.668
G1 F1200 X141.14 Y124.735 E47.46433
G0 F6000 X140.574 Y124.735
G1 F1200 X156.8 Y140.961 E48.53284
G0 F6000 X156.517 Y141.243
G1 F1200 X140.009 Y124.735 E49.61992
G0 F6000 X139.443 Y124.735
G1 F1200 X156.228 Y141.521 E50.72527
G0 F6000 X155.916 Y141.774
G1 F1200 X138.877 Y124.735 E51.84732
G0 F6000 X138.312 Y124.735
G1 F1200 X155.604 Y142.028 E52.98606
G0 F6000 X155.272 Y142.262
G1 F1200 X137.746 Y124.735 E54.14021
G0 F6000 X137.18 Y124.735
G1 F1200 X154.929 Y142.484 E55.30901
G0 F6000 X154.584 Y142.704
G1 F1200 X136.615 Y124.735 E56.4923
G0 F6000 X136.049 Y124.735
G1 F1200 X154.21 Y142.896 E57.68823
G0 F6000 X153.835 Y143.087
G1 F1200 X135.483 Y124.735 E58.89674
G0 F6000 X134.918 Y124.735
G1 F1200 X153.434 Y143.252 E60.11609
G0 F6000 X153.027 Y143.41
G1 F1200 X134.352 Y124.735 E61.34587
G0 F6000 X133.786 Y124.735
G1 F1200 X152.606 Y143.555 E62.5852
G0 F6000 X152.16 Y143.674
G1 F1200 X133.221 Y124.735 E63.83236
G0 F6000 X132.655 Y124.735
G1 F1200 X151.706 Y143.786 E65.0869
G0 F6000 X151.218 Y143.864
G1 F1200 X132.089 Y124.735 E66.34658
G0 F6000 X131.523 Y124.735
G1 F1200 X150.725 Y143.937 E67.61106
G0 F6000 X150.188 Y143.965
G1 F1200 X130.958 Y124.735 E68.87739
G0 F6000 X130.392 Y124.735
G1 F1200 X149.65 Y143.993 E70.14556
G0 F6000 X149.087 Y143.995
G1 F1200 X129.826 Y124.735 E71.4139
G0 F6000 X129.261 Y124.735
G1 F1200 X148.521 Y143.995 E72.6822
G0 F6000 X147.955 Y143.995
G1 F1200 X128.695 Y124.735 E73.95051
G0 F6000 X128.129 Y124.735
G1 F1200 X147.39 Y143.995 E75.21885
G0 F6000 X146.824 Y143.995
G1 F1200 X127.564 Y124.735 E76.48715
G0 F6000 X126.998 Y124.735
G1 F1200 X146.258 Y143.995 E77.75545
G0 F6000 X145.692 Y143.995
G1 F1200 X126.432 Y124.735 E79.02376
G0 F6000 X125.867 Y124.735
G1 F1200 X145.127 Y143.995 E80.29206
G0 F6000 X144.561 Y143.995
G1 F1200 X125.301 Y124.735 E81.56036
G0 F6000 X124.735 Y124.735
G1 F1200 X143.995 Y143.995 E82.82867
G0 F6000 X143.43 Y143.995
G1 F1200 X124.17 Y124.735 E84.09697
G0 F6000 X123.604 Y124.735
G1 F1200 X142.864 Y143.995 E85.36528
G0 F6000 X142.298 Y143.995
G1 F1200 X123.038 Y124.735 E86.63358
G0 F6000 X122.473 Y124.735
G1 F1200 X141.733 Y143.995 E87.90188
G0 F6000 X141.167 Y143.995
G1 F1200 X121.907 Y124.735 E89.17019
G0 F6000 X121.341 Y124.735
G1 F1200 X140.601 Y143.995 E90.43849
G0 F6000 X140.036 Y143.995
G1 F1200 X120.775 Y124.735 E91.70683
G0 F6000 X120.21 Y124.735
G1 F1200 X139.47 Y143.995 E92.97513
G0 F6000 X138.904 Y143.995
G1 F1200 X119.644 Y124.735 E94.24344
G0 F6000 X119.078 Y124.735
G1 F1200 X138.339 Y143.995 E95.51177
G0 F6000 X137.773 Y143.995
G1 F1200 X118.513 Y124.735 E96.78008
G0 F6000 X117.947 Y124.735
G1 F1200 X137.207 Y143.995 E98.04838
G0 F6000 X136.642 Y143.995
G1 F1200 X117.381 Y124.735 E99.31672
G0 F6000 X116.816 Y124.735
G1 F1200 X136.076 Y143.995 E100.58502
G0 F6000 X135.51 Y143.995
G1 F1200 X116.25 Y124.735 E101.85333
G0 F6000 X115.684 Y124.735
G1 F1200 X134.944 Y143.995 E103.12163
G0 F6000 X134.379 Y143.995
G1 F1200 X115.119 Y124.735 E104.38993
G0 F6000 X114.553 Y124.735
G1 F1200 X133.813 Y143.995 E105.65824
G0 F6000 X133.247 Y143.995
G1 F1200 X113.987 Y124.735 E106.92654
G0 F6000 X113.422 Y124.735
G1 F1200 X132.682 Y143.995 E108.19485
G0 F6000 X132.116 Y143.995
G1 F1200 X112.856 Y124.735 E109.46315
G0 F6000 X112.29 Y124.735
G1 F1200 X131.55 Y143.995 E110.73145
G0 F6000 X130.985 Y143.995
G1 F1200 X111.724 Y124.735 E111.99979
G0 F6000 X111.159 Y124.735
G1 F1200 X130.419 Y143.995 E113.26809
G0 F6000 X129.853 Y143.995
G1 F1200 X110.593 Y124.735 E114.5364
G0 F6000 X110.027 Y124.735
G1 F1200 X129.288 Y143.995 E115.80473
G0 F6000 X128.722 Y143.995
G1 F1200 X109.462 Y124.735 E117.07304
G0 F6000 X108.896 Y124.735
G1 F1200 X128.156 Y143.995 E118.34134
G0 F6000 X127.59 Y143.995
G1 F1200 X108.33 Y124.735 E119.60965
G0 F6000 X107.765 Y124.735
G1 F1200 X127.024 Y143.995 E120.87792
G0 F6000 X126.458 Y143.995
G1 F1200 X107.199 Y124.735 E122.14619
G0 F6000 X106.633 Y124.735
G1 F1200 X125.893 Y143.995 E123.41449
G0 F6000 X125.327 Y143.995
G1 F1200 X106.068 Y124.735 E124.68276
G0 F6000 X105.502 Y124.735
G1 F1200 X124.761 Y143.995 E125.95103
G0 F6000 X124.196 Y143.995
G1 F1200 X104.936 Y124.735 E127.21934
G0 F6000 X104.371 Y124.735
G1 F1200 X123.63 Y143.995 E128.48761
G0 F6000 X123.064 Y143.995
G1 F1200 X103.805 Y124.735 E129.75588
G0 F6000 X103.239 Y124.735
G1 F1200 X122.499 Y143.995 E131.02418
G0 F6000 X121.933 Y143.995
G1 F1200 X102.674 Y124.735 E132.29245
G0 F6000 X102.108 Y124.735
G1 F1200 X121.367 Y143.995 E133.56073
G0 F6000 X120.802 Y143.995
G1 F1200 X101.542 Y124.735 E134.82903
G0 F6000 X100.976 Y124.735
G1 F1200 X120.236 Y143.995 E136.09733
G0 F6000 X119.67 Y143.995
G1 F1200 X100.411 Y124.735 E137.3656
G0 F6000 X99.845 Y124.735
G1 F1200 X119.105 Y143.995 E138.63391
G0 F6000 X118.539 Y143.995
G1 F1200 X99.279 Y124.735 E139.90221
G0 F6000 X98.714 Y124.735
G1 F1200 X117.973 Y143.995 E141.17048
G0 F6000 X117.408 Y143.995
G1 F1200 X98.148 Y124.735 E142.43879
G0 F6000 X97.582 Y124.735
G1 F1200 X116.842 Y143.995 E143.70709
G0 F6000 X116.276 Y143.995
G1 F1200 X97.017 Y124.735 E144.97536
G0 F6000 X96.451 Y124.735
G1 F1200 X115.71 Y143.995 E146.24363
G0 F6000 X115.145 Y143.995
G1 F1200 X95.885 Y124.735 E147.51194
G0 F6000 X95.32 Y124.735
G1 F1200 X114.579 Y143.995 E148.78021
G0 F6000 X114.013 Y143.995
G1 F1200 X94.754 Y124.735 E150.04848
G0 F6000 X94.188 Y124.735
G1 F1200 X113.448 Y143.995 E151.31678
G0 F6000 X112.882 Y143.995
G1 F1200 X93.623 Y124.735 E152.58505
G0 F6000 X93.057 Y124.735
G1 F1200 X112.316 Y143.995 E153.85332
G0 F6000 X111.751 Y143.995
G1 F1200 X92.491 Y124.735 E155.12163
G0 F6000 X91.926 Y124.735
G1 F1200 X111.185 Y143.995 E156.3899
G0 F6000 X110.619 Y143.995
G1 F1200 X91.36 Y124.735 E157.65817
G0 F6000 X90.794 Y124.735
G1 F1200 X110.054 Y143.995 E158.92647
G0 F6000 X109.488 Y143.995
G1 F1200 X90.228 Y124.735 E160.19478
G0 F6000 X89.663 Y124.735
G1 F1200 X108.922 Y143.995 E161.46305
G0 F6000 X108.357 Y143.995
G1 F1200 X89.097 Y124.735 E162.73135
G0 F6000 X88.531 Y124.735
G1 F1200 X107.791 Y143.995 E163.99966
G0 F6000 X107.225 Y143.995
G1 F1200 X87.966 Y124.735 E165.26793
G0 F6000 X87.4 Y124.735
G1 F1200 X106.659 Y143.994 E166.53617
G0 F6000 X106.093 Y143.994
G1 F1200 X86.834 Y124.735 E167.8044
G0 F6000 X86.269 Y124.735
G1 F1200 X105.527 Y143.994 E169.07261
G0 F6000 X104.962 Y143.994
G1 F1200 X85.703 Y124.735 E170.34085
G0 F6000 X85.137 Y124.735
G1 F1200 X104.396 Y143.994 E171.60908
G0 F6000 X103.83 Y143.994
G1 F1200 X84.572 Y124.735 E172.87729
G0 F6000 X84.006 Y124.735
G1 F1200 X103.265 Y143.994 E174.14553
G0 F6000 X102.699 Y143.994
G1 F1200 X83.44 Y124.735 E175.41377
G0 F6000 X82.875 Y124.735
G1 F1200 X102.133 Y143.994 E176.68197
G0 F6000 X101.568 Y143.994
G1 F1200 X82.309 Y124.735 E177.95021
G0 F6000 X81.743 Y124.735
G1 F1200 X101.002 Y143.994 E179.21845
G0 F6000 X100.436 Y143.994
G1 F1200 X81.177 Y124.735 E180.48669
G0 F6000 X80.612 Y124.735
G1 F1200 X99.871 Y143.994 E181.75492
G0 F6000 X99.305 Y143.994
G1 F1200 X80.046 Y124.735 E183.02316
G0 F6000 X79.48 Y124.735
G1 F1200 X98.739 Y143.994 E184.2914
G0 F6000 X98.173 Y143.994
G1 F1200 X78.915 Y124.735 E185.5596
G0 F6000 X78.349 Y124.735
G1 F1200 X97.608 Y143.994 E186.82784
G0 F6000 X97.042 Y143.994
G1 F1200 X77.783 Y124.735 E188.09608
G0 F6000 X77.218 Y124.735
G1 F1200 X96.476 Y143.994 E189.36429
G0 F6000 X95.911 Y143.994
G1 F1200 X76.652 Y124.735 E190.63252
G0 F6000 X76.086 Y124.735
G1 F1200 X95.345 Y143.994 E191.90076
G0 F6000 X94.779 Y143.994
G1 F1200 X75.521 Y124.735 E193.16897
G0 F6000 X75.49 Y125.271
G1 F1200 X94.214 Y143.994 E194.40194
G0 F6000 X93.648 Y143.994
G1 F1200 X75.49 Y125.836 E195.59768
G0 F6000 X75.49 Y126.402
G1 F1200 X93.082 Y143.994 E196.75614
G0 F6000 X92.517 Y143.994
G1 F1200 X75.49 Y126.968 E197.87736
G0 F6000 X75.49 Y127.533
G1 F1200 X91.951 Y143.994 E198.96135
G0 F6000 X91.385 Y143.994
G1 F1200 X75.49 Y128.099 E200.00806
G0 F6000 X75.49 Y128.665
G1 F1200 X90.82 Y143.994 E201.01754
G0 F6000 X90.254 Y143.994
G1 F1200 X75.49 Y129.23 E201.98977
G0 F6000 X75.491 Y129.797
G1 F1200 X89.688 Y143.994 E202.92467
G0 F6000 X89.123 Y143.994
G1 F1200 X75.491 Y130.362 E203.82236
G0 F6000 X75.491 Y130.928
G1 F1200 X88.557 Y143.994 E204.68278
G0 F6000 X87.991 Y143.994
G1 F1200 X75.491 Y131.494 E205.50592
G0 F6000 X75.491 Y132.059
G1 F1200 X87.425 Y143.994 E206.29183
G0 F6000 X86.86 Y143.994
G1 F1200 X75.491 Y132.625 E207.0405
G0 F6000 X75.491 Y133.191
G1 F1200 X86.294 Y143.994 E207.75189
G0 F6000 X85.728 Y143.994
G1 F1200 X75.491 Y133.757 E208.42602
G0 F6000 X75.503 Y134.334
G1 F1200 X85.15 Y143.981 E209.06129
G0 F6000 X84.555 Y143.952
G1 F1200 X75.533 Y134.93 E209.6554
G0 F6000 X75.6 Y135.562
G1 F1200 X83.923 Y143.886 E210.20352
G0 F6000 X83.25 Y143.778
G1 F1200 X75.708 Y136.236 E210.70017
G0 F6000 X75.907 Y137.001
G1 F1200 X82.484 Y143.578 E211.13328
G0 F6000 X81.609 Y143.269
G1 F1200 X76.214 Y137.873 E211.48858
G0 F6000 X75.802 Y138.029
G0 X76.324 Y139.14
G0 X76.716 Y138.941
G1 F1200 X80.542 Y142.767 E211.74053
G0 F6000 X80.382 Y143.079
G1 F2700 E206.74053
G0 F6000 X80.34 Y143.158
