;FLAVOR:Marlin
;TIME:6798
;Filament used: 4.06497m
;Layer height: 0.2
;MINX:84.001
;MINY:60.286
;MINZ:0.2
;MAXX:150.991
;MAXY:174.706
;MAXZ:28.2
;Generated with Cura_SteamEngine 4.6.1
M140 S55
M105
M190 S55
M104 S210
M105
M109 S210
M82 ;absolute extrusion mode
; Ender 3 Custom Start G-code
G92 E0 ; Reset Extruder
G28 ; Home all axes
G1 Z2.0 F3000 ; Move Z Axis up little to prevent scratching of Heat Bed
G1 X0.1 Y20 Z0.3 F5000.0 ; Move to start position
G1 X0.1 Y200.0 Z0.3 F1500.0 E15 ; Draw the first line
G1 X0.4 Y200.0 Z0.3 F5000.0 ; Move to side a little
G1 X0.4 Y20 Z0.3 F1500.0 E30 ; Draw the second line
G92 E0 ; Reset Extruder
G1 Z2.0 F3000 ; Move Z Axis up little to prevent scratching of Heat Bed
G1 X5 Y20 Z0.3 F5000.0 ; Move over to prevent blob squish
G92 E0
G92 E0
G1 F2700 E-5
;LAYER_COUNT:141
;LAYER:0
M107
G0 F6000 X103.974 Y61.433 Z0.2
;TYPE:SKIRT
G1 F2700 E0
G1 F1200 X106.516 Y61.632 E0.08481
G1 X109.012 Y61.757 E0.16793
G1 X111.575 Y61.811 E0.25319
G1 X114.113 Y61.794 E0.33761
G1 X116.63 Y61.706 E0.42137
G1 X119.435 Y61.513 E0.51489
G1 X120.051 Y61.477 E0.53541
G1 X120.954 Y61.465 E0.56545
G1 X121.855 Y61.532 E0.5955
G1 X122.746 Y61.678 E0.62553
G1 X123.62 Y61.903 E0.65555
G1 X124.472 Y62.205 E0.68561
G1 X125.293 Y62.58 E0.71563
G1 X126.078 Y63.027 E0.74568
G1 X126.82 Y63.541 E0.7757
G1 X127.514 Y64.119 E0.80574
G1 X128.154 Y64.756 E0.83577
G1 X128.556 Y65.22 E0.85619
G1 X128.775 Y65.489 E0.86773
G1 X129.22 Y66.077 E0.89226
G1 X133.536 Y72.239 E1.14248
G1 X135.052 Y74.341 E1.22868
G1 X136.578 Y76.335 E1.31219
G1 X138.224 Y78.363 E1.39906
G1 X139.149 Y79.452 E1.44658
G1 X140.32 Y80.81 E1.50623
G1 X140.757 Y81.331 E1.52884
G1 X141.306 Y82.048 E1.55888
G1 X141.855 Y82.927 E1.59335
G1 X142.323 Y83.772 E1.62547
G1 X144.129 Y87.197 E1.75426
G1 X144.447 Y87.822 E1.77758
G1 X144.753 Y88.481 E1.80175
G1 X145.032 Y89.148 E1.82579
G1 X146.734 Y93.442 E1.97942
G1 X146.971 Y94.068 E2.00169
G1 X147.3 Y95.097 E2.03762
G1 X147.491 Y95.835 E2.06297
G1 X148.652 Y100.636 E2.22726
G1 X148.784 Y101.213 E2.24694
G1 X148.91 Y101.858 E2.2688
G1 X149.124 Y103.189 E2.31364
G1 X149.856 Y108.257 E2.48395
G1 X149.938 Y108.888 E2.50512
G1 X150.014 Y109.779 E2.53486
G1 X150.058 Y110.873 E2.57127
G1 X150.181 Y116.073 E2.74427
G1 X150.191 Y117.065 E2.77727
G1 X150.189 Y117.399 E2.78838
G1 X150.048 Y123.574 E2.99381
G1 X150.026 Y124.182 E3.01405
G1 X149.954 Y125.08 E3.04401
G1 X149.819 Y126.143 E3.07965
G1 X149.058 Y131.399 E3.25629
G1 X148.965 Y131.981 E3.27589
G1 X148.849 Y132.588 E3.29645
G1 X148.547 Y133.939 E3.34249
G1 X147.493 Y138.287 E3.49129
G1 X147.309 Y139 E3.51579
G1 X146.965 Y140.082 E3.55355
G1 X146.651 Y140.903 E3.58278
G1 X145.044 Y144.956 E3.7278
G1 X144.783 Y145.587 E3.75051
G1 X144.452 Y146.305 E3.77681
G1 X144.079 Y147.037 E3.80413
G1 X142.271 Y150.46 E3.93288
G1 X141.919 Y151.106 E3.95735
G1 X141.452 Y151.88 E3.98742
G1 X140.96 Y152.557 E4.01526
G1 X140.384 Y153.282 E4.04605
G1 X139.652 Y154.181 E4.08461
G1 X138.073 Y156.236 E4.17081
G1 X136.612 Y158.252 E4.25362
G1 X135.17 Y160.368 E4.33878
G1 X134.333 Y161.656 E4.38987
G1 X129.838 Y168.708 E4.66802
G1 X129.439 Y169.315 E4.69218
G1 X128.91 Y170.047 E4.72222
G1 X128.319 Y170.729 E4.75223
G1 X127.669 Y171.356 E4.78227
G1 X126.966 Y171.924 E4.81233
G1 X126.216 Y172.427 E4.84237
G1 X125.425 Y172.861 E4.87238
G1 X124.598 Y173.224 E4.90242
G1 X123.742 Y173.513 E4.93247
G1 X122.864 Y173.724 E4.9625
G1 X121.971 Y173.857 E4.99253
G1 X121.069 Y173.911 E5.02258
G1 X119.807 Y173.852 E5.0646
G1 X119.111 Y173.776 E5.08789
G1 X116.457 Y173.511 E5.1766
G1 X113.969 Y173.334 E5.25956
G1 X111.404 Y173.224 E5.34495
G1 X108.869 Y173.187 E5.42928
G1 X106.336 Y173.222 E5.51353
G1 X103.795 Y173.329 E5.59812
G1 X101.16 Y173.514 E5.68598
G1 X100.258 Y173.537 E5.71599
G1 X99.356 Y173.481 E5.74604
G1 X98.464 Y173.344 E5.77606
G1 X97.586 Y173.13 E5.80612
G1 X96.731 Y172.839 E5.83616
G1 X95.64 Y172.336 E5.87612
G1 X95.318 Y172.164 E5.88826
G1 X94.644 Y171.77 E5.91422
G1 X89.64 Y168.578 E6.11164
G1 X89.304 Y168.351 E6.12512
G1 X88.579 Y167.813 E6.15515
G1 X87.904 Y167.212 E6.18521
G1 X87.285 Y166.555 E6.21523
G1 X86.726 Y165.845 E6.24529
G1 X86.233 Y165.089 E6.27531
G1 X85.808 Y164.292 E6.30535
G1 X85.456 Y163.46 E6.3354
G1 X85.178 Y162.601 E6.36543
G1 X84.978 Y161.72 E6.39547
G1 X84.856 Y160.825 E6.42552
G1 X84.815 Y160.06 E6.451
G1 X84.801 Y159.076 E6.48373
G1 X84.802 Y153.204 E6.67903
G1 X84.812 Y152.507 E6.70222
G1 X84.865 Y151.605 E6.73227
G1 X84.997 Y150.712 E6.76229
G1 X85.208 Y149.834 E6.79233
G1 X85.427 Y149.162 E6.81583
G1 X85.684 Y148.458 E6.84076
G1 X86.577 Y145.928 E6.93
G1 X87.344 Y143.54 E7.01342
G1 X88.057 Y141.085 E7.09845
G1 X88.695 Y138.635 E7.18265
G1 X89.27 Y136.137 E7.26791
G1 X89.759 Y133.69 E7.3509
G1 X90.194 Y131.149 E7.43665
G1 X90.546 Y128.667 E7.52003
G1 X90.837 Y126.108 E7.60569
G1 X91.047 Y123.627 E7.6885
G1 X91.193 Y121.049 E7.77438
G1 X91.264 Y118.524 E7.8584
G1 X91.264 Y115.988 E7.94274
G1 X91.191 Y113.45 E8.02719
G1 X91.045 Y110.873 E8.11304
G1 X90.831 Y108.366 E8.19673
G1 X90.547 Y105.873 E8.28018
G1 X90.185 Y103.33 E8.36562
G1 X89.758 Y100.838 E8.44971
G1 X89.26 Y98.358 E8.53384
G1 X88.692 Y95.892 E8.61801
G1 X88.043 Y93.4 E8.70366
G1 X87.345 Y91.001 E8.78676
G1 X86.553 Y88.539 E8.87278
G1 X85.703 Y86.132 E8.95768
G1 X85.515 Y85.63 E8.97551
G1 X85.398 Y85.3 E8.98715
G1 X85.135 Y84.437 E9.01716
G1 X84.948 Y83.553 E9.04721
G1 X84.817 Y82.22 E9.09176
G1 X84.808 Y81.94 E9.10108
G1 X84.803 Y81.615 E9.11189
G1 X84.802 Y75.45 E9.31694
G1 X84.812 Y74.752 E9.34016
G1 X84.865 Y73.85 E9.37021
G1 X84.997 Y72.957 E9.40023
G1 X85.208 Y72.079 E9.43027
G1 X85.496 Y71.223 E9.4603
G1 X85.858 Y70.396 E9.49033
G1 X86.293 Y69.604 E9.52038
G1 X86.795 Y68.853 E9.55043
G1 X87.362 Y68.15 E9.58047
G1 X87.989 Y67.5 E9.61051
G1 X88.976 Y66.675 E9.65329
G1 X89.658 Y66.178 E9.68136
G1 X94.194 Y63.006 E9.86546
G1 X94.519 Y62.79 E9.87844
G1 X95.293 Y62.324 E9.90848
G1 X96.104 Y61.928 E9.9385
G1 X96.948 Y61.606 E9.96855
G1 X97.817 Y61.359 E9.9986
G1 X98.704 Y61.19 E10.02863
G1 X99.603 Y61.101 E10.05867
G1 X100.506 Y61.091 E10.08871
G1 X101.246 Y61.142 E10.11338
G1 X103.974 Y61.433 E10.20463
G0 F6000 X103.98 Y61.032
G1 F1200 X106.531 Y61.232 E10.28974
G1 X109.04 Y61.357 E10.37329
G1 X111.581 Y61.411 E10.45782
G1 X114.096 Y61.394 E10.54147
G1 X116.617 Y61.306 E10.62537
G1 X119.412 Y61.114 E10.71856
G1 X120.028 Y61.078 E10.73908
G1 X120.948 Y61.064 E10.76968
G1 X121.866 Y61.13 E10.80029
G1 X122.775 Y61.276 E10.83091
G1 X123.668 Y61.5 E10.86154
G1 X124.539 Y61.801 E10.89219
G1 X125.379 Y62.176 E10.92278
G1 X126.185 Y62.622 E10.95342
G1 X126.948 Y63.137 E10.98404
G1 X127.664 Y63.716 E11.01466
G1 X128.327 Y64.355 E11.04529
G1 X128.866 Y64.968 E11.07244
G1 X129.085 Y65.237 E11.08398
G1 X129.547 Y65.848 E11.10945
G1 X133.822 Y71.952 E11.35731
G1 X135.362 Y74.087 E11.44487
G1 X136.908 Y76.107 E11.52947
G1 X138.514 Y78.086 E11.61424
G1 X139.452 Y79.191 E11.66245
G1 X140.626 Y80.553 E11.72226
G1 X141.063 Y81.074 E11.74487
G1 X141.624 Y81.804 E11.7755
G1 X142.205 Y82.732 E11.81191
G1 X142.676 Y83.585 E11.84432
G1 X144.485 Y87.015 E11.9733
G1 X144.803 Y87.64 E11.99662
G1 X145.122 Y88.325 E12.02175
G1 X145.404 Y89.001 E12.04611
G1 X147.108 Y93.301 E12.19995
G1 X147.345 Y93.927 E12.22222
G1 X147.687 Y94.996 E12.25955
G1 X147.88 Y95.74 E12.28511
G1 X149.042 Y100.547 E12.4496
G1 X149.174 Y101.124 E12.46928
G1 X149.305 Y101.794 E12.49199
G1 X149.52 Y103.131 E12.53703
G1 X150.253 Y108.205 E12.70754
G1 X150.335 Y108.836 E12.72871
G1 X150.414 Y109.762 E12.75962
G1 X150.458 Y110.864 E12.7963
G1 X150.581 Y116.069 E12.96947
G1 X150.591 Y117.061 E13.00246
G1 X150.589 Y117.408 E13.01401
G1 X150.448 Y123.588 E13.21961
G1 X150.426 Y124.196 E13.23984
G1 X150.351 Y125.129 E13.27097
G1 X150.215 Y126.2 E13.30688
G1 X149.453 Y131.463 E13.48375
G1 X149.36 Y132.045 E13.50336
G1 X149.24 Y132.675 E13.52469
G1 X148.936 Y134.033 E13.57097
G1 X147.881 Y138.387 E13.71998
G1 X147.697 Y139.1 E13.74447
G1 X147.339 Y140.225 E13.78374
G1 X147.023 Y141.05 E13.81312
G1 X145.413 Y145.109 E13.95836
G1 X145.152 Y145.74 E13.98107
G1 X144.809 Y146.486 E14.00838
G1 X144.433 Y147.224 E14.03592
G1 X142.622 Y150.652 E14.16487
G1 X142.27 Y151.298 E14.18934
G1 X141.795 Y152.086 E14.21994
G1 X141.273 Y152.805 E14.2495
G1 X140.694 Y153.535 E14.28049
G1 X139.95 Y154.449 E14.31968
G1 X138.411 Y156.451 E14.40367
G1 X136.939 Y158.482 E14.4871
G1 X135.489 Y160.61 E14.57275
G1 X134.62 Y161.948 E14.62581
G1 X130.173 Y168.927 E14.90105
G1 X129.774 Y169.534 E14.92521
G1 X129.235 Y170.281 E14.95585
G1 X128.634 Y170.978 E14.98646
G1 X127.974 Y171.62 E15.01708
G1 X127.261 Y172.203 E15.04772
G1 X126.501 Y172.722 E15.07833
G1 X125.698 Y173.172 E15.10894
G1 X124.859 Y173.551 E15.13956
G1 X123.99 Y173.856 E15.17019
G1 X123.098 Y174.085 E15.20082
G1 X122.19 Y174.235 E15.23143
G1 X121.272 Y174.306 E15.26206
G1 X120.351 Y174.297 E15.29269
G1 X119.764 Y174.249 E15.31228
G1 X119.113 Y174.178 E15.33406
G1 X116.426 Y173.91 E15.42387
G1 X113.924 Y173.731 E15.5073
G1 X111.417 Y173.624 E15.59076
G1 X108.868 Y173.587 E15.67555
G1 X106.359 Y173.622 E15.75901
G1 X103.806 Y173.729 E15.844
G1 X101.189 Y173.913 E15.93125
G1 X100.268 Y173.938 E15.9619
G1 X99.349 Y173.882 E15.99252
G1 X98.438 Y173.747 E16.02315
G1 X97.543 Y173.534 E16.05375
G1 X96.669 Y173.243 E16.08439
G1 X95.452 Y172.689 E16.12886
G1 X95.13 Y172.517 E16.141
G1 X94.429 Y172.107 E16.16802
G1 X89.416 Y168.909 E16.36579
G1 X89.08 Y168.682 E16.37927
G1 X88.34 Y168.134 E16.4099
G1 X87.651 Y167.524 E16.44051
G1 X87.017 Y166.856 E16.47114
G1 X86.443 Y166.136 E16.50176
G1 X85.934 Y165.369 E16.53238
G1 X85.494 Y164.561 E16.56298
G1 X85.125 Y163.717 E16.59362
G1 X84.831 Y162.845 E16.62423
G1 X84.614 Y161.95 E16.65486
G1 X84.476 Y161.04 E16.68547
G1 X84.415 Y160.066 E16.71793
G1 X84.401 Y159.076 E16.75086
G1 X84.402 Y153.198 E16.94636
G1 X84.412 Y152.501 E16.96955
G1 X84.465 Y151.582 E17.00016
G1 X84.598 Y150.671 E17.03078
G1 X84.809 Y149.775 E17.0614
G1 X85.051 Y149.025 E17.08761
G1 X85.334 Y148.248 E17.11512
G1 X86.191 Y145.819 E17.20079
G1 X86.965 Y143.411 E17.28491
G1 X87.662 Y141.01 E17.36807
G1 X88.311 Y138.516 E17.45378
G1 X88.876 Y136.066 E17.53741
G1 X89.372 Y133.582 E17.62165
G1 X89.797 Y131.098 E17.70547
G1 X90.152 Y128.603 E17.78929
G1 X90.436 Y126.101 E17.87304
G1 X90.65 Y123.569 E17.95756
G1 X90.793 Y121.051 E18.04144
G1 X90.864 Y118.513 E18.12589
G1 X90.864 Y116 E18.20947
G1 X90.791 Y113.449 E18.29435
G1 X90.649 Y110.946 E18.37774
G1 X90.433 Y108.409 E18.46243
G1 X90.148 Y105.903 E18.54631
G1 X89.793 Y103.417 E18.62984
G1 X89.358 Y100.878 E18.71551
G1 X88.871 Y98.454 E18.79775
G1 X88.303 Y95.986 E18.88198
G1 X87.658 Y93.508 E18.96714
G1 X86.954 Y91.087 E19.051
G1 X86.182 Y88.689 E19.13479
G1 X85.332 Y86.281 E19.21972
G1 X85.138 Y85.764 E19.23809
G1 X85.021 Y85.434 E19.24974
G1 X84.752 Y84.554 E19.28034
G1 X84.559 Y83.654 E19.31096
G1 X84.446 Y82.74 E19.34159
G1 X84.417 Y82.233 E19.35848
G1 X84.408 Y81.953 E19.3678
G1 X84.403 Y81.616 E19.37901
G1 X84.402 Y75.444 E19.58429
G1 X84.412 Y74.746 E19.60751
G1 X84.465 Y73.827 E19.63812
G1 X84.598 Y72.916 E19.66874
G1 X84.809 Y72.02 E19.69936
G1 X85.097 Y71.146 E19.72997
G1 X85.46 Y70.299 E19.76062
G1 X85.895 Y69.488 E19.79123
G1 X86.399 Y68.718 E19.82183
G1 X86.968 Y67.994 E19.85246
G1 X87.598 Y67.322 E19.8831
G1 X88.283 Y66.707 E19.91372
G1 X88.74 Y66.352 E19.93296
G1 X89.428 Y65.85 E19.96129
G1 X93.973 Y62.673 E20.14573
G1 X94.298 Y62.457 E20.15871
G1 X95.086 Y61.981 E20.18933
G1 X95.912 Y61.575 E20.21994
G1 X96.771 Y61.243 E20.25057
G1 X97.655 Y60.986 E20.28119
G1 X98.558 Y60.807 E20.31181
G1 X99.473 Y60.708 E20.34242
G1 X100.394 Y60.687 E20.37306
G1 X101.289 Y60.745 E20.40289
G1 X103.98 Y61.032 E20.4929
G0 F6000 X104.052 Y60.637
G1 F1200 X106.546 Y60.833 E20.57611
G1 X109.035 Y60.957 E20.65899
G1 X111.587 Y61.011 E20.74389
G1 X114.115 Y60.994 E20.82797
G1 X116.577 Y60.908 E20.90991
G1 X119.388 Y60.715 E21.00363
G1 X120.004 Y60.679 E21.02415
G1 X120.942 Y60.664 E21.05535
G1 X121.878 Y60.729 E21.08656
G1 X122.804 Y60.874 E21.11773
G1 X123.715 Y61.097 E21.14893
G1 X124.604 Y61.397 E21.18013
G1 X125.464 Y61.771 E21.21132
G1 X126.289 Y62.217 E21.24252
G1 X127.072 Y62.732 E21.27369
G1 X127.81 Y63.312 E21.30491
G1 X128.495 Y63.953 E21.33611
G1 X129.176 Y64.715 E21.3701
G1 X129.395 Y64.984 E21.38164
G1 X129.875 Y65.618 E21.40809
G1 X134.175 Y71.757 E21.65738
G1 X135.692 Y73.86 E21.74362
G1 X137.217 Y75.852 E21.82706
G1 X138.826 Y77.835 E21.912
G1 X139.814 Y78.999 E21.96278
G1 X140.933 Y80.296 E22.01975
G1 X141.37 Y80.817 E22.04237
G1 X141.941 Y81.561 E22.07356
G1 X142.554 Y82.538 E22.11192
G1 X143.03 Y83.398 E22.14462
G1 X144.842 Y86.834 E22.27382
G1 X145.16 Y87.459 E22.29714
G1 X145.49 Y88.17 E22.32321
G1 X145.776 Y88.853 E22.34784
G1 X147.482 Y93.159 E22.50189
G1 X147.719 Y93.785 E22.52415
G1 X148.074 Y94.895 E22.56291
G1 X148.268 Y95.646 E22.58871
G1 X149.432 Y100.458 E22.75337
G1 X149.564 Y101.035 E22.77306
G1 X149.7 Y101.73 E22.79661
G1 X149.916 Y103.074 E22.84189
G1 X150.649 Y108.153 E23.01257
G1 X150.731 Y108.784 E23.03373
G1 X150.814 Y109.746 E23.06585
G1 X150.858 Y110.854 E23.10273
G1 X150.981 Y116.065 E23.27609
G1 X150.991 Y117.057 E23.30909
G1 X150.989 Y117.418 E23.3211
G1 X150.848 Y123.603 E23.52686
G1 X150.826 Y124.211 E23.5471
G1 X150.748 Y125.179 E23.5794
G1 X150.611 Y126.258 E23.61558
G1 X149.848 Y131.526 E23.79262
G1 X149.755 Y132.108 E23.81222
G1 X149.63 Y132.762 E23.83437
G1 X149.324 Y134.128 E23.88093
G1 X148.268 Y138.487 E24.0301
G1 X148.084 Y139.2 E24.05459
G1 X147.712 Y140.367 E24.09533
G1 X147.395 Y141.197 E24.12488
G1 X145.783 Y145.261 E24.2703
G1 X145.522 Y145.892 E24.29301
G1 X145.165 Y146.667 E24.32139
G1 X144.786 Y147.411 E24.34916
G1 X142.973 Y150.843 E24.47826
G1 X142.621 Y151.489 E24.50273
G1 X142.138 Y152.293 E24.53392
G1 X141.587 Y153.053 E24.56514
G1 X141.004 Y153.787 E24.59632
G1 X140.275 Y154.682 E24.63471
G1 X138.737 Y156.684 E24.71868
G1 X137.261 Y158.721 E24.80235
G1 X135.822 Y160.831 E24.88729
G1 X134.956 Y162.165 E24.94019
G1 X130.507 Y169.147 E25.21555
G1 X130.108 Y169.754 E25.23971
G1 X129.56 Y170.515 E25.2709
G1 X128.949 Y171.227 E25.30211
G1 X128.28 Y171.884 E25.3333
G1 X127.557 Y172.481 E25.36448
G1 X126.786 Y173.015 E25.39567
G1 X125.972 Y173.481 E25.42687
G1 X125.121 Y173.876 E25.45808
G1 X124.24 Y174.198 E25.48927
G1 X123.335 Y174.443 E25.52046
G1 X122.412 Y174.61 E25.55166
G1 X121.478 Y174.698 E25.58286
G1 X120.54 Y174.706 E25.61406
G1 X119.72 Y174.647 E25.6414
G1 X119.045 Y174.573 E25.66399
G1 X116.393 Y174.308 E25.75263
G1 X113.914 Y174.132 E25.83529
G1 X111.392 Y174.024 E25.91925
G1 X108.869 Y173.987 E26.00317
G1 X106.346 Y174.022 E26.0871
G1 X103.851 Y174.127 E26.17015
G1 X101.217 Y174.312 E26.25798
G1 X100.279 Y174.338 E26.28919
G1 X99.343 Y174.284 E26.32037
G1 X98.414 Y174.15 E26.35159
G1 X97.501 Y173.937 E26.38277
G1 X96.609 Y173.648 E26.41396
G1 X95.745 Y173.284 E26.44514
G1 X95.263 Y173.042 E26.46308
G1 X94.941 Y172.87 E26.47522
G1 X94.214 Y172.445 E26.50323
G1 X89.192 Y169.241 E26.70136
G1 X88.856 Y169.014 E26.71485
G1 X88.102 Y168.456 E26.74605
G1 X87.398 Y167.836 E26.77725
G1 X86.75 Y167.159 E26.80842
G1 X86.161 Y166.428 E26.83964
G1 X85.637 Y165.65 E26.87084
G1 X85.182 Y164.831 E26.902
G1 X84.797 Y163.975 E26.93322
G1 X84.487 Y163.09 E26.96441
G1 X84.254 Y162.182 E26.99559
G1 X84.098 Y161.257 E27.02679
G1 X84.015 Y160.073 E27.06626
G1 X84.001 Y159.076 E27.09943
G1 X84.002 Y153.192 E27.29513
G1 X84.012 Y152.495 E27.31831
G1 X84.066 Y151.559 E27.3495
G1 X84.199 Y150.63 E27.38071
G1 X84.41 Y149.717 E27.41188
G1 X84.675 Y148.888 E27.44082
G1 X84.958 Y148.111 E27.46833
G1 X85.809 Y145.701 E27.55334
G1 X86.583 Y143.292 E27.63749
G1 X87.28 Y140.894 E27.72055
G1 X87.918 Y138.439 E27.80492
G1 X88.489 Y135.963 E27.88943
G1 X88.972 Y133.543 E27.97151
G1 X89.404 Y131.016 E28.05678
G1 X89.753 Y128.568 E28.13902
G1 X90.038 Y126.05 E28.2233
G1 X90.253 Y123.513 E28.30799
G1 X90.393 Y121.051 E28.39001
G1 X90.464 Y118.502 E28.47482
G1 X90.464 Y115.977 E28.5588
G1 X90.392 Y113.482 E28.64182
