;FLAVOR:Marlin
;TIME:2640
;Filament used: 1.5195m
;Layer height: 0.2
;MINX:32.171
;MINY:38.763
;MINZ:0.2
;MAXX:202.814
;MAXY:195.74
;MAXZ:15
;Generated with Cura_SteamEngine 4.7.0
M140 S55
M105
M190 S55
M104 S210
M105
M109 S210
M82 ;absolute extrusion mode
; Ender 3 Custom Start G-code
G92 E0 ; Reset Extruder
G28 ; Home all axes
G1 Z2.0 F3000 ; Move Z Axis up little to prevent scratching of Heat Bed
G1 X0.1 Y20 Z0.3 F5000.0 ; Move to start position
G1 X0.1 Y200.0 Z0.3 F1500.0 E15 ; Draw the first line
G1 X0.4 Y200.0 Z0.3 F5000.0 ; Move to side a little
G1 X0.4 Y20 Z0.3 F1500.0 E30 ; Draw the second line
G92 E0 ; Reset Extruder
G1 Z2.0 F3000 ; Move Z Axis up little to prevent scratching of Heat Bed
G1 X5 Y20 Z0.3 F5000.0 ; Move over to prevent blob squish
G92 E0
G92 E0
G1 F2700 E-5
;LAYER_COUNT:75
;LAYER:0
M107
G0 F6000 X37.004 Y42.822 Z0.2
;TYPE:SKIRT
G1 F2700 E0
G1 F1200 X37.802 Y42.128 E0.03517
G1 X37.967 Y41.998 E0.04216
G1 X38.36 Y41.702 E0.05853
G1 X38.679 Y41.473 E0.07159
G1 X39.687 Y40.83 E0.11135
G1 X39.912 Y40.703 E0.11995
G1 X40.177 Y40.558 E0.12999
G1 X40.438 Y40.42 E0.13981
G1 X41.344 Y39.992 E0.17314
G1 X41.495 Y39.929 E0.17858
G1 X41.935 Y39.757 E0.19429
G1 X42.313 Y39.618 E0.20769
G1 X43.441 Y39.27 E0.24695
G1 X43.665 Y39.214 E0.25463
G1 X43.991 Y39.138 E0.26577
G1 X44.326 Y39.065 E0.27717
G1 X45.439 Y38.882 E0.31468
G1 X45.608 Y38.863 E0.32034
G1 X46.018 Y38.825 E0.33404
G1 X46.433 Y38.794 E0.34788
G1 X47.333 Y38.763 E0.37783
G1 X47.469 Y38.764 E0.38235
G1 X48.059 Y38.784 E0.40199
G1 X48.468 Y38.809 E0.41562
G1 X49.597 Y38.937 E0.45341
G1 X49.814 Y38.973 E0.46072
G1 X50.171 Y39.039 E0.4728
G1 X50.511 Y39.107 E0.48433
G1 X51.617 Y39.388 E0.52229
G1 X51.852 Y39.461 E0.53047
G1 X52.263 Y39.598 E0.54488
G1 X52.596 Y39.716 E0.55663
G1 X53.619 Y40.137 E0.59342
G1 X53.799 Y40.222 E0.60004
G1 X54.138 Y40.389 E0.61261
G1 X54.439 Y40.544 E0.62387
G1 X55.375 Y41.086 E0.65985
G1 X55.573 Y41.214 E0.66769
G1 X55.958 Y41.475 E0.68316
G1 X56.263 Y41.691 E0.69559
G1 X57.035 Y42.291 E0.72811
G1 X57.129 Y42.371 E0.73222
G1 X57.5 Y42.701 E0.74873
G1 X57.824 Y43.003 E0.76346
G1 X58.463 Y43.651 E0.79373
G1 X58.815 Y44.039 E0.81116
G1 X60.189 Y45.597 E0.88025
G1 X61.895 Y47.425 E0.96341
G1 X63.611 Y49.162 E1.04462
G1 X66.371 Y51.77 E1.17092
G1 X140.195 Y118.715 E4.48554
G1 X143.99 Y122.157 E4.65595
G1 X144.113 Y122.27 E4.6615
G1 X144.588 Y122.714 E4.68313
G1 X145.171 Y123.302 E4.71067
G1 X145.646 Y123.852 E4.73484
G1 X146.414 Y124.803 E4.7755
G1 X146.548 Y124.973 E4.7827
G1 X148.14 Y126.894 E4.86568
G1 X149.815 Y128.805 E4.9502
G1 X151.503 Y130.624 E5.03273
G1 X153.266 Y132.419 E5.11642
G1 X155.113 Y134.195 E5.20164
G1 X156.154 Y135.154 E5.24872
G1 X156.153 Y135.155 E5.24876
G1 X176.2 Y153.334 E6.14885
G1 X178.204 Y155.1 E6.23769
G1 X180.169 Y156.735 E6.32272
G1 X182.099 Y158.252 E6.40436
G1 X184.164 Y159.782 E6.48984
G1 X186.169 Y161.18 E6.57114
G1 X189.416 Y163.282 E6.69979
G1 X190.264 Y163.806 E6.73295
G1 X191.04 Y164.333 E6.76414
G1 X191.767 Y164.923 E6.79529
G1 X192.035 Y165.16 E6.80718
G1 X192.265 Y165.369 E6.81752
G1 X198.923 Y171.602 E7.12086
G1 X199.436 Y172.094 E7.1445
G1 X200.085 Y172.771 E7.1757
G1 X200.673 Y173.502 E7.2069
G1 X201.197 Y174.279 E7.23807
G1 X201.653 Y175.099 E7.26928
G1 X202.038 Y175.954 E7.30046
G1 X202.348 Y176.839 E7.33165
G1 X202.582 Y177.748 E7.36287
G1 X202.738 Y178.673 E7.39407
G1 X202.814 Y179.607 E7.42524
G1 X202.81 Y180.545 E7.45644
G1 X202.727 Y181.479 E7.48762
G1 X202.564 Y182.403 E7.51883
G1 X202.323 Y183.309 E7.55001
G1 X202.005 Y184.192 E7.58123
G1 X201.614 Y185.044 E7.61241
G1 X201.152 Y185.86 E7.6436
G1 X200.621 Y186.634 E7.67482
G1 X199.816 Y187.589 E7.71636
G1 X199.16 Y188.283 E7.74812
G1 X199.018 Y188.431 E7.75494
G1 X195.589 Y191.926 E7.91779
G1 X194.954 Y192.556 E7.94754
G1 X194.26 Y193.187 E7.97874
G1 X193.515 Y193.757 E8.00994
G1 X192.724 Y194.261 E8.04113
G1 X191.893 Y194.696 E8.07233
G1 X191.028 Y195.058 E8.10352
G1 X190.135 Y195.346 E8.13473
G1 X189.221 Y195.556 E8.16592
G1 X188.293 Y195.688 E8.19709
G1 X187.356 Y195.74 E8.22831
G1 X186.419 Y195.712 E8.25949
G1 X185.487 Y195.605 E8.29069
G1 X184.568 Y195.418 E8.32188
G1 X183.668 Y195.154 E8.35308
G1 X182.794 Y194.814 E8.38427
G1 X181.952 Y194.401 E8.41546
G1 X181.148 Y193.918 E8.44666
G1 X180.388 Y193.368 E8.47786
G1 X179.953 Y193.005 E8.4967
G1 X179.311 Y192.441 E8.52512
G1 X179.181 Y192.325 E8.53092
G1 X173.02 Y186.737 E8.80757
G1 X172.345 Y186.107 E8.83828
G1 X171.701 Y185.453 E8.8688
G1 X170.823 Y184.482 E8.91234
G1 X170.421 Y184.025 E8.93259
G1 X168.71 Y182.192 E9.01599
G1 X166.967 Y180.426 E9.09852
G1 X164.191 Y177.803 E9.22554
G1 X138.005 Y154.056 E10.40129
G1 X135.999 Y152.287 E10.49025
G1 X134.072 Y150.683 E10.57364
G1 X132.082 Y149.12 E10.6578
G1 X130.066 Y147.627 E10.74124
G1 X128.026 Y146.204 E10.82397
G1 X127.301 Y145.733 E10.85272
G1 X127.016 Y145.53 E10.86436
G1 X126.035 Y144.878 E10.90354
G1 X125.057 Y144.146 E10.94417
G1 X124.958 Y144.063 E10.94846
G1 X124.737 Y143.873 E10.95816
G1 X124.307 Y143.492 E10.97727
G1 X45.22 Y71.775 E14.52818
G1 X43.255 Y70.043 E14.6153
G1 X41.326 Y68.437 E14.69878
G1 X38.893 Y66.538 E14.80143
G1 X38.228 Y66.037 E14.82913
G1 X37.982 Y65.845 E14.83951
G1 X37.838 Y65.73 E14.84564
G1 X37.401 Y65.362 E14.86464
G1 X37.09 Y65.086 E14.87847
G1 X36.257 Y64.265 E14.91737
G1 X36.084 Y64.075 E14.92591
G1 X35.831 Y63.787 E14.93866
G1 X35.629 Y63.549 E14.94905
G1 X35.002 Y62.735 E14.98322
G1 X34.888 Y62.572 E14.98984
G1 X34.622 Y62.174 E15.00576
G1 X34.426 Y61.866 E15.0179
G1 X34.075 Y61.275 E15.04076
G1 X33.816 Y60.78 E15.05934
G1 X33.709 Y60.562 E15.06742
G1 X33.576 Y60.281 E15.07776
G1 X33.451 Y60.007 E15.08778
G1 X33.104 Y59.152 E15.11847
G1 X33.042 Y58.979 E15.12458
G1 X32.862 Y58.434 E15.14367
G1 X32.746 Y58.048 E15.15708
G1 X32.551 Y57.305 E15.18263
G1 X32.448 Y56.801 E15.19974
G1 X32.41 Y56.59 E15.20687
G1 X32.362 Y56.302 E15.21658
G1 X32.314 Y55.988 E15.22714
G1 X32.214 Y55.085 E15.25736
G1 X32.203 Y54.926 E15.26266
G1 X32.179 Y54.382 E15.28077
G1 X32.171 Y53.973 E15.29438
G1 X32.198 Y52.965 E15.32792
G1 X32.21 Y52.799 E15.33345
G1 X32.259 Y52.283 E15.35069
G1 X32.306 Y51.891 E15.36382
G1 X32.484 Y50.839 E15.39931
G1 X32.533 Y50.616 E15.4069
G1 X32.652 Y50.131 E15.42351
G1 X32.742 Y49.795 E15.43508
G1 X33.008 Y48.941 E15.46483
G1 X33.068 Y48.773 E15.47077
G1 X33.266 Y48.259 E15.48909
G1 X33.412 Y47.907 E15.50176
G1 X33.956 Y46.782 E15.54332
G1 X34.117 Y46.492 E15.55436
G1 X34.287 Y46.196 E15.56571
G1 X34.42 Y45.973 E15.57434
G1 X34.975 Y45.132 E15.60786
G1 X35.109 Y44.948 E15.61543
G1 X35.359 Y44.619 E15.62917
G1 X35.559 Y44.365 E15.63993
G1 X36.322 Y43.493 E15.67846
G1 X36.474 Y43.337 E15.68571
G1 X36.747 Y43.068 E15.69845
G1 X37.004 Y42.822 E15.71029
G0 F6000 X37.28 Y43.111
G1 F1200 X38.05 Y42.442 E15.74421
G1 X38.215 Y42.312 E15.7512
G1 X38.593 Y42.027 E15.76695
G1 X38.912 Y41.798 E15.78001
G1 X39.884 Y41.178 E15.81835
G1 X40.109 Y41.051 E15.82695
G1 X40.364 Y40.911 E15.83662
G1 X40.625 Y40.773 E15.84644
G1 X41.498 Y40.361 E15.87855
G1 X41.649 Y40.298 E15.88399
G1 X42.073 Y40.132 E15.89913
G1 X42.451 Y39.993 E15.91253
G1 X43.538 Y39.658 E15.95036
G1 X43.762 Y39.602 E15.95804
G1 X44.076 Y39.529 E15.96876
G1 X44.411 Y39.456 E15.98017
G1 X45.484 Y39.279 E16.01634
G1 X45.653 Y39.26 E16.02199
G1 X46.047 Y39.223 E16.03516
G1 X46.462 Y39.192 E16.049
G1 X47.33 Y39.163 E16.07788
G1 X47.466 Y39.164 E16.08241
G1 X48.035 Y39.184 E16.10134
G1 X48.444 Y39.209 E16.11497
G1 X49.532 Y39.332 E16.15139
G1 X49.749 Y39.368 E16.15871
G1 X50.093 Y39.431 E16.17034
G1 X50.433 Y39.499 E16.18187
G1 X51.499 Y39.77 E16.21845
G1 X51.734 Y39.843 E16.22664
G1 X52.129 Y39.975 E16.24049
G1 X52.462 Y40.093 E16.25224
G1 X53.448 Y40.499 E16.28771
G1 X53.628 Y40.584 E16.29433
G1 X53.955 Y40.745 E16.30645
G1 X54.256 Y40.9 E16.31771
G1 X55.158 Y41.422 E16.35237
G1 X55.356 Y41.55 E16.36021
G1 X55.727 Y41.802 E16.37513
G1 X56.032 Y42.018 E16.38756
G1 X56.776 Y42.596 E16.4189
G1 X56.87 Y42.676 E16.423
G1 X57.227 Y42.994 E16.4389
G1 X57.551 Y43.296 E16.45364
G1 X58.167 Y43.92 E16.4828
G1 X58.515 Y44.303 E16.50001
G1 X59.895 Y45.869 E16.56943
G1 X61.602 Y47.696 E16.6526
G1 X63.334 Y49.451 E16.73461
G1 X66.113 Y52.076 E16.86175
G1 X139.927 Y119.012 E20.17593
G1 X143.722 Y122.454 E20.34633
G1 X144.314 Y123.006 E20.37325
G1 X144.877 Y123.573 E20.39983
G1 X145.335 Y124.103 E20.42313
G1 X146.103 Y125.054 E20.46378
G1 X146.237 Y125.224 E20.47098
G1 X147.847 Y127.168 E20.55494
G1 X149.504 Y129.058 E20.63854
G1 X151.225 Y130.911 E20.72265
G1 X153.004 Y132.723 E20.80711
G1 X154.824 Y134.474 E20.89111
G1 X155.824 Y135.395 E20.93632
G1 X175.993 Y153.685 E21.8419
G1 X177.95 Y155.409 E21.92865
G1 X179.89 Y157.024 E22.0126
G1 X181.859 Y158.572 E22.09591
G1 X183.927 Y160.103 E22.18149
G1 X185.959 Y161.52 E22.26388
G1 X189.222 Y163.633 E22.39318
G1 X190.054 Y164.147 E22.4257
G1 X190.815 Y164.664 E22.4563
G1 X191.502 Y165.223 E22.48576
G1 X191.77 Y165.46 E22.49766
G1 X191.992 Y165.661 E22.50762
G1 X198.553 Y171.802 E22.80652
G1 X199.159 Y172.383 E22.83444
G1 X199.795 Y173.048 E22.86504
G1 X200.371 Y173.766 E22.89566
G1 X200.883 Y174.532 E22.9263
G1 X201.326 Y175.339 E22.95692
G1 X201.697 Y176.181 E22.98753
G1 X201.994 Y177.053 E23.01817
G1 X202.215 Y177.947 E23.0488
G1 X202.356 Y178.856 E23.07939
G1 X202.419 Y179.775 E23.11003
G1 X202.401 Y180.695 E23.14063
G1 X202.304 Y181.611 E23.17127
G1 X202.127 Y182.514 E23.20188
G1 X201.873 Y183.399 E23.2325
G1 X201.543 Y184.259 E23.26314
G1 X201.14 Y185.086 E23.29373
G1 X200.666 Y185.876 E23.32438
G1 X200.126 Y186.621 E23.35498
G1 X199.525 Y187.314 E23.38549
G1 X198.869 Y188.008 E23.41725
G1 X198.732 Y188.151 E23.42384
G1 X195.303 Y191.646 E23.58669
G1 X194.672 Y192.272 E23.61625
G1 X193.991 Y192.891 E23.64686
G1 X193.258 Y193.448 E23.67748
G1 X192.48 Y193.94 E23.7081
G1 X191.661 Y194.362 E23.73874
G1 X190.81 Y194.712 E23.76934
G1 X189.931 Y194.987 E23.79998
G1 X189.032 Y195.184 E23.83059
G1 X188.119 Y195.302 E23.86121
G1 X187.199 Y195.341 E23.89183
G1 X186.279 Y195.3 E23.92246
G1 X185.367 Y195.179 E23.95306
G1 X184.468 Y194.979 E23.98369
G1 X183.59 Y194.703 E24.01431
G1 X182.739 Y194.351 E24.04494
G1 X181.922 Y193.926 E24.07557
G1 X181.145 Y193.432 E24.10619
G1 X180.217 Y192.704 E24.14542
G1 X179.45 Y192.029 E24.1794
G1 X173.289 Y186.441 E24.45605
G1 X172.618 Y185.815 E24.48657
G1 X171.998 Y185.185 E24.51597
G1 X171.123 Y184.217 E24.55937
G1 X170.713 Y183.752 E24.57999
G1 X169.005 Y181.921 E24.66327
G1 X167.244 Y180.137 E24.74665
G1 X164.501 Y177.545 E24.87217
G1 X138.204 Y153.698 E26.05288
G1 X136.274 Y151.996 E26.13847
G1 X134.292 Y150.346 E26.22425
G1 X132.361 Y148.829 E26.30592
G1 X130.288 Y147.293 E26.39173
G1 X128.238 Y145.864 E26.47485
G1 X127.519 Y145.397 E26.50336
G1 X127.255 Y145.209 E26.51414
G1 X126.256 Y144.545 E26.55404
G1 X125.314 Y143.84 E26.59317
G1 X125.215 Y143.757 E26.59747
G1 X125.002 Y143.574 E26.60681
G1 X124.575 Y143.195 E26.6258
G1 X45.475 Y71.465 E30.17732
G1 X43.509 Y69.734 E30.26445
G1 X41.598 Y68.142 E30.34717
G1 X39.094 Y66.188 E30.45281
G1 X38.469 Y65.717 E30.47884
G1 X38.231 Y65.533 E30.48885
G1 X38.087 Y65.418 E30.49498
G1 X37.666 Y65.063 E30.51329
G1 X37.355 Y64.787 E30.52712
G1 X36.553 Y63.995 E30.56461
G1 X36.38 Y63.805 E30.57316
G1 X36.136 Y63.528 E30.58544
G1 X35.934 Y63.29 E30.59582
G1 X35.33 Y62.506 E30.62874
G1 X35.216 Y62.343 E30.63535
G1 X34.959 Y61.959 E30.65072
G1 X34.763 Y61.651 E30.66286
G1 X34.425 Y61.081 E30.6849
G1 X34.175 Y60.603 E30.70284
G1 X34.068 Y60.385 E30.71092
G1 X33.94 Y60.115 E30.72086
G1 X33.815 Y59.841 E30.73088
G1 X33.48 Y59.017 E30.76046
G1 X33.418 Y58.844 E30.76657
G1 X33.245 Y58.319 E30.78496
G1 X33.129 Y57.933 E30.79836
G1 X32.941 Y57.217 E30.82299
G1 X32.842 Y56.73 E30.83951
G1 X32.804 Y56.519 E30.84665
G1 X32.758 Y56.242 E30.85598
G1 X32.71 Y55.928 E30.86655
G1 X32.613 Y55.058 E30.89567
G1 X32.602 Y54.899 E30.90097
G1 X32.579 Y54.374 E30.91844
G1 X32.571 Y53.965 E30.93205
G1 X32.597 Y52.994 E30.96436
G1 X32.609 Y52.828 E30.96989
G1 X32.656 Y52.33 E30.98653
G1 X32.703 Y51.938 E30.99966
G1 X32.875 Y50.925 E31.03384
G1 X32.924 Y50.702 E31.04143
G1 X33.038 Y50.234 E31.05745
G1 X33.128 Y49.898 E31.06902
G1 X33.385 Y49.076 E31.09767
G1 X33.445 Y48.908 E31.1036
G1 X33.636 Y48.412 E31.12128
G1 X33.782 Y48.06 E31.13395
G1 X34.305 Y46.976 E31.17398
G1 X34.466 Y46.686 E31.18501
G1 X34.63 Y46.401 E31.19595
G1 X34.763 Y46.178 E31.20459
G1 X35.298 Y45.368 E31.23687
G1 X35.432 Y45.184 E31.24444
G1 X35.673 Y44.866 E31.25772
G1 X35.873 Y44.612 E31.26847
G1 X36.609 Y43.773 E31.30559
G1 X36.761 Y43.617 E31.31283
G1 X37.023 Y43.357 E31.32511
G1 X37.28 Y43.111 E31.33694
G0 F6000 X37.557 Y43.4
G1 F1200 X38.298 Y42.756 E31.3696
G1 X38.463 Y42.626 E31.37658
G1 X38.827 Y42.352 E31.39174
G1 X39.146 Y42.123 E31.4048
G1 X40.08 Y41.526 E31.44167
G1 X40.305 Y41.399 E31.45026
G1 X40.551 Y41.265 E31.45958
G1 X40.812 Y41.127 E31.4694
G1 X41.652 Y40.73 E31.5003
G1 X41.803 Y40.667 E31.50574
G1 X42.211 Y40.508 E31.5203
G1 X42.589 Y40.369 E31.5337
G1 X43.635 Y40.047 E31.5701
G1 X43.859 Y39.991 E31.57778
G1 X44.161 Y39.92 E31.5881
G1 X44.496 Y39.847 E31.5995
G1 X45.528 Y39.677 E31.63429
G1 X45.697 Y39.658 E31.63994
G1 X46.077 Y39.622 E31.65264
G1 X46.492 Y39.591 E31.66648
G1 X47.327 Y39.563 E31.69427
G1 X47.463 Y39.564 E31.69879
G1 X48.01 Y39.583 E31.717
G1 X48.419 Y39.608 E31.73063
G1 X49.466 Y39.727 E31.76567
G1 X49.683 Y39.763 E31.77299
G1 X50.014 Y39.823 E31.78418
G1 X50.354 Y39.891 E31.79571
G1 X51.38 Y40.152 E31.83092
G1 X51.615 Y40.225 E31.83911
G1 X51.996 Y40.352 E31.85246
G1 X52.329 Y40.47 E31.86421
G1 X53.277 Y40.861 E31.89832
G1 X53.457 Y40.946 E31.90494
G1 X53.772 Y41.101 E31.91662
G1 X54.073 Y41.256 E31.92788
G1 X54.941 Y41.758 E31.96123
G1 X55.139 Y41.886 E31.96907
G1 X55.496 Y42.128 E31.98342
G1 X55.801 Y42.344 E31.99585
G1 X56.517 Y42.9 E32.026
G1 X56.611 Y42.98 E32.0301
G1 X56.955 Y43.287 E32.04544
G1 X57.279 Y43.589 E32.06017
G1 X57.871 Y44.189 E32.08821
G1 X58.215 Y44.568 E32.10523
G1 X59.603 Y46.143 E32.17505
G1 X61.307 Y47.967 E32.25807
G1 X63.057 Y49.74 E32.34093
G1 X65.826 Y52.356 E32.46763
G1 X139.658 Y119.308 E35.78261
G1 X143.453 Y122.75 E35.95301
G1 X144.041 Y123.298 E35.97974
G1 X144.583 Y123.845 E36.00536
G1 X145.023 Y124.355 E36.02776
G1 X145.791 Y125.306 E36.06842
G1 X145.925 Y125.475 E36.07559
G1 X147.522 Y127.403 E36.15886
G1 X149.211 Y129.33 E36.24408
G1 X150.946 Y131.199 E36.3289
G1 X152.706 Y132.991 E36.41244
G1 X154.559 Y134.773 E36.49795
G1 X155.59 Y135.722 E36.54456
G1 X175.708 Y153.966 E37.44785
G1 X177.693 Y155.715 E37.53584
G1 X179.654 Y157.347 E37.6207
G1 X181.636 Y158.906 E37.70457
G1 X183.665 Y160.409 E37.78855
G1 X185.715 Y161.838 E37.87166
G1 X189.05 Y163.997 E38.0038
G1 X189.843 Y164.487 E38.03481
G1 X190.59 Y164.995 E38.06485
G1 X191.237 Y165.522 E38.09261
G1 X191.505 Y165.759 E38.10451
G1 X191.718 Y165.953 E38.11409
G1 X198.369 Y172.179 E38.4171
G1 X198.882 Y172.671 E38.44074
G1 X199.506 Y173.325 E38.47081
G1 X200.069 Y174.031 E38.50084
G1 X200.568 Y174.784 E38.53089
G1 X200.998 Y175.578 E38.56092
G1 X201.356 Y176.407 E38.59095
G1 X201.639 Y177.264 E38.62097
G1 X201.845 Y178.144 E38.65103
G1 X201.973 Y179.038 E38.68107
G1 X202.022 Y179.939 E38.71108
G1 X201.99 Y180.842 E38.74113
G1 X201.878 Y181.738 E38.77116
G1 X201.688 Y182.621 E38.80121
G1 X201.421 Y183.484 E38.83125
G1 X201.078 Y184.319 E38.86128
G1 X200.662 Y185.121 E38.89133
G1 X200.178 Y185.883 E38.92135
G1 X199.627 Y186.599 E38.9514
G1 X199.235 Y187.04 E38.97102
G1 X198.579 Y187.734 E39.00279
G1 X195.018 Y191.365 E39.17194
G1 X194.915 Y191.469 E39.17681
G1 X194.391 Y191.988 E39.20134
G1 X193.722 Y192.594 E39.23136
G1 X193.002 Y193.139 E39.26139
G1 X192.236 Y193.618 E39.29144
G1 X191.431 Y194.028 E39.32149
G1 X190.593 Y194.365 E39.35153
G1 X189.729 Y194.626 E39.38155
G1 X188.844 Y194.81 E39.41162
G1 X187.947 Y194.915 E39.44165
G1 X187.045 Y194.94 E39.47167
G1 X186.143 Y194.885 E39.50172
G1 X185.25 Y194.75 E39.53176
G1 X184.372 Y194.537 E39.56181
G1 X183.517 Y194.248 E39.59183
G1 X182.691 Y193.884 E39.62185
