;FLAVOR:Marlin
;TIME:414
;Filament used: 0.364386m
;Layer height: 0.28
;MINX:94.452
;MINY:84.647
;MINZ:0.28
;MAXX:140.539
;MAXY:150.361
;MAXZ:1.96
;Generated with Cura_SteamEngine 4.5.0
M140 S65
M105
M190 S65
M104 S215
M105
M109 S215
M82 ;absolute extrusion mode
; Ender 3 Custom Start G-code
G92 E0 ; Reset Extruder
G28 ; Home all axes
G1 Z2.0 F3000 ; Move Z Axis up little to prevent scratching of Heat Bed
G1 X0.1 Y20 Z0.3 F5000.0 ; Move to start position
G1 X0.1 Y200.0 Z0.3 F1500.0 E15 ; Draw the first line
G1 X0.4 Y200.0 Z0.3 F5000.0 ; Move to side a little
G1 X0.4 Y20 Z0.3 F1500.0 E30 ; Draw the second line
G92 E0 ; Reset Extruder
G1 Z2.0 F3000 ; Move Z Axis up little to prevent scratching of Heat Bed
G1 X5 Y20 Z0.3 F5000.0 ; Move over to prevent blob squish
G92 E0
G92 E0
G1 F2700 E-5
;LAYER_COUNT:7
;LAYER:0
M107
G0 F6000 X103.687 Y94.439 Z0.28
;TYPE:SKIRT
G1 F2700 E0
G1 F1200 X105.286 Y92.777 E0.10739
G1 X107.299 Y90.768 E0.23982
G1 X107.995 Y90.084 E0.28526
G1 X110.019 Y88.132 E0.41619
G1 X110.546 Y87.636 E0.44989
G1 X111.256 Y87.023 E0.49357
G1 X112.015 Y86.472 E0.53724
G1 X112.819 Y85.989 E0.58092
G1 X113.66 Y85.575 E0.62456
G1 X114.534 Y85.235 E0.66823
G1 X115.434 Y84.97 E0.71192
G1 X116.353 Y84.783 E0.75559
G1 X117.285 Y84.675 E0.79928
G1 X118.222 Y84.647 E0.84293
G1 X119.159 Y84.699 E0.88663
G1 X120.087 Y84.83 E0.93027
G1 X121.001 Y85.04 E0.97393
G1 X121.894 Y85.327 E1.01761
G1 X122.759 Y85.689 E1.06127
G1 X123.591 Y86.123 E1.10497
G1 X124.382 Y86.627 E1.14864
G1 X125.127 Y87.196 E1.19229
G1 X125.822 Y87.826 E1.23597
G1 X126.46 Y88.514 E1.27966
G1 X127.037 Y89.253 E1.32332
G1 X127.549 Y90.039 E1.367
G1 X127.992 Y90.865 E1.41064
G1 X128.363 Y91.727 E1.45434
G1 X128.66 Y92.616 E1.49799
G1 X128.879 Y93.528 E1.54166
G1 X129.02 Y94.455 E1.58532
G1 X129.078 Y95.252 E1.62253
G1 X129.095 Y95.732 E1.6449
G1 X129.217 Y98.282 E1.76377
G1 X129.41 Y100.813 E1.88197
G1 X129.67 Y103.304 E1.99859
G1 X130.002 Y105.788 E2.11528
G1 X130.405 Y108.276 E2.23264
G1 X130.884 Y110.774 E2.35108
G1 X131.423 Y113.217 E2.46757
G1 X132.023 Y115.609 E2.58241
G1 X132.721 Y118.094 E2.7026
G1 X133.467 Y120.487 E2.81931
G1 X134.283 Y122.864 E2.93634
G1 X135.173 Y125.238 E3.05439
G1 X136.109 Y127.532 E3.16976
G1 X137.138 Y129.862 E3.28836
G1 X138.206 Y132.113 E3.40438
G1 X138.778 Y133.224 E3.46257
G1 X139.393 Y134.459 E3.52681
G1 X139.775 Y135.315 E3.57046
G1 X140.082 Y136.201 E3.61412
G1 X140.313 Y137.11 E3.65779
G1 X140.466 Y138.036 E3.70149
G1 X140.539 Y138.971 E3.74516
G1 X140.532 Y139.908 E3.7888
G1 X140.446 Y140.842 E3.83247
G1 X140.28 Y141.765 E3.87614
G1 X140.036 Y142.671 E3.91983
G1 X139.716 Y143.553 E3.96352
G1 X139.323 Y144.404 E4.00717
G1 X138.858 Y145.218 E4.05082
G1 X138.325 Y145.99 E4.0945
G1 X137.728 Y146.714 E4.1382
G1 X137.072 Y147.384 E4.18186
G1 X136.362 Y147.996 E4.22551
G1 X135.601 Y148.545 E4.2692
G1 X134.797 Y149.028 E4.31287
G1 X133.955 Y149.44 E4.35652
G1 X133.08 Y149.779 E4.40022
G1 X132.18 Y150.042 E4.44388
G1 X131.261 Y150.228 E4.48754
G1 X130.329 Y150.334 E4.53122
G1 X129.391 Y150.361 E4.57491
G1 X128.455 Y150.308 E4.61856
G1 X127.173 Y150.103 E4.67902
G1 X126.906 Y150.044 E4.69175
G1 X126.512 Y149.949 E4.71062
G1 X122.387 Y148.877 E4.90908
G1 X119.634 Y148.129 E5.04192
G1 X118.287 Y147.746 E5.10713
G1 X116.036 Y147.074 E5.21651
G1 X114.834 Y146.694 E5.27521
G1 X114.555 Y146.599 E5.28894
G1 X112.573 Y145.908 E5.38668
G1 X111.89 Y145.659 E5.42053
G1 X111.366 Y145.452 E5.44676
G1 X110.628 Y145.138 E5.48411
G1 X109.27 Y144.534 E5.55331
G1 X108.654 Y144.25 E5.5849
G1 X107.589 Y143.686 E5.64102
G1 X106.822 Y143.21 E5.68305
G1 X105.994 Y142.669 E5.7291
G1 X105.412 Y142.277 E5.76178
G1 X104.657 Y141.72 E5.80547
G1 X103.952 Y141.101 E5.84915
G1 X103.303 Y140.424 E5.89282
G1 X102.806 Y139.818 E5.92932
G1 X102.48 Y139.39 E5.95437
G1 X102.286 Y139.127 E5.96959
G1 X101.77 Y138.406 E6.01087
G1 X101.257 Y137.621 E6.05454
G1 X100.813 Y136.795 E6.0982
G1 X100.441 Y135.934 E6.14188
G1 X100.143 Y135.044 E6.18558
G1 X99.917 Y134.105 E6.23055
G1 X99.72 Y133.086 E6.27888
G1 X99.55 Y132.148 E6.32327
G1 X99.025 Y129.652 E6.44204
G1 X98.452 Y127.264 E6.55639
G1 X97.79 Y124.814 E6.67456
G1 X97.064 Y122.399 E6.79198
G1 X96.28 Y120.036 E6.90791
G1 X95.601 Y118.198 E6.99915
G1 X95.184 Y117.034 E7.05673
G1 X94.906 Y116.138 E7.10041
G1 X94.705 Y115.222 E7.14408
G1 X94.56 Y113.991 E7.20179
G1 X94.505 Y113.067 E7.2449
G1 X94.472 Y112.344 E7.2786
G1 X94.452 Y111.711 E7.30809
G1 X94.463 Y110.774 E7.35172
G1 X94.553 Y109.84 E7.39541
G1 X94.722 Y108.918 E7.43906
G1 X94.981 Y107.979 E7.48442
G1 X95.394 Y106.711 E7.54651
G1 X95.636 Y106.016 E7.58078
G1 X95.879 Y105.346 E7.61397
G1 X96.236 Y104.478 E7.65767
G1 X96.714 Y103.561 E7.70582
G1 X97.082 Y102.936 E7.73959
G1 X98.064 Y101.341 E7.82681
G1 X98.395 Y100.82 E7.85555
G1 X98.954 Y100.022 E7.90092
G1 X99.711 Y99.038 E7.95873
G1 X100.853 Y97.611 E8.04384
G1 X101.516 Y96.812 E8.09218
G1 X101.958 Y96.312 E8.12326
G1 X103.687 Y94.439 E8.24195
G0 F6000 X103.976 Y94.716
G1 F1200 X105.568 Y93.06 E8.34891
G1 X107.58 Y91.053 E8.48124
G1 X108.273 Y90.372 E8.52649
G1 X110.293 Y88.423 E8.65719
G1 X110.82 Y87.927 E8.69089
G1 X111.517 Y87.326 E8.73374
G1 X112.264 Y86.787 E8.77664
G1 X113.055 Y86.316 E8.8195
G1 X113.883 Y85.914 E8.86236
G1 X114.744 Y85.586 E8.90526
G1 X115.629 Y85.334 E8.94811
G1 X116.533 Y85.16 E8.99098
G1 X117.449 Y85.065 E9.03386
G1 X118.369 Y85.05 E9.0767
G1 X119.288 Y85.114 E9.1196
G1 X120.197 Y85.259 E9.16246
G1 X121.09 Y85.481 E9.20531
G1 X121.961 Y85.78 E9.24819
G1 X122.803 Y86.154 E9.29109
G1 X123.608 Y86.599 E9.33392
G1 X124.373 Y87.112 E9.37681
G1 X125.089 Y87.69 E9.41966
G1 X125.753 Y88.328 E9.46254
G1 X126.359 Y89.021 E9.5054
G1 X126.903 Y89.764 E9.54828
G1 X127.38 Y90.551 E9.59113
G1 X127.787 Y91.377 E9.63401
G1 X128.121 Y92.235 E9.67688
G1 X128.379 Y93.119 E9.71976
G1 X128.56 Y94.021 E9.7626
G1 X128.678 Y95.266 E9.82083
G1 X128.691 Y95.642 E9.83835
G1 X128.819 Y98.331 E9.96371
G1 X129.009 Y100.816 E10.07976
G1 X129.275 Y103.362 E10.19895
G1 X129.609 Y105.868 E10.31668
G1 X130.011 Y108.344 E10.43348
G1 X130.488 Y110.833 E10.55149
G1 X131.034 Y113.306 E10.66941
G1 X131.645 Y115.742 E10.78636
G1 X132.34 Y118.216 E10.90601
G1 X133.083 Y120.599 E11.02225
G1 X133.906 Y122.997 E11.1403
G1 X134.804 Y125.393 E11.25945
G1 X135.745 Y127.697 E11.37533
G1 X136.768 Y130.017 E11.4934
G1 X137.853 Y132.301 E11.61114
G1 X138.42 Y133.402 E11.66881
G1 X139.035 Y134.637 E11.73305
G1 X139.409 Y135.478 E11.77591
G1 X139.709 Y136.349 E11.8188
G1 X139.932 Y137.242 E11.86166
G1 X140.077 Y138.151 E11.90452
G1 X140.142 Y139.069 E11.94738
G1 X140.127 Y139.99 E11.99027
G1 X140.033 Y140.906 E12.03314
G1 X139.86 Y141.81 E12.076
G1 X139.608 Y142.695 E12.11885
G1 X139.281 Y143.556 E12.16174
G1 X138.88 Y144.385 E12.20462
G1 X138.409 Y145.176 E12.24748
G1 X137.871 Y145.923 E12.29035
G1 X137.271 Y146.621 E12.33321
G1 X136.612 Y147.264 E12.37608
G1 X135.899 Y147.847 E12.41897
G1 X135.139 Y148.366 E12.46182
G1 X134.337 Y148.818 E12.50469
G1 X133.498 Y149.198 E12.54758
G1 X132.63 Y149.503 E12.59042
G1 X131.738 Y149.733 E12.63331
G1 X130.83 Y149.884 E12.67617
G1 X129.912 Y149.956 E12.71905
G1 X128.992 Y149.947 E12.76189
G1 X128.075 Y149.859 E12.80478
G1 X127.259 Y149.712 E12.84339
G1 X126.992 Y149.653 E12.85613
G1 X126.613 Y149.562 E12.87427
G1 X122.492 Y148.491 E13.07254
G1 X119.744 Y147.745 E13.20513
G1 X118.402 Y147.362 E13.27011
G1 X116.155 Y146.692 E13.3793
G1 X114.964 Y146.316 E13.43745
G1 X114.686 Y146.221 E13.45113
G1 X112.71 Y145.532 E13.54858
G1 X112.027 Y145.283 E13.58243
G1 X111.522 Y145.084 E13.6077
G1 X110.79 Y144.772 E13.64475
G1 X109.438 Y144.171 E13.71365
G1 X108.822 Y143.887 E13.74523
G1 X107.795 Y143.343 E13.79935
G1 X107.041 Y142.875 E13.84067
G1 X106.217 Y142.337 E13.88649
G1 X105.635 Y141.945 E13.91917
G1 X104.895 Y141.398 E13.96202
G1 X104.205 Y140.789 E14.00487
G1 X103.57 Y140.122 E14.04775
G1 X103.125 Y139.576 E14.08055
G1 X102.611 Y138.894 E14.12032
G1 X102.095 Y138.173 E14.1616
G1 X101.592 Y137.402 E14.20447
G1 X101.158 Y136.59 E14.24734
G1 X100.796 Y135.743 E14.29023
G1 X100.509 Y134.869 E14.33307
G1 X100.31 Y134.028 E14.37331
G1 X100.114 Y133.014 E14.4214
G1 X99.943 Y132.072 E14.46598
G1 X99.427 Y129.615 E14.58288
G1 X98.833 Y127.139 E14.70145
G1 X98.174 Y124.7 E14.81909
G1 X97.441 Y122.263 E14.93759
G1 X96.662 Y119.915 E15.05278
G1 X95.978 Y118.063 E15.14471
G1 X95.561 Y116.899 E15.20229
G1 X95.288 Y116.02 E15.24515
G1 X95.093 Y115.12 E15.28803
G1 X94.959 Y113.966 E15.34212
G1 X94.905 Y113.048 E15.38494
G1 X94.872 Y112.332 E15.41832
G1 X94.852 Y111.699 E15.44781
G1 X94.863 Y110.778 E15.4907
G1 X94.954 Y109.862 E15.53356
G1 X95.124 Y108.957 E15.57644
G1 X95.361 Y108.102 E15.61775
G1 X95.771 Y106.842 E15.67945
G1 X96.012 Y106.152 E15.71348
G1 X96.255 Y105.482 E15.74667
G1 X96.606 Y104.631 E15.78953
G1 X97.06 Y103.762 E15.83519
G1 X97.422 Y103.146 E15.86846
G1 X98.402 Y101.556 E15.95543
G1 X98.733 Y101.035 E15.98417
G1 X99.271 Y100.265 E16.02791
G1 X100.024 Y99.288 E16.08534
G1 X101.162 Y97.865 E16.17019
G1 X101.818 Y97.074 E16.21804
G1 X102.252 Y96.583 E16.24855
G1 X103.976 Y94.716 E16.36688
G0 F6000 X104.264 Y94.993
G1 F1200 X105.851 Y93.343 E16.47348
G1 X107.86 Y91.338 E16.60565
G1 X108.55 Y90.66 E16.65069
G1 X110.567 Y88.714 E16.7812
G1 X111.094 Y88.218 E16.8149
G1 X111.779 Y87.629 E16.85696
G1 X112.513 Y87.103 E16.89901
G1 X113.29 Y86.643 E16.94106
G1 X114.105 Y86.254 E16.98311
G1 X114.951 Y85.939 E17.02514
G1 X115.822 Y85.7 E17.0672
G1 X116.711 Y85.539 E17.10927
G1 X117.61 Y85.457 E17.1513
G1 X118.513 Y85.455 E17.19335
G1 X119.413 Y85.533 E17.23542
G1 X120.302 Y85.69 E17.27745
G1 X121.174 Y85.925 E17.31951
G1 X122.022 Y86.237 E17.36158
G1 X122.839 Y86.622 E17.40364
G1 X123.619 Y87.078 E17.44571
G1 X124.355 Y87.601 E17.48775
G1 X125.042 Y88.187 E17.5298
G1 X125.674 Y88.831 E17.57181
G1 X126.247 Y89.529 E17.61386
G1 X126.757 Y90.275 E17.65594
G1 X127.198 Y91.063 E17.69799
G1 X127.567 Y91.887 E17.74003
G1 X127.863 Y92.741 E17.78212
G1 X128.081 Y93.617 E17.82415
G1 X128.221 Y94.509 E17.86619
G1 X128.278 Y95.28 E17.90219
G1 X128.294 Y95.716 E17.92251
G1 X128.419 Y98.347 E18.04516
G1 X128.61 Y100.849 E18.162
G1 X128.879 Y103.424 E18.28255
G1 X129.211 Y105.914 E18.39953
G1 X129.618 Y108.418 E18.51765
G1 X130.096 Y110.916 E18.63608
G1 X130.641 Y113.384 E18.75377
G1 X131.258 Y115.842 E18.87177
G1 X131.959 Y118.338 E18.9925
G1 X132.699 Y120.71 E19.1082
G1 X133.537 Y123.151 E19.22837
G1 X134.424 Y125.518 E19.34607
G1 X135.38 Y127.86 E19.46386
G1 X136.412 Y130.2 E19.58295
G1 X137.488 Y132.465 E19.69971
G1 X138.062 Y133.58 E19.75811
G1 X138.677 Y134.815 E19.82235
G1 X139.043 Y135.641 E19.86442
G1 X139.335 Y136.495 E19.90644
G1 X139.55 Y137.372 E19.94849
G1 X139.687 Y138.265 E19.99056
G1 X139.744 Y139.166 E20.0326
G1 X139.721 Y140.069 E20.07466
G1 X139.619 Y140.966 E20.11669
G1 X139.438 Y141.851 E20.15876
G1 X139.179 Y142.716 E20.2008
G1 X138.844 Y143.555 E20.24287
G1 X138.437 Y144.361 E20.28491
G1 X137.96 Y145.128 E20.32697
G1 X137.417 Y145.85 E20.36904
G1 X136.812 Y146.52 E20.41107
G1 X136.15 Y147.135 E20.45315
G1 X135.437 Y147.689 E20.49519
G1 X134.677 Y148.177 E20.53725
G1 X133.878 Y148.597 E20.57928
G1 X133.044 Y148.944 E20.62134
G1 X132.182 Y149.215 E20.66342
G1 X131.301 Y149.41 E20.70543
G1 X130.405 Y149.526 E20.7475
G1 X129.503 Y149.562 E20.78954
G1 X128.601 Y149.518 E20.83159
G1 X127.345 Y149.322 E20.89078
G1 X127.078 Y149.263 E20.90351
G1 X126.713 Y149.175 E20.92099
G1 X122.597 Y148.105 E21.11902
G1 X119.853 Y147.36 E21.25142
G1 X118.516 Y146.979 E21.31616
G1 X116.274 Y146.31 E21.4251
G1 X115.093 Y145.938 E21.48276
G1 X112.847 Y145.156 E21.5935
G1 X112.164 Y144.907 E21.62735
G1 X111.678 Y144.715 E21.65168
G1 X110.952 Y144.406 E21.68842
G1 X109.605 Y143.808 E21.75705
G1 X108.989 Y143.524 E21.78863
G1 X108.001 Y143.001 E21.84068
G1 X107.259 Y142.54 E21.88136
G1 X106.441 Y142.005 E21.92687
G1 X105.859 Y141.613 E21.95955
G1 X105.133 Y141.076 E22.0016
G1 X104.457 Y140.477 E22.04365
G1 X103.837 Y139.82 E22.08572
G1 X103.443 Y139.333 E22.11489
G1 X102.936 Y138.661 E22.15408
G1 X102.42 Y137.94 E22.19537
G1 X101.928 Y137.183 E22.23741
G1 X101.504 Y136.386 E22.27944
G1 X101.153 Y135.554 E22.32149
G1 X100.876 Y134.694 E22.36356
G1 X100.703 Y133.952 E22.39904
G1 X100.507 Y132.943 E22.4469
G1 X100.334 Y131.99 E22.492
G1 X99.813 Y129.512 E22.60991
G1 X99.22 Y127.038 E22.72838
G1 X98.56 Y124.595 E22.84621
G1 X97.818 Y122.127 E22.96621
G1 X97.035 Y119.768 E23.08195
G1 X96.355 Y117.928 E23.17329
G1 X95.938 Y116.764 E23.23087
G1 X95.671 Y115.901 E23.27293
G1 X95.482 Y115.018 E23.31498
G1 X95.359 Y113.942 E23.36541
G1 X95.304 Y113.029 E23.408
G1 X95.272 Y112.319 E23.44109
G1 X95.252 Y111.686 E23.47058
G1 X95.264 Y110.783 E23.51263
G1 X95.355 Y109.885 E23.55466
G1 X95.525 Y108.998 E23.59671
G1 X95.742 Y108.225 E23.6341
G1 X96.149 Y106.973 E23.6954
G1 X96.388 Y106.288 E23.72918
G1 X96.631 Y105.618 E23.76237
G1 X96.976 Y104.784 E23.8044
G1 X97.405 Y103.963 E23.84753
G1 X97.763 Y103.356 E23.88034
G1 X98.74 Y101.77 E23.96708
G1 X99.071 Y101.249 E23.99582
G1 X99.589 Y100.509 E24.03789
G1 X100.336 Y99.538 E24.09493
G1 X101.471 Y98.119 E24.17954
G1 X102.12 Y97.337 E24.22686
G1 X102.546 Y96.854 E24.25685
G1 X104.264 Y94.993 E24.37479
G1 F2700 E19.37479
;MESH:Squirtle_Glasses.STL
G0 F6000 X111.271 Y101.457
G0 X112.07 Y102.193
G0 X117.306 Y97.489
G0 X117.724 Y119.139
G0 X128.353 Y138.444
;TYPE:WALL-INNER
G1 F2700 E24.37479
G1 F1200 X127.901 Y138.327 E24.39653
G1 X125.647 Y137.741 E24.50497
G1 X122.201 Y136.808 E24.67121
G1 X118.816 Y135.8 E24.83567
G1 X118.636 Y135.736 E24.84456
G1 X115.871 Y134.773 E24.9809
G1 X113.532 Y133.735 E25.10006
G1 X111.965 Y132.713 E25.18717
G1 X111.276 Y131.771 E25.24151
G1 X111.075 Y130.466 E25.303
G1 X111.173 Y128.92 E25.37513
G1 X111.474 Y127.289 E25.45236
G1 X111.896 Y125.502 E25.53786
G1 X112.235 Y123.985 E25.61024
G1 X112.435 Y122.466 E25.68158
G1 X112.312 Y121.099 E25.74549
G1 X111.732 Y119.935 E25.80605
G1 X110.846 Y118.925 E25.86861
G1 X109.729 Y117.904 E25.93907
G1 X108.703 Y116.977 E26.00346
G1 X107.66 Y115.89 E26.07361
G1 X106.764 Y114.636 E26.14537
G1 X106.124 Y113.185 E26.21922
G1 X106.041 Y111.414 E26.30177
G1 X106.76 Y109.344 E26.40381
G1 X108.206 Y106.991 E26.53241
G1 X110.264 Y104.415 E26.68594
G1 X112.755 Y101.714 E26.85703
G1 X115.747 Y98.724 E27.05399
G1 X117.164 Y97.357 E27.14567
G1 X117.5 Y97.032 E27.16744
G1 X117.5 Y97.499 E27.17917
G1 X117.501 Y97.5 E27.17924
G1 X117.562 Y119.182 E28.18885
G1 X128.125 Y138.037 E29.1952
G1 X128.353 Y138.444 E29.20693
G0 F6000 X128.678 Y138.693
G0 X129.161 Y139.066
;TYPE:WALL-OUTER
G1 F1200 X125.542 Y138.127 E29.38102
G1 X122.096 Y137.194 E29.54726
G1 X118.689 Y136.179 E29.71279
G1 X118.504 Y136.114 E29.72193
G1 X115.725 Y135.146 E29.85895
G1 X113.34 Y134.088 E29.98045
G1 X111.686 Y133.009 E30.0724
G1 X110.896 Y131.929 E30.13471
G1 X110.673 Y130.484 E30.20279
G1 X110.775 Y128.871 E30.27805
G1 X111.085 Y127.197 E30.35732
G1 X111.506 Y125.412 E30.44272
G1 X111.841 Y123.915 E30.51415
G1 X112.033 Y122.458 E30.58258
G1 X111.92 Y121.21 E30.64093
G1 X111.398 Y120.161 E30.69549
G1 X111.327 Y120.081 E30.70047
G1 X110.56 Y119.205 E30.75469
G1 X109.46 Y118.2 E30.82407
G1 X108.421 Y117.262 E30.88925
G1 X107.353 Y116.148 E30.96111
G1 X106.414 Y114.834 E31.03631
G1 X105.727 Y113.278 E31.11551
G1 X105.637 Y111.357 E31.20506
G1 X106.396 Y109.172 E31.31276
G1 X107.881 Y106.756 E31.44482
G1 X109.951 Y104.165 E31.59924
G1 X112.472 Y101.431 E31.77241
G1 X115.469 Y98.436 E31.9697
G1 X117.897 Y96.092 E32.12684
G1 X117.962 Y119.077 E33.19713
G1 X129.161 Y139.066 E34.26402
G0 F6000 X128.678 Y138.693
G0 X127.494 Y138.106
G0 X127.565 Y137.836
;TYPE:SKIN
G1 F1200 X125.745 Y137.363 E34.35159
G1 X122.312 Y136.434 E34.51719
G1 X118.937 Y135.429 E34.68116
G1 X118.765 Y135.368 E34.68966
G1 X116.02 Y134.411 E34.82503
G1 X113.719 Y133.391 E34.94223
G1 X112.236 Y132.423 E35.02469
G1 X111.648 Y131.62 E35.07103
G1 X111.467 Y130.45 E35.12616
G1 X111.561 Y128.965 E35.19545
G1 X111.854 Y127.379 E35.27055
G1 X112.276 Y125.59 E35.35614
