;FLAVOR:Marlin
;TIME:1672
;Filament used: 0.84768m
;Layer height: 0.2
;MINX:36.354
;MINY:26.932
;MINZ:0.2
;MAXX:177.704
;MAXY:222.295
;MAXZ:0.4
;Generated with Cura_SteamEngine 4.7.0
M140 S55
M105
M190 S55
M104 S210
M105
M109 S210
M82 ;absolute extrusion mode
; Ender 3 Custom Start G-code
G92 E0 ; Reset Extruder
G28 ; Home all axes
G1 Z2.0 F3000 ; Move Z Axis up little to prevent scratching of Heat Bed
G1 X0.1 Y20 Z0.3 F5000.0 ; Move to start position
G1 X0.1 Y200.0 Z0.3 F1500.0 E15 ; Draw the first line
G1 X0.4 Y200.0 Z0.3 F5000.0 ; Move to side a little
G1 X0.4 Y20 Z0.3 F1500.0 E30 ; Draw the second line
G92 E0 ; Reset Extruder
G1 Z2.0 F3000 ; Move Z Axis up little to prevent scratching of Heat Bed
G1 X5 Y20 Z0.3 F5000.0 ; Move over to prevent blob squish
G92 E0
G92 E0
G1 F2700 E-5
;LAYER_COUNT:2
;LAYER:0
M107
G0 F6000 X68.79 Y74.627 Z0.2
;TYPE:SKIRT
G1 F2700 E0
G1 F1200 X69.491 Y73.977 E0.0318
G1 X70.196 Y73.378 E0.06257
G1 X70.354 Y73.246 E0.06941
G1 X73.038 Y71.051 E0.18473
G1 X75.024 Y69.378 E0.2711
G1 X76.928 Y67.681 E0.35593
G1 X78.733 Y65.98 E0.43842
G1 X80.528 Y64.187 E0.52281
G1 X82.239 Y62.381 E0.60555
G1 X83.942 Y60.476 E0.69054
G1 X85.545 Y58.578 E0.77317
G1 X87.115 Y56.611 E0.85688
G1 X88.643 Y54.579 E0.94144
G1 X90.09 Y52.538 E1.02465
G1 X91.512 Y50.405 E1.10992
G1 X92.825 Y48.311 E1.19212
G1 X94.098 Y46.147 E1.27563
G1 X95.311 Y43.946 E1.35921
G1 X95.444 Y43.689 E1.36884
G1 X96.09 Y42.471 E1.41469
G1 X96.226 Y42.223 E1.4241
G1 X96.5 Y41.737 E1.44266
G1 X96.661 Y41.46 E1.45331
G1 X96.746 Y41.319 E1.45879
G1 X96.877 Y41.107 E1.46708
G1 X97.163 Y40.656 E1.48484
G1 X97.336 Y40.392 E1.49534
G1 X97.442 Y40.235 E1.50164
G1 X97.596 Y40.013 E1.51063
G1 X97.887 Y39.604 E1.52732
G1 X98.057 Y39.372 E1.53689
G1 X98.175 Y39.215 E1.54342
G1 X98.362 Y38.972 E1.55362
G1 X98.737 Y38.501 E1.57364
G1 X98.972 Y38.216 E1.58593
G1 X99.154 Y38.004 E1.59522
G1 X99.504 Y37.606 E1.61285
G1 X99.683 Y37.407 E1.62175
G1 X99.84 Y37.237 E1.62945
G1 X100.073 Y36.992 E1.64069
G1 X100.402 Y36.657 E1.65631
G1 X100.599 Y36.462 E1.66553
G1 X100.756 Y36.31 E1.6728
G1 X100.948 Y36.129 E1.68157
G1 X101.349 Y35.759 E1.69972
G1 X101.644 Y35.496 E1.71287
G1 X101.913 Y35.267 E1.72462
G1 X102.372 Y34.887 E1.74444
G1 X102.614 Y34.692 E1.75477
G1 X102.885 Y34.484 E1.76614
G1 X103.355 Y34.134 E1.78563
G1 X103.598 Y33.958 E1.79561
G1 X103.726 Y33.868 E1.80081
G1 X103.947 Y33.717 E1.80971
G1 X104.392 Y33.42 E1.82751
G1 X104.632 Y33.264 E1.83703
G1 X104.816 Y33.148 E1.84426
G1 X105.087 Y32.982 E1.85483
G1 X105.517 Y32.728 E1.87144
G1 X105.77 Y32.583 E1.88114
G1 X105.959 Y32.478 E1.88833
G1 X106.198 Y32.349 E1.89737
G1 X106.662 Y32.106 E1.91479
G1 X106.9 Y31.985 E1.92367
G1 X107.046 Y31.913 E1.92908
G1 X107.299 Y31.793 E1.93839
G1 X107.758 Y31.581 E1.95521
G1 X108.106 Y31.427 E1.96787
G1 X108.495 Y31.265 E1.98188
G1 X108.977 Y31.072 E1.99915
G1 X109.292 Y30.952 E2.01036
G1 X109.459 Y30.891 E2.01628
G1 X109.703 Y30.805 E2.02488
G1 X110.249 Y30.62 E2.04406
G1 X110.573 Y30.515 E2.05538
G1 X110.724 Y30.469 E2.06063
G1 X110.945 Y30.405 E2.06829
G1 X111.328 Y30.297 E2.08152
G1 X111.63 Y30.216 E2.09192
G1 X112.389 Y30.025 E2.11795
G1 X112.862 Y29.9 E2.13422
G1 X114.811 Y29.396 E2.20118
G1 X117.237 Y28.695 E2.28517
G1 X119.946 Y27.824 E2.37982
G1 X120.358 Y27.684 E2.39429
G1 X120.743 Y27.561 E2.40773
G1 X121.023 Y27.477 E2.41745
G1 X122.168 Y27.199 E2.45664
G1 X122.506 Y27.136 E2.46808
G1 X123.682 Y26.982 E2.50753
G1 X123.891 Y26.966 E2.5145
G1 X124.571 Y26.935 E2.53714
G1 X124.777 Y26.932 E2.54399
G1 X125.832 Y26.967 E2.5791
G1 X126.126 Y26.991 E2.58891
G1 X127.276 Y27.147 E2.62751
G1 X127.535 Y27.196 E2.63628
G1 X128.604 Y27.454 E2.67285
G1 X128.892 Y27.539 E2.68284
G1 X129.959 Y27.914 E2.72046
G1 X130.234 Y28.027 E2.73035
G1 X131.402 Y28.59 E2.77347
G1 X131.65 Y28.728 E2.78291
G1 X132.236 Y29.078 E2.80561
G1 X132.339 Y29.144 E2.80968
G1 X132.835 Y29.482 E2.82965
G1 X133.039 Y29.629 E2.83801
G1 X133.268 Y29.798 E2.84747
G1 X133.924 Y30.297 E2.87489
G1 X134.503 Y30.75 E2.89934
G1 X136.531 Y32.248 E2.9832
G1 X138.59 Y33.679 E3.06659
G1 X140.706 Y35.065 E3.15073
G1 X142.839 Y36.376 E3.234
G1 X145.055 Y37.654 E3.31908
G1 X147.225 Y38.823 E3.40106
G1 X149.478 Y39.958 E3.48497
G1 X152.499 Y41.358 E3.59571
G1 X153.112 Y41.629 E3.61801
G1 X153.606 Y41.863 E3.63619
G1 X154.169 Y42.146 E3.65715
G1 X154.409 Y42.27 E3.66613
G1 X154.739 Y42.451 E3.67865
G1 X155.205 Y42.717 E3.69649
G1 X155.424 Y42.845 E3.70493
G1 X155.532 Y42.91 E3.70912
G1 X155.786 Y43.068 E3.71907
G1 X156.252 Y43.366 E3.73747
G1 X156.533 Y43.551 E3.74866
G1 X156.818 Y43.749 E3.7602
G1 X157.243 Y44.054 E3.7776
G1 X157.486 Y44.233 E3.78764
G1 X157.748 Y44.436 E3.79866
G1 X158.196 Y44.792 E3.8177
G1 X158.467 Y45.014 E3.82935
G1 X158.707 Y45.219 E3.83985
G1 X159.128 Y45.589 E3.85849
G1 X159.567 Y45.997 E3.87842
G1 X159.975 Y46.397 E3.89742
G1 X160.216 Y46.641 E3.90883
G1 X160.354 Y46.785 E3.91547
G1 X160.515 Y46.957 E3.9233
G1 X160.896 Y47.372 E3.94204
G1 X161.25 Y47.777 E3.95993
G1 X161.581 Y48.175 E3.97715
G1 X161.767 Y48.405 E3.98699
G1 X161.878 Y48.546 E3.99295
G1 X162.065 Y48.791 E4.0032
G1 X162.4 Y49.242 E4.02189
G1 X162.727 Y49.705 E4.04074
G1 X163.193 Y50.405 E4.06871
G1 X163.357 Y50.659 E4.07877
G1 X163.657 Y51.139 E4.0976
G1 X165.064 Y53.45 E4.18758
G1 X166.404 Y55.519 E4.26957
G1 X167.848 Y57.613 E4.35417
G1 X169.339 Y59.651 E4.43816
G1 X170.876 Y61.632 E4.52155
G1 X172.481 Y63.585 E4.60563
G1 X174.114 Y65.459 E4.68831
G1 X174.293 Y65.654 E4.69711
G1 X174.942 Y66.384 E4.7296
G1 X175.534 Y67.111 E4.76078
G1 X176.062 Y67.887 E4.792
G1 X176.522 Y68.704 E4.82318
G1 X176.911 Y69.558 E4.8544
G1 X177.225 Y70.441 E4.88557
G1 X177.463 Y71.348 E4.91675
G1 X177.623 Y72.272 E4.94794
G1 X177.704 Y73.207 E4.97916
G1 X177.704 Y74.145 E5.01036
G1 X177.625 Y75.079 E5.04153
G1 X177.467 Y76.004 E5.07274
G1 X177.246 Y76.859 E5.10212
G1 X177.142 Y77.204 E5.1141
G1 X177.044 Y77.512 E5.12485
G1 X175.371 Y82.524 E5.30059
G1 X175.074 Y83.379 E5.3307
G1 X174.729 Y84.25 E5.36186
G1 X174.31 Y85.089 E5.39305
G1 X173.65 Y86.138 E5.43427
G1 X173.214 Y86.751 E5.45929
G1 X171.789 Y88.813 E5.54265
G1 X170.414 Y90.926 E5.6265
G1 X169.076 Y93.118 E5.71192
G1 X167.848 Y95.263 E5.79413
G1 X166.656 Y97.487 E5.87805
G1 X165.523 Y99.754 E5.96234
G1 X164.477 Y102.007 E6.04496
G1 X163.462 Y104.359 E6.13016
G1 X162.535 Y106.691 E6.21363
G1 X161.676 Y109.042 E6.29688
G1 X160.878 Y111.436 E6.38081
G1 X160.153 Y113.83 E6.46401
G1 X159.488 Y116.275 E6.54828
G1 X158.902 Y118.703 E6.63136
G1 X158.385 Y121.137 E6.71412
G1 X157.926 Y123.65 E6.79908
G1 X157.54 Y126.16 E6.88355
G1 X157.234 Y128.618 E6.96593
G1 X156.993 Y131.129 E7.04983
G1 X156.792 Y134.218 E7.15279
G1 X156.761 Y134.853 E7.17393
G1 X156.676 Y135.786 E7.2051
G1 X156.511 Y136.71 E7.23631
G1 X156.268 Y137.616 E7.26751
G1 X155.839 Y138.756 E7.30802
G1 X155.739 Y138.983 E7.31628
G1 X154.723 Y141.375 E7.40271
G1 X153.815 Y143.686 E7.4853
G1 X152.94 Y146.121 E7.57136
G1 X152.172 Y148.469 E7.65352
G1 X151.449 Y150.904 E7.738
G1 X150.793 Y153.368 E7.82281
G1 X150.225 Y155.776 E7.9051
G1 X149.722 Y158.205 E7.9876
G1 X149.274 Y160.736 E8.07309
G1 X148.906 Y163.225 E8.15678
G1 X148.608 Y165.72 E8.24035
G1 X148.545 Y166.438 E8.26432
G1 X148.522 Y166.614 E8.27023
G1 X148.39 Y167.956 E8.31508
G1 X148.259 Y168.885 E8.34628
G1 X148.049 Y169.799 E8.37747
G1 X147.762 Y170.691 E8.40864
G1 X147.399 Y171.557 E8.43987
G1 X146.965 Y172.388 E8.47105
G1 X146.461 Y173.179 E8.50225
G1 X145.725 Y174.12 E8.54198
G1 X145.335 Y174.564 E8.56164
G1 X144.103 Y175.93 E8.62282
G1 X142.497 Y177.816 E8.70521
G1 X140.896 Y179.807 E8.79019
G1 X139.388 Y181.797 E8.87323
G1 X137.942 Y183.82 E8.95594
G1 X136.513 Y185.942 E9.04103
G1 X135.197 Y188.023 E9.12292
G1 X133.851 Y190.325 E9.21161
G1 X132.956 Y191.833 E9.26994
G1 X131.655 Y194.094 E9.3567
G1 X130.463 Y196.31 E9.44039
G1 X129.329 Y198.57 E9.52449
G1 X128.285 Y200.805 E9.60654
G1 X127.266 Y203.159 E9.69185
G1 X126.354 Y205.436 E9.77343
G1 X125.452 Y207.892 E9.86045
G1 X125.323 Y208.262 E9.87349
G1 X124.999 Y209.161 E9.90527
G1 X124.798 Y209.679 E9.92375
G1 X124.618 Y210.109 E9.93926
G1 X124.408 Y210.578 E9.95635
G1 X124.202 Y211.012 E9.97233
G1 X123.963 Y211.486 E9.98998
G1 X123.758 Y211.869 E10.00443
G1 X123.462 Y212.387 E10.02427
G1 X123.193 Y212.83 E10.04151
G1 X122.892 Y213.299 E10.06005
G1 X122.613 Y213.71 E10.07657
G1 X122.309 Y214.136 E10.09398
G1 X122.038 Y214.497 E10.10899
G1 X121.645 Y214.991 E10.12998
G1 X121.308 Y215.39 E10.14736
G1 X120.965 Y215.777 E10.16455
G1 X120.653 Y216.113 E10.17981
G1 X120.247 Y216.527 E10.19909
G1 X119.891 Y216.872 E10.21558
G1 X119.472 Y217.258 E10.23453
G1 X119.164 Y217.527 E10.24813
G1 X118.707 Y217.905 E10.26785
G1 X118.546 Y218.031 E10.27465
G1 X118.12 Y218.348 E10.29232
G1 X117.932 Y218.481 E10.29998
G1 X117.504 Y218.769 E10.31713
G1 X117.346 Y218.87 E10.32337
G1 X116.791 Y219.202 E10.34488
G1 X116.589 Y219.315 E10.35258
G1 X116.117 Y219.564 E10.37033
G1 X115.932 Y219.656 E10.3772
G1 X115.445 Y219.884 E10.39509
G1 X115.228 Y219.979 E10.40296
G1 X114.647 Y220.214 E10.42381
G1 X114.437 Y220.292 E10.43126
G1 X113.906 Y220.473 E10.44992
G1 X113.712 Y220.534 E10.45668
G1 X113.072 Y220.715 E10.4788
G1 X112.803 Y220.782 E10.48802
G1 X112.029 Y220.945 E10.51433
G1 X111.661 Y221.009 E10.52676
G1 X110.79 Y221.125 E10.55598
G1 X110.736 Y221.13 E10.55779
G1 X110.116 Y221.17 E10.57845
G1 X109.475 Y221.193 E10.59978
G1 X108.748 Y221.195 E10.62396
G1 X107.532 Y221.158 E10.66443
G1 X104.895 Y221.116 E10.75214
G1 X102.415 Y221.147 E10.83464
G1 X99.884 Y221.251 E10.91889
G1 X97.368 Y221.425 E11.00277
G1 X94.848 Y221.671 E11.08698
G1 X92.357 Y221.985 E11.17049
G1 X91.714 Y222.082 E11.19212
G1 X91.522 Y222.109 E11.19857
G1 X90.987 Y222.18 E11.21652
G1 X90.396 Y222.243 E11.23629
G1 X90.127 Y222.264 E11.24526
G1 X89.048 Y222.295 E11.28116
G1 X88.801 Y222.29 E11.28938
G1 X87.929 Y222.237 E11.31844
G1 X87.759 Y222.22 E11.32412
G1 X86.414 Y222.001 E11.36944
G1 X85.904 Y221.885 E11.38684
G1 X85 Y221.638 E11.41801
G1 X84.554 Y221.486 E11.43368
G1 X84.336 Y221.406 E11.4414
G1 X83.404 Y221.014 E11.47503
G1 X83.181 Y220.908 E11.48324
G1 X82.387 Y220.49 E11.51309
G1 X82.23 Y220.399 E11.51912
G1 X81.51 Y219.944 E11.54745
G1 X81.324 Y219.816 E11.55496
G1 X81.086 Y219.647 E11.56467
G1 X80.847 Y219.473 E11.5745
G1 X80.631 Y219.312 E11.58346
G1 X80.079 Y218.889 E11.60659
G1 X79.406 Y218.364 E11.63498
G1 X77.434 Y216.913 E11.71641
G1 X75.342 Y215.463 E11.80107
G1 X73.221 Y214.079 E11.88531
G1 X71.068 Y212.762 E11.96925
G1 X68.922 Y211.529 E12.05157
G1 X66.662 Y210.315 E12.1369
G1 X64.465 Y209.213 E12.21865
G1 X61.505 Y207.844 E12.32712
G1 X60.962 Y207.604 E12.34686
G1 X60.648 Y207.46 E12.35835
G1 X60.375 Y207.326 E12.36847
G1 X59.797 Y207.033 E12.39002
G1 X59.318 Y206.775 E12.40812
G1 X58.852 Y206.509 E12.42596
G1 X58.552 Y206.332 E12.43755
G1 X58.278 Y206.163 E12.44826
G1 X57.816 Y205.868 E12.46649
G1 X57.536 Y205.683 E12.47765
G1 X57.251 Y205.485 E12.48919
G1 X56.854 Y205.201 E12.50543
G1 X56.623 Y205.032 E12.51495
G1 X56.488 Y204.93 E12.52057
G1 X56.261 Y204.753 E12.53015
G1 X55.792 Y204.379 E12.5501
G1 X55.365 Y204.021 E12.56863
G1 X54.969 Y203.671 E12.58621
G1 X54.674 Y203.402 E12.59949
G1 X54.418 Y203.159 E12.61123
G1 X54.078 Y202.825 E12.62708
G1 X53.869 Y202.613 E12.63698
G1 X53.734 Y202.473 E12.64345
G1 X53.545 Y202.273 E12.6526
G1 X53.158 Y201.851 E12.67165
G1 X52.813 Y201.456 E12.68909
G1 X52.489 Y201.067 E12.70593
G1 X52.277 Y200.805 E12.71714
G1 X52.162 Y200.658 E12.72335
G1 X51.999 Y200.443 E12.73232
G1 X51.654 Y199.979 E12.75155
G1 X51.32 Y199.505 E12.77084
G1 X50.862 Y198.816 E12.79835
G1 X50.704 Y198.571 E12.80805
G1 X50.403 Y198.089 E12.82695
G1 X49.051 Y195.866 E12.91349
G1 X47.668 Y193.73 E12.99812
G1 X46.258 Y191.68 E13.08088
G1 X44.754 Y189.623 E13.16563
G1 X43.227 Y187.653 E13.24853
G1 X41.61 Y185.683 E13.3333
G1 X39.99 Y183.822 E13.41537
G1 X39.763 Y183.574 E13.42655
G1 X39.105 Y182.832 E13.45953
G1 X38.514 Y182.104 E13.49072
G1 X37.987 Y181.328 E13.52192
G1 X37.529 Y180.51 E13.5531
G1 X37.141 Y179.655 E13.58433
G1 X36.828 Y178.771 E13.61552
G1 X36.591 Y177.864 E13.6467
G1 X36.433 Y176.939 E13.67791
G1 X36.354 Y176.005 E13.70909
G1 X36.354 Y175.067 E13.74028
G1 X36.435 Y174.133 E13.77147
G1 X36.595 Y173.209 E13.80266
G1 X36.82 Y172.345 E13.83235
G1 X36.934 Y171.97 E13.84539
G1 X37.024 Y171.686 E13.8553
G1 X38.687 Y166.704 E14.02999
G1 X38.984 Y165.849 E14.06009
G1 X39.329 Y164.978 E14.09125
G1 X39.748 Y164.139 E14.12244
G1 X40.41 Y163.088 E14.16375
G1 X40.813 Y162.521 E14.18689
G1 X42.27 Y160.414 E14.27209
G1 X43.661 Y158.275 E14.35696
G1 X44.96 Y156.149 E14.43982
G1 X46.216 Y153.955 E14.52391
G1 X47.402 Y151.741 E14.60744
G1 X48.536 Y149.471 E14.69184
G1 X49.584 Y147.216 E14.77455
G1 X50.592 Y144.877 E14.85926
G1 X51.51 Y142.572 E14.94178
G1 X52.382 Y140.184 E15.02634
G1 X53.179 Y137.795 E15.1101
G1 X53.906 Y135.394 E15.19354
G1 X54.577 Y132.924 E15.27867
G1 X55.15 Y130.555 E15.35973
G1 X55.68 Y128.059 E15.4446
G1 X56.129 Y125.596 E15.52787
G1 X56.513 Y123.094 E15.61206
G1 X56.83 Y120.551 E15.6973
G1 X57.065 Y118.096 E15.77932
G1 X57.266 Y115.008 E15.88225
G1 X57.297 Y114.374 E15.90336
G1 X57.383 Y113.44 E15.93456
G1 X57.547 Y112.517 E15.96574
G1 X57.79 Y111.611 E15.99694
G1 X58.219 Y110.471 E16.03745
G1 X58.319 Y110.244 E16.0457
G1 X59.341 Y107.838 E16.13264
G1 X60.243 Y105.541 E16.21472
G1 X61.118 Y103.106 E16.30078
G1 X61.886 Y100.758 E16.38294
G1 X62.609 Y98.323 E16.46743
G1 X63.265 Y95.859 E16.55224
G1 X63.833 Y93.451 E16.63452
G1 X64.336 Y91.022 E16.71703
G1 X64.784 Y88.491 E16.80252
G1 X65.152 Y86.002 E16.8862
G1 X65.45 Y83.507 E16.96977
G1 X65.515 Y82.777 E16.99415
G1 X65.534 Y82.635 E16.99892
G1 X65.665 Y81.291 E17.04383
G1 X65.796 Y80.362 E17.07503
G1 X66.005 Y79.448 E17.10622
G1 X66.292 Y78.555 E17.13742
G1 X66.654 Y77.69 E17.1686
G1 X67.088 Y76.858 E17.19981
G1 X67.591 Y76.067 E17.23099
G1 X68.16 Y75.321 E17.2622
G1 X68.79 Y74.627 E17.29337
G0 F6000 X69.17 Y74.813
G1 F1200 X69.75 Y74.282 E17.31953
G1 X70.455 Y73.683 E17.3503
G1 X70.607 Y73.556 E17.35688
G1 X73.3 Y71.354 E17.47258
G1 X75.285 Y69.682 E17.55891
G1 X77.186 Y67.988 E17.6436
G1 X79.006 Y66.271 E17.72682
G1 X80.818 Y64.462 E17.81198
G1 X82.546 Y62.638 E17.89554
G1 X84.227 Y60.757 E17.97945
G1 X85.861 Y58.823 E18.06366
G1 X87.435 Y56.85 E18.1476
G1 X88.956 Y54.828 E18.23176
G1 X90.432 Y52.745 E18.31667
G1 X91.815 Y50.671 E18.39958
G1 X93.174 Y48.505 E18.48463
G1 X94.45 Y46.337 E18.5683
G1 X95.674 Y44.116 E18.65265
G1 X95.798 Y43.876 E18.66163
G1 X96.444 Y42.658 E18.70749
G1 X96.574 Y42.419 E18.71654
G1 X96.848 Y41.933 E18.73509
G1 X97.004 Y41.666 E18.74538
G1 X97.089 Y41.525 E18.75085
G1 X97.215 Y41.321 E18.75883
G1 X97.501 Y40.87 E18.77659
G1 X97.668 Y40.616 E18.7867
G1 X97.774 Y40.459 E18.793
G1 X97.922 Y40.245 E18.80166
G1 X98.213 Y39.836 E18.81835
G1 X98.376 Y39.612 E18.82756
G1 X98.494 Y39.455 E18.8341
G1 X98.675 Y39.222 E18.84391
G1 X99.05 Y38.751 E18.86393
G1 X99.279 Y38.473 E18.87591
G1 X99.454 Y38.268 E18.88488
G1 X99.804 Y37.87 E18.90251
G1 X99.977 Y37.678 E18.9111
G1 X100.134 Y37.508 E18.9188
G1 X100.358 Y37.273 E18.9296
G1 X100.687 Y36.938 E18.94521
G1 X100.877 Y36.749 E18.95413
G1 X101.034 Y36.597 E18.9614
G1 X101.219 Y36.423 E18.96984
G1 X101.62 Y36.053 E18.98799
G1 X101.904 Y35.8 E19.00064
G1 X102.168 Y35.575 E19.01218
G1 X102.627 Y35.195 E19.032
G1 X102.863 Y35.005 E19.04207
G1 X103.124 Y34.804 E19.05303
G1 X103.594 Y34.454 E19.07252
G1 X103.828 Y34.285 E19.08212
G1 X103.956 Y34.195 E19.08733
G1 X104.169 Y34.049 E19.09591
G1 X104.614 Y33.752 E19.11371
G1 X104.845 Y33.602 E19.12287
G1 X105.029 Y33.486 E19.1301
G1 X105.291 Y33.326 E19.14032
G1 X105.721 Y33.072 E19.15693
G1 X105.964 Y32.933 E19.16624
G1 X106.153 Y32.828 E19.17343
G1 X106.383 Y32.704 E19.18212
G1 X106.847 Y32.461 E19.19954
G1 X107.077 Y32.344 E19.20812
G1 X107.223 Y32.272 E19.21354
G1 X107.466 Y32.156 E19.22249
G1 X107.925 Y31.944 E19.23931
G1 X108.261 Y31.796 E19.25152
G1 X108.475 Y31.706 E19.25924
G1 X109.126 Y31.444 E19.28258
G1 X109.429 Y31.327 E19.29338
