;FLAVOR:Marlin
;TIME:23042
;Filament used: 18.4272m
;Layer height: 0.24
;MINX:27.935
;MINY:81.64
;MINZ:0.28
;MAXX:206.2
;MAXY:153.357
;MAXZ:25.24
;Generated with Cura_SteamEngine 4.6.1
M140 S50
M105
M190 S50
M104 S200
M105
M109 S200
M82 ;absolute extrusion mode
; Ender 3 Custom Start G-code
G92 E0 ; Reset Extruder
G28 ; Home all axes
G1 Z2.0 F3000 ; Move Z Axis up little to prevent scratching of Heat Bed
G1 X0.1 Y20 Z0.3 F5000.0 ; Move to start position
G1 X0.1 Y200.0 Z0.3 F1500.0 E15 ; Draw the first line
G1 X0.4 Y200.0 Z0.3 F5000.0 ; Move to side a little
G1 X0.4 Y20 Z0.3 F1500.0 E30 ; Draw the second line
G92 E0 ; Reset Extruder
G1 Z2.0 F3000 ; Move Z Axis up little to prevent scratching of Heat Bed
G1 X5 Y20 Z0.3 F5000.0 ; Move over to prevent blob squish
G92 E0
G92 E0
G1 F2700 E-5
;LAYER_COUNT:105
;LAYER:0
M107
;MESH:base.STL
G0 F6000 X51.425 Y131.667 Z0.28
;TYPE:WALL-INNER
G1 F2700 E0
G1 F1200 X51.425 Y127.292 E0.20372
G1 X46.662 Y127.292 E0.4255
G1 X46.662 Y120.942 E0.72119
G1 X42.287 Y120.942 E0.9249
G1 X42.287 Y127.292 E1.22059
G1 X37.525 Y127.292 E1.44233
G1 X37.525 Y131.667 E1.64604
G1 X51.425 Y131.667 E2.29329
G0 F6000 X51.025 Y131.267
;TYPE:WALL-OUTER
G1 F1200 X51.025 Y127.692 E2.45975
G1 X46.262 Y127.692 E2.68154
G1 X46.262 Y121.342 E2.97722
G1 X42.687 Y121.342 E3.14369
G1 X42.687 Y127.692 E3.43937
G1 X37.925 Y127.692 E3.66111
G1 X37.925 Y131.267 E3.82758
G1 X51.025 Y131.267 E4.43757
G1 F2700 E-0.56243
G0 F6000 X51.325 Y131.267
G0 X51.615 Y131.667
G0 X50.172 Y130.414
G0 X184.828 Y130.414
G0 X183.385 Y131.667
G0 X183.575 Y131.667
;TYPE:WALL-INNER
G1 F2700 E4.43757
G1 F1200 X197.475 Y131.667 E5.08481
G1 X197.475 Y127.292 E5.28853
G1 X192.712 Y127.292 E5.51031
G1 X192.712 Y120.942 E5.806
G1 X188.338 Y120.942 E6.00967
G1 X188.338 Y127.292 E6.30535
G1 X183.575 Y127.292 E6.52714
G1 X183.575 Y131.667 E6.73085
G0 F6000 X183.975 Y131.267
;TYPE:WALL-OUTER
G1 F1200 X197.075 Y131.267 E7.34084
G1 X197.075 Y127.692 E7.50731
G1 X192.312 Y127.692 E7.7291
G1 X192.312 Y121.342 E8.02478
G1 X188.738 Y121.342 E8.1912
G1 X188.738 Y127.692 E8.48688
G1 X183.975 Y127.692 E8.70867
G1 X183.975 Y131.267 E8.87513
G1 F2700 E3.87513
G0 F6000 X183.675 Y131.267
G0 X183.739 Y131.472
G0 X197.671 Y131.863
G0 X197.671 Y134.605
G0 X203.653 Y134.987
G0 X203.825 Y152.012
;TYPE:WALL-INNER
G1 F2700 E8.87513
G1 F1200 X203.825 Y151.813 E8.8844
G1 X203.825 Y134.815 E9.6759
G1 X31.175 Y134.815 E17.71521
G1 X31.175 Y152.011 E18.51592
G1 X29.399 Y152.012 E18.59862
G1 X29.2 Y152.012 E18.60789
G1 X29.2 Y151.813 E18.61388
G1 X29.2 Y126.321 E19.8009
G1 X29.212 Y126.157 E19.80855
G1 X29.252 Y125.993 E19.81641
G1 X29.307 Y125.858 E19.8232
G1 X29.386 Y125.728 E19.83029
G1 X29.488 Y125.61 E19.83755
G1 X29.603 Y125.511 E19.84461
G1 X29.738 Y125.429 E19.85197
G1 X29.887 Y125.367 E19.85948
G1 X30.027 Y125.333 E19.86619
G1 X30.278 Y125.317 E19.8779
G1 X40.312 Y125.317 E20.34513
G1 X40.312 Y120.007 E20.59239
G1 X40.327 Y119.796 E20.60224
G1 X40.361 Y119.652 E20.60912
G1 X40.422 Y119.505 E20.61654
G1 X40.498 Y119.381 E20.62331
G1 X40.601 Y119.26 E20.63071
G1 X40.723 Y119.156 E20.63817
G1 X40.847 Y119.079 E20.64497
G1 X40.998 Y119.017 E20.65257
G1 X41.143 Y118.982 E20.65951
G1 X41.318 Y118.968 E20.66769
G1 X45.075 Y118.967 E20.84263
G1 X45.075 Y83.046 E22.51526
G1 X45.089 Y82.873 E22.52335
G1 X45.123 Y82.729 E22.53024
G1 X45.186 Y82.576 E22.53794
G1 X45.26 Y82.455 E22.54454
G1 X45.365 Y82.331 E22.55211
G1 X45.48 Y82.232 E22.55918
G1 X45.61 Y82.154 E22.56624
G1 X45.759 Y82.092 E22.57375
G1 X45.909 Y82.055 E22.58094
G1 X46.085 Y82.041 E22.58917
G1 X191.306 Y82.04 E29.35126
G1 X192.092 Y82.04 E29.38786
G1 X192.267 Y82.054 E29.39604
G1 X192.416 Y82.089 E29.40316
G1 X192.555 Y82.146 E29.41016
G1 X192.693 Y82.23 E29.41768
G1 X192.806 Y82.327 E29.42462
G1 X192.911 Y82.451 E29.43218
G1 X192.987 Y82.575 E29.43896
G1 X193.047 Y82.721 E29.44631
G1 X193.085 Y82.874 E29.45365
G1 X193.099 Y83.047 E29.46173
G1 X193.1 Y118.925 E31.13236
G1 X193.85 Y118.98 E31.16737
G1 X194.006 Y119.017 E31.17484
G1 X194.149 Y119.076 E31.18204
G1 X194.273 Y119.152 E31.18882
G1 X194.395 Y119.256 E31.19628
G1 X194.498 Y119.377 E31.20368
G1 X194.573 Y119.498 E31.21031
G1 X194.638 Y119.655 E31.21822
G1 X194.673 Y119.799 E31.22512
G1 X194.686 Y119.97 E31.23311
G1 X194.687 Y125.257 E31.47929
G1 X205.8 Y126.43 E31.99963
G1 X205.8 Y152.011 E33.19079
G1 X204.024 Y152.012 E33.27349
G1 X203.825 Y152.012 E33.27949
G0 F6000 X203.425 Y152.412
;TYPE:WALL-OUTER
G1 F1200 X203.425 Y135.215 E34.08025
G1 X31.575 Y135.215 E42.08231
G1 X31.575 Y152.411 E42.88302
G1 X28.8 Y152.412 E43.01224
G1 X28.8 Y126.304 E44.22794
G1 X28.816 Y126.094 E44.23774
G1 X28.869 Y125.874 E44.24828
G1 X28.95 Y125.675 E44.25829
G1 X29.062 Y125.492 E44.26828
G1 X29.205 Y125.326 E44.27848
G1 X29.369 Y125.185 E44.28855
G1 X29.555 Y125.072 E44.29868
G1 X29.762 Y124.985 E44.30914
G1 X29.963 Y124.936 E44.31877
G1 X30.269 Y124.917 E44.33305
G1 X39.912 Y124.917 E44.78207
G1 X39.912 Y119.995 E45.01126
G1 X39.93 Y119.733 E45.02348
G1 X39.979 Y119.53 E45.03321
G1 X40.063 Y119.325 E45.04352
G1 X40.176 Y119.142 E45.05354
G1 X40.317 Y118.976 E45.06368
G1 X40.484 Y118.834 E45.07389
G1 X40.665 Y118.722 E45.0838
G1 X40.874 Y118.635 E45.09434
G1 X41.082 Y118.585 E45.1043
G1 X41.3 Y118.568 E45.11448
G1 X44.675 Y118.567 E45.27164
G1 X44.675 Y83.028 E46.92648
G1 X44.692 Y82.812 E46.93657
G1 X44.742 Y82.603 E46.94658
G1 X44.825 Y82.399 E46.95683
G1 X44.938 Y82.216 E46.96685
G1 X45.08 Y82.049 E46.97706
G1 X45.244 Y81.908 E46.98713
G1 X45.432 Y81.794 E46.99736
G1 X45.635 Y81.71 E47.00759
G1 X45.844 Y81.659 E47.01761
G1 X46.064 Y81.641 E47.02789
G1 X191.306 Y81.64 E53.79097
G1 X192.11 Y81.64 E53.8284
G1 X192.328 Y81.657 E53.83859
G1 X192.537 Y81.707 E53.84859
G1 X192.74 Y81.79 E53.8588
G1 X192.927 Y81.904 E53.869
G1 X193.091 Y82.045 E53.87907
G1 X193.233 Y82.212 E53.88928
G1 X193.346 Y82.395 E53.8993
G1 X193.43 Y82.6 E53.90961
G1 X193.481 Y82.809 E53.91963
G1 X193.499 Y83.026 E53.92977
G1 X193.5 Y118.553 E55.58405
G1 X193.911 Y118.583 E55.60324
G1 X194.129 Y118.635 E55.61368
G1 X194.329 Y118.717 E55.62374
G1 X194.512 Y118.83 E55.63376
G1 X194.679 Y118.972 E55.64397
G1 X194.82 Y119.138 E55.65411
G1 X194.932 Y119.319 E55.66402
G1 X195.019 Y119.529 E55.6746
G1 X195.069 Y119.736 E55.68452
G1 X195.086 Y119.952 E55.69461
G1 X195.087 Y124.897 E55.92487
G1 X206.2 Y126.07 E56.44521
G1 X206.2 Y152.411 E57.67176
G1 X203.425 Y152.412 E57.80097
G0 F6000 X203.695 Y152.142
G0 X203.935 Y151.622
G0 X204.215 Y151.622
;TYPE:SKIN
G1 F1200 X204.215 Y134.425 E58.60174
G1 X30.785 Y134.425 E66.67736
G1 X30.785 Y151.621 E67.47808
G1 X29.59 Y151.622 E67.53373
G1 X29.59 Y126.321 E68.71185
G1 X29.598 Y126.221 E68.71652
G1 X29.623 Y126.116 E68.72154
G1 X29.656 Y126.035 E68.72562
G1 X29.704 Y125.956 E68.72992
G1 X29.764 Y125.887 E68.73418
G1 X29.831 Y125.829 E68.73831
G1 X29.915 Y125.778 E68.74288
G1 X30.011 Y125.738 E68.74772
G1 X30.082 Y125.721 E68.75112
G1 X30.303 Y125.707 E68.76144
G1 X40.702 Y125.707 E69.24566
G1 X40.702 Y120.02 E69.51047
G1 X40.713 Y119.859 E69.51798
G1 X40.733 Y119.775 E69.522
G1 X40.771 Y119.684 E69.52659
G1 X40.818 Y119.607 E69.53079
G1 X40.879 Y119.536 E69.53515
G1 X40.951 Y119.474 E69.53958
G1 X41.03 Y119.426 E69.54388
G1 X41.119 Y119.389 E69.54837
G1 X41.209 Y119.367 E69.55268
G1 X41.325 Y119.358 E69.5581
G1 X45.465 Y119.357 E69.75088
G1 X45.465 Y83.046 E71.44167
G1 X45.474 Y82.943 E71.44648
G1 X45.497 Y82.844 E71.45122
G1 X45.533 Y82.758 E71.45556
G1 X45.578 Y82.683 E71.45963
G1 X45.644 Y82.605 E71.46439
G1 X45.71 Y82.548 E71.46845
G1 X45.782 Y82.505 E71.47235
G1 X45.887 Y82.462 E71.47764
G1 X45.973 Y82.441 E71.48176
G1 X46.092 Y82.431 E71.48732
G1 X191.306 Y82.43 E78.24909
G1 X192.086 Y82.43 E78.28541
G1 X192.198 Y82.439 E78.29064
G1 X192.298 Y82.463 E78.29543
G1 X192.38 Y82.496 E78.29955
G1 X192.463 Y82.547 E78.30409
G1 X192.527 Y82.602 E78.30801
G1 X192.591 Y82.677 E78.31261
G1 X192.641 Y82.758 E78.31704
G1 X192.675 Y82.842 E78.32126
G1 X192.7 Y82.943 E78.3261
G1 X192.709 Y83.047 E78.33096
G1 X192.71 Y119.288 E80.0185
G1 X193.782 Y119.366 E80.06854
G1 X193.888 Y119.391 E80.07362
G1 X193.966 Y119.423 E80.07754
G1 X194.047 Y119.472 E80.08195
G1 X194.119 Y119.533 E80.08634
G1 X194.185 Y119.611 E80.0911
G1 X194.222 Y119.67 E80.09434
G1 X194.267 Y119.781 E80.09992
G1 X194.287 Y119.864 E80.1039
G1 X194.296 Y119.97 E80.10885
G1 X194.297 Y125.608 E80.37138
G1 X205.41 Y126.781 E80.89172
G1 X205.41 Y151.621 E82.04838
G1 X204.215 Y151.622 E82.10402
G1 F2700 E77.10402
G0 F6000 X203.935 Y151.622
G0 X203.653 Y134.987
G0 X197.585 Y134.605
G0 X197.585 Y131.857
G0 X197.865 Y132.057
G1 F2700 E82.10402
G1 F1200 X197.865 Y126.902 E82.34406
G1 X193.102 Y126.902 E82.56584
G1 X193.102 Y120.552 E82.86153
G1 X187.948 Y120.552 E83.10152
G1 X187.948 Y126.902 E83.3972
G1 X183.185 Y126.902 E83.61899
G1 X183.185 Y132.057 E83.85903
G1 X197.865 Y132.057 E84.54259
G1 F2700 E79.54259
G0 F6000 X197.585 Y131.807
G0 X183.385 Y131.807
G0 X184.828 Y130.414
G0 X50.172 Y130.414
G0 X51.615 Y131.807
G0 X51.535 Y131.807
G0 X51.815 Y132.057
G1 F2700 E84.54259
G1 F1200 X51.815 Y126.902 E84.78263
G1 X47.052 Y126.902 E85.00441
G1 X47.052 Y120.552 E85.30009
G1 X41.897 Y120.552 E85.54013
G1 X41.897 Y126.902 E85.83581
G1 X37.135 Y126.902 E86.05755
G1 X37.135 Y132.057 E86.29759
G1 X51.815 Y132.057 E86.98115
G1 F2700 E81.98115
G0 F6000 X51.535 Y131.807
G0 X37.329 Y131.863
G0 X37.329 Y134.605
G0 X36.708 Y134.575
G0 X30.993 Y134.633
G0 X30.949 Y149.335
G0 X29.838 Y151.902
G0 X29.838 Y151.46
G1 F2700 E86.98115
G1 F1200 X29.75 Y151.372 E86.98695
G0 F6000 X29.75 Y150.806
G1 F1200 X30.403 Y151.46 E87.02998
G0 F6000 X30.625 Y151.116
G1 F1200 X29.75 Y150.241 E87.0876
G0 F6000 X29.75 Y149.675
G1 F1200 X30.625 Y150.55 E87.14522
G0 F6000 X30.625 Y149.985
G1 F1200 X29.75 Y149.109 E87.20288
G0 F6000 X29.75 Y148.544
G1 F1200 X30.625 Y149.419 E87.2605
G0 F6000 X30.625 Y148.853
G1 F1200 X29.75 Y147.978 E87.31812
G0 F6000 X29.75 Y147.412
G1 F1200 X30.625 Y148.288 E87.37577
G0 F6000 X30.625 Y147.722
G1 F1200 X29.75 Y146.846 E87.43342
G0 F6000 X29.75 Y146.281
G1 F1200 X30.625 Y147.156 E87.49104
G0 F6000 X30.625 Y146.591
G1 F1200 X29.75 Y145.715 E87.5487
G0 F6000 X29.75 Y145.149
G1 F1200 X30.625 Y146.025 E87.60635
G0 F6000 X30.625 Y145.459
G1 F1200 X29.75 Y144.584 E87.66397
G0 F6000 X29.75 Y144.018
G1 F1200 X30.625 Y144.893 E87.72159
G0 F6000 X30.625 Y144.328
G1 F1200 X29.75 Y143.452 E87.77924
G0 F6000 X29.75 Y142.887
G1 F1200 X30.625 Y143.762 E87.83686
G0 F6000 X30.625 Y143.196
G1 F1200 X29.75 Y142.321 E87.89448
G0 F6000 X29.75 Y141.755
G1 F1200 X30.625 Y142.631 E87.95214
G0 F6000 X30.625 Y142.065
G1 F1200 X29.75 Y141.19 E88.00976
G0 F6000 X29.75 Y140.624
G1 F1200 X30.625 Y141.499 E88.06738
G0 F6000 X30.625 Y140.934
G1 F1200 X29.75 Y140.058 E88.12503
G0 F6000 X29.75 Y139.493
G1 F1200 X30.625 Y140.368 E88.18265
G0 F6000 X30.625 Y139.802
G1 F1200 X29.75 Y138.927 E88.24027
G0 F6000 X29.75 Y138.361
G1 F1200 X30.625 Y139.237 E88.29792
G0 F6000 X30.625 Y138.671
G1 F1200 X29.75 Y137.796 E88.35555
G0 F6000 X29.75 Y137.23
G1 F1200 X30.625 Y138.105 E88.41317
G0 F6000 X30.625 Y137.54
G1 F1200 X29.75 Y136.664 E88.47082
G0 F6000 X29.75 Y136.098
G1 F1200 X30.625 Y136.974 E88.52847
G0 F6000 X30.625 Y136.408
G1 F1200 X29.75 Y135.533 E88.58609
G0 F6000 X29.75 Y134.967
G1 F1200 X30.625 Y135.842 E88.64371
G0 F6000 X30.625 Y135.277
G1 F1200 X29.75 Y134.401 E88.70137
G0 F6000 X29.75 Y133.836
G1 F1200 X30.625 Y134.711 E88.75899
G0 F6000 X30.743 Y134.264
G1 F1200 X29.75 Y133.27 E88.82441
G0 F6000 X29.75 Y132.704
G1 F1200 X31.309 Y134.264 E88.92711
G0 F6000 X31.874 Y134.264
G1 F1200 X29.75 Y132.139 E89.06701
G0 F6000 X29.75 Y131.573
G1 F1200 X32.44 Y134.264 E89.24418
G0 F6000 X33.006 Y134.264
G1 F1200 X29.75 Y131.007 E89.45863
G0 F6000 X29.75 Y130.442
G1 F1200 X33.572 Y134.264 E89.71031
G0 F6000 X34.137 Y134.264
G1 F1200 X29.75 Y129.876 E89.99924
G0 F6000 X29.75 Y129.31
G1 F1200 X34.703 Y134.264 E90.32543
G0 F6000 X35.269 Y134.264
G1 F1200 X29.75 Y128.745 E90.68887
G0 F6000 X29.75 Y128.179
G1 F1200 X35.834 Y134.264 E91.08954
G0 F6000 X36.4 Y134.264
G1 F1200 X29.75 Y127.613 E91.52749
G0 F6000 X29.75 Y127.047
G1 F1200 X36.966 Y134.264 E92.00271
G0 F6000 X37.531 Y134.264
G1 F1200 X29.75 Y126.482 E92.51513
G0 F6000 X29.856 Y126.023
G1 F1200 X38.097 Y134.264 E93.05782
G0 F6000 X38.663 Y134.264
G1 F1200 X30.269 Y125.869 E93.61061
G0 F6000 X30.831 Y125.866
G1 F1200 X36.975 Y132.01 E94.0152
G0 F6000 X37.181 Y132.216
G1 F1200 X39.228 Y134.264 E94.15003
G0 F6000 X39.794 Y134.264
G1 F1200 X37.746 Y132.216 E94.2849
G0 F6000 X38.312 Y132.216
G1 F1200 X40.36 Y134.264 E94.41976
G0 F6000 X40.925 Y134.264
G1 F1200 X38.878 Y132.216 E94.55459
G0 F6000 X39.443 Y132.216
G1 F1200 X41.491 Y134.264 E94.68946
G0 F6000 X42.057 Y134.264
G1 F1200 X40.009 Y132.216 E94.82432
G0 F6000 X40.575 Y132.216
G1 F1200 X42.622 Y134.264 E94.95915
G0 F6000 X43.188 Y134.264
G1 F1200 X41.14 Y132.216 E95.09402
G0 F6000 X41.706 Y132.216
G1 F1200 X43.754 Y134.264 E95.22888
G0 F6000 X44.32 Y134.264
G1 F1200 X42.272 Y132.216 E95.36375
G0 F6000 X42.837 Y132.216
G1 F1200 X44.885 Y134.264 E95.49861
G0 F6000 X45.451 Y134.264
G1 F1200 X43.403 Y132.216 E95.63348
G0 F6000 X43.969 Y132.216
G1 F1200 X46.017 Y134.264 E95.76834
G0 F6000 X46.582 Y134.264
G1 F1200 X44.534 Y132.216 E95.9032
G0 F6000 X45.1 Y132.216
G1 F1200 X47.148 Y134.264 E96.03807
G0 F6000 X47.714 Y134.264
G1 F1200 X45.666 Y132.216 E96.17293
G0 F6000 X46.232 Y132.216
G1 F1200 X48.279 Y134.264 E96.30776
G0 F6000 X48.845 Y134.264
G1 F1200 X46.797 Y132.216 E96.44263
G0 F6000 X47.363 Y132.216
G1 F1200 X49.411 Y134.264 E96.57749
G0 F6000 X49.976 Y134.264
G1 F1200 X47.929 Y132.216 E96.71232
G0 F6000 X48.494 Y132.216
G1 F1200 X50.542 Y134.264 E96.84719
G0 F6000 X51.108 Y134.264
G1 F1200 X49.06 Y132.216 E96.98205
G0 F6000 X49.626 Y132.216
G1 F1200 X51.673 Y134.264 E97.11688
G0 F6000 X52.239 Y134.264
G1 F1200 X50.191 Y132.216 E97.25175
G0 F6000 X50.757 Y132.216
G1 F1200 X52.805 Y134.264 E97.38661
G0 F6000 X53.371 Y134.264
G1 F1200 X51.323 Y132.216 E97.52148
G0 F6000 X51.888 Y132.216
G1 F1200 X53.936 Y134.264 E97.65634
G0 F6000 X54.502 Y134.264
G1 F1200 X51.975 Y131.736 E97.82278
G0 F6000 X51.975 Y131.171
G1 F1200 X55.068 Y134.264 E98.02646
G0 F6000 X55.633 Y134.264
G1 F1200 X51.975 Y130.605 E98.26738
G0 F6000 X51.975 Y130.039
G1 F1200 X56.199 Y134.264 E98.54557
G0 F6000 X56.765 Y134.264
G1 F1200 X51.975 Y129.474 E98.861
G0 F6000 X51.975 Y128.908
G1 F1200 X57.33 Y134.264 E99.21367
G0 F6000 X57.896 Y134.264
G1 F1200 X51.975 Y128.342 E99.60361
G0 F6000 X51.975 Y127.777
G1 F1200 X58.462 Y134.264 E100.03079
G0 F6000 X59.027 Y134.264
G1 F1200 X51.975 Y127.211 E100.49521
G0 F6000 X51.505 Y126.741
G1 F1200 X47.211 Y122.447 E100.77798
G0 F6000 X47.211 Y121.881
G1 F1200 X59.593 Y134.264 E101.59338
G0 F6000 X60.159 Y134.264
G1 F1200 X47.211 Y121.316 E102.44603
G0 F6000 X47.211 Y120.75
G1 F1200 X60.724 Y134.264 E103.33592
G0 F6000 X61.29 Y134.264
G1 F1200 X45.624 Y118.598 E104.36755
G0 F6000 X45.624 Y119.163
G1 F1200 X46.852 Y120.391 E104.44842
G0 F6000 X46.286 Y120.391
G1 F1200 X45.412 Y119.517 E104.50597
G0 F6000 X44.846 Y119.517
G1 F1200 X45.72 Y120.391 E104.56353
G0 F6000 X45.155 Y120.391
G1 F1200 X44.281 Y119.517 E104.62108
G0 F6000 X43.715 Y119.517
G1 F1200 X44.589 Y120.391 E104.67864
G0 F6000 X44.023 Y120.391
G1 F1200 X43.149 Y119.517 E104.73619
G0 F6000 X42.584 Y119.517
G1 F1200 X43.458 Y120.391 E104.79374
G0 F6000 X42.892 Y120.391
G1 F1200 X42.018 Y119.517 E104.8513
G0 F6000 X41.452 Y119.517
G1 F1200 X42.326 Y120.391 E104.90885
G0 F6000 X41.761 Y120.391
G1 F1200 X41.007 Y119.637 E104.95851
G0 F6000 X40.861 Y120.057
G1 F1200 X41.736 Y120.932 E105.01613
G0 F6000 X41.736 Y121.498
G1 F1200 X40.861 Y120.623 E105.07375
G0 F6000 X40.861 Y121.188
G1 F1200 X41.736 Y122.064 E105.1314
G0 F6000 X41.736 Y122.629
G1 F1200 X40.861 Y121.754 E105.18902
G0 F6000 X40.861 Y122.32
G1 F1200 X41.736 Y123.195 E105.24664
G0 F6000 X41.736 Y123.761
G1 F1200 X40.861 Y122.885 E105.30429
G0 F6000 X40.861 Y123.451
G1 F1200 X41.736 Y124.327 E105.36195
