;FLAVOR:Marlin
;TIME:3606
;Filament used: 3.28395m
;Layer height: 0.28
;MINX:5.622
;MINY:90.352
;MINZ:0.28
;MAXX:228.539
;MAXY:149.633
;MAXZ:2.8
;Generated with Cura_SteamEngine 4.9.1
M140 S55
M105
M190 S55
M104 S220
M105
M109 S220
M82 ;absolute extrusion mode
; Ender 3 Custom Start G-code
G92 E0 ; Reset Extruder
G28 ; Home all axes
G1 Z2.0 F3000 ; Move Z Axis up little to prevent scratching of Heat Bed
G1 X0.1 Y20 Z0.3 F5000.0 ; Move to start position
G1 X0.1 Y200.0 Z0.3 F1500.0 E15 ; Draw the first line
G1 X0.4 Y200.0 Z0.3 F5000.0 ; Move to side a little
G1 X0.4 Y20 Z0.3 F1500.0 E30 ; Draw the second line
G92 E0 ; Reset Extruder
G1 Z2.0 F3000 ; Move Z Axis up little to prevent scratching of Heat Bed
G1 X5 Y20 Z0.3 F5000.0 ; Move over to prevent blob squish
G92 E0
G92 E0
G1 F2700 E-5
;LAYER_COUNT:10
;LAYER:0
M107
G0 F6000 X16.065 Y90.462 Z0.28
;TYPE:SKIRT
G1 F2700 E0
G1 F1200 X17.24 Y90.365 E0.0549
G1 X17.56 Y90.356 E0.06981
G1 X17.869 Y90.352 E0.0842
G1 X216.83 Y90.352 E9.34865
G1 X217.686 Y90.363 E9.38851
G1 X218.623 Y90.417 E9.43222
G1 X219.551 Y90.549 E9.47586
G1 X220.465 Y90.761 E9.51955
G1 X221.357 Y91.05 E9.56321
G1 X222.222 Y91.413 E9.6069
G1 X223.052 Y91.849 E9.65055
G1 X223.842 Y92.354 E9.69421
G1 X224.587 Y92.925 E9.73792
G1 X225.28 Y93.557 E9.78159
G1 X225.917 Y94.245 E9.82525
G1 X226.492 Y94.986 E9.86892
G1 X227.003 Y95.772 E9.91258
G1 X227.445 Y96.6 E9.95628
G1 X227.814 Y97.461 E9.9999
G1 X228.109 Y98.352 E10.04361
G1 X228.327 Y99.264 E10.08727
G1 X228.467 Y100.191 E10.13092
G1 X228.525 Y101.053 E10.17115
G1 X228.535 Y101.409 E10.18774
G1 X228.539 Y101.718 E10.20212
G1 X228.538 Y108.921 E10.53753
G1 X228.528 Y109.627 E10.5704
G1 X228.519 Y109.937 E10.58485
G1 X228.473 Y111.02 E10.63532
G1 X228.4 Y113.571 E10.75415
G1 X228.4 Y116.096 E10.87173
G1 X228.472 Y118.675 E10.99186
G1 X228.51 Y119.429 E11.02702
G1 X228.52 Y119.697 E11.03951
G1 X228.535 Y120.278 E11.06657
G1 X228.539 Y120.562 E11.07979
G1 X228.538 Y127.734 E11.41375
G1 X228.527 Y128.452 E11.44719
G1 X228.488 Y129.214 E11.48272
G1 X228.263 Y131.861 E11.60642
G1 X228.12 Y134.395 E11.7246
G1 X228.055 Y137.454 E11.86707
G1 X228.045 Y137.62 E11.87482
G1 X228.028 Y138.781 E11.92888
G1 X227.975 Y139.717 E11.97254
G1 X227.842 Y140.645 E12.01619
G1 X227.63 Y141.559 E12.05988
G1 X227.342 Y142.451 E12.10352
G1 X226.978 Y143.316 E12.14722
G1 X226.542 Y144.146 E12.19088
G1 X226.037 Y144.937 E12.23458
G1 X225.467 Y145.681 E12.27822
G1 X224.835 Y146.374 E12.32189
G1 X224.146 Y147.011 E12.36559
G1 X223.406 Y147.587 E12.40925
G1 X222.619 Y148.097 E12.45292
G1 X221.792 Y148.539 E12.49658
G1 X220.93 Y148.909 E12.54026
G1 X220.04 Y149.204 E12.58392
G1 X219.128 Y149.422 E12.62759
G1 X218.2 Y149.561 E12.67128
G1 X217.338 Y149.62 E12.71151
G1 X217.018 Y149.629 E12.72642
G1 X216.709 Y149.633 E12.74081
G1 X17.604 Y149.632 E22.01197
G1 X16.906 Y149.623 E22.04448
G1 X15.97 Y149.571 E22.08813
G1 X15.041 Y149.439 E22.13182
G1 X14.127 Y149.229 E22.17549
G1 X13.234 Y148.942 E22.21916
G1 X12.369 Y148.579 E22.26285
G1 X11.538 Y148.145 E22.3065
G1 X10.747 Y147.641 E22.35017
G1 X10.002 Y147.071 E22.39385
G1 X9.308 Y146.44 E22.43753
G1 X8.671 Y145.753 E22.48115
G1 X8.094 Y145.013 E22.52485
G1 X7.582 Y144.227 E22.56853
G1 X7.139 Y143.4 E22.61221
G1 X6.768 Y142.539 E22.65587
G1 X6.472 Y141.649 E22.69954
G1 X6.253 Y140.737 E22.74322
G1 X6.112 Y139.81 E22.78688
G1 X6.052 Y138.921 E22.82837
G1 X6.043 Y138.588 E22.84388
G1 X6.039 Y138.291 E22.85771
G1 X6.04 Y131.046 E23.19507
G1 X6.06 Y129.619 E23.26152
G1 X6.06 Y127.014 E23.38282
G1 X5.988 Y124.519 E23.49905
G1 X5.844 Y121.975 E23.61769
G1 X5.741 Y120.662 E23.67902
G1 X5.671 Y119.847 E23.71711
G1 X5.635 Y119.216 E23.74654
G1 X5.626 Y118.897 E23.7614
G1 X5.622 Y118.587 E23.77584
G1 X5.623 Y111.335 E24.11352
G1 X5.634 Y110.617 E24.14696
G1 X5.722 Y109.392 E24.20415
G1 X5.874 Y108.208 E24.25973
G1 X5.943 Y107.726 E24.2824
G1 X6.223 Y105.287 E24.39672
G1 X6.442 Y102.736 E24.51594
G1 X6.521 Y101.371 E24.57961
G1 X6.577 Y100.582 E24.61644
G1 X6.683 Y99.65 E24.66012
G1 X6.868 Y98.731 E24.70377
G1 X7.131 Y97.831 E24.74743
G1 X7.469 Y96.956 E24.79111
G1 X7.881 Y96.113 E24.8348
G1 X8.363 Y95.309 E24.87845
G1 X8.912 Y94.549 E24.9221
G1 X9.524 Y93.838 E24.96579
G1 X10.194 Y93.181 E25.00948
G1 X10.918 Y92.585 E25.05315
G1 X11.689 Y92.052 E25.09679
G1 X12.504 Y91.586 E25.14051
G1 X13.355 Y91.192 E25.18417
G1 X14.236 Y90.872 E25.22782
G1 X15.142 Y90.628 E25.27151
G1 X16.065 Y90.462 E25.31518
G0 F6000 X16.387 Y90.825
G1 F1200 X17.251 Y90.765 E25.35551
G1 X17.571 Y90.756 E25.37041
G1 X17.869 Y90.752 E25.38429
G1 X216.83 Y90.752 E34.64875
G1 X217.681 Y90.763 E34.68838
G1 X218.6 Y90.816 E34.73124
G1 X219.511 Y90.949 E34.77411
G1 X220.407 Y91.16 E34.81697
G1 X221.281 Y91.448 E34.85982
G1 X222.127 Y91.811 E34.90269
G1 X222.939 Y92.246 E34.94558
G1 X223.709 Y92.75 E34.98843
G1 X224.433 Y93.319 E35.03131
G1 X225.105 Y93.948 E35.07417
G1 X225.72 Y94.634 E35.11707
G1 X226.273 Y95.37 E35.15994
G1 X226.76 Y96.151 E35.2028
G1 X227.177 Y96.972 E35.24567
G1 X227.522 Y97.826 E35.28856
G1 X227.791 Y98.706 E35.33141
G1 X227.983 Y99.606 E35.37426
G1 X228.096 Y100.52 E35.41715
G1 X228.125 Y101.064 E35.44251
G1 X228.135 Y101.42 E35.4591
G1 X228.139 Y101.718 E35.47297
G1 X228.138 Y108.915 E35.8081
G1 X228.128 Y109.621 E35.84097
G1 X228.119 Y109.92 E35.8549
G1 X228.077 Y110.906 E35.90086
G1 X228 Y113.594 E36.02607
G1 X228 Y116.107 E36.14309
G1 X228.071 Y118.662 E36.26211
G1 X228.111 Y119.449 E36.2988
G1 X228.12 Y119.707 E36.31082
G1 X228.135 Y120.288 E36.33788
G1 X228.139 Y120.562 E36.35064
G1 X228.138 Y127.727 E36.68427
G1 X228.127 Y128.445 E36.71771
G1 X228.09 Y129.181 E36.75203
G1 X227.861 Y131.878 E36.87806
G1 X227.722 Y134.335 E36.99265
G1 X227.656 Y137.445 E37.1375
G1 X227.644 Y137.623 E37.14581
G1 X227.628 Y138.775 E37.19945
G1 X227.575 Y139.694 E37.24232
G1 X227.442 Y140.605 E37.28519
G1 X227.231 Y141.501 E37.32805
G1 X226.943 Y142.376 E37.37094
G1 X226.58 Y143.222 E37.41381
G1 X226.145 Y144.033 E37.45666
G1 X225.641 Y144.804 E37.49955
G1 X225.073 Y145.528 E37.5424
G1 X224.443 Y146.2 E37.5853
G1 X223.758 Y146.814 E37.62813
G1 X223.022 Y147.367 E37.671
G1 X222.241 Y147.854 E37.71385
G1 X221.42 Y148.272 E37.75675
G1 X220.566 Y148.616 E37.79962
G1 X219.686 Y148.886 E37.84249
G1 X218.785 Y149.077 E37.88537
G1 X217.872 Y149.19 E37.92821
G1 X217.327 Y149.22 E37.95363
G1 X217.007 Y149.229 E37.96853
G1 X216.709 Y149.233 E37.98241
G1 X17.609 Y149.232 E47.25334
G1 X16.911 Y149.223 E47.28584
G1 X15.992 Y149.171 E47.32871
G1 X15.081 Y149.04 E47.37156
G1 X14.185 Y148.83 E47.41441
G1 X13.31 Y148.543 E47.45729
G1 X12.463 Y148.181 E47.50018
G1 X11.651 Y147.747 E47.54306
G1 X10.88 Y147.245 E47.5859
G1 X10.155 Y146.677 E47.62878
G1 X9.482 Y146.048 E47.67168
G1 X8.867 Y145.364 E47.71451
G1 X8.313 Y144.629 E47.75737
G1 X7.825 Y143.848 E47.80025
G1 X7.406 Y143.028 E47.84313
G1 X7.06 Y142.175 E47.88599
G1 X6.79 Y141.295 E47.92885
G1 X6.597 Y140.394 E47.97176
G1 X6.483 Y139.481 E48.0146
G1 X6.452 Y138.91 E48.04123
G1 X6.443 Y138.577 E48.05674
G1 X6.439 Y138.291 E48.07006
G1 X6.44 Y131.051 E48.40718
G1 X6.46 Y129.624 E48.47364
G1 X6.46 Y127.038 E48.59405
G1 X6.387 Y124.486 E48.71293
G1 X6.241 Y121.917 E48.83275
G1 X6.14 Y120.628 E48.89295
G1 X6.07 Y119.813 E48.93104
G1 X6.035 Y119.205 E48.9594
G1 X6.026 Y118.886 E48.97426
G1 X6.022 Y118.587 E48.98818
G1 X6.023 Y111.342 E49.32554
G1 X6.034 Y110.624 E49.35898
G1 X6.118 Y109.443 E49.41411
G1 X6.27 Y108.265 E49.46942
G1 X6.338 Y107.795 E49.49153
G1 X6.624 Y105.296 E49.60865
G1 X6.839 Y102.792 E49.72568
G1 X6.91 Y101.547 E49.78375
G1 X6.976 Y100.611 E49.82744
G1 X7.081 Y99.696 E49.87032
G1 X7.265 Y98.794 E49.91319
G1 X7.526 Y97.911 E49.95606
G1 X7.863 Y97.054 E49.99894
G1 X8.274 Y96.23 E50.04182
G1 X8.754 Y95.445 E50.08467
G1 X9.3 Y94.704 E50.12753
G1 X9.909 Y94.013 E50.17041
G1 X10.575 Y93.378 E50.21326
G1 X11.294 Y92.803 E50.25613
G1 X12.061 Y92.293 E50.29902
G1 X12.868 Y91.85 E50.34189
G1 X13.711 Y91.48 E50.38476
G1 X14.583 Y91.184 E50.42764
G1 X15.477 Y90.965 E50.47049
G1 X16.387 Y90.825 E50.51337
G0 F6000 X15.809 Y91.31
G1 F1200 X16.705 Y91.196 E50.55542
G1 X17.262 Y91.165 E50.5814
G1 X17.582 Y91.156 E50.59631
G1 X17.869 Y91.152 E50.60967
G1 X216.83 Y91.152 E59.87413
G1 X217.675 Y91.163 E59.91348
G1 X218.576 Y91.216 E59.95551
G1 X219.47 Y91.348 E59.99759
G1 X220.348 Y91.559 E60.03963
G1 X221.204 Y91.847 E60.08169
G1 X222.031 Y92.209 E60.12372
G1 X222.823 Y92.643 E60.16578
G1 X223.574 Y93.146 E60.20787
G1 X224.277 Y93.713 E60.24992
G1 X224.927 Y94.34 E60.29197
G1 X225.519 Y95.022 E60.33403
G1 X226.048 Y95.753 E60.37604
G1 X226.511 Y96.529 E60.41812
G1 X226.903 Y97.342 E60.46015
G1 X227.222 Y98.187 E60.5022
G1 X227.465 Y99.057 E60.54427
G1 X227.63 Y99.945 E60.58632
G1 X227.725 Y101.076 E60.63917
G1 X227.735 Y101.432 E60.65576
G1 X227.739 Y101.718 E60.66907
G1 X227.738 Y108.909 E61.00392
G1 X227.728 Y109.615 E61.03679
G1 X227.72 Y109.903 E61.05021
G1 X227.675 Y110.963 E61.09961
G1 X227.6 Y113.583 E61.22166
G1 X227.6 Y116.118 E61.3397
G1 X227.672 Y118.693 E61.45965
G1 X227.711 Y119.469 E61.49583
G1 X227.721 Y119.718 E61.50743
G1 X227.736 Y120.299 E61.5345
G1 X227.739 Y120.562 E61.54674
G1 X227.738 Y127.721 E61.8801
G1 X227.727 Y128.439 E61.91353
G1 X227.691 Y129.147 E61.94654
G1 X227.464 Y131.82 E62.07146
G1 X227.322 Y134.333 E62.18866
G1 X227.256 Y137.437 E62.33323
G1 X227.245 Y137.61 E62.3413
G1 X227.228 Y138.769 E62.39527
G1 X227.175 Y139.671 E62.43735
G1 X227.043 Y140.564 E62.47938
G1 X226.832 Y141.442 E62.52143
G1 X226.544 Y142.298 E62.56348
G1 X226.182 Y143.126 E62.60556
G1 X225.748 Y143.918 E62.64761
G1 X225.245 Y144.668 E62.68966
G1 X224.679 Y145.371 E62.73169
G1 X224.052 Y146.021 E62.77374
G1 X223.37 Y146.613 E62.8158
G1 X222.639 Y147.143 E62.85784
G1 X221.863 Y147.606 E62.89992
G1 X221.05 Y147.998 E62.94194
G1 X220.205 Y148.317 E62.984
G1 X219.335 Y148.56 E63.02606
G1 X218.447 Y148.725 E63.06812
G1 X217.316 Y148.82 E63.12097
G1 X216.996 Y148.829 E63.13587
G1 X216.709 Y148.833 E63.14924
G1 X17.614 Y148.832 E72.41994
G1 X16.916 Y148.823 E72.45244
G1 X16.015 Y148.772 E72.49446
G1 X15.121 Y148.64 E72.53654
G1 X14.243 Y148.431 E72.57857
G1 X13.386 Y148.144 E72.62065
G1 X12.559 Y147.783 E72.66267
G1 X11.766 Y147.35 E72.70474
G1 X11.015 Y146.849 E72.74678
G1 X10.311 Y146.283 E72.78884
G1 X9.66 Y145.657 E72.83089
G1 X9.067 Y144.976 E72.87294
G1 X8.537 Y144.245 E72.91499
G1 X8.073 Y143.47 E72.95705
G1 X7.679 Y142.657 E72.99911
G1 X7.359 Y141.813 E73.04114
G1 X7.115 Y140.943 E73.08322
G1 X6.949 Y140.055 E73.12528
G1 X6.852 Y138.9 E73.17925
G1 X6.843 Y138.567 E73.19477
G1 X6.839 Y138.291 E73.20762
G1 X6.84 Y131.057 E73.54446
G1 X6.86 Y129.63 E73.61092
G1 X6.86 Y127.026 E73.73217
G1 X6.787 Y124.487 E73.85045
G1 X6.641 Y121.911 E73.97059
G1 X6.532 Y120.52 E74.03556
G1 X6.468 Y119.779 E74.07019
G1 X6.435 Y119.194 E74.09747
G1 X6.426 Y118.875 E74.11233
G1 X6.422 Y118.587 E74.12575
G1 X6.423 Y111.348 E74.46282
G1 X6.434 Y110.63 E74.49626
G1 X6.515 Y109.494 E74.54929
G1 X6.666 Y108.322 E74.60432
G1 X6.732 Y107.861 E74.626
G1 X7.021 Y105.343 E74.74402
G1 X7.241 Y102.779 E74.86385
G1 X7.319 Y101.428 E74.92686
G1 X7.375 Y100.639 E74.96369
G1 X7.478 Y99.742 E75.00574
G1 X7.661 Y98.857 E75.04782
G1 X7.921 Y97.992 E75.08988
G1 X8.257 Y97.154 E75.13192
G1 X8.665 Y96.349 E75.17394
G1 X9.144 Y95.583 E75.21601
G1 X9.688 Y94.862 E75.25806
G1 X10.293 Y94.192 E75.3001
G1 X10.956 Y93.578 E75.34218
G1 X11.67 Y93.026 E75.3842
G1 X12.431 Y92.538 E75.4263
G1 X13.231 Y92.12 E75.46833
G1 X14.065 Y91.774 E75.51037
G1 X14.927 Y91.504 E75.55243
G1 X15.809 Y91.31 E75.59448
G1 F2700 E70.59448
;MESH:20X20mm_V_Slot_Cover_200mm.stl(2)
G0 F6000 X17.953 Y100.687
G0 X17.953 Y101.766
G0 X18.139 Y108.872
;TYPE:WALL-INNER
G1 F2700 E75.59448
G1 F1200 X18.139 Y101.952 E75.91671
G1 X216.939 Y101.952 E85.17367
G1 X216.939 Y108.872 E85.49589
G1 X18.139 Y108.872 E94.75285
G0 F6000 X17.739 Y109.272
;TYPE:WALL-OUTER
G1 F1200 X17.739 Y101.552 E95.11233
G1 X217.339 Y101.552 E104.40654
G1 X217.339 Y109.272 E104.76602
G1 X17.739 Y109.272 E114.06023
G0 F6000 X18.009 Y109.002
G0 X18.249 Y108.482
G0 X18.529 Y108.482
;TYPE:SKIN
G1 F1200 X18.529 Y102.342 E114.34613
G1 X216.549 Y102.342 E123.56677
G1 X216.549 Y108.482 E123.85268
G1 X18.529 Y108.482 E133.07332
G0 F6000 X18.943 Y108.321
G1 F1200 X18.688 Y108.067 E133.09008
G0 F6000 X18.688 Y107.501
G1 F1200 X19.509 Y108.321 E133.14411
G0 F6000 X20.074 Y108.321
G1 F1200 X18.688 Y106.935 E133.23538
G0 F6000 X18.688 Y106.37
G1 F1200 X20.64 Y108.321 E133.36389
G0 F6000 X21.206 Y108.321
G1 F1200 X18.688 Y105.804 E133.52967
G0 F6000 X18.688 Y105.238
G1 F1200 X21.771 Y108.321 E133.73269
G0 F6000 X22.337 Y108.321
G1 F1200 X18.688 Y104.673 E133.97295
G0 F6000 X18.688 Y104.107
G1 F1200 X22.903 Y108.321 E134.25048
G0 F6000 X23.468 Y108.321
G1 F1200 X18.688 Y103.541 E134.56525
G0 F6000 X18.688 Y102.975
G1 F1200 X24.034 Y108.321 E134.9173
G0 F6000 X24.6 Y108.321
G1 F1200 X18.78 Y102.501 E135.30055
G0 F6000 X19.345 Y102.501
G1 F1200 X25.165 Y108.321 E135.68381
G0 F6000 X25.731 Y108.321
G1 F1200 X19.911 Y102.501 E136.06707
G0 F6000 X20.477 Y102.501
G1 F1200 X26.297 Y108.321 E136.45032
G0 F6000 X26.862 Y108.321
G1 F1200 X21.042 Y102.501 E136.83358
G0 F6000 X21.608 Y102.501
G1 F1200 X27.428 Y108.321 E137.21684
G0 F6000 X27.994 Y108.321
G1 F1200 X22.174 Y102.501 E137.6001
G0 F6000 X22.739 Y102.501
G1 F1200 X28.56 Y108.321 E137.98339
G0 F6000 X29.125 Y108.321
G1 F1200 X23.305 Y102.501 E138.36664
G0 F6000 X23.871 Y102.501
G1 F1200 X29.691 Y108.321 E138.7499
G0 F6000 X30.257 Y108.321
G1 F1200 X24.436 Y102.501 E139.13319
G0 F6000 X25.002 Y102.501
G1 F1200 X30.822 Y108.321 E139.51645
G0 F6000 X31.388 Y108.321
G1 F1200 X25.568 Y102.501 E139.8997
G0 F6000 X26.133 Y102.501
G1 F1200 X31.954 Y108.321 E140.28299
G0 F6000 X32.519 Y108.321
G1 F1200 X26.699 Y102.501 E140.66625
G0 F6000 X27.265 Y102.501
G1 F1200 X33.085 Y108.321 E141.04951
G0 F6000 X33.651 Y108.321
G1 F1200 X27.831 Y102.501 E141.43276
G0 F6000 X28.396 Y102.501
G1 F1200 X34.216 Y108.321 E141.81602
G0 F6000 X34.782 Y108.321
G1 F1200 X28.962 Y102.501 E142.19928
G0 F6000 X29.528 Y102.501
G1 F1200 X35.348 Y108.321 E142.58253
G0 F6000 X35.913 Y108.321
G1 F1200 X30.093 Y102.501 E142.96579
G0 F6000 X30.659 Y102.501
G1 F1200 X36.479 Y108.321 E143.34905
G0 F6000 X37.045 Y108.321
G1 F1200 X31.225 Y102.501 E143.73231
G0 F6000 X31.79 Y102.501
G1 F1200 X37.611 Y108.321 E144.1156
G0 F6000 X38.176 Y108.321
G1 F1200 X32.356 Y102.501 E144.49885
G0 F6000 X32.922 Y102.501
G1 F1200 X38.742 Y108.321 E144.88211
G0 F6000 X39.308 Y108.321
G1 F1200 X33.487 Y102.501 E145.2654
G0 F6000 X34.053 Y102.501
G1 F1200 X39.873 Y108.321 E145.64866
G0 F6000 X40.439 Y108.321
G1 F1200 X34.619 Y102.501 E146.03191
G0 F6000 X35.184 Y102.501
G1 F1200 X41.005 Y108.321 E146.4152
G0 F6000 X41.57 Y108.321
G1 F1200 X35.75 Y102.501 E146.79846
G0 F6000 X36.316 Y102.501
G1 F1200 X42.136 Y108.321 E147.18172
G0 F6000 X42.702 Y108.321
G1 F1200 X36.881 Y102.501 E147.56501
G0 F6000 X37.447 Y102.501
G1 F1200 X43.267 Y108.321 E147.94826
G0 F6000 X43.833 Y108.321
G1 F1200 X38.013 Y102.501 E148.33152
G0 F6000 X38.579 Y102.501
G1 F1200 X44.399 Y108.321 E148.71478
G0 F6000 X44.964 Y108.321
G1 F1200 X39.144 Y102.501 E149.09803
G0 F6000 X39.71 Y102.501
G1 F1200 X45.53 Y108.321 E149.48129
G0 F6000 X46.096 Y108.321
G1 F1200 X40.276 Y102.501 E149.86455
G0 F6000 X40.841 Y102.501
G1 F1200 X46.661 Y108.321 E150.2478
G0 F6000 X47.227 Y108.321
G1 F1200 X41.407 Y102.501 E150.63106
G0 F6000 X41.973 Y102.501
G1 F1200 X47.793 Y108.321 E151.01432
G0 F6000 X48.359 Y108.321
G1 F1200 X42.538 Y102.501 E151.39761
G0 F6000 X43.104 Y102.501
G1 F1200 X48.924 Y108.321 E151.78087
G0 F6000 X49.49 Y108.321
G1 F1200 X43.67 Y102.501 E152.16412
G0 F6000 X44.235 Y102.501
G1 F1200 X50.056 Y108.321 E152.54741
G0 F6000 X50.621 Y108.321
G1 F1200 X44.801 Y102.501 E152.93067
G0 F6000 X45.367 Y102.501
G1 F1200 X51.187 Y108.321 E153.31393
G0 F6000 X51.753 Y108.321
G1 F1200 X45.932 Y102.501 E153.69722
G0 F6000 X46.498 Y102.501
G1 F1200 X52.318 Y108.321 E154.08047
G0 F6000 X52.884 Y108.321
