;FLAVOR:Marlin
;TIME:1762
;Filament used: 1.06399m
;Layer height: 0.28
;MINX:80.673
;MINY:96.765
;MINZ:0.28
;MAXX:151.25
;MAXY:137.994
;MAXZ:9.8
;Generated with Cura_SteamEngine 4.7.0
M140 S55
M105
M190 S55
M104 S210
M105
M109 S210
M82 ;absolute extrusion mode
; Ender 3 Custom Start G-code
G92 E0 ; Reset Extruder
G28 ; Home all axes
G1 Z2.0 F3000 ; Move Z Axis up little to prevent scratching of Heat Bed
G1 X0.1 Y20 Z0.3 F5000.0 ; Move to start position
G1 X0.1 Y200.0 Z0.3 F1500.0 E15 ; Draw the first line
G1 X0.4 Y200.0 Z0.3 F5000.0 ; Move to side a little
G1 X0.4 Y20 Z0.3 F1500.0 E30 ; Draw the second line
G92 E0 ; Reset Extruder
G1 Z2.0 F3000 ; Move Z Axis up little to prevent scratching of Heat Bed
G1 X5 Y20 Z0.3 F5000.0 ; Move over to prevent blob squish
G92 E0
G92 E0
G1 F2700 E-5
;LAYER_COUNT:35
;LAYER:0
M107
G0 F6000 X84.568 Y100.378 Z0.28
;TYPE:SKIRT
G1 F2700 E0
G1 F1200 X85.308 Y99.803 E0.04364
G1 X86.095 Y99.292 E0.08733
G1 X86.922 Y98.851 E0.13097
G1 X87.784 Y98.481 E0.17465
G1 X88.675 Y98.186 E0.21836
G1 X89.202 Y98.05 E0.2437
G1 X90.145 Y97.832 E0.28877
G1 X92.675 Y97.209 E0.41009
G1 X92.968 Y97.132 E0.4242
G1 X93.884 Y96.932 E0.46786
G1 X94.814 Y96.811 E0.51153
G1 X95.357 Y96.778 E0.53686
G1 X95.518 Y96.772 E0.54436
G1 X96.087 Y96.765 E0.57086
G1 X96.432 Y96.77 E0.58692
G1 X97.049 Y96.796 E0.61568
G1 X97.976 Y96.862 E0.65895
G1 X100.565 Y97.007 E0.7797
G1 X103.098 Y97.079 E0.89769
G1 X105.65 Y97.079 E1.01652
G1 X106.97 Y97.05 E1.078
G1 X108.337 Y97.01 E1.14168
G1 X108.809 Y97.006 E1.16366
G1 X109.17 Y97.011 E1.18047
G1 X109.481 Y97.02 E1.19496
G1 X110.264 Y97.053 E1.23145
G1 X111.547 Y97.125 E1.29129
G1 X114.102 Y97.196 E1.41031
G1 X116.627 Y97.196 E1.52788
G1 X119.153 Y97.124 E1.64555
G1 X120.496 Y97.056 E1.70817
G1 X120.985 Y97.028 E1.73097
G1 X121.319 Y97.013 E1.74654
G1 X121.463 Y97.009 E1.75325
G1 X121.928 Y97.006 E1.7749
G1 X122.271 Y97.011 E1.79088
G1 X122.585 Y97.02 E1.8055
G1 X123.257 Y97.049 E1.83682
G1 X124.686 Y97.13 E1.90347
G1 X127.179 Y97.201 E2.0196
G1 X129.703 Y97.201 E2.13713
G1 X132.263 Y97.129 E2.25638
G1 X133.678 Y97.06 E2.32235
G1 X134.241 Y97.027 E2.34861
G1 X134.539 Y97.014 E2.3625
G1 X134.67 Y97.01 E2.3686
G1 X135.167 Y97.006 E2.39174
G1 X135.508 Y97.011 E2.40762
G1 X136.445 Y97.065 E2.45133
G1 X137.373 Y97.198 E2.49498
G1 X138.287 Y97.41 E2.53867
G1 X139.179 Y97.699 E2.58233
G1 X140.204 Y98.14 E2.63429
G1 X140.504 Y98.291 E2.64993
G1 X141.817 Y98.977 E2.71891
G1 X142.465 Y99.326 E2.75318
G1 X143.271 Y99.806 E2.79686
G1 X144.032 Y100.353 E2.8405
G1 X144.729 Y100.948 E2.88317
G1 X144.884 Y101.092 E2.89302
G1 X145.086 Y101.285 E2.90603
G1 X145.353 Y101.547 E2.92345
G1 X147.66 Y103.855 E3.07541
G1 X148.132 Y104.341 E3.10695
G1 X148.756 Y105.041 E3.15062
G1 X149.318 Y105.792 E3.19429
G1 X149.815 Y106.588 E3.23799
G1 X150.241 Y107.423 E3.28164
G1 X150.595 Y108.292 E3.32533
G1 X150.874 Y109.187 E3.36899
G1 X151.075 Y110.103 E3.41265
G1 X151.198 Y111.033 E3.45634
G1 X151.237 Y111.71 E3.48791
G1 X151.244 Y112.02 E3.50235
G1 X151.25 Y112.563 E3.52764
G1 X151.249 Y122.45 E3.98802
G1 X151.239 Y123.152 E4.02071
G1 X151.186 Y124.088 E4.06436
G1 X151.053 Y125.016 E4.10801
G1 X150.841 Y125.93 E4.1517
G1 X150.553 Y126.823 E4.19539
G1 X150.189 Y127.687 E4.23905
G1 X149.753 Y128.518 E4.28275
G1 X149.248 Y129.308 E4.32641
G1 X148.678 Y130.052 E4.37005
G1 X148.305 Y130.476 E4.39635
G1 X148.164 Y130.628 E4.406
G1 X147.962 Y130.84 E4.41963
G1 X147.698 Y131.108 E4.43715
G1 X145.396 Y133.41 E4.58874
G1 X144.91 Y133.882 E4.62029
G1 X144.21 Y134.506 E4.66395
G1 X143.459 Y135.068 E4.70763
G1 X142.405 Y135.706 E4.765
G1 X141.304 Y136.29 E4.82303
G1 X140.833 Y136.532 E4.84769
G1 X140.517 Y136.7 E4.86436
G1 X139.671 Y137.104 E4.90801
G1 X138.793 Y137.436 E4.95172
G1 X137.891 Y137.691 E4.99537
G1 X136.97 Y137.868 E5.03904
G1 X135.889 Y137.975 E5.08962
G1 X135.746 Y137.982 E5.09628
G1 X135.054 Y137.994 E5.12851
G1 X134.698 Y137.989 E5.14509
G1 X134.381 Y137.98 E5.15986
G1 X133.727 Y137.952 E5.19034
G1 X132.261 Y137.869 E5.25871
G1 X129.771 Y137.798 E5.3747
G1 X127.245 Y137.798 E5.49232
G1 X124.703 Y137.869 E5.61074
G1 X122.702 Y137.975 E5.70404
G1 X122.32 Y137.989 E5.72184
G1 X121.808 Y137.994 E5.74568
G1 X121.457 Y137.989 E5.76203
G1 X121.147 Y137.98 E5.77647
G1 X120.418 Y137.949 E5.81045
G1 X119.106 Y137.875 E5.87164
G1 X116.545 Y137.803 E5.99093
G1 X114.058 Y137.803 E6.10674
G1 X111.502 Y137.875 E6.2258
G1 X109.671 Y137.972 E6.31118
G1 X109.274 Y137.988 E6.32968
G1 X108.715 Y137.994 E6.35571
G1 X108.365 Y137.989 E6.37201
G1 X107.744 Y137.962 E6.40096
G1 X106.782 Y137.894 E6.44586
G1 X104.182 Y137.747 E6.56712
G1 X101.687 Y137.675 E6.68335
G1 X99.15 Y137.675 E6.80148
G1 X97.125 Y137.725 E6.8958
G1 X96.518 Y137.747 E6.92409
G1 X95.964 Y137.753 E6.94989
G1 X95.62 Y137.748 E6.9659
G1 X94.684 Y137.694 E7.00956
G1 X94.017 Y137.607 E7.04088
G1 X93.121 Y137.425 E7.08346
G1 X92.256 Y137.211 E7.12495
G1 X91.172 Y136.93 E7.17709
G1 X89.775 Y136.609 E7.24384
G1 X89.047 Y136.43 E7.27875
G1 X88.147 Y136.167 E7.32241
G1 X87.272 Y135.828 E7.3661
G1 X86.43 Y135.416 E7.40975
G1 X85.626 Y134.933 E7.45342
G1 X84.866 Y134.384 E7.49708
G1 X84.155 Y133.772 E7.54076
G1 X83.499 Y133.101 E7.58446
G1 X82.903 Y132.377 E7.62812
G1 X82.37 Y131.605 E7.67181
G1 X81.905 Y130.791 E7.71546
G1 X81.512 Y129.94 E7.75911
G1 X81.192 Y129.058 E7.8028
G1 X80.948 Y128.152 E7.84649
G1 X80.783 Y127.229 E7.89015
G1 X80.688 Y126.08 E7.94383
G1 X80.678 Y125.746 E7.95939
G1 X80.673 Y125.417 E7.97471
G1 X80.674 Y124.788 E8.004
G1 X80.684 Y124.1 E8.03604
G1 X80.7 Y123.644 E8.05729
G1 X80.846 Y121.034 E8.17901
G1 X80.917 Y118.504 E8.29686
G1 X80.917 Y115.979 E8.41444
G1 X80.845 Y113.465 E8.53155
G1 X80.745 Y111.586 E8.61917
G1 X80.705 Y110.954 E8.64865
G1 X80.689 Y110.623 E8.66408
G1 X80.683 Y110.442 E8.67252
G1 X80.677 Y110.182 E8.68463
G1 X80.673 Y109.76 E8.70428
G1 X80.674 Y109.298 E8.72579
G1 X80.684 Y108.608 E8.75792
G1 X80.738 Y107.671 E8.80163
G1 X80.871 Y106.743 E8.84528
G1 X81.083 Y105.829 E8.88897
G1 X81.371 Y104.937 E8.93262
G1 X81.735 Y104.072 E8.97631
G1 X82.171 Y103.242 E9.01997
G1 X82.676 Y102.452 E9.06363
G1 X83.247 Y101.708 E9.1073
G1 X83.879 Y101.015 E9.15097
G1 X84.568 Y100.378 E9.19467
G0 F6000 X84.956 Y100.575
G1 F1200 X85.692 Y100.022 E9.23753
G1 X86.474 Y99.535 E9.28043
G1 X87.295 Y99.118 E9.32331
G1 X88.148 Y98.774 E9.36614
G1 X89.293 Y98.44 E9.42167
G1 X90.183 Y98.234 E9.46421
G1 X92.79 Y97.592 E9.58923
G1 X93.069 Y97.519 E9.60266
G1 X93.969 Y97.324 E9.64554
G1 X94.882 Y97.207 E9.6884
G1 X95.372 Y97.177 E9.71126
G1 X95.533 Y97.171 E9.71876
G1 X96.082 Y97.165 E9.74433
G1 X96.427 Y97.17 E9.76039
G1 X97.021 Y97.195 E9.78808
G1 X97.994 Y97.264 E9.8335
G1 X100.532 Y97.407 E9.95187
G1 X103.087 Y97.479 E10.07088
G1 X105.658 Y97.479 E10.1906
G1 X106.94 Y97.45 E10.25031
G1 X108.349 Y97.409 E10.31595
G1 X108.804 Y97.406 E10.33714
G1 X109.165 Y97.411 E10.35395
G1 X109.464 Y97.419 E10.36787
G1 X110.247 Y97.452 E10.40437
G1 X111.549 Y97.525 E10.46509
G1 X114.091 Y97.596 E10.5835
G1 X116.603 Y97.596 E10.70047
G1 X119.185 Y97.522 E10.82075
G1 X120.537 Y97.454 E10.88378
G1 X121.008 Y97.427 E10.90575
G1 X121.33 Y97.413 E10.92076
G1 X121.474 Y97.409 E10.92747
G1 X121.923 Y97.406 E10.94837
G1 X122.266 Y97.411 E10.96435
G1 X122.568 Y97.42 E10.97842
G1 X123.383 Y97.456 E11.0164
G1 X124.651 Y97.528 E11.07554
G1 X127.203 Y97.601 E11.19442
G1 X129.714 Y97.601 E11.31134
G1 X132.292 Y97.529 E11.43143
G1 X133.727 Y97.458 E11.49833
G1 X134.264 Y97.427 E11.52338
G1 X134.551 Y97.414 E11.53676
G1 X134.682 Y97.41 E11.54286
G1 X135.161 Y97.406 E11.56517
G1 X135.502 Y97.411 E11.58105
G1 X136.422 Y97.465 E11.62396
G1 X137.332 Y97.598 E11.66678
G1 X138.229 Y97.809 E11.70969
G1 X139.103 Y98.098 E11.75256
G1 X140.027 Y98.499 E11.79946
G1 X140.319 Y98.646 E11.81468
G1 X141.756 Y99.398 E11.8902
G1 X142.275 Y99.678 E11.91766
G1 X143.065 Y100.15 E11.96051
G1 X143.812 Y100.689 E12.0034
G1 X144.457 Y101.241 E12.04294
G1 X144.612 Y101.385 E12.05279
G1 X144.807 Y101.571 E12.06534
G1 X144.985 Y101.745 E12.07693
G1 X147.373 Y104.134 E12.23421
G1 X147.845 Y104.62 E12.26576
G1 X148.457 Y105.308 E12.30864
G1 X149.007 Y106.046 E12.35149
G1 X149.491 Y106.829 E12.39436
G1 X149.906 Y107.651 E12.43723
G1 X150.247 Y108.506 E12.4801
G1 X150.513 Y109.388 E12.52299
G1 X150.701 Y110.289 E12.56585
G1 X150.811 Y111.203 E12.60872
G1 X150.837 Y111.721 E12.63287
G1 X150.844 Y112.024 E12.64698
G1 X150.85 Y112.563 E12.67208
G1 X150.849 Y122.444 E13.13218
G1 X150.839 Y123.146 E13.16487
G1 X150.786 Y124.065 E13.20774
G1 X150.653 Y124.976 E13.25061
G1 X150.442 Y125.872 E13.29347
G1 X150.154 Y126.747 E13.33636
G1 X149.791 Y127.593 E13.37923
G1 X149.356 Y128.404 E13.42208
G1 X148.852 Y129.175 E13.46497
G1 X148.011 Y130.204 E13.52685
G1 X147.87 Y130.356 E13.53651
G1 X147.676 Y130.56 E13.54962
G1 X147.415 Y130.826 E13.56697
G1 X145.229 Y133.013 E13.71095
G1 X144.631 Y133.595 E13.74981
G1 X143.943 Y134.207 E13.79269
G1 X143.205 Y134.757 E13.83555
G1 X142.217 Y135.353 E13.88927
G1 X141.121 Y135.934 E13.94704
G1 X140.614 Y136.194 E13.97357
G1 X140.329 Y136.346 E13.98861
G1 X139.498 Y136.743 E14.03149
G1 X138.636 Y137.066 E14.07435
G1 X137.749 Y137.313 E14.11723
G1 X136.844 Y137.482 E14.1601
G1 X135.869 Y137.575 E14.2057
G1 X135.726 Y137.582 E14.21237
G1 X135.059 Y137.594 E14.24343
G1 X134.703 Y137.589 E14.26001
G1 X134.399 Y137.58 E14.27417
G1 X133.596 Y137.545 E14.3116
G1 X132.294 Y137.471 E14.37232
G1 X129.747 Y137.398 E14.49097
G1 X127.234 Y137.398 E14.60799
G1 X124.671 Y137.47 E14.72738
G1 X122.681 Y137.575 E14.82017
G1 X122.307 Y137.589 E14.8376
G1 X121.814 Y137.594 E14.86056
G1 X121.463 Y137.589 E14.8769
G1 X121.164 Y137.58 E14.89083
G1 X120.286 Y137.542 E14.93175
G1 X119.103 Y137.475 E14.98693
G1 X116.556 Y137.403 E15.10557
G1 X114.047 Y137.403 E15.2224
G1 X111.469 Y137.476 E15.34249
G1 X109.478 Y137.58 E15.43533
G1 X109.259 Y137.588 E15.44553
G1 X108.721 Y137.594 E15.47058
G1 X108.371 Y137.589 E15.48688
G1 X107.773 Y137.563 E15.51476
G1 X106.839 Y137.497 E15.55836
G1 X104.215 Y137.348 E15.68074
G1 X101.663 Y137.275 E15.79962
G1 X99.14 Y137.275 E15.9171
G1 X97.102 Y137.326 E16.01203
G1 X96.504 Y137.347 E16.03989
G1 X95.97 Y137.353 E16.06476
G1 X95.626 Y137.348 E16.08077
G1 X94.707 Y137.295 E16.12364
G1 X94.08 Y137.212 E16.15309
G1 X93.217 Y137.037 E16.19409
G1 X92.357 Y136.824 E16.23535
G1 X91.257 Y136.539 E16.28826
G1 X89.865 Y136.219 E16.35477
G1 X89.143 Y136.042 E16.38938
G1 X88.259 Y135.783 E16.43227
G1 X87.402 Y135.448 E16.47512
G1 X86.576 Y135.04 E16.51802
G1 X85.79 Y134.562 E16.56086
G1 X85.047 Y134.017 E16.60376
G1 X84.355 Y133.41 E16.64662
G1 X83.718 Y132.745 E16.6895
G1 X83.141 Y132.028 E16.73236
G1 X82.629 Y131.263 E16.77522
G1 X82.185 Y130.457 E16.81807
G1 X81.812 Y129.615 E16.86095
G1 X81.514 Y128.744 E16.90382
G1 X81.293 Y127.85 E16.9467
G1 X81.15 Y126.94 E16.98959
G1 X81.088 Y126.068 E17.0303
G1 X81.078 Y125.734 E17.04586
G1 X81.073 Y125.417 E17.06062
G1 X81.074 Y124.794 E17.08963
G1 X81.084 Y124.106 E17.12167
G1 X81.1 Y123.667 E17.14213
G1 X81.246 Y121.069 E17.26329
G1 X81.317 Y118.515 E17.38226
G1 X81.317 Y116.002 E17.49928
G1 X81.243 Y113.432 E17.619
G1 X81.144 Y111.561 E17.70624
G1 X81.104 Y110.929 E17.73573
G1 X81.089 Y110.61 E17.7506
G1 X81.077 Y110.178 E17.77072
G1 X81.073 Y109.756 E17.79037
G1 X81.074 Y109.303 E17.81147
G1 X81.084 Y108.613 E17.8436
G1 X81.137 Y107.694 E17.88646
G1 X81.27 Y106.783 E17.92933
G1 X81.482 Y105.887 E17.9722
G1 X81.77 Y105.013 E18.01505
G1 X82.133 Y104.167 E18.05792
G1 X82.568 Y103.356 E18.10077
G1 X83.072 Y102.585 E18.14366
G1 X83.641 Y101.861 E18.18654
G1 X84.271 Y101.189 E18.22943
G1 X84.956 Y100.575 E18.27227
G0 F6000 X85.344 Y100.776
G1 F1200 X86.076 Y100.247 E18.31432
G1 X86.851 Y99.784 E18.35636
G1 X87.665 Y99.392 E18.39843
G1 X88.51 Y99.073 E18.44049
G1 X89.383 Y98.83 E18.48268
G1 X90.306 Y98.616 E18.5268
G1 X92.861 Y97.988 E18.64931
G1 X93.171 Y97.906 E18.66425
G1 X94.054 Y97.715 E18.70631
G1 X95.387 Y97.577 E18.76871
G1 X95.548 Y97.571 E18.77622
G1 X96.076 Y97.565 E18.8008
G1 X96.421 Y97.57 E18.81687
G1 X96.993 Y97.594 E18.84353
G1 X97.947 Y97.661 E18.88806
G1 X100.532 Y97.807 E19.00862
G1 X103.076 Y97.879 E19.12713
G1 X105.621 Y97.879 E19.24563
G1 X107.013 Y97.848 E19.31047
G1 X108.36 Y97.809 E19.37321
G1 X108.798 Y97.806 E19.39361
G1 X109.159 Y97.811 E19.41042
G1 X109.448 Y97.819 E19.42388
G1 X110.376 Y97.859 E19.46714
G1 X111.55 Y97.925 E19.52189
G1 X114.08 Y97.996 E19.63974
G1 X116.615 Y97.996 E19.75778
G1 X119.215 Y97.921 E19.8789
G1 X120.482 Y97.858 E19.93797
G1 X121.032 Y97.826 E19.96362
G1 X121.341 Y97.813 E19.97802
G1 X121.485 Y97.809 E19.98473
G1 X121.917 Y97.806 E20.00485
G1 X122.26 Y97.811 E20.02082
G1 X122.551 Y97.819 E20.03438
G1 X123.36 Y97.855 E20.07208
G1 X124.652 Y97.928 E20.13234
G1 X127.191 Y98.001 E20.25062
G1 X129.725 Y98.001 E20.36861
G1 X132.277 Y97.93 E20.48749
G1 X133.747 Y97.857 E20.55602
G1 X134.288 Y97.826 E20.58125
G1 X134.564 Y97.814 E20.59412
G1 X134.695 Y97.81 E20.60022
G1 X135.156 Y97.806 E20.62169
G1 X135.497 Y97.811 E20.63757
G1 X136.398 Y97.864 E20.67959
G1 X137.291 Y97.997 E20.72163
G1 X138.169 Y98.208 E20.76368
G1 X139.025 Y98.496 E20.80574
G1 X139.85 Y98.858 E20.84769
G1 X140.133 Y99.001 E20.86245
G1 X141.566 Y99.75 E20.93774
G1 X142.085 Y100.03 E20.9652
G1 X142.86 Y100.494 E21.00726
G1 X143.591 Y101.024 E21.04931
G1 X144.184 Y101.534 E21.08573
G1 X144.339 Y101.678 E21.09558
G1 X144.527 Y101.857 E21.10767
G1 X144.705 Y102.031 E21.11926
G1 X147.086 Y104.413 E21.27608
G1 X147.558 Y104.899 E21.30763
G1 X148.158 Y105.574 E21.34968
G1 X148.696 Y106.299 E21.39172
G1 X149.167 Y107.069 E21.43375
G1 X149.569 Y107.878 E21.47582
G1 X149.897 Y108.72 E21.51789
G1 X150.15 Y109.587 E21.55995
G1 X150.325 Y110.473 E21.602
G1 X150.437 Y111.731 E21.66081
G1 X150.444 Y112.029 E21.67469
G1 X150.45 Y112.563 E21.69956
G1 X150.449 Y122.438 E22.15938
G1 X150.439 Y123.14 E22.19207
G1 X150.386 Y124.042 E22.23414
G1 X150.254 Y124.935 E22.27618
G1 X150.043 Y125.813 E22.31822
G1 X149.755 Y126.669 E22.36028
G1 X149.393 Y127.497 E22.40236
G1 X148.959 Y128.289 E22.44441
G1 X148.456 Y129.039 E22.48646
G1 X147.718 Y129.932 E22.5404
G1 X147.577 Y130.084 E22.55006
G1 X147.39 Y130.28 E22.56267
G1 X147.132 Y130.543 E22.57983
G1 X144.946 Y132.73 E22.72381
G1 X144.352 Y133.308 E22.7624
G1 X143.677 Y133.908 E22.80446
G1 X142.952 Y134.446 E22.8465
G1 X142.03 Y135 E22.89658
G1 X141.062 Y135.514 E22.94762
G1 X140.45 Y135.829 E22.97967
G1 X140.141 Y135.993 E22.99596
G1 X139.326 Y136.382 E23.03801
G1 X138.479 Y136.696 E23.08007
G1 X137.608 Y136.935 E23.12213
G1 X136.72 Y137.096 E23.16415
G1 X135.85 Y137.176 E23.20483
G1 X135.707 Y137.183 E23.2115
G1 X135.065 Y137.194 E23.2414
G1 X134.709 Y137.189 E23.25798
G1 X134.416 Y137.181 E23.27162
G1 X133.619 Y137.146 E23.30877
G1 X132.293 Y137.071 E23.37061
G1 X129.759 Y136.998 E23.48866
G1 X127.223 Y136.998 E23.60674
G1 X124.677 Y137.069 E23.72534
G1 X122.659 Y137.176 E23.81944
G1 X122.294 Y137.19 E23.83645
G1 X121.82 Y137.194 E23.85852
G1 X121.469 Y137.189 E23.87487
G1 X121.181 Y137.181 E23.88828
G1 X120.309 Y137.143 E23.92893
G1 X119.103 Y137.075 E23.98517
G1 X116.567 Y137.003 E24.10331
G1 X114.035 Y137.003 E24.22121
G1 X111.479 Y137.075 E24.34027
G1 X109.629 Y137.173 E24.42654
G1 X109.244 Y137.188 E24.44448
G1 X108.726 Y137.194 E24.4686
G1 X108.376 Y137.189 E24.4849
G1 X107.801 Y137.164 E24.5117
G1 X106.886 Y137.099 E24.55441
G1 X104.214 Y136.948 E24.67903
G1 X101.675 Y136.875 E24.7973
G1 X99.13 Y136.875 E24.91581
G1 X97.079 Y136.926 E25.01134
G1 X96.49 Y136.947 E25.03879
G1 X95.976 Y136.953 E25.06272
G1 X95.632 Y136.948 E25.07874
G1 X94.73 Y136.895 E25.12081
G1 X94.143 Y136.817 E25.14839
G1 X93.313 Y136.648 E25.18783
G1 X92.457 Y136.436 E25.22889
G1 X91.374 Y136.155 E25.28099
G1 X89.954 Y135.829 E25.34883
G1 X89.794 Y135.791 E25.35649
G1 X89.239 Y135.654 E25.38311
G1 X88.372 Y135.399 E25.42519
G1 X87.532 Y135.068 E25.46723
G1 X86.724 Y134.664 E25.5093
G1 X85.955 Y134.191 E25.55134
G1 X85.231 Y133.651 E25.59339
G1 X84.557 Y133.049 E25.63547
G1 X83.94 Y132.39 E25.67751
