;FLAVOR:Marlin
;TIME:11469
;Filament used: 8.26592m
;Layer height: 0.24
;MINX:93.5
;MINY:73.298
;MINZ:0.28
;MAXX:141.5
;MAXY:152.249
;MAXZ:59.08
;Generated with Cura_SteamEngine 4.6.1
M140 S50
M105
M190 S50
M104 S200
M105
M109 S200
M82 ;absolute extrusion mode
; Ender 3 Custom Start G-code
G92 E0 ; Reset Extruder
G28 ; Home all axes
G1 Z2.0 F3000 ; Move Z Axis up little to prevent scratching of Heat Bed
G1 X0.1 Y20 Z0.3 F5000.0 ; Move to start position
G1 X0.1 Y200.0 Z0.3 F1500.0 E15 ; Draw the first line
G1 X0.4 Y200.0 Z0.3 F5000.0 ; Move to side a little
G1 X0.4 Y20 Z0.3 F1500.0 E30 ; Draw the second line
G92 E0 ; Reset Extruder
G1 Z2.0 F3000 ; Move Z Axis up little to prevent scratching of Heat Bed
G1 X5 Y20 Z0.3 F5000.0 ; Move over to prevent blob squish
G92 E0
G92 E0
G1 F2700 E-5
;LAYER_COUNT:249
;LAYER:0
M107
G0 F6000 X118.887 Y74.109 Z0.28
;TYPE:SKIRT
G1 F2700 E0
G1 F1200 X119.788 Y74.162 E0.04203
G1 X120.682 Y74.295 E0.08411
G1 X121.56 Y74.505 E0.12615
G1 X122.416 Y74.793 E0.1682
G1 X123.243 Y75.156 E0.21026
G1 X124.035 Y75.59 E0.25231
G1 X124.602 Y75.96 E0.28384
G1 X125.475 Y76.576 E0.33359
G1 X126.355 Y77.217 E0.38428
G1 X126.943 Y77.657 E0.41848
G1 X127.642 Y78.23 E0.46057
G1 X128.287 Y78.862 E0.50262
G1 X128.873 Y79.549 E0.54466
G1 X129.397 Y80.285 E0.58673
G1 X130.006 Y81.367 E0.64455
G1 X130.195 Y81.76 E0.66485
G1 X131.106 Y83.732 E0.766
G1 X132.241 Y86.021 E0.88497
G1 X133.435 Y88.265 E1.00333
G1 X134.693 Y90.473 E1.12166
G1 X136.005 Y92.634 E1.23938
G1 X136.36 Y93.185 E1.2699
G1 X136.932 Y94.097 E1.32003
G1 X137.211 Y94.571 E1.34564
G1 X137.634 Y95.335 E1.3863
G1 X138.214 Y96.421 E1.44363
G1 X138.561 Y97.094 E1.47889
G1 X138.939 Y97.914 E1.52094
G1 X139.202 Y98.636 E1.55672
G1 X139.465 Y99.455 E1.59677
G1 X139.84 Y100.692 E1.65696
G1 X140.035 Y101.366 E1.68963
G1 X140.248 Y102.244 E1.7317
G1 X140.369 Y103.023 E1.76841
G1 X140.473 Y103.937 E1.81124
G1 X140.596 Y105.2 E1.87033
G1 X140.639 Y105.712 E1.89426
G1 X140.673 Y106.357 E1.92433
G1 X140.7 Y107.787 E1.99093
G1 X140.699 Y140.654 E3.52136
G1 X140.689 Y141.381 E3.55521
G1 X140.637 Y142.283 E3.59728
G1 X140.505 Y143.176 E3.63931
G1 X140.294 Y144.055 E3.68141
G1 X140.007 Y144.911 E3.72345
G1 X139.645 Y145.738 E3.76548
G1 X139.211 Y146.53 E3.80754
G1 X138.709 Y147.281 E3.8496
G1 X138.143 Y147.984 E3.89162
G1 X137.516 Y148.635 E3.93371
G1 X136.835 Y149.227 E3.97573
G1 X136.104 Y149.757 E4.01777
G1 X135.328 Y150.22 E4.05985
G1 X134.515 Y150.613 E4.1019
G1 X133.67 Y150.933 E4.14397
G1 X132.801 Y151.176 E4.18599
G1 X131.913 Y151.341 E4.22804
G1 X130.777 Y151.437 E4.28113
G1 X129.8 Y151.449 E4.32663
G1 X129.095 Y151.439 E4.35946
G1 X128.67 Y151.424 E4.37926
G1 X126.191 Y151.285 E4.49487
G1 X123.633 Y151.212 E4.61403
G1 X121.117 Y151.212 E4.73119
G1 X120.524 Y151.23 E4.75881
G1 X117.707 Y151.276 E4.89
G1 X116.993 Y151.275 E4.92325
G1 X115.56 Y151.254 E4.98998
G1 X114.064 Y151.211 E5.05967
G1 X111.532 Y151.211 E5.17757
G1 X109.035 Y151.281 E5.29389
G1 X107.596 Y151.368 E5.36102
G1 X106.241 Y151.423 E5.42416
G1 X105.153 Y151.444 E5.47483
G1 X104.814 Y151.445 E5.49062
G1 X104.382 Y151.439 E5.51074
G1 X103.481 Y151.387 E5.55276
G1 X102.587 Y151.254 E5.59485
G1 X101.709 Y151.044 E5.63688
G1 X100.853 Y150.756 E5.67894
G1 X100.026 Y150.394 E5.72097
G1 X99.234 Y149.961 E5.76301
G1 X98.483 Y149.459 E5.80507
G1 X97.78 Y148.892 E5.84712
G1 X97.129 Y148.265 E5.88921
G1 X96.537 Y147.584 E5.93123
G1 X96.007 Y146.852 E5.97331
G1 X95.544 Y146.077 E6.01534
G1 X95.151 Y145.264 E6.05739
G1 X94.832 Y144.419 E6.09945
G1 X94.589 Y143.549 E6.14151
G1 X94.424 Y142.661 E6.18357
G1 X94.326 Y141.45 E6.24014
G1 X94.3 Y140.075 E6.30418
G1 X94.301 Y107.32 E7.82939
G1 X94.308 Y106.795 E7.85384
G1 X94.337 Y106.147 E7.88404
G1 X94.45 Y104.71 E7.95116
G1 X94.539 Y103.823 E7.99267
G1 X94.62 Y103.096 E8.02673
G1 X94.759 Y102.203 E8.06881
G1 X94.953 Y101.411 E8.10678
G1 X95.184 Y100.609 E8.14565
G1 X95.568 Y99.346 E8.20711
G1 X95.767 Y98.717 E8.23783
G1 X96.077 Y97.869 E8.27988
G1 X96.416 Y97.14 E8.31731
G1 X96.793 Y96.407 E8.35569
G1 X97.413 Y95.246 E8.41698
G1 X97.781 Y94.581 E8.45237
G1 X98.066 Y94.099 E8.47844
G1 X98.676 Y93.126 E8.53192
G1 X100.025 Y90.907 E8.65284
G1 X101.3 Y88.67 E8.77274
G1 X102.486 Y86.446 E8.8901
G1 X103.615 Y84.176 E9.00815
G1 X104.661 Y81.899 E9.12483
G1 X104.864 Y81.47 E9.14693
G1 X105.286 Y80.672 E9.18896
G1 X105.777 Y79.914 E9.23102
G1 X106.333 Y79.202 E9.27308
G1 X106.95 Y78.543 E9.31512
G1 X107.95 Y77.683 E9.37653
G1 X108.749 Y77.084 E9.42303
G1 X109.702 Y76.392 E9.47787
G1 X110.276 Y75.986 E9.51061
G1 X111.036 Y75.497 E9.55269
G1 X111.835 Y75.078 E9.5947
G1 X112.669 Y74.731 E9.63676
G1 X113.531 Y74.459 E9.67885
G1 X114.412 Y74.265 E9.72086
G1 X115.308 Y74.149 E9.76293
G1 X115.989 Y74.115 E9.79468
G1 X117.028 Y74.098 E9.84307
G1 X118.192 Y74.099 E9.89727
G1 X118.887 Y74.109 E9.92963
G0 F6000 X118.893 Y73.709
G1 F1200 X119.812 Y73.762 E9.9725
G1 X120.723 Y73.895 E10.01537
G1 X121.619 Y74.106 E10.05823
G1 X122.493 Y74.395 E10.10109
G1 X123.339 Y74.758 E10.14396
G1 X124.15 Y75.193 E10.18681
G1 X124.831 Y75.633 E10.22456
G1 X125.711 Y76.252 E10.27466
G1 X126.595 Y76.897 E10.32562
G1 X127.183 Y77.337 E10.35982
G1 X127.895 Y77.92 E10.40267
G1 X128.554 Y78.563 E10.44554
G1 X129.155 Y79.26 E10.48839
G1 X129.694 Y80.007 E10.53129
G1 X130.366 Y81.192 E10.59472
G1 X130.559 Y81.592 E10.6154
G1 X131.484 Y83.594 E10.71809
G1 X132.595 Y85.834 E10.83452
G1 X133.778 Y88.058 E10.95182
G1 X135.04 Y90.273 E11.07052
G1 X136.35 Y92.43 E11.18803
G1 X136.699 Y92.973 E11.21809
G1 X137.271 Y93.885 E11.26822
G1 X137.561 Y94.377 E11.29481
G1 X137.987 Y95.146 E11.33575
G1 X138.569 Y96.237 E11.39332
G1 X138.916 Y96.91 E11.42858
G1 X139.302 Y97.746 E11.47146
G1 X139.583 Y98.513 E11.50949
G1 X139.848 Y99.338 E11.54984
G1 X140.224 Y100.581 E11.61031
G1 X140.419 Y101.255 E11.64298
G1 X140.637 Y102.15 E11.68588
G1 X140.766 Y102.977 E11.72485
G1 X140.871 Y103.898 E11.76802
G1 X140.995 Y105.167 E11.82739
G1 X141.038 Y105.679 E11.85131
G1 X141.073 Y106.349 E11.88255
G1 X141.1 Y107.787 E11.94952
G1 X141.099 Y140.66 E13.48023
G1 X141.089 Y141.387 E13.51408
G1 X141.036 Y142.306 E13.55695
G1 X140.904 Y143.217 E13.59981
G1 X140.693 Y144.113 E13.64267
G1 X140.406 Y144.988 E13.68555
G1 X140.043 Y145.834 E13.72842
G1 X139.609 Y146.646 E13.77129
G1 X139.105 Y147.417 E13.81418
G1 X138.537 Y148.141 E13.85703
G1 X137.908 Y148.813 E13.89989
G1 X137.223 Y149.428 E13.94276
G1 X136.487 Y149.981 E13.98562
G1 X135.706 Y150.469 E14.02851
G1 X134.886 Y150.887 E14.07136
G1 X134.032 Y151.232 E14.11425
G1 X133.152 Y151.501 E14.1571
G1 X132.251 Y151.694 E14.2
G1 X131.338 Y151.807 E14.24284
G1 X130.788 Y151.837 E14.26849
G1 X129.795 Y151.849 E14.31473
G1 X129.09 Y151.839 E14.34756
G1 X128.648 Y151.823 E14.36816
G1 X126.194 Y151.686 E14.4826
G1 X123.622 Y151.612 E14.60242
G1 X121.129 Y151.612 E14.7185
G1 X120.53 Y151.629 E14.74641
G1 X117.707 Y151.676 E14.87787
G1 X116.987 Y151.675 E14.9114
G1 X115.548 Y151.654 E14.97841
G1 X114.052 Y151.611 E15.0481
G1 X111.543 Y151.611 E15.16493
G1 X109.042 Y151.681 E15.28143
G1 X107.614 Y151.767 E15.34805
G1 X106.249 Y151.823 E15.41166
G1 X105.161 Y151.844 E15.46233
G1 X104.809 Y151.845 E15.47872
G1 X104.377 Y151.839 E15.49884
G1 X103.458 Y151.786 E15.54171
G1 X102.547 Y151.654 E15.58457
G1 X101.65 Y151.443 E15.62748
G1 X100.776 Y151.155 E15.67033
G1 X99.93 Y150.793 E15.71317
G1 X99.118 Y150.358 E15.75607
G1 X98.347 Y149.854 E15.79896
G1 X97.623 Y149.286 E15.84181
G1 X96.951 Y148.657 E15.88467
G1 X96.336 Y147.972 E15.92753
G1 X95.783 Y147.236 E15.9704
G1 X95.295 Y146.455 E16.01328
G1 X94.878 Y145.634 E16.05616
G1 X94.533 Y144.781 E16.09901
G1 X94.263 Y143.9 E16.14191
G1 X94.071 Y143 E16.18476
G1 X93.958 Y142.086 E16.22765
G1 X93.926 Y141.458 E16.25693
G1 X93.9 Y140.075 E16.32134
G1 X93.901 Y107.315 E17.84678
G1 X93.908 Y106.79 E17.87123
G1 X93.938 Y106.116 E17.90264
G1 X94.052 Y104.671 E17.97014
G1 X94.141 Y103.778 E18.01193
G1 X94.222 Y103.051 E18.04599
G1 X94.364 Y102.142 E18.08883
G1 X94.568 Y101.301 E18.12912
G1 X94.802 Y100.492 E18.16834
G1 X95.187 Y99.226 E18.22995
G1 X95.386 Y98.597 E18.26067
G1 X95.701 Y97.732 E18.30354
G1 X96.06 Y96.957 E18.34331
G1 X96.44 Y96.219 E18.38196
G1 X97.063 Y95.053 E18.44352
G1 X97.431 Y94.388 E18.47891
G1 X97.727 Y93.886 E18.50605
G1 X98.358 Y92.88 E18.56134
G1 X99.691 Y90.687 E18.68084
G1 X100.943 Y88.49 E18.79859
G1 X102.132 Y86.259 E18.91631
G1 X103.258 Y83.997 E19.03396
G1 X104.3 Y81.728 E19.15023
G1 X104.503 Y81.299 E19.17232
G1 X104.932 Y80.485 E19.21517
G1 X105.431 Y79.711 E19.25805
G1 X105.995 Y78.983 E19.30093
G1 X106.619 Y78.307 E19.34377
G1 X107.301 Y77.688 E19.38666
G1 X107.71 Y77.364 E19.41095
G1 X108.514 Y76.76 E19.45778
G1 X109.471 Y76.065 E19.51285
G1 X110.045 Y75.659 E19.54559
G1 X110.819 Y75.16 E19.58847
G1 X111.633 Y74.731 E19.63132
G1 X112.482 Y74.374 E19.6742
G1 X113.358 Y74.092 E19.71705
G1 X114.256 Y73.887 E19.75994
G1 X115.168 Y73.76 E19.80282
G1 X115.982 Y73.715 E19.84078
G1 X117.028 Y73.698 E19.88949
G1 X118.198 Y73.699 E19.94397
G1 X118.893 Y73.709 E19.97634
G0 F6000 X118.898 Y73.309
G1 F1200 X119.835 Y73.363 E20.02004
G1 X120.763 Y73.496 E20.0637
G1 X121.677 Y73.707 E20.10738
G1 X122.569 Y73.996 E20.15104
G1 X123.434 Y74.36 E20.19473
G1 X124.264 Y74.796 E20.23839
G1 X125.061 Y75.306 E20.28245
G1 X125.946 Y75.929 E20.33285
G1 X126.834 Y76.577 E20.38403
G1 X127.422 Y77.017 E20.41823
G1 X128.149 Y77.61 E20.46192
G1 X128.822 Y78.263 E20.50558
G1 X129.437 Y78.971 E20.54925
G1 X129.989 Y79.729 E20.59291
G1 X130.475 Y80.531 E20.63658
G1 X130.726 Y81.017 E20.66205
G1 X130.922 Y81.425 E20.68313
G1 X131.84 Y83.414 E20.78513
G1 X132.948 Y85.647 E20.9012
G1 X134.144 Y87.893 E21.01969
G1 X135.371 Y90.048 E21.13516
G1 X136.684 Y92.211 E21.25298
G1 X137.038 Y92.76 E21.2834
G1 X137.61 Y93.672 E21.33353
G1 X137.911 Y94.183 E21.36115
G1 X138.339 Y94.958 E21.40237
G1 X138.925 Y96.054 E21.46024
G1 X139.272 Y96.727 E21.4955
G1 X139.666 Y97.578 E21.53917
G1 X139.964 Y98.391 E21.57949
G1 X140.23 Y99.222 E21.62012
G1 X140.609 Y100.47 E21.68085
G1 X140.804 Y101.144 E21.71352
G1 X141.026 Y102.055 E21.75718
G1 X141.163 Y102.93 E21.79842
G1 X141.27 Y103.859 E21.84196
G1 X141.393 Y105.133 E21.90156
G1 X141.436 Y105.645 E21.92549
G1 X141.473 Y106.341 E21.95794
G1 X141.5 Y107.787 E22.02529
G1 X141.499 Y140.665 E23.55622
G1 X141.489 Y141.392 E23.59008
G1 X141.436 Y142.329 E23.63378
G1 X141.304 Y143.257 E23.67743
G1 X141.093 Y144.171 E23.7211
G1 X140.804 Y145.063 E23.76477
G1 X140.441 Y145.928 E23.80845
G1 X140.006 Y146.759 E23.85212
G1 X139.501 Y147.549 E23.89578
G1 X138.931 Y148.294 E23.93946
G1 X138.3 Y148.988 E23.98314
G1 X137.611 Y149.625 E24.02683
G1 X136.871 Y150.201 E24.0705
G1 X136.085 Y150.712 E24.11415
G1 X135.258 Y151.154 E24.15781
G1 X134.396 Y151.524 E24.20149
G1 X133.506 Y151.819 E24.24515
G1 X132.594 Y152.038 E24.28883
G1 X131.667 Y152.178 E24.33248
G1 X130.799 Y152.237 E24.37299
G1 X129.789 Y152.249 E24.42003
G1 X129.084 Y152.239 E24.45286
G1 X128.625 Y152.223 E24.47424
G1 X126.123 Y152.083 E24.59093
G1 X123.645 Y152.012 E24.70636
G1 X121.142 Y152.012 E24.82291
G1 X120.537 Y152.029 E24.85109
G1 X117.707 Y152.076 E24.98289
G1 X116.982 Y152.075 E25.01665
G1 X115.537 Y152.053 E25.08394
G1 X114.076 Y152.011 E25.152
G1 X111.554 Y152.011 E25.26943
G1 X109.047 Y152.081 E25.38622
G1 X107.631 Y152.167 E25.45227
G1 X106.256 Y152.223 E25.51635
G1 X105.168 Y152.244 E25.56702
G1 X104.803 Y152.245 E25.58402
G1 X104.371 Y152.239 E25.60414
G1 X103.435 Y152.186 E25.64779
G1 X102.506 Y152.053 E25.69149
G1 X101.593 Y151.842 E25.73512
G1 X100.7 Y151.554 E25.77881
G1 X99.835 Y151.191 E25.82249
G1 X99.005 Y150.755 E25.86615
G1 X98.214 Y150.25 E25.90985
G1 X97.47 Y149.68 E25.95349
G1 X96.776 Y149.049 E25.99717
G1 X96.139 Y148.36 E26.04086
G1 X95.563 Y147.62 E26.08453
G1 X95.052 Y146.834 E26.12818
G1 X94.61 Y146.007 E26.17184
G1 X94.24 Y145.145 E26.21552
G1 X93.945 Y144.255 E26.25918
G1 X93.727 Y143.343 E26.30285
G1 X93.587 Y142.415 E26.34655
G1 X93.526 Y141.467 E26.39078
G1 X93.5 Y140.075 E26.45561
G1 X93.501 Y107.309 E27.98133
G1 X93.508 Y106.784 E28.00578
G1 X93.54 Y106.085 E28.03836
G1 X93.654 Y104.632 E28.10623
G1 X93.744 Y103.734 E28.14825
G1 X93.825 Y103.007 E28.18231
G1 X93.968 Y102.08 E28.22599
G1 X94.184 Y101.19 E28.26863
G1 X94.419 Y100.376 E28.30809
G1 X94.805 Y99.105 E28.36994
G1 X95.004 Y98.476 E28.40066
G1 X95.325 Y97.595 E28.44432
G1 X95.704 Y96.775 E28.48638
G1 X96.087 Y96.031 E28.52535
G1 X96.713 Y94.859 E28.58722
G1 X97.081 Y94.194 E28.62261
G1 X97.388 Y93.674 E28.65073
G1 X98.001 Y92.697 E28.70443
G1 X99.338 Y90.496 E28.82435
G1 X100.6 Y88.283 E28.94297
G1 X101.772 Y86.085 E29.05896
G1 X102.893 Y83.831 E29.17618
G1 X103.938 Y81.557 E29.29271
G1 X104.141 Y81.128 E29.31481
G1 X104.578 Y80.298 E29.35849
G1 X105.084 Y79.509 E29.40214
G1 X105.655 Y78.765 E29.44581
G1 X106.288 Y78.073 E29.48948
G1 X106.978 Y77.437 E29.53317
G1 X107.469 Y77.044 E29.56246
G1 X108.279 Y76.437 E29.60959
G1 X109.24 Y75.738 E29.66492
G1 X109.814 Y75.332 E29.69766
G1 X110.602 Y74.824 E29.74132
G1 X111.431 Y74.385 E29.785
G1 X112.293 Y74.017 E29.82864
G1 X113.185 Y73.725 E29.87234
G1 X114.097 Y73.509 E29.91599
G1 X115.025 Y73.372 E29.95967
G1 X115.975 Y73.315 E30.00398
G1 X117.028 Y73.298 E30.05302
G1 X118.203 Y73.299 E30.10773
G1 X118.898 Y73.309 E30.1401
G0 F6000 X117.313 Y88.165
G1 F1200 X117.406 Y88.098 E30.14544
G1 X117.516 Y88.098 E30.15056
G1 X117.609 Y88.165 E30.15589
G1 X117.643 Y88.272 E30.16112
G1 X117.609 Y88.379 E30.16635
G1 X117.461 Y88.486 E30.17485
G1 X117.313 Y88.379 E30.18336
G1 X117.279 Y88.272 E30.18859
G1 X117.313 Y88.165 E30.19381
G0 F6000 X116.972 Y87.92
G1 F1200 X117.276 Y87.698 E30.21134
G1 X117.646 Y87.698 E30.22857
G1 X117.95 Y87.92 E30.2461
G1 X118.065 Y88.272 E30.26334
G1 X117.95 Y88.624 E30.28059
G1 X117.543 Y88.92 E30.30402
G1 X117.4 Y88.895 E30.31078
G1 X117.336 Y88.89 E30.31377
G1 X116.972 Y88.624 E30.33476
G1 X116.857 Y88.272 E30.352
G1 X116.972 Y87.92 E30.36925
G0 F6000 X116.632 Y87.672
G1 F1200 X117.146 Y87.298 E30.39885
G1 X117.776 Y87.298 E30.42818
G1 X118.29 Y87.672 E30.45778
G1 X118.485 Y88.272 E30.48716
G1 X118.29 Y88.872 E30.51653
G1 X117.72 Y89.286 E30.54934
G1 X117.52 Y89.337 E30.55895
G1 X117.245 Y89.275 E30.57208
G1 X117.18 Y89.27 E30.57511
G1 X116.632 Y88.872 E30.60665
G1 X116.437 Y88.272 E30.63603
G1 X116.632 Y87.672 E30.6654
G0 F6000 X116.291 Y87.425
G1 F1200 X117.016 Y86.898 E30.70714
G1 X117.906 Y86.898 E30.74858
G1 X118.631 Y87.425 E30.79032
G1 X118.906 Y88.272 E30.83178
G1 X118.631 Y89.119 E30.87325
G1 X117.864 Y89.676 E30.91739
G1 X117.756 Y89.686 E30.92244
G1 X117.537 Y89.745 E30.933
G1 X117.095 Y89.66 E30.95396
G1 X117.03 Y89.657 E30.95699
G1 X116.291 Y89.119 E30.99955
G1 X116.016 Y88.272 E31.04102
G1 X116.291 Y87.425 E31.08248
G0 F6000 X115.951 Y87.179
G1 F1200 X116.887 Y86.498 E31.13638
G1 X118.035 Y86.498 E31.18984
G1 X118.971 Y87.179 E31.24374
G1 X119.326 Y88.272 E31.29725
G1 X118.971 Y89.365 E31.35076
G1 X118.009 Y90.065 E31.40616
G1 X117.793 Y90.086 E31.41627
G1 X117.518 Y90.167 E31.42961
G1 X117.368 Y90.113 E31.43704
G1 X116.899 Y90.055 E31.45904
G1 X115.951 Y89.365 E31.51364
G1 X115.596 Y88.272 E31.56715
G1 X115.951 Y87.179 E31.62066
G0 F6000 X115.612 Y86.93
G1 F1200 X116.755 Y86.098 E31.68649
G1 X118.167 Y86.098 E31.75224
G1 X119.31 Y86.93 E31.81807
G1 X119.747 Y88.272 E31.88379
G1 X119.31 Y89.614 E31.94951
G1 X118.16 Y90.451 E32.01574
G1 X117.833 Y90.486 E32.03105
G1 X117.522 Y90.588 E32.04629
G1 X117.199 Y90.485 E32.06208
G1 X116.828 Y90.446 E32.07945
G1 X116.755 Y90.446 E32.08285
G1 X115.612 Y89.614 E32.14868
G1 X115.175 Y88.272 E32.2144
G1 X115.612 Y86.93 E32.28012
G0 F6000 X115.27 Y86.684
G1 F1200 X116.626 Y85.698 E32.35819
G1 X118.296 Y85.698 E32.43595
G1 X119.652 Y86.684 E32.51402
G1 X120.168 Y88.272 E32.59177
G1 X119.652 Y89.86 E32.66952
G1 X118.296 Y90.846 E32.74759
G1 X118.21 Y90.846 E32.75159
G1 X117.878 Y90.886 E32.76716
G1 X117.606 Y90.988 E32.78069
G1 X117.427 Y90.988 E32.78902
G1 X117.361 Y90.951 E32.79255
G1 X117.039 Y90.862 E32.8081
G1 X116.828 Y90.846 E32.81796
