;FLAVOR:Marlin
;TIME:18018
;Filament used: 11.7221m
;Layer height: 0.2
;MINX:24.198
;MINY:19.205
;MINZ:0.2
;MAXX:188.199
;MAXY:215.799
;MAXZ:10.6
;Generated with Cura_SteamEngine 4.7.0
M140 S70
M105
M190 S70
M104 S240
M105
M109 S240
M82 ;absolute extrusion mode
; Ender 3 Custom Start G-code
G92 E0 ; Reset Extruder
G28 ; Home all axes
G1 Z2.0 F3000 ; Move Z Axis up little to prevent scratching of Heat Bed
G1 X0.1 Y20 Z0.3 F5000.0 ; Move to start position
G1 X0.1 Y200.0 Z0.3 F1500.0 E15 ; Draw the first line
G1 X0.4 Y200.0 Z0.3 F5000.0 ; Move to side a little
G1 X0.4 Y20 Z0.3 F1500.0 E30 ; Draw the second line
G92 E0 ; Reset Extruder
G1 Z2.0 F3000 ; Move Z Axis up little to prevent scratching of Heat Bed
G1 X5 Y20 Z0.3 F5000.0 ; Move over to prevent blob squish
G92 E0
G92 E0
G1 F2700 E-5
;LAYER_COUNT:53
;LAYER:0
M107
G0 F6000 X96.878 Y66.057 Z0.2
;TYPE:SKIRT
G1 F2700 E0
G1 F900 X115.452 Y33.888 E1.23549
G1 X116.712 Y31.634 E1.32137
G1 X117.527 Y30.051 E1.38059
G1 X118.27 Y28.638 E1.43369
G1 X118.413 Y28.374 E1.44368
G1 X118.68 Y27.898 E1.46183
G1 X120.267 Y25.152 E1.56732
G1 X120.602 Y24.592 E1.58902
G1 X121.117 Y23.808 E1.62022
G1 X121.698 Y23.072 E1.65141
G1 X122.339 Y22.387 E1.68261
G1 X123.035 Y21.759 E1.71379
G1 X123.783 Y21.193 E1.74499
G1 X124.577 Y20.693 E1.7762
G1 X125.41 Y20.262 E1.80739
G1 X126.276 Y19.904 E1.83856
G1 X127.17 Y19.62 E1.86976
G1 X128.085 Y19.414 E1.90095
G1 X129.31 Y19.263 E1.942
G1 X129.61 Y19.243 E1.952
G1 X130.548 Y19.221 E1.98321
G1 X131.792 Y19.315 E2.0247
G1 X134.458 Y19.67 E2.11416
G1 X136.947 Y19.93 E2.19739
G1 X139.429 Y20.118 E2.28018
G1 X141.982 Y20.239 E2.36519
G1 X144.475 Y20.288 E2.44812
G1 X147.029 Y20.264 E2.53307
G1 X149.525 Y20.171 E2.61615
G1 X152.027 Y20.007 E2.69954
G1 X154.52 Y19.771 E2.78283
G1 X157.172 Y19.445 E2.8717
G1 X158.221 Y19.301 E2.90692
G1 X159.155 Y19.213 E2.93812
G1 X160.093 Y19.205 E2.96932
G1 X161.028 Y19.277 E3.00051
G1 X161.954 Y19.429 E3.03172
G1 X162.863 Y19.658 E3.0629
G1 X163.749 Y19.964 E3.09408
G1 X164.787 Y20.437 E3.13202
G1 X164.891 Y20.491 E3.13591
G1 X165.208 Y20.662 E3.14789
G1 X165.708 Y20.943 E3.16697
G1 X166.091 Y21.163 E3.18166
G1 X166.195 Y21.217 E3.18556
G1 X166.888 Y21.614 E3.21212
G1 X167.098 Y21.746 E3.22037
G1 X180.952 Y29.745 E3.75245
G1 X180.983 Y29.761 E3.75361
G1 X181.796 Y30.234 E3.78489
G1 X181.985 Y30.341 E3.79212
G1 X182.194 Y30.462 E3.80015
G1 X182.804 Y30.826 E3.82377
G1 X183.588 Y31.34 E3.85495
G1 X184.325 Y31.92 E3.88615
G1 X185.011 Y32.56 E3.91735
G1 X185.639 Y33.256 E3.94853
G1 X186.206 Y34.003 E3.97972
G1 X186.707 Y34.796 E4.01092
G1 X187.139 Y35.629 E4.04213
G1 X187.498 Y36.495 E4.07331
G1 X187.782 Y37.389 E4.10451
G1 X187.976 Y38.234 E4.13335
G1 X188.009 Y38.409 E4.13927
G1 X188.144 Y39.337 E4.17046
G1 X188.199 Y40.273 E4.20164
G1 X188.173 Y41.211 E4.23285
G1 X188.069 Y42.143 E4.26405
G1 X187.885 Y43.062 E4.29522
G1 X187.623 Y43.963 E4.32643
G1 X187.286 Y44.838 E4.35761
G1 X186.809 Y45.802 E4.39339
G1 X186.493 Y46.369 E4.41498
G1 X184.992 Y48.969 E4.51483
G1 X184.901 Y49.124 E4.52081
G1 X184.552 Y49.706 E4.54338
G1 X184.394 Y49.961 E4.55335
G1 X183.734 Y50.995 E4.59415
G1 X183.354 Y51.574 E4.61719
G1 X181.338 Y54.893 E4.74635
G1 X180.452 Y56.425 E4.80521
G1 X146.632 Y115.008 E7.05507
G1 X115.511 Y168.911 E9.12524
G1 X97.02 Y200.935 E10.35517
G1 X95.725 Y203.254 E10.44352
G1 X94.559 Y205.488 E10.52733
G1 X94.392 Y205.82 E10.53969
G1 X94.23 Y206.131 E10.55135
G1 X94.087 Y206.396 E10.56137
G1 X93.614 Y207.244 E10.59367
G1 X92.201 Y209.691 E10.68765
G1 X91.782 Y210.395 E10.7149
G1 X91.268 Y211.179 E10.74608
G1 X90.688 Y211.917 E10.7773
G1 X90.048 Y212.602 E10.80848
G1 X89.352 Y213.231 E10.83968
G1 X88.605 Y213.798 E10.87087
G1 X87.813 Y214.299 E10.90204
G1 X86.98 Y214.731 E10.93325
G1 X86.114 Y215.091 E10.96444
G1 X84.914 Y215.453 E11.00613
G1 X84.744 Y215.494 E11.01195
G1 X83.824 Y215.675 E11.04313
G1 X82.891 Y215.777 E11.07435
G1 X81.954 Y215.799 E11.10552
G1 X80.7 Y215.703 E11.14735
G1 X78.062 Y215.349 E11.23588
G1 X75.558 Y215.083 E11.31963
G1 X73.031 Y214.889 E11.40393
G1 X70.534 Y214.767 E11.48708
G1 X68.011 Y214.715 E11.57101
G1 X65.487 Y214.735 E11.65496
G1 X62.966 Y214.826 E11.73886
G1 X60.484 Y214.986 E11.82159
G1 X57.952 Y215.221 E11.90616
G1 X55.392 Y215.532 E11.99194
G1 X54.124 Y215.703 E12.03449
G1 X53.19 Y215.789 E12.06569
G1 X52.252 Y215.795 E12.09689
G1 X51.317 Y215.72 E12.12808
G1 X50.392 Y215.567 E12.15927
G1 X49.483 Y215.335 E12.19047
G1 X48.597 Y215.027 E12.22167
G1 X47.52 Y214.53 E12.26112
G1 X47.34 Y214.435 E12.26789
G1 X47.078 Y214.292 E12.27782
G1 X46.737 Y214.1 E12.29083
G1 X46.221 Y213.805 E12.3106
G1 X46.188 Y213.788 E12.31184
G1 X45.495 Y213.392 E12.33838
G1 X45.287 Y213.261 E12.34656
G1 X31.415 Y205.252 E12.87932
G1 X31.365 Y205.226 E12.8812
G1 X30.534 Y204.743 E12.91316
G1 X30.351 Y204.639 E12.92017
G1 X30.153 Y204.523 E12.9278
G1 X29.581 Y204.182 E12.94995
G1 X28.797 Y203.668 E12.98113
G1 X28.059 Y203.089 E13.01233
G1 X27.373 Y202.449 E13.04353
G1 X26.745 Y201.753 E13.07471
G1 X26.178 Y201.006 E13.1059
G1 X25.676 Y200.214 E13.13709
G1 X25.244 Y199.382 E13.16827
G1 X24.884 Y198.515 E13.19949
G1 X24.6 Y197.622 E13.23066
G1 X24.392 Y196.707 E13.26187
G1 X24.245 Y195.559 E13.30036
G1 X24.228 Y195.333 E13.3079
G1 X24.198 Y194.396 E13.33908
G1 X24.247 Y193.459 E13.37029
G1 X24.376 Y192.53 E13.40149
G1 X24.584 Y191.616 E13.43266
G1 X24.869 Y190.722 E13.46387
G1 X25.229 Y189.856 E13.49506
G1 X25.597 Y189.138 E13.5219
G1 X25.931 Y188.543 E13.54459
G1 X27.274 Y186.218 E13.6339
G1 X27.362 Y186.068 E13.63968
G1 X27.707 Y185.492 E13.66201
G1 X27.865 Y185.236 E13.67202
G1 X28.454 Y184.311 E13.70849
G1 X28.858 Y183.695 E13.73299
G1 X30.896 Y180.343 E13.86347
G1 X31.926 Y178.562 E13.9319
G1 X65.74 Y119.992 E16.18129
G1 X96.878 Y66.057 E18.25266
G0 F6000 X97.224 Y66.257
G1 F900 X115.804 Y34.077 E19.48857
G1 X117.071 Y31.81 E19.57494
G1 X117.924 Y30.156 E19.63684
G1 X118.624 Y28.824 E19.68689
G1 X118.762 Y28.569 E19.69653
G1 X119.096 Y27.976 E19.71917
G1 X120.61 Y25.357 E19.81979
G1 X120.945 Y24.797 E19.84149
G1 X121.452 Y24.028 E19.87212
G1 X122.023 Y23.307 E19.90271
G1 X122.655 Y22.637 E19.93335
G1 X123.343 Y22.025 E19.96398
G1 X124.081 Y21.474 E19.99461
G1 X124.864 Y20.99 E20.02522
G1 X125.686 Y20.576 E20.05584
G1 X126.541 Y20.234 E20.08646
G1 X127.422 Y19.968 E20.11707
G1 X128.323 Y19.779 E20.14769
G1 X129.337 Y19.662 E20.18164
G1 X129.637 Y19.642 E20.19164
G1 X130.557 Y19.621 E20.22225
G1 X131.74 Y19.712 E20.26171
G1 X134.37 Y20.062 E20.34996
G1 X136.91 Y20.327 E20.4349
G1 X139.449 Y20.52 E20.51959
G1 X141.955 Y20.639 E20.60303
G1 X144.471 Y20.688 E20.68673
G1 X147.012 Y20.664 E20.77125
G1 X149.568 Y20.569 E20.85632
G1 X152.055 Y20.405 E20.93922
G1 X154.566 Y20.168 E21.0231
G1 X157.287 Y19.834 E21.11428
G1 X158.276 Y19.698 E21.14749
G1 X159.192 Y19.612 E21.17809
G1 X160.113 Y19.606 E21.20872
G1 X161.031 Y19.681 E21.23936
G1 X161.938 Y19.834 E21.26995
G1 X162.829 Y20.066 E21.30057
G1 X163.697 Y20.374 E21.33121
G1 X164.603 Y20.792 E21.36439
G1 X164.707 Y20.846 E21.36829
G1 X165.012 Y21.011 E21.37982
G1 X165.509 Y21.29 E21.39878
G1 X165.851 Y21.486 E21.41189
G1 X165.996 Y21.564 E21.41737
G1 X166.689 Y21.961 E21.44393
G1 X166.889 Y22.087 E21.45179
G1 X180.752 Y30.091 E21.98421
G1 X180.782 Y30.107 E21.98534
G1 X181.576 Y30.569 E22.0159
G1 X181.989 Y30.805 E22.03172
G1 X182.599 Y31.169 E22.05534
G1 X183.368 Y31.675 E22.08596
G1 X184.091 Y32.246 E22.1166
G1 X184.761 Y32.877 E22.14721
G1 X185.374 Y33.563 E22.17781
G1 X185.925 Y34.301 E22.20845
G1 X186.41 Y35.083 E22.23905
G1 X186.826 Y35.905 E22.26969
G1 X187.168 Y36.76 E22.30032
G1 X187.435 Y37.641 E22.33094
G1 X187.583 Y38.308 E22.35366
G1 X187.616 Y38.483 E22.35959
G1 X187.748 Y39.394 E22.3902
G1 X187.799 Y40.313 E22.42082
G1 X187.771 Y41.233 E22.45143
G1 X187.663 Y42.148 E22.48207
G1 X187.476 Y43.049 E22.51268
G1 X187.211 Y43.931 E22.54331
G1 X186.871 Y44.787 E22.57394
G1 X186.459 Y45.607 E22.60447
G1 X186.063 Y46.316 E22.63148
G1 X184.646 Y48.769 E22.7257
G1 X184.209 Y49.5 E22.75402
G1 X184.057 Y49.746 E22.76364
G1 X183.4 Y50.775 E22.80425
G1 X183.019 Y51.356 E22.82736
G1 X180.997 Y54.684 E22.95688
G1 X180.106 Y56.225 E23.01608
G1 X146.286 Y114.808 E25.26594
G1 X115.165 Y168.711 E27.33611
G1 X96.637 Y200.799 E28.5685
G1 X95.379 Y203.052 E28.65433
G1 X94.203 Y205.304 E28.73883
G1 X94.143 Y205.426 E28.74335
G1 X94.037 Y205.635 E28.75114
G1 X93.875 Y205.946 E28.76281
G1 X93.738 Y206.201 E28.77243
G1 X93.268 Y207.044 E28.80454
G1 X91.855 Y209.491 E28.89852
G1 X91.438 Y210.19 E28.92559
G1 X90.933 Y210.96 E28.95622
G1 X90.363 Y211.682 E28.98681
G1 X89.732 Y212.353 E29.01745
G1 X89.045 Y212.966 E29.04807
G1 X88.308 Y213.517 E29.07868
G1 X87.525 Y214.002 E29.10931
G1 X86.704 Y214.418 E29.13992
G1 X85.849 Y214.761 E29.17056
G1 X84.82 Y215.065 E29.20625
G1 X84.65 Y215.106 E29.21207
G1 X83.747 Y215.282 E29.24267
G1 X82.831 Y215.38 E29.27331
G1 X81.911 Y215.398 E29.30391
G1 X80.754 Y215.307 E29.34251
G1 X78.091 Y214.949 E29.43188
G1 X75.595 Y214.685 E29.51536
G1 X73.046 Y214.489 E29.60039
G1 X70.562 Y214.367 E29.68311
G1 X68.016 Y214.315 E29.76781
G1 X65.469 Y214.335 E29.85252
G1 X62.961 Y214.425 E29.93599
G1 X60.422 Y214.589 E30.02062
G1 X57.938 Y214.82 E30.10359
G1 X55.358 Y215.133 E30.19003
G1 X54.07 Y215.307 E30.23326
G1 X53.154 Y215.39 E30.26385
G1 X52.233 Y215.394 E30.29448
G1 X51.315 Y215.317 E30.32512
G1 X50.408 Y215.161 E30.35573
G1 X49.518 Y214.927 E30.38634
G1 X48.651 Y214.617 E30.41697
G1 X47.706 Y214.176 E30.45165
G1 X47.526 Y214.081 E30.45842
G1 X47.274 Y213.944 E30.46796
G1 X46.936 Y213.753 E30.48087
G1 X46.412 Y213.453 E30.50095
G1 X46.387 Y213.44 E30.50189
G1 X45.694 Y213.044 E30.52844
G1 X45.512 Y212.929 E30.5356
G1 X31.625 Y204.912 E31.06893
G1 X31.566 Y204.88 E31.07116
G1 X30.358 Y204.18 E31.11759
G1 X29.786 Y203.839 E31.13974
G1 X29.017 Y203.334 E31.17034
G1 X28.294 Y202.763 E31.20098
G1 X27.623 Y202.133 E31.2316
G1 X27.01 Y201.446 E31.26222
G1 X26.458 Y200.709 E31.29285
G1 X25.973 Y199.926 E31.32348
G1 X25.557 Y199.105 E31.35409
G1 X25.214 Y198.251 E31.3847
G1 X24.947 Y197.37 E31.41532
G1 X24.757 Y196.469 E31.44595
G1 X24.644 Y195.529 E31.47744
G1 X24.627 Y195.303 E31.48497
G1 X24.598 Y194.383 E31.51559
G1 X24.649 Y193.464 E31.5462
G1 X24.779 Y192.552 E31.57684
G1 X24.988 Y191.656 E31.60744
G1 X25.274 Y190.781 E31.63806
G1 X25.635 Y189.934 E31.66868
G1 X25.946 Y189.333 E31.69119
G1 X26.277 Y188.743 E31.71369
G1 X27.62 Y186.418 E31.803
G1 X27.705 Y186.273 E31.80859
G1 X28.05 Y185.697 E31.83092
G1 X28.203 Y185.451 E31.84055
G1 X28.875 Y184.397 E31.88213
G1 X29.193 Y183.913 E31.90139
G1 X31.237 Y180.552 E32.03223
G1 X32.272 Y178.762 E32.101
G1 X66.086 Y120.192 E34.35038
G1 X97.224 Y66.257 E36.42176
G0 F6000 X97.57 Y66.457
G1 F900 X116.157 Y34.266 E37.6581
G1 X117.431 Y31.986 E37.74497
G1 X118.278 Y30.342 E37.80648
G1 X118.978 Y29.01 E37.85652
G1 X119.111 Y28.765 E37.8658
G1 X119.442 Y28.176 E37.88827
G1 X120.875 Y25.696 E37.98353
G1 X121.289 Y25.003 E38.01038
G1 X121.786 Y24.249 E38.04042
G1 X122.348 Y23.542 E38.07046
G1 X122.971 Y22.888 E38.1005
G1 X123.649 Y22.291 E38.13055
G1 X124.377 Y21.757 E38.16058
G1 X125.149 Y21.289 E38.1906
G1 X125.96 Y20.891 E38.22065
G1 X126.803 Y20.567 E38.25069
G1 X127.671 Y20.318 E38.28072
G1 X128.558 Y20.148 E38.31076
G1 X129.364 Y20.062 E38.33772
G1 X129.664 Y20.042 E38.34772
G1 X130.566 Y20.021 E38.37773
G1 X131.687 Y20.108 E38.41512
G1 X134.343 Y20.461 E38.50424
G1 X136.875 Y20.726 E38.58892
G1 X139.4 Y20.918 E38.67314
G1 X141.964 Y21.039 E38.75851
G1 X144.466 Y21.088 E38.84175
G1 X147.031 Y21.064 E38.92706
G1 X149.573 Y20.969 E39.01167
G1 X152.083 Y20.804 E39.09533
G1 X154.62 Y20.565 E39.18009
G1 X157.315 Y20.233 E39.2704
G1 X158.33 Y20.094 E39.30447
G1 X159.229 Y20.011 E39.3345
G1 X160.133 Y20.007 E39.36457
G1 X161.032 Y20.084 E39.39458
G1 X161.922 Y20.24 E39.42463
G1 X162.794 Y20.474 E39.45466
G1 X163.642 Y20.784 E39.48469
G1 X164.418 Y21.147 E39.51319
G1 X164.522 Y21.201 E39.51708
G1 X164.816 Y21.359 E39.52818
G1 X165.31 Y21.637 E39.54704
G1 X165.723 Y21.874 E39.56288
G1 X165.797 Y21.911 E39.56563
G1 X166.49 Y22.308 E39.59219
G1 X166.675 Y22.426 E39.59949
G1 X180.552 Y30.437 E40.13243
G1 X180.58 Y30.452 E40.13348
G1 X181.326 Y30.886 E40.16219
G1 X181.59 Y31.036 E40.17229
G1 X181.784 Y31.149 E40.17976
G1 X182.394 Y31.513 E40.20338
G1 X183.148 Y32.01 E40.23342
G1 X183.855 Y32.571 E40.26344
G1 X184.51 Y33.193 E40.29348
G1 X185.108 Y33.87 E40.32352
G1 X185.643 Y34.598 E40.35357
G1 X186.112 Y35.37 E40.38362
G1 X186.51 Y36.18 E40.41363
G1 X186.836 Y37.022 E40.44366
G1 X187.085 Y37.89 E40.4737
G1 X187.19 Y38.382 E40.49043
G1 X187.223 Y38.557 E40.49635
G1 X187.351 Y39.451 E40.52639
G1 X187.4 Y40.353 E40.55644
G1 X187.368 Y41.255 E40.58646
G1 X187.257 Y42.151 E40.61648
G1 X187.066 Y43.034 E40.64653
G1 X186.799 Y43.897 E40.67658
G1 X186.456 Y44.732 E40.7066
G1 X186.11 Y45.413 E40.73201
G1 X185.794 Y45.98 E40.7536
G1 X184.215 Y48.713 E40.85858
G1 X183.866 Y49.295 E40.88115
G1 X183.719 Y49.531 E40.8904
G1 X183.065 Y50.556 E40.93084
G1 X182.679 Y51.143 E40.9542
G1 X180.668 Y54.454 E41.08305
G1 X145.94 Y114.608 E43.39326
G1 X114.819 Y168.511 E45.46343
G1 X96.285 Y200.61 E46.69624
G1 X95.033 Y202.851 E46.78162
G1 X93.83 Y205.156 E46.8681
G1 X93.682 Y205.45 E46.87904
G1 X93.52 Y205.761 E46.89071
G1 X93.388 Y206.007 E46.89999
G1 X93.002 Y206.701 E46.92641
G1 X92.921 Y206.844 E46.93187
G1 X91.508 Y209.291 E47.02585
G1 X91.095 Y209.985 E47.05271
G1 X90.598 Y210.74 E47.08278
G1 X90.037 Y211.447 E47.1128
G1 X89.415 Y212.102 E47.14284
G1 X88.738 Y212.7 E47.17288
G1 X88.011 Y213.235 E47.2029
G1 X87.239 Y213.704 E47.23295
G1 X86.429 Y214.102 E47.26297
G1 X85.586 Y214.428 E47.29303
G1 X84.726 Y214.676 E47.3228
G1 X84.556 Y214.717 E47.32861
G1 X83.67 Y214.889 E47.35863
G1 X82.772 Y214.983 E47.38866
G1 X81.869 Y214.997 E47.4187
G1 X80.807 Y214.91 E47.45414
G1 X78.15 Y214.553 E47.54331
G1 X75.634 Y214.287 E47.62746
G1 X73.095 Y214.091 E47.71215
G1 X70.554 Y213.967 E47.79677
G1 X68.021 Y213.915 E47.88103
G1 X65.452 Y213.935 E47.96648
G1 X62.955 Y214.025 E48.04959
G1 X60.395 Y214.19 E48.13491
G1 X57.89 Y214.423 E48.21859
G1 X55.334 Y214.733 E48.30422
G1 X54.017 Y214.911 E48.34842
G1 X53.118 Y214.991 E48.37844
G1 X52.214 Y214.993 E48.40851
G1 X51.315 Y214.914 E48.43853
G1 X50.426 Y214.756 E48.46856
G1 X49.554 Y214.519 E48.49861
G1 X48.707 Y214.207 E48.52863
G1 X47.893 Y213.823 E48.55857
G1 X47.713 Y213.728 E48.56534
G1 X47.47 Y213.595 E48.57455
G1 X47.135 Y213.406 E48.58735
G1 X46.631 Y213.117 E48.60667
G1 X46.585 Y213.093 E48.60839
G1 X45.892 Y212.697 E48.63494
G1 X45.693 Y212.572 E48.64276
G1 X31.803 Y204.552 E49.17622
G1 X31.767 Y204.534 E49.17756
G1 X30.929 Y204.047 E49.2098
G1 X30.746 Y203.943 E49.2168
G1 X30.563 Y203.836 E49.22385
G1 X29.991 Y203.495 E49.246
G1 X29.236 Y202.999 E49.27604
G1 X28.529 Y202.438 E49.30606
G1 X27.874 Y201.816 E49.3361
G1 X27.276 Y201.139 E49.36615
G1 X26.74 Y200.412 E49.39619
G1 X26.271 Y199.64 E49.42623
G1 X25.873 Y198.83 E49.45625
G1 X25.547 Y197.988 E49.48628
G1 X25.297 Y197.12 E49.51632
G1 X25.125 Y196.233 E49.54638
G1 X25.043 Y195.499 E49.57094
G1 X25.026 Y195.273 E49.57848
G1 X24.998 Y194.37 E49.60853
G1 X25.05 Y193.469 E49.63854
G1 X25.182 Y192.575 E49.6686
G1 X25.392 Y191.697 E49.69863
G1 X25.679 Y190.841 E49.72865
G1 X26.041 Y190.013 E49.75871
G1 X26.295 Y189.528 E49.77692
G1 X26.554 Y189.065 E49.79457
G1 X27.967 Y186.618 E49.88855
G1 X28.394 Y185.903 E49.91625
G1 X28.54 Y185.665 E49.92553
G1 X29.129 Y184.74 E49.96201
G1 X29.523 Y184.139 E49.98591
G1 X31.585 Y180.747 E50.11794
G1 X32.618 Y178.962 E50.18653
G1 X66.432 Y120.392 E52.43592
G1 X97.57 Y66.457 E54.5073
G1 F2700 E49.5073
G0 F6000 X105.812 Y71.256
G0 X106.56 Y71.689
;TYPE:SUPPORT-INTERFACE
G1 F2700 E54.5073
G1 F900 X125.443 Y38.985 E55.76333
G1 X128.149 Y34.288 E55.94362
G1 X128.156 Y33.884 E55.95706
G1 X128.899 Y32.596 E56.00652
G1 X130.167 Y30.402 E56.0908
G1 X130.185 Y30.412 E56.09149
G1 X130.926 Y30.84 E56.11995
G1 X129.416 Y33.434 E56.21978
G1 X126.034 Y39.333 E56.44594
G1 X106.033 Y73.974 E57.77636
