;FLAVOR:Marlin
;TIME:12586
;Filament used: 9.11447m
;Layer height: 0.24
;MINX:73.825
;MINY:88.966
;MINZ:0.28
;MAXX:161.074
;MAXY:146.019
;MAXZ:49.96
;Generated with Cura_SteamEngine 4.5.0
M140 S65
M105
M190 S65
M104 S215
M105
M109 S215
M82 ;absolute extrusion mode
; Ender 3 Custom Start G-code
G92 E0 ; Reset Extruder
G28 ; Home all axes
G1 Z2.0 F3000 ; Move Z Axis up little to prevent scratching of Heat Bed
G1 X0.1 Y20 Z0.3 F5000.0 ; Move to start position
G1 X0.1 Y200.0 Z0.3 F1500.0 E15 ; Draw the first line
G1 X0.4 Y200.0 Z0.3 F5000.0 ; Move to side a little
G1 X0.4 Y20 Z0.3 F1500.0 E30 ; Draw the second line
G92 E0 ; Reset Extruder
G1 Z2.0 F3000 ; Move Z Axis up little to prevent scratching of Heat Bed
G1 X5 Y20 Z0.3 F5000.0 ; Move over to prevent blob squish
G92 E0
G92 E0
G1 F2700 E-5
;LAYER_COUNT:208
;LAYER:0
M107
G0 F6000 X92.915 Y110.278 Z0.28
;TYPE:SKIRT
G1 F2700 E0
G1 F1200 X92.969 Y110.239 E0.0031
G1 X93.027 Y110.239 E0.0058
G1 X93.081 Y110.278 E0.0089
G1 X93.1 Y110.336 E0.01175
G1 X93.081 Y110.394 E0.01459
G1 X93.027 Y110.433 E0.01769
G1 X92.969 Y110.433 E0.02039
G1 X92.915 Y110.394 E0.02349
G1 X92.896 Y110.336 E0.02633
G1 X92.915 Y110.278 E0.02918
G0 F6000 X92.575 Y110.031
G1 F1200 X92.838 Y109.839 E0.04434
G1 X93.158 Y109.839 E0.05924
G1 X93.421 Y110.031 E0.0744
G1 X93.52 Y110.336 E0.08933
G1 X93.421 Y110.641 E0.10426
G1 X93.158 Y110.833 E0.11943
G1 X92.838 Y110.833 E0.13433
G1 X92.575 Y110.641 E0.14949
G1 X92.476 Y110.336 E0.16442
G1 X92.575 Y110.031 E0.17935
G0 F6000 X92.234 Y109.784
G1 F1200 X92.708 Y109.439 E0.20665
G1 X93.288 Y109.439 E0.23366
G1 X93.762 Y109.784 E0.26096
G1 X93.941 Y110.336 E0.28798
G1 X93.762 Y110.888 E0.315
G1 X93.288 Y111.233 E0.3423
G1 X92.708 Y111.233 E0.36931
G1 X92.234 Y110.888 E0.3966
G1 X92.055 Y110.336 E0.42363
G1 X92.234 Y109.784 E0.45065
G0 F6000 X91.894 Y109.537
G1 F1200 X92.579 Y109.039 E0.49008
G1 X93.417 Y109.039 E0.5291
G1 X94.102 Y109.537 E0.56854
G1 X94.361 Y110.336 E0.60765
G1 X94.102 Y111.135 E0.64676
G1 X93.417 Y111.633 E0.68619
G1 X92.579 Y111.633 E0.72521
G1 X91.894 Y111.135 E0.76465
G1 X91.635 Y110.336 E0.80376
G1 X91.894 Y109.537 E0.84287
G0 F6000 X91.555 Y109.29
G1 F1200 X92.448 Y108.639 E0.89433
G1 X93.548 Y108.639 E0.94555
G1 X94.441 Y109.29 E0.99701
G1 X94.782 Y110.336 E1.04824
G1 X94.441 Y111.382 E1.09947
G1 X93.548 Y112.033 E1.15092
G1 X92.448 Y112.033 E1.20214
G1 X91.555 Y111.382 E1.2536
G1 X91.214 Y110.336 E1.30483
G1 X91.555 Y109.29 E1.35606
G0 F6000 X91.213 Y109.043
G1 F1200 X92.318 Y108.239 E1.41969
G1 X93.678 Y108.239 E1.48302
G1 X94.783 Y109.043 E1.54665
G1 X95.203 Y110.336 E1.60996
G1 X94.783 Y111.629 E1.67326
G1 X93.678 Y112.433 E1.73689
G1 X92.318 Y112.433 E1.80022
G1 X91.213 Y111.629 E1.86385
G1 X90.793 Y110.336 E1.92716
G1 X91.213 Y109.043 E1.99046
G0 F6000 X90.874 Y108.795
G1 F1200 X92.187 Y107.839 E2.06609
G1 X93.809 Y107.839 E2.14161
G1 X95.122 Y108.795 E2.21724
G1 X95.623 Y110.336 E2.2927
G1 X95.122 Y111.877 E2.36815
G1 X93.809 Y112.833 E2.44378
G1 X92.187 Y112.833 E2.5193
G1 X90.874 Y111.877 E2.59493
G1 X90.373 Y110.336 E2.67038
G1 X90.874 Y108.795 E2.74584
G0 F6000 X90.534 Y108.548
G1 F1200 X92.057 Y107.439 E2.83356
G1 X93.939 Y107.439 E2.9212
G1 X95.462 Y108.548 E3.00892
G1 X96.043 Y110.336 E3.09646
G1 X95.462 Y112.124 E3.18401
G1 X93.939 Y113.233 E3.27173
G1 X92.057 Y113.233 E3.35937
G1 X90.534 Y112.124 E3.44709
G1 X89.953 Y110.336 E3.53463
G1 X90.534 Y108.548 E3.62218
G0 F6000 X90.193 Y108.302
G1 F1200 X91.928 Y107.039 E3.7221
G1 X94.068 Y107.039 E3.82175
G1 X95.803 Y108.302 E3.92168
G1 X96.465 Y110.336 E4.02128
G1 X95.803 Y112.37 E4.12088
G1 X94.068 Y113.633 E4.22081
G1 X91.928 Y113.633 E4.32046
G1 X90.193 Y112.37 E4.42038
G1 X89.531 Y110.336 E4.51999
G1 X90.193 Y108.302 E4.61959
G0 F6000 X86.139 Y117.496
G1 F1200 X86.793 Y119.506 E4.71801
G1 X86.139 Y121.516 E4.81644
G1 X84.425 Y122.763 E4.91513
G1 X82.311 Y122.763 E5.01357
G1 X80.597 Y121.516 E5.11227
G1 X79.943 Y119.506 E5.21069
G1 X80.597 Y117.496 E5.30912
G1 X82.311 Y116.249 E5.40782
G1 X84.425 Y116.249 E5.50625
G1 X86.139 Y117.496 E5.60495
G0 F6000 X85.798 Y117.742
G1 F1200 X86.372 Y119.506 E5.69133
G1 X85.798 Y121.27 E5.77771
G1 X84.296 Y122.363 E5.8642
G1 X82.44 Y122.363 E5.95063
G1 X80.938 Y121.27 E6.03712
G1 X80.364 Y119.506 E6.1235
G1 X80.938 Y117.742 E6.20988
G1 X82.44 Y116.649 E6.29638
G1 X84.296 Y116.649 E6.3828
G1 X85.798 Y117.742 E6.4693
G0 F6000 X85.458 Y117.99
G1 F1200 X85.952 Y119.506 E6.54354
G1 X85.458 Y121.022 E6.61779
G1 X84.165 Y121.963 E6.69225
G1 X82.571 Y121.963 E6.76648
G1 X81.278 Y121.022 E6.84094
G1 X80.784 Y119.506 E6.91518
G1 X81.278 Y117.99 E6.98943
G1 X82.571 Y117.049 E7.06389
G1 X84.165 Y117.049 E7.13812
G1 X85.458 Y117.99 E7.21258
G0 F6000 X85.119 Y118.237
G1 F1200 X85.531 Y119.506 E7.27471
G1 X85.119 Y120.775 E7.33683
G1 X84.035 Y121.563 E7.39924
G1 X82.701 Y121.563 E7.46135
G1 X81.617 Y120.775 E7.52375
G1 X81.205 Y119.506 E7.58588
G1 X81.617 Y118.237 E7.64801
G1 X82.701 Y117.449 E7.71041
G1 X84.035 Y117.449 E7.77253
G1 X85.119 Y118.237 E7.83493
G0 F6000 X84.777 Y118.483
G1 F1200 X85.11 Y119.506 E7.88503
G1 X84.777 Y120.529 E7.93512
G1 X83.906 Y121.163 E7.98528
G1 X82.83 Y121.163 E8.03539
G1 X81.959 Y120.529 E8.08555
G1 X81.626 Y119.506 E8.13565
G1 X81.959 Y118.483 E8.18574
G1 X82.83 Y117.849 E8.23591
G1 X83.906 Y117.849 E8.28601
G1 X84.777 Y118.483 E8.33617
G0 F6000 X84.438 Y118.732
G1 F1200 X84.69 Y119.506 E8.37408
G1 X84.438 Y120.28 E8.41198
G1 X83.775 Y120.763 E8.45017
G1 X82.961 Y120.763 E8.48808
G1 X82.298 Y120.28 E8.52627
G1 X82.046 Y119.506 E8.56418
G1 X82.298 Y118.732 E8.60208
G1 X82.961 Y118.249 E8.64027
G1 X83.775 Y118.249 E8.67818
G1 X84.438 Y118.732 E8.71637
G0 F6000 X84.097 Y118.977
G1 F1200 X84.269 Y119.506 E8.74228
G1 X84.097 Y120.035 E8.76818
G1 X83.645 Y120.363 E8.79418
G1 X83.091 Y120.363 E8.81998
G1 X82.639 Y120.035 E8.84598
G1 X82.467 Y119.506 E8.87188
G1 X82.639 Y118.977 E8.89779
G1 X83.091 Y118.649 E8.92379
G1 X83.645 Y118.649 E8.94959
G1 X84.097 Y118.977 E8.97559
G0 F6000 X83.757 Y119.225
G1 F1200 X83.848 Y119.506 E8.98935
G1 X83.757 Y119.787 E9.0031
G1 X83.515 Y119.963 E9.01703
G1 X83.221 Y119.963 E9.03072
G1 X82.979 Y119.787 E9.04466
G1 X82.888 Y119.506 E9.05841
G1 X82.979 Y119.225 E9.07216
G1 X83.221 Y119.049 E9.0861
G1 X83.515 Y119.049 E9.09979
G1 X83.757 Y119.225 E9.11372
G0 F6000 X83.385 Y119.449
G1 F1200 X83.417 Y119.539 E9.11817
G1 X83.351 Y119.563 E9.12144
G1 X83.308 Y119.506 E9.12476
G1 X83.351 Y119.449 E9.12809
G1 X83.385 Y119.449 E9.12967
G0 F6000 X81.764 Y102.814
G1 F1200 X80.744 Y103.556 E9.1884
G1 X79.61 Y101.999 E9.2781
G1 X79.106 Y100.226 E9.36392
G1 X79.207 Y98.408 E9.44871
G1 X79.591 Y97.483 E9.49534
G1 X80.029 Y97.483 E9.51574
G1 X81.764 Y98.746 E9.61567
G1 X82.426 Y100.78 E9.71527
G1 X81.764 Y102.814 E9.81487
G0 F6000 X81.423 Y102.568
G1 F1200 X80.832 Y102.998 E9.8489
G1 X79.976 Y101.823 E9.9166
G1 X79.509 Y100.18 E9.99613
G1 X79.602 Y98.498 E10.07457
G1 X79.858 Y97.883 E10.10559
G1 X79.9 Y97.883 E10.10755
G1 X81.423 Y98.992 E10.19527
G1 X82.004 Y100.78 E10.28281
G1 X81.423 Y102.568 E10.37036
G0 F6000 X81.084 Y102.32
G1 F1200 X80.92 Y102.439 E10.37979
G1 X80.341 Y101.645 E10.42555
G1 X79.911 Y100.134 E10.4987
G1 X79.997 Y98.591 E10.57066
G1 X80.043 Y98.482 E10.57617
G1 X81.083 Y99.239 E10.63607
G1 X81.584 Y100.78 E10.71152
G1 X81.084 Y102.32 E10.78691
G0 F6000 X80.868 Y101.689
G1 F1200 X80.707 Y101.468 E10.79965
G1 X80.315 Y100.09 E10.86636
G1 X80.364 Y99.211 E10.90735
G1 X80.744 Y99.487 E10.92922
G1 X81.164 Y100.78 E10.99252
G1 X80.868 Y101.689 E11.03704
G1 F2700 E6.03704
;MESH:45_deg_switch_stand_w-_logo.stl
G0 F6000 X93.642 Y115.785
G0 X93.64 Y116.87
G0 X95.208 Y116.767
;TYPE:WALL-INNER
G1 F2700 E11.03704
G1 F1200 X96.483 Y115.919 E11.10834
G1 X96.569 Y115.84 E11.11378
G1 X102.979 Y109.43 E11.53589
G1 X103.859 Y108.118 E11.60945
G1 X104.167 Y106.525 E11.685
G1 X103.857 Y105.029 E11.75614
G1 X103.121 Y102.591 E11.87472
G1 X102.955 Y100.146 E11.98883
G1 X103.349 Y97.645 E12.10673
G1 X103.426 Y95.863 E12.18978
G1 X102.662 Y94.145 E12.27733
G1 X101.215 Y92.946 E12.36484
G1 X99.463 Y92.533 E12.44865
G1 X99.292 Y92.53 E12.45662
G1 X84.546 Y92.53 E13.14325
G1 X82.23 Y92.916 E13.25258
G1 X80.143 Y94.06 E13.3634
G1 X78.537 Y95.848 E13.47532
G1 X77.624 Y98.049 E13.58627
G1 X77.493 Y100.404 E13.6961
G1 X78.146 Y102.7 E13.80725
G1 X79.482 Y104.591 E13.91506
G1 X79.613 Y104.73 E13.92396
G1 X90.789 Y115.905 E14.65988
G1 X92.073 Y116.763 E14.73179
G1 X93.639 Y117.074 E14.80613
G1 X95.208 Y116.767 E14.88058
G0 F6000 X95.053 Y116.39
;TYPE:WALL-OUTER
G1 F1200 X96.235 Y115.604 E14.94668
G1 X96.291 Y115.552 E14.95023
G1 X102.669 Y109.175 E15.3702
G1 X103.482 Y107.963 E15.43816
G1 X103.759 Y106.528 E15.50621
G1 X103.469 Y105.128 E15.57279
G1 X102.725 Y102.664 E15.69264
G1 X102.553 Y100.129 E15.81095
G1 X102.95 Y97.605 E15.92992
G1 X103.022 Y95.94 E16.00752
G1 X102.335 Y94.393 E16.08634
G1 X101.032 Y93.314 E16.16512
G1 X99.413 Y92.932 E16.24257
G1 X99.289 Y92.93 E16.24835
G1 X84.579 Y92.93 E16.93331
G1 X82.363 Y93.299 E17.03792
G1 X80.395 Y94.378 E17.14242
G1 X78.88 Y96.064 E17.24797
G1 X78.02 Y98.139 E17.35256
G1 X77.896 Y100.359 E17.45609
G1 X78.512 Y102.525 E17.56095
G1 X79.792 Y104.337 E17.66425
G1 X79.9 Y104.451 E17.67157
G1 X91.044 Y115.594 E18.40538
G1 X92.229 Y116.386 E18.47175
G1 X93.64 Y116.666 E18.53874
G1 X95.053 Y116.39 E18.60577
G0 F6000 X95.22 Y116.797
G1 F2700 E13.60577
G0 F6000 X96.601 Y116.07
G0 X98.239 Y117.707
G0 X105.05 Y110.839
G0 X105.434 Y110.631
G0 X105.917 Y110.631
G0 X106.218 Y110.804
G0 X140.667 Y144.703
;TYPE:WALL-INNER
G1 F2700 E18.60577
G1 F1200 X139.975 Y144.304 E18.64297
G1 X106.389 Y110.717 E20.8547
G1 X105.96 Y110.469 E20.87777
G1 X105.392 Y110.469 E20.90422
G1 X104.952 Y110.71 E20.92758
G1 X95.324 Y120.339 E21.56163
G1 X95.04 Y120.792 E21.58653
G1 X95.04 Y121.389 E21.61433
G1 X95.286 Y121.817 E21.63732
G1 X95.436 Y121.966 E21.64716
G1 X95.658 Y122.505 E21.6743
G1 X95.487 Y122.929 E21.69559
G1 X95.059 Y123.109 E21.71721
G1 X94.524 Y122.888 E21.74417
G1 X77.94 Y106.309 E22.83609
G1 X76.275 Y104.064 E22.96623
G1 X75.346 Y101.467 E23.09467
G1 X75.208 Y98.715 E23.22297
G1 X75.876 Y96.039 E23.3514
G1 X77.295 Y93.669 E23.48003
G1 X79.333 Y91.823 E23.60807
G1 X81.828 Y90.642 E23.7366
G1 X84.601 Y90.23 E23.86714
G1 X159.082 Y90.23 E27.33529
G1 X159.477 Y90.337 E27.35435
G1 X159.703 Y90.563 E27.36923
G1 X159.81 Y90.958 E27.38828
G1 X159.81 Y91.3 E27.40421
G1 X159.703 Y91.697 E27.42335
G1 X159.478 Y91.922 E27.43817
G1 X159.079 Y92.03 E27.45742
G1 X113.787 Y92.03 E29.5664
G1 X110.995 Y92.505 E29.69828
G1 X108.479 Y93.894 E29.8321
G1 X106.55 Y96.05 E29.96681
G1 X105.445 Y98.715 E30.10115
G1 X105.286 Y101.583 E30.2349
G1 X106.075 Y104.342 E30.36852
G1 X107.71 Y106.659 E30.50057
G1 X117.153 Y116.107 E31.12257
G1 X142.662 Y141.617 E32.80241
G1 X143.057 Y142.301 E32.83919
G1 X143.061 Y143.017 E32.87253
G1 X142.662 Y143.709 E32.90973
G1 X142.069 Y144.302 E32.94878
G1 X141.382 Y144.699 E32.98573
G1 X140.667 Y144.703 E33.01902
G0 F6000 X140.56 Y145.103
;TYPE:WALL-OUTER
G1 F1200 X139.73 Y144.625 E33.06362
G1 X106.143 Y111.037 E35.27541
G1 X105.853 Y110.869 E35.29102
G1 X105.494 Y110.869 E35.30774
G1 X105.194 Y111.033 E35.32366
G1 X95.639 Y120.59 E35.95294
G1 X95.44 Y120.907 E35.97036
G1 X95.44 Y121.282 E35.98783
G1 X95.606 Y121.571 E36.00334
G1 X95.775 Y121.739 E36.01444
G1 X96.091 Y122.503 E36.05294
G1 X95.795 Y123.233 E36.08962
G1 X95.06 Y123.543 E36.12676
G1 X94.298 Y123.228 E36.16516
G1 X77.639 Y106.574 E37.26202
G1 X75.917 Y104.252 E37.39663
G1 X74.95 Y101.549 E37.5303
G1 X74.806 Y98.674 E37.66434
G1 X75.502 Y95.884 E37.79824
G1 X76.982 Y93.413 E37.93236
G1 X79.109 Y91.486 E38.066
G1 X81.71 Y90.255 E38.19999
G1 X84.569 Y89.83 E38.33458
G1 X159.134 Y89.83 E41.80664
G1 X159.685 Y89.979 E41.83322
G1 X160.061 Y90.355 E41.85798
G1 X160.21 Y90.906 E41.88456
G1 X160.21 Y91.352 E41.90533
G1 X160.061 Y91.904 E41.93195
G1 X159.684 Y92.28 E41.95674
G1 X159.133 Y92.43 E41.98333
G1 X113.821 Y92.43 E44.09325
G1 X111.129 Y92.888 E44.2204
G1 X108.732 Y94.211 E44.34789
G1 X106.893 Y96.266 E44.4763
G1 X105.841 Y98.805 E44.60427
G1 X105.689 Y101.538 E44.73173
G1 X106.441 Y104.167 E44.85905
G1 X108.017 Y106.4 E44.98632
G1 X117.436 Y115.824 E45.60674
G1 X142.981 Y141.37 E47.28896
G1 X143.457 Y142.194 E47.33327
G1 X143.461 Y143.124 E47.37657
G1 X142.983 Y143.954 E47.42117
G1 X142.317 Y144.62 E47.46503
G1 X141.49 Y145.099 E47.50953
G1 X140.56 Y145.103 E47.55284
G0 F6000 X140.672 Y144.678
G0 X140.771 Y144.313
;TYPE:SKIN
G1 F1200 X140.21 Y143.989 E47.583
G1 X106.629 Y110.405 E49.79447
G1 X106.065 Y110.079 E49.8248
G1 X105.292 Y110.079 E49.8608
G1 X104.716 Y110.394 E49.89137
G1 X95.018 Y120.095 E50.53009
G1 X94.65 Y120.679 E50.56224
G1 X94.65 Y121.493 E50.60014
G1 X94.974 Y122.057 E50.63043
G1 X95.106 Y122.188 E50.63909
G1 X95.237 Y122.507 E50.65514
G1 X95.187 Y122.632 E50.66141
G1 X95.058 Y122.686 E50.66792
G1 X94.742 Y122.556 E50.68384
G1 X78.242 Y106.061 E51.77022
G1 X76.621 Y103.876 E51.89691
G1 X75.734 Y101.393 E52.01968
G1 X75.6 Y98.75 E52.14291
G1 X76.239 Y96.193 E52.26564
G1 X77.601 Y93.918 E52.3891
G1 X79.551 Y92.152 E52.51161
G1 X81.944 Y91.019 E52.63489
G1 X84.632 Y90.62 E52.76143
G1 X159.032 Y90.62 E56.2258
G1 X159.276 Y90.686 E56.23757
G1 X159.354 Y90.764 E56.24271
G1 X159.42 Y91.007 E56.25443
G1 X159.42 Y91.251 E56.2658
G1 X159.354 Y91.496 E56.27761
G1 X159.277 Y91.573 E56.28268
G1 X159.029 Y91.64 E56.29464
G1 X113.754 Y91.64 E58.40284
G1 X110.864 Y92.132 E58.53934
G1 X108.233 Y93.584 E58.67927
G1 X106.215 Y95.839 E58.82018
G1 X105.059 Y98.627 E58.96072
G1 X104.893 Y101.627 E59.10063
G1 X105.718 Y104.513 E59.24039
G1 X107.41 Y106.911 E59.37705
G1 X142.347 Y141.852 E61.67784
G1 X142.667 Y142.407 E61.70768
G1 X142.671 Y142.913 E61.73124
G1 X142.347 Y143.474 E61.7614
G1 X141.834 Y143.987 E61.79519
G1 X141.276 Y144.309 E61.82518
G1 X140.771 Y144.313 E61.8487
G1 F2700 E56.8487
G0 F6000 X140.63 Y144.554
G0 X140.183 Y144.239
G0 X106.278 Y110.862
G0 X105.667 Y111.767
G0 X102.291 Y108.187
G0 X103.499 Y108.996
G0 X103.065 Y109.501
G0 X103.281 Y109.679
G1 F2700 E61.8487
G1 F1200 X104.227 Y108.27 E61.92772
G1 X104.565 Y106.523 E62.01058
G1 X104.235 Y104.933 E62.0862
G1 X103.509 Y102.526 E62.20326
G1 X103.348 Y100.162 E62.3136
G1 X103.737 Y97.684 E62.43039
G1 X103.82 Y95.789 E62.51872
G1 X102.982 Y93.903 E62.61482
G1 X101.394 Y92.587 E62.71085
G1 X99.512 Y92.143 E62.80089
G1 X99.295 Y92.14 E62.811
G1 X84.513 Y92.14 E63.49931
G1 X82.101 Y92.542 E63.61317
G1 X79.897 Y93.75 E63.7302
G1 X78.202 Y95.637 E63.84831
G1 X77.238 Y97.961 E63.96547
G1 X77.1 Y100.447 E64.08141
G1 X77.789 Y102.871 E64.19875
G1 X79.179 Y104.838 E64.3109
G1 X79.333 Y105.001 E64.32134
G1 X90.541 Y116.208 E65.05938
G1 X91.921 Y117.13 E65.13666
G1 X93.639 Y117.472 E65.21822
G1 X95.36 Y117.135 E65.29988
G1 X96.725 Y116.227 E65.37622
G1 X96.839 Y116.121 E65.38347
G1 X103.281 Y109.679 E65.80769
G1 F2700 E60.80769
G0 F6000 X103.065 Y109.501
G0 X96.701 Y115.978
G0 X98.044 Y117.322
G0 X95.451 Y120.441
G0 X95.25 Y120.762
G0 X95.018 Y121.573
G0 X94.637 Y121.789
G1 F2700 E65.80769
G1 F1200 X77.099 Y104.252 E66.96256
G0 F6000 X76.746 Y104.512
G0 X76.774 Y104.417
G0 X78.344 Y103.309
G0 X78.383 Y103.227
G0 X78.023 Y103.479
G1 F1200 X75.891 Y101.347 E67.10296
G0 F6000 X75.861 Y100.752
G1 F1200 X77.48 Y102.37 E67.20954
G0 F6000 X77.255 Y101.58
G1 F1200 X75.831 Y100.156 E67.30331
G0 F6000 X75.801 Y99.559
G1 F1200 X77.03 Y100.789 E67.38427
G0 F6000 X76.956 Y100.149
G1 F1200 X75.77 Y98.963 E67.46237
G0 F6000 X75.835 Y98.463
G1 F1200 X76.986 Y99.613 E67.53814
G0 F6000 X77.015 Y99.077
G1 F1200 X75.948 Y98.01 E67.6084
G0 F6000 X76.062 Y97.558
G1 F1200 X77.046 Y98.542 E67.6732
G0 F6000 X77.076 Y98.006
G1 F1200 X76.175 Y97.105 E67.73253
G0 F6000 X76.288 Y96.653
G1 F1200 X77.221 Y97.585 E67.79394
G0 F6000 X77.387 Y97.186
G1 F1200 X76.413 Y96.212 E67.85808
G0 F6000 X76.625 Y95.858
G1 F1200 X77.552 Y96.785 E67.91912
G0 F6000 X77.718 Y96.386
G1 F1200 X76.837 Y95.504 E67.97717
G0 F6000 X77.049 Y95.151
G1 F1200 X77.884 Y95.986 E68.03216
