;FLAVOR:Marlin
;TIME:21103
;Filament used: 11.9993m
;Layer height: 0.2
;MINX:31.835
;MINY:27.7
;MINZ:0.2
;MAXX:203.165
;MAXY:207.3
;MAXZ:2.6
;Generated with Cura_SteamEngine 4.7.0
M140 S60
M105
M190 S60
M104 S220
M105
M109 S220
M82 ;absolute extrusion mode
; Ender 3 Custom Start G-code
G92 E0 ; Reset Extruder
G28 ; Home all axes
G1 Z2.0 F3000 ; Move Z Axis up little to prevent scratching of Heat Bed
G1 X0.1 Y20 Z0.3 F5000.0 ; Move to start position
G1 X0.1 Y200.0 Z0.3 F1500.0 E15 ; Draw the first line
G1 X0.4 Y200.0 Z0.3 F5000.0 ; Move to side a little
G1 X0.4 Y20 Z0.3 F1500.0 E30 ; Draw the second line
G92 E0 ; Reset Extruder
G1 Z2.0 F3000 ; Move Z Axis up little to prevent scratching of Heat Bed
G1 X5 Y20 Z0.3 F5000.0 ; Move over to prevent blob squish
G92 E0
G92 E0
G1 F2700 E-5
;LAYER_COUNT:13
;LAYER:0
M107
;MESH:MillenniumFalconModel_V6.stl
G0 F6000 X193.903 Y174.777 Z0.2
;TYPE:WALL-INNER
G1 F2700 E0
G1 F1200 X193.903 Y183.578 E0.29272
G1 X175.893 Y183.578 E0.89174
G1 X175.892 Y183.578 E0.89177
G1 X175.592 Y183.578 E0.90175
G1 X175.709 Y183.855 E0.90758
G1 X175.716 Y183.871 E0.90816
G1 X175.928 Y184.37 E0.9262
G1 X175.927 Y190.835 E1.14122
G1 X175.766 Y191.158 E1.15323
G1 X175.658 Y191.375 E1.16129
G1 X175.892 Y191.438 E1.16623
G1 X176.535 Y191.611 E1.18837
G1 X176.862 Y191.702 E1.19966
G1 X177.269 Y191.86 E1.21418
G1 X178.123 Y192.301 E1.24615
G1 X178.359 Y192.065 E1.25725
G1 X179.278 Y192.984 E1.30048
G1 X179.062 Y193.201 E1.31066
G1 X179.674 Y194.594 E1.36127
G1 X179.858 Y195.623 E1.39604
G1 X179.793 Y196.665 E1.43076
G1 X179.487 Y197.656 E1.46526
G1 X178.959 Y198.547 E1.4997
G1 X178.222 Y199.3 E1.53475
G1 X177.336 Y199.854 E1.5695
G1 X175.876 Y200.34 E1.62068
G1 X175.876 Y203.1 E1.71248
G1 X178.826 Y203.1 E1.8106
G1 X178.826 Y206.1 E1.91038
G1 X191.159 Y206.1 E2.32058
G1 X191.159 Y200.596 E2.50364
G1 X190.923 Y200.206 E2.5188
G1 X190.175 Y200.025 E2.5444
G1 X189.712 Y199.853 E2.56083
G1 X189.677 Y199.837 E2.56211
G1 X188.811 Y199.393 E2.59447
G1 X188.576 Y199.628 E2.60553
G1 X187.656 Y198.708 E2.6488
G1 X187.877 Y198.487 E2.6592
G1 X187.295 Y197.215 E2.70572
G1 X187.098 Y196.324 E2.73607
G1 X187.088 Y195.403 E2.76671
G1 X187.269 Y194.507 E2.79711
G1 X187.632 Y193.665 E2.82761
G1 X188.17 Y192.906 E2.85855
G1 X188.347 Y192.716 E2.86719
G1 X189.015 Y192.167 E2.89594
G1 X189.753 Y191.767 E2.92386
G1 X190.527 Y191.523 E2.95086
G1 X191.361 Y191.421 E2.9788
G1 X191.503 Y191.419 E2.98353
G1 X192.277 Y191.497 E3.0094
G1 X193.017 Y191.705 E3.03497
G1 X194.129 Y192.236 E3.07595
G1 X194.355 Y192.01 E3.08658
G1 X195.274 Y192.929 E3.12981
G1 X195.038 Y193.165 E3.14091
G1 X195.481 Y194.027 E3.17314
G1 X195.652 Y194.468 E3.18888
G1 X195.899 Y195.415 E3.22143
G1 X201.1 Y195.415 E3.39441
G1 X201.1 Y179.71 E3.91676
G1 X195.391 Y179.71 E4.10665
G1 X194.872 Y179.493 E4.12536
G1 X194.431 Y179.31 E4.14124
G1 X194.872 Y179.127 E4.14978
G1 X195.391 Y178.91 E4.16849
G1 X198.1 Y178.91 E4.25859
G1 X198.1 Y175.939 E4.3574
G1 X201.1 Y175.939 E4.45718
G1 X201.1 Y164.168 E4.84869
G1 X174.724 Y164.168 E5.72596
G1 X174.724 Y173.978 E6.05224
G1 X174.513 Y174.486 E6.07054
G1 X174.506 Y174.501 E6.07109
G1 X174.392 Y174.777 E6.08102
G1 X174.69 Y174.777 E6.08681
G1 X174.691 Y174.777 E6.08685
G1 X193.903 Y174.777 E6.72584
G1 F2700 E1.72584
G0 F6000 X189.521 Y174.505
G0 X189.358 Y171.697
G0 X189.325 Y171.435
;TYPE:WALL-OUTER
G1 F2700 E6.72584
G1 F1200 X189.649 Y171.759 E6.74108
G1 X189.649 Y174.377 E6.82816
G1 X190.548 Y174.377 E6.85806
G1 X190.548 Y171.759 E6.94513
G1 X190.872 Y171.435 E6.96037
G1 X191.24 Y172.063 E6.98458
G1 X191.148 Y172.223 E6.99072
G1 X191.148 Y174.377 E7.06236
G1 X194.303 Y174.377 E7.1673
G1 X194.303 Y178.93 E7.31873
G1 X195.311 Y178.51 E7.35505
G1 X197.7 Y178.51 E7.43451
G1 X197.7 Y175.539 E7.53333
G1 X200.7 Y175.539 E7.63311
G1 X200.7 Y164.568 E7.998
G1 X175.124 Y164.568 E8.84866
G1 X175.124 Y174.057 E9.16427
G1 X174.991 Y174.377 E9.1758
G1 X189.049 Y174.377 E9.64337
G1 X189.049 Y172.223 E9.71501
G1 X188.957 Y172.063 E9.72115
G1 X189.325 Y171.435 E9.74536
G1 F2700 E4.74536
G0 F6000 X189.358 Y171.697
G0 X189.177 Y174.505
G0 X143.632 Y174.499
G0 X143.548 Y173.978
;TYPE:WALL-INNER
G1 F2700 E9.74536
G1 F1200 X143.337 Y174.486 E9.76365
G1 X143.33 Y174.501 E9.7642
G1 X143.216 Y174.777 E9.77413
G1 X143.514 Y174.777 E9.77993
G1 X143.515 Y174.777 E9.77996
G1 X173.957 Y174.777 E10.79247
G1 X173.958 Y174.777 E10.7925
G1 X174.256 Y174.777 E10.80241
G1 X174.142 Y174.501 E10.80822
G1 X174.135 Y174.486 E10.80877
G1 X173.924 Y173.978 E10.82707
G1 X173.924 Y164.168 E11.15335
G1 X143.548 Y164.168 E12.16366
G1 X143.548 Y173.978 E12.48994
G1 F2700 E7.48994
G0 F6000 X143.632 Y174.499
G0 X158.581 Y174.505
G0 X158.762 Y171.697
G0 X158.729 Y171.435
;TYPE:WALL-OUTER
G1 F2700 E12.48994
G1 F1200 X159.053 Y171.759 E12.50518
G1 X159.053 Y174.377 E12.59226
G1 X159.952 Y174.377 E12.62216
G1 X159.952 Y171.759 E12.70923
G1 X160.276 Y171.435 E12.72447
G1 X160.644 Y172.063 E12.74868
G1 X160.552 Y172.223 E12.75482
G1 X160.552 Y174.377 E12.82646
G1 X173.657 Y174.377 E13.26234
G1 X173.524 Y174.057 E13.27386
G1 X173.524 Y164.568 E13.58947
G1 X143.948 Y164.568 E14.57317
G1 X143.948 Y174.057 E14.88877
G1 X143.815 Y174.377 E14.9003
G1 X158.453 Y174.377 E15.38716
G1 X158.453 Y172.223 E15.4588
G1 X158.361 Y172.063 E15.46494
G1 X158.729 Y171.435 E15.48915
G1 F2700 E10.48915
G0 F6000 X158.795 Y171.717
G0 X158.581 Y174.505
G0 X143.632 Y174.499
G0 X143.148 Y174.433
G0 X142.919 Y173.942
G0 X142.93 Y163.986
G0 X123.891 Y163.986
G0 X123.891 Y163.444
G0 X117.891 Y163.455
G0 X117.4 Y163.225
G0 X117.172 Y162.341
G0 X121.556 Y151.223
G0 X122.262 Y147.643
G0 X115.596 Y145.232
G0 X115.635 Y144.728
G0 X120.57 Y143.78
G0 X120.57 Y133.86
G0 X115.636 Y132.913
G0 X115.593 Y132.412
G0 X121.382 Y130.27
G0 X119.627 Y126.215
G0 X120.976 Y125.67
G0 X85.314 Y87.447
G0 X84.407 Y87.389
G0 X84.691 Y86.08
G0 X83.978 Y86.015
G0 X74.692 Y76.061
G0 X73.257 Y76.061
G0 X73.254 Y72.819
G0 X72.308 Y71.573
G0 X72.299 Y67.598
G0 X71.823 Y67.59
G0 X69.685 Y68.288
G0 X68.904 Y69.488
;TYPE:WALL-INNER
G1 F2700 E15.48915
G1 F1200 X69.574 Y68.111 E15.54009
G1 X71.057 Y68.111 E15.58941
G1 X71.751 Y67.416 E15.62208
G1 X72.481 Y67.416 E15.64636
G1 X72.481 Y71.514 E15.78266
G1 X73.427 Y72.761 E15.83472
G1 X73.427 Y84.819 E16.23577
G1 X73.125 Y84.819 E16.24581
G1 X71.867 Y86.268 E16.30964
G1 X71.867 Y88.643 E16.38863
G1 X75.171 Y88.643 E16.49852
G1 X75.235 Y87.443 E16.53849
G1 X83.155 Y87.443 E16.80191
G1 X83.22 Y88.643 E16.84188
G1 X86.523 Y88.643 E16.95174
G1 X86.523 Y86.268 E17.03073
G1 X85.265 Y84.819 E17.09455
G1 X85.06 Y84.819 E17.10137
G1 X85.06 Y72.761 E17.50242
G1 X86.006 Y71.514 E17.55448
G1 X86.006 Y67.416 E17.69078
G1 X86.737 Y67.416 E17.71509
G1 X87.14 Y67.821 E17.7341
G1 X87.881 Y67.515 E17.76076
G1 X87.881 Y61.518 E17.96022
G1 X88.091 Y61.021 E17.97817
G1 X88.198 Y60.768 E17.98731
G1 X87.924 Y60.768 E17.99262
G1 X38.843 Y60.768 E19.62506
G1 X38.843 Y56.699 E19.76039
G1 X38.843 Y56.454 E19.76854
G1 X38.617 Y56.55 E19.7733
G1 X38.096 Y56.772 E19.79214
G1 X33.9 Y56.772 E19.9317
G1 X33.9 Y66.486 E20.25479
G1 X36.876 Y66.486 E20.35377
G1 X36.876 Y69.524 E20.45481
G1 X38.579 Y69.55 E20.51146
G1 X38.579 Y69.222 E20.52237
G1 X39.279 Y69.222 E20.54565
G1 X39.279 Y72.443 E20.65278
G1 X41.679 Y72.443 E20.73261
G1 X41.679 Y69.222 E20.83974
G1 X42.379 Y69.222 E20.86302
G1 X42.379 Y75.082 E21.05793
G1 X42.344 Y75.351 E21.06695
G1 X42.253 Y75.57 E21.07484
G1 X42.112 Y75.755 E21.08257
G1 X41.927 Y75.896 E21.09031
G1 X41.708 Y75.987 E21.0982
G1 X41.439 Y76.022 E21.10722
G1 X39.519 Y76.022 E21.17108
G1 X39.25 Y75.987 E21.1801
G1 X39.031 Y75.896 E21.18799
G1 X38.847 Y75.755 E21.1957
G1 X38.705 Y75.57 E21.20346
G1 X38.614 Y75.351 E21.21134
G1 X38.579 Y75.082 E21.22037
G1 X38.579 Y74.094 E21.25323
G1 X33.9 Y74.094 E21.40885
G1 X33.9 Y79.251 E21.58037
G1 X36.871 Y79.251 E21.67919
G1 X36.871 Y82.133 E21.77504
G1 X38.574 Y82.151 E21.83169
G1 X38.574 Y81.846 E21.84183
G1 X42.122 Y81.846 E21.95984
G1 X42.374 Y81.846 E21.96822
G1 X42.374 Y82.035 E21.97451
G1 X42.197 Y82.213 E21.98083
G1 X42.112 Y82.298 E21.98483
G1 X40.64 Y83.788 E22.05449
G1 X40.64 Y83.868 E22.05715
G1 X39.123 Y83.868 E22.1076
G1 X39.123 Y88.206 E22.25189
G1 X39.123 Y88.379 E22.25764
G1 X39.123 Y88.52 E22.26233
G1 X39.123 Y88.56 E22.26366
G1 X39.026 Y88.52 E22.26462
G1 X38.841 Y88.379 E22.26941
G1 X38.736 Y88.242 E22.27435
G1 X38.7 Y88.194 E22.27634
G1 X38.609 Y87.975 E22.28423
G1 X38.574 Y87.706 E22.29325
G1 X38.574 Y86.7 E22.32671
G1 X33.9 Y86.7 E22.48217
G1 X33.9 Y93.642 E22.71306
G1 X36.876 Y93.642 E22.81205
G1 X36.876 Y96.418 E22.90438
G1 X36.876 Y96.617 E22.91099
G1 X37.075 Y96.617 E22.91528
G1 X40.757 Y96.616 E23.03774
G1 X41.301 Y95.377 E23.08275
G1 X41.86 Y94.674 E23.11262
G1 X42.578 Y94.135 E23.14248
G1 X42.588 Y94.129 E23.14287
G1 X43.412 Y93.796 E23.17243
G1 X44.317 Y93.678 E23.20278
G1 X45.21 Y93.793 E23.23273
G1 X46.043 Y94.13 E23.26262
G1 X46.765 Y94.671 E23.29262
G1 X47.326 Y95.376 E23.32259
G1 X47.69 Y96.201 E23.35258
G1 X47.853 Y96.623 E23.36763
G1 X47.926 Y96.812 E23.37437
G1 X48.113 Y96.736 E23.37868
G1 X48.114 Y96.735 E23.37872
G1 X48.467 Y96.59 E23.39142
G1 X55.707 Y96.59 E23.63222
G1 X66.758 Y73.894 E24.47182
G1 X66.841 Y73.723 E24.47814
G1 X67.636 Y72.091 E24.53852
G1 X66.857 Y73.73 E24.53978
G1 X67.028 Y73.813 E24.5461
G1 X69.598 Y75.067 E24.64121
G1 X69.778 Y75.155 E24.64787
G1 X69.864 Y74.974 E24.65217
G1 X71.801 Y70.902 E24.80215
G1 X68.904 Y69.488 E24.90937
G0 F6000 X69.068 Y70.013
;TYPE:WALL-OUTER
G1 F1200 X67.388 Y73.544 E25.03943
G1 X69.59 Y74.618 E25.12091
G1 X71.27 Y71.088 E25.25094
G1 X69.068 Y70.013 E25.33244
G1 F2700 E20.33244
G0 F6000 X69.155 Y69.835
G0 X69.148 Y69.404
G0 X69.685 Y68.288
G0 X71.823 Y67.59
G0 X72.299 Y67.598
G0 X72.306 Y71.409
G0 X73.69 Y72.672
G0 X73.245 Y85.083
G0 X72.13 Y86.367
G0 X72.139 Y88.371
G0 X74.914 Y88.372
G0 X74.978 Y87.172
G0 X83.41 Y87.172
G0 X83.478 Y88.372
G0 X86.251 Y88.371
G0 X86.26 Y86.367
G0 X85.145 Y85.083
G0 X85.233 Y72.819
G0 X86.179 Y71.573
G0 X86.188 Y67.598
G0 X88.058 Y67.633
G0 X88.052 Y61.553
G0 X88.281 Y61.071
G0 X88.51 Y61.553
G0 X88.803 Y68.288
G0 X106.836 Y104.295
G0 X113.302 Y104.183
G0 X113.308 Y99.696
G0 X118.465 Y96.914
G0 X117.501 Y93.996
G0 X116.205 Y94.656
G0 X179.378 Y117.406
G0 X178.081 Y116.79
G0 X177.767 Y118.477
G0 X180.305 Y120.02
;TYPE:WALL-INNER
G1 F2700 E25.33244
G1 F1200 X178.684 Y123.347 E25.45553
G1 X178.545 Y123.633 E25.46611
G1 X178.862 Y123.633 E25.47218
G1 X178.864 Y123.633 E25.47224
G1 X186.021 Y123.633 E25.71029
G1 X186.479 Y123.863 E25.72733
G1 X186.767 Y124.008 E25.73806
G1 X186.767 Y123.686 E25.74421
G1 X186.767 Y123.685 E25.74424
G1 X186.767 Y123.435 E25.75256
G1 X186.767 Y123.182 E25.76097
G1 X186.767 Y123.141 E25.76234
G1 X186.767 Y122.902 E25.77029
G1 X186.767 Y121.539 E25.81562
G1 X186.845 Y121.515 E25.81833
G1 X186.845 Y121.538
G1 X186.846 Y122.902 E25.82727
G1 X186.943 Y123.141 E25.83032
G1 X186.909 Y123.182
G1 X186.845 Y123.435 E25.83283
G1 X186.845 Y124.008 E25.85189
G1 X186.845 Y124.43 E25.86593
G1 X186.845 Y124.617 E25.87215
G1 X186.932 Y124.89 E25.88168
G1 X186.944 Y124.903 E25.88227
G1 X186.9 Y124.998 E25.88575
G1 X186.846 Y125.112 E25.88994
G1 X186.846 Y126.492 E25.93584
G1 X186.845 Y126.516 E25.93664
G1 X186.767 Y126.492 E25.938
G1 X186.767 Y125.216 E25.98044
G1 X186.767 Y125.112 E25.9839
G1 X186.767 Y124.903 E25.98854
G1 X186.767 Y124.89
G1 X186.767 Y124.764 E25.99274
G1 X186.767 Y124.723 E25.9941
G1 X186.767 Y124.618 E25.99759
G1 X186.766 Y124.43 E25.99884
G1 X186.661 Y124.43 E26.00233
G1 X178.766 Y124.433 E26.26492
G1 X178.26 Y124.219 E26.28319
G1 X169.049 Y143.136 E26.98299
G1 X168.966 Y143.307 E26.98932
G1 X168.17 Y144.942 E27.0498
G1 X168.951 Y143.3 E27.05101
G1 X168.78 Y143.217 E27.05733
G1 X166.21 Y141.962 E27.15246
G1 X166.03 Y141.874 E27.15912
G1 X165.944 Y142.055 E27.16342
G1 X164.007 Y146.127 E27.3134
G1 X166.904 Y147.541 E27.42062
G1 X166.234 Y148.919 E27.47158
G1 X164.75 Y148.919 E27.52094
G1 X164.057 Y149.613 E27.55356
G1 X163.327 Y149.613 E27.57784
G1 X163.327 Y145.515 E27.71414
G1 X162.38 Y144.27 E27.76617
G1 X162.38 Y132.21 E28.16728
G1 X162.585 Y132.21 E28.1741
G1 X163.843 Y130.761 E28.23792
G1 X163.843 Y118.494 E28.64593
G1 X163.843 Y118.493 E28.64596
G1 X163.843 Y118.263 E28.65361
G1 X163.615 Y118.296 E28.65837
G1 X161.065 Y118.676 E28.74412
G1 X160.475 Y129.587 E29.10756
G1 X152.556 Y129.587 E29.37094
G1 X151.965 Y118.675 E29.73441
G1 X149.415 Y118.296 E29.82015
G1 X149.187 Y118.263 E29.82782
G1 X149.187 Y118.493 E29.83257
G1 X149.187 Y118.494 E29.83261
G1 X149.187 Y130.761 E30.24061
G1 X150.445 Y132.21 E30.30443
G1 X150.747 Y132.21 E30.31447
G1 X150.747 Y144.269 E30.71556
G1 X149.801 Y145.515 E30.76759
G1 X149.801 Y149.613 E30.90389
G1 X149.072 Y149.613 E30.92814
G1 X148.377 Y148.919 E30.96081
G1 X146.894 Y148.919 E31.01013
G1 X146.219 Y147.533 E31.06141
G1 X149.117 Y146.118 E31.16867
G1 X147.184 Y142.055 E31.31832
G1 X147.098 Y141.874 E31.32498
G1 X146.918 Y141.962 E31.32928
G1 X144.348 Y143.217 E31.42441
G1 X144.177 Y143.3 E31.43073
G1 X144.963 Y144.951 E31.49155
G1 X144.163 Y143.308 E31.49275
G1 X144.08 Y143.137 E31.49693
G1 X132.819 Y120.011 E32.35245
G1 X135.716 Y118.594 E32.45971
G1 X133.783 Y114.532 E32.60933
G1 X133.697 Y114.351 E32.616
G1 X133.517 Y114.439 E32.6203
G1 X130.948 Y115.694 E32.71539
G1 X130.777 Y115.777 E32.72172
G1 X131.554 Y117.412 E32.78192
G1 X130.762 Y115.785 E32.78319
G1 X130.679 Y115.614 E32.78738
G1 X127.658 Y109.411 E33.01686
G1 X124.836 Y105.577 E33.1752
G1 X124.01 Y105.847 E33.2041
G1 X124.01 Y110.086 E33.34509
G1 X120.392 Y110.086 E33.46542
G1 X120.392 Y105.544 E33.61649
G1 X117.192 Y105.544 E33.72292
G1 X117.192 Y110.086 E33.87399
G1 X113.574 Y110.086 E33.99433
G1 X113.574 Y105.255 E34.15501
G1 X107.318 Y105.255 E34.36308
G1 X107.316 Y105.255 E34.36315
G1 X106.999 Y105.255 E34.37369
G1 X107.138 Y105.541 E34.37978
G1 X108.15 Y107.619 E34.45666
G1 X113.002 Y114.218 E34.72908
G1 X114.405 Y116.058 E34.80604
G1 X115.683 Y117.93 E34.88143
G1 X116.78 Y119.739 E34.9518
G1 X116.881 Y119.902 E34.95817
G1 X117.875 Y121.76 E35.02826
G1 X117.968 Y121.93 E35.0347
G1 X118.944 Y124.017 E35.11133
G1 X119.808 Y126.153 E35.18797
G1 X120.566 Y128.374 E35.26602
G1 X121.053 Y130.103 E35.32577
G1 X115.309 Y132.23 E35.52949
G1 X115.384 Y133.138 E35.55979
G1 X120.3 Y134.084 E35.7263
G1 X120.3 Y136.4 E35.80333
G1 X117.492 Y136.429 E35.89673
G1 X117.493 Y141.06 E36.05076
G1 X117.493 Y141.261 E36.05744
G1 X117.694 Y141.259 E36.06176
G1 X120.099 Y141.234 E36.14175
G1 X120.3 Y141.232 E36.14844
G1 X120.3 Y141.433 E36.15276
G1 X120.3 Y143.556 E36.22337
G1 X115.383 Y144.503 E36.38991
G1 X115.311 Y145.414 E36.42031
G1 X119.774 Y147.03 E36.57818
G1 X120.41 Y147.26 E36.60067
G1 X121.959 Y147.821 E36.65547
G1 X121.935 Y147.964 E36.66029
G1 X120.298 Y147.571 E36.69383
G1 X119.642 Y147.407 E36.71437
G1 X119.612 Y147.399 E36.71541
G1 X118.454 Y152.004 E36.87334
G1 X118.406 Y152.198 E36.87999
G1 X118.6 Y152.243 E36.88425
G1 X118.601 Y152.244 E36.88429
G1 X120.095 Y152.603 E36.9354
G1 X120.654 Y152.743 E36.95457
G1 X120.785 Y152.776 E36.95906
G1 X121.193 Y151.15 E37.01482
G1 X121.632 Y149.401 E37.07479
G1 X121.706 Y149.108 E37.08484
G1 X121.814 Y148.681 E37.09949
G1 X121.74 Y149.116 E37.10013
G1 X121.683 Y149.413 E37.10122
G1 X121.299 Y151.176 E37.11334
G1 X120.866 Y152.797 E37.12677
G1 X120.839 Y152.898 E37.12898
G1 X120.803 Y153.029 E37.13349
G1 X120.757 Y153.196 E37.13926
G1 X120.228 Y154.868 E37.19758
G1 X120.122 Y155.161 E37.20795
G1 X119.511 Y156.823 E37.26684
G1 X118.833 Y158.436 E37.32504
G1 X118.706 Y158.715 E37.33523
G1 X117.956 Y160.294 E37.39337
G1 X116.847 Y162.383 E37.47204
G1 X117.415 Y163.008 E37.50013
G1 X117.853 Y162.826 E37.5159
G1 X123.709 Y162.826 E37.71067
G1 X123.709 Y162.368 E37.72591
G1 X139.403 Y162.368 E38.24789
G1 X139.403 Y157.341 E38.41509
G1 X139.438 Y157.07 E38.42418
G1 X139.528 Y156.855 E38.43193
G1 X139.671 Y156.668 E38.43976
G1 X139.855 Y156.527 E38.44747
G1 X140.074 Y156.436 E38.45536
G1 X140.343 Y156.401 E38.46438
G1 X174.763 Y156.401 E39.6092
