;FLAVOR:Marlin
;TIME:7109
;Filament used: 6.5028m
;Layer height: 0.28
;MINX:6.5
;MINY:107.348
;MINZ:0.28
;MAXX:228.5
;MAXY:207.577
;MAXZ:2.8
;Generated with Cura_SteamEngine 4.7.0
M140 S55
M105
M190 S55
M104 S210
M105
M109 S210
M82 ;absolute extrusion mode
; Ender 3 Custom Start G-code
G92 E0 ; Reset Extruder
G28 ; Home all axes
G1 Z2.0 F3000 ; Move Z Axis up little to prevent scratching of Heat Bed
G1 X0.1 Y20 Z0.3 F5000.0 ; Move to start position
G1 X0.1 Y200.0 Z0.3 F1500.0 E15 ; Draw the first line
G1 X0.4 Y200.0 Z0.3 F5000.0 ; Move to side a little
G1 X0.4 Y20 Z0.3 F1500.0 E30 ; Draw the second line
G92 E0 ; Reset Extruder
G1 Z2.0 F3000 ; Move Z Axis up little to prevent scratching of Heat Bed
G1 X5 Y20 Z0.3 F5000.0 ; Move over to prevent blob squish
G92 E0
G92 E0
G1 F2700 E-5
;LAYER_COUNT:10
;LAYER:0
M107
G0 F6000 X16.33 Y107.42 Z0.28
;TYPE:SKIRT
G1 F2700 E0
G1 F1200 X17.201 Y107.361 E0.04065
G1 X17.522 Y107.352 E0.0556
G1 X17.83 Y107.348 E0.06995
G1 X194.162 Y107.349 E8.2807
G1 X216.948 Y107.349 E9.34171
G1 X217.647 Y107.359 E9.37427
G1 X218.584 Y107.413 E9.41797
G1 X219.512 Y107.545 E9.46162
G1 X220.426 Y107.757 E9.50531
G1 X221.318 Y108.046 E9.54897
G1 X222.183 Y108.409 E9.59265
G1 X223.013 Y108.845 E9.6363
G1 X223.803 Y109.35 E9.67996
G1 X224.548 Y109.921 E9.72367
G1 X225.241 Y110.553 E9.76734
G1 X225.878 Y111.241 E9.811
G1 X226.453 Y111.982 E9.85468
G1 X226.964 Y112.768 E9.89833
G1 X227.406 Y113.596 E9.94203
G1 X227.775 Y114.457 E9.98565
G1 X228.07 Y115.348 E10.02936
G1 X228.288 Y116.26 E10.07302
G1 X228.428 Y117.187 E10.11667
G1 X228.486 Y118.049 E10.1569
G1 X228.496 Y118.405 E10.17349
G1 X228.5 Y118.714 E10.18788
G1 X228.5 Y125.808 E10.5182
G1 X228.494 Y127.807 E10.61128
G1 X228.5 Y128.599 E10.64816
G1 X228.5 Y135.75 E10.98115
G1 X228.493 Y137.85 E11.07893
G1 X228.5 Y138.729 E11.11986
G1 X228.5 Y146.101 E11.46313
G1 X228.494 Y147.856 E11.54485
G1 X228.5 Y148.621 E11.58048
G1 X228.5 Y155.734 E11.91169
G1 X228.492 Y157.902 E12.01264
G1 X228.5 Y158.874 E12.0579
G1 X228.5 Y166.429 E12.40969
G1 X228.495 Y167.896 E12.478
G1 X228.5 Y168.523 E12.5072
G1 X228.499 Y175.745 E12.84349
G1 X228.492 Y177.793 E12.93885
G1 X228.5 Y178.837 E12.98747
G1 X228.5 Y186.251 E13.33269
G1 X228.494 Y188.005 E13.41437
G1 X228.5 Y188.771 E13.45004
G1 X228.499 Y195.977 E13.78558
G1 X228.49 Y196.704 E13.81943
G1 X228.439 Y197.641 E13.86313
G1 X228.307 Y198.569 E13.90677
G1 X228.098 Y199.483 E13.95043
G1 X227.811 Y200.376 E13.99411
G1 X227.449 Y201.242 E14.03781
G1 X227.015 Y202.073 E14.08147
G1 X226.511 Y202.864 E14.12514
G1 X225.942 Y203.609 E14.16879
G1 X225.311 Y204.304 E14.2125
G1 X224.624 Y204.942 E14.25616
G1 X223.885 Y205.519 E14.29982
G1 X223.099 Y206.031 E14.3435
G1 X222.273 Y206.474 E14.38714
G1 X221.411 Y206.846 E14.43086
G1 X220.522 Y207.142 E14.47449
G1 X219.61 Y207.362 E14.51817
G1 X218.683 Y207.503 E14.56183
G1 X217.799 Y207.564 E14.60309
G1 X217.478 Y207.573 E14.61805
G1 X217.17 Y207.577 E14.63239
G1 X40.838 Y207.576 E22.84315
G1 X18.048 Y207.576 E23.90435
G1 X17.364 Y207.566 E23.9362
G1 X16.428 Y207.512 E23.97986
G1 X15.5 Y207.379 E24.02351
G1 X14.586 Y207.167 E24.0672
G1 X13.694 Y206.878 E24.11086
G1 X12.829 Y206.514 E24.15456
G1 X11.999 Y206.078 E24.19821
G1 X11.209 Y205.573 E24.24187
G1 X10.465 Y205.002 E24.28554
G1 X9.772 Y204.37 E24.32922
G1 X8.935 Y203.439 E24.38751
G1 X8.919 Y203.419 E24.3887
G1 X8.365 Y202.662 E24.43238
G1 X7.878 Y201.861 E24.47604
G1 X7.46 Y201.021 E24.51972
G1 X7.115 Y200.149 E24.56339
G1 X6.846 Y199.25 E24.60709
G1 X6.655 Y198.332 E24.65075
G1 X6.542 Y197.401 E24.69442
G1 X6.513 Y196.848 E24.7202
G1 X6.505 Y196.556 E24.7338
G1 X6.501 Y196.256 E24.74777
G1 X6.5 Y188.873 E25.09156
G1 X6.506 Y187.119 E25.17323
G1 X6.5 Y186.353 E25.2089
G1 X6.501 Y179.111 E25.54612
G1 X6.508 Y177.063 E25.64148
G1 X6.5 Y176.019 E25.6901
G1 X6.5 Y168.386 E26.04552
G1 X6.505 Y166.919 E26.11383
G1 X6.5 Y166.292 E26.14303
G1 X6.5 Y159.196 E26.47345
G1 X6.508 Y157.028 E26.5744
G1 X6.5 Y156.056 E26.61966
G1 X6.5 Y148.719 E26.9613
G1 X6.506 Y146.964 E27.04302
G1 X6.5 Y146.199 E27.07865
G1 X6.5 Y139.086 E27.40986
G1 X6.507 Y136.986 E27.50764
G1 X6.5 Y136.108 E27.54853
G1 X6.5 Y128.98 E27.88044
G1 X6.506 Y126.981 E27.97352
G1 X6.5 Y126.189 E28.0104
G1 X6.501 Y118.871 E28.35116
G1 X6.51 Y118.208 E28.38203
G1 X6.563 Y117.271 E28.42573
G1 X6.695 Y116.343 E28.46938
G1 X6.906 Y115.429 E28.51306
G1 X7.194 Y114.536 E28.55675
G1 X7.557 Y113.672 E28.60039
G1 X7.992 Y112.841 E28.64406
G1 X8.497 Y112.05 E28.68776
G1 X9.067 Y111.305 E28.73144
G1 X9.698 Y110.612 E28.77508
G1 X10.386 Y109.975 E28.81874
G1 X11.126 Y109.398 E28.86243
G1 X11.912 Y108.887 E28.90609
G1 X12.739 Y108.445 E28.94975
G1 X13.601 Y108.075 E28.99343
G1 X14.491 Y107.779 E29.03711
G1 X15.403 Y107.56 E29.08078
G1 X16.33 Y107.42 E29.12443
G0 F6000 X16.659 Y107.791
G1 F1200 X17.212 Y107.761 E29.15022
G1 X17.533 Y107.752 E29.16517
G1 X17.83 Y107.748 E29.17901
G1 X194.162 Y107.749 E37.38976
G1 X216.791 Y107.748 E38.44346
G1 X217.642 Y107.759 E38.48309
G1 X218.561 Y107.812 E38.52596
G1 X219.472 Y107.945 E38.56883
G1 X220.368 Y108.156 E38.61169
G1 X221.242 Y108.444 E38.65454
G1 X222.088 Y108.807 E38.6974
G1 X222.9 Y109.242 E38.7403
G1 X223.67 Y109.746 E38.78315
G1 X224.394 Y110.315 E38.82603
G1 X225.066 Y110.944 E38.86889
G1 X225.681 Y111.63 E38.91179
G1 X226.234 Y112.366 E38.95466
G1 X226.721 Y113.147 E38.99751
G1 X227.138 Y113.968 E39.04039
G1 X227.483 Y114.822 E39.08328
G1 X227.752 Y115.702 E39.12613
G1 X227.944 Y116.602 E39.16898
G1 X228.057 Y117.516 E39.21186
G1 X228.086 Y118.06 E39.23723
G1 X228.096 Y118.416 E39.25381
G1 X228.1 Y118.714 E39.26769
G1 X228.1 Y125.807 E39.59797
G1 X228.094 Y127.81 E39.69124
G1 X228.1 Y128.602 E39.72812
G1 X228.1 Y135.748 E40.06087
G1 X228.093 Y137.854 E40.15893
G1 X228.1 Y138.733 E40.19986
G1 X228.1 Y146.1 E40.5429
G1 X228.094 Y147.859 E40.62481
G1 X228.1 Y148.624 E40.66043
G1 X228.1 Y155.733 E40.99145
G1 X228.092 Y157.906 E41.09264
G1 X228.1 Y158.878 E41.1379
G1 X228.1 Y166.427 E41.48941
G1 X228.095 Y167.899 E41.55796
G1 X228.1 Y168.526 E41.58715
G1 X228.099 Y175.739 E41.92302
G1 X228.092 Y177.796 E42.0188
G1 X228.1 Y178.84 E42.06742
G1 X228.1 Y186.25 E42.41246
G1 X228.094 Y188.008 E42.49432
G1 X228.1 Y188.774 E42.52999
G1 X228.099 Y195.972 E42.86516
G1 X228.09 Y196.699 E42.89901
G1 X228.039 Y197.618 E42.94187
G1 X227.908 Y198.53 E42.98477
G1 X227.698 Y199.426 E43.02763
G1 X227.412 Y200.301 E43.07049
G1 X227.051 Y201.148 E43.11336
G1 X226.617 Y201.96 E43.15623
G1 X226.115 Y202.732 E43.19911
G1 X225.547 Y203.457 E43.242
G1 X224.919 Y204.13 E43.28486
G1 X224.235 Y204.746 E43.32772
G1 X223.5 Y205.3 E43.37058
G1 X222.72 Y205.789 E43.41345
G1 X221.9 Y206.208 E43.45633
G1 X221.047 Y206.554 E43.49919
G1 X220.167 Y206.825 E43.54207
G1 X219.267 Y207.018 E43.58493
G1 X218.353 Y207.133 E43.62782
G1 X217.788 Y207.164 E43.65417
G1 X217.467 Y207.173 E43.66912
G1 X217.17 Y207.177 E43.68295
G1 X40.838 Y207.176 E51.89371
G1 X18.054 Y207.176 E52.95463
G1 X17.37 Y207.166 E52.98648
G1 X16.451 Y207.112 E53.02935
G1 X15.54 Y206.979 E53.07222
G1 X14.644 Y206.768 E53.11508
G1 X13.77 Y206.479 E53.15795
G1 X12.924 Y206.116 E53.20081
G1 X12.112 Y205.681 E53.24371
G1 X11.342 Y205.177 E53.28656
G1 X10.618 Y204.608 E53.32944
G1 X9.947 Y203.978 E53.37229
G1 X9.248 Y203.189 E53.42138
G1 X9.232 Y203.169 E53.42257
G1 X8.688 Y202.426 E53.46545
G1 X8.212 Y201.638 E53.50832
G1 X7.805 Y200.812 E53.55119
G1 X7.471 Y199.954 E53.59407
G1 X7.214 Y199.07 E53.63693
G1 X7.034 Y198.167 E53.67981
G1 X6.913 Y196.837 E53.74199
G1 X6.905 Y196.545 E53.7556
G1 X6.901 Y196.256 E53.76905
G1 X6.9 Y188.874 E54.11279
G1 X6.906 Y187.116 E54.19465
G1 X6.9 Y186.35 E54.23032
G1 X6.901 Y179.117 E54.56712
G1 X6.908 Y177.06 E54.6629
G1 X6.9 Y176.016 E54.71152
G1 X6.9 Y168.388 E55.06671
G1 X6.905 Y166.916 E55.13525
G1 X6.9 Y166.289 E55.16445
G1 X6.9 Y159.197 E55.49468
G1 X6.908 Y157.024 E55.59587
G1 X6.9 Y156.052 E55.64113
G1 X6.9 Y148.72 E55.98254
G1 X6.906 Y146.961 E56.06444
G1 X6.9 Y146.196 E56.10007
G1 X6.9 Y139.088 E56.43104
G1 X6.907 Y136.983 E56.52906
G1 X6.9 Y136.105 E56.56995
G1 X6.9 Y128.981 E56.90167
G1 X6.906 Y126.978 E56.99494
G1 X6.9 Y126.186 E57.03182
G1 X6.901 Y118.876 E57.3722
G1 X6.91 Y118.213 E57.40308
G1 X6.962 Y117.294 E57.44594
G1 X7.094 Y116.383 E57.4888
G1 X7.305 Y115.487 E57.53166
G1 X7.593 Y114.612 E57.57456
G1 X7.955 Y113.766 E57.61741
G1 X8.389 Y112.954 E57.66028
G1 X8.893 Y112.183 E57.70317
G1 X9.461 Y111.459 E57.74602
G1 X10.09 Y110.786 E57.78891
G1 X10.775 Y110.171 E57.83178
G1 X11.51 Y109.618 E57.87461
G1 X12.291 Y109.13 E57.91749
G1 X13.112 Y108.712 E57.96039
G1 X13.965 Y108.367 E58.00323
G1 X14.845 Y108.097 E58.0461
G1 X15.746 Y107.905 E58.08899
G1 X16.659 Y107.791 E58.13184
G0 F6000 X16.084 Y108.257
G1 F1200 X17.223 Y108.161 E58.18506
G1 X17.544 Y108.152 E58.20001
G1 X17.83 Y108.148 E58.21333
G1 X194.162 Y108.149 E66.42409
G1 X216.791 Y108.148 E67.47779
G1 X217.636 Y108.159 E67.51714
G1 X218.537 Y108.212 E67.55917
G1 X219.431 Y108.344 E67.60125
G1 X220.309 Y108.555 E67.64329
G1 X221.165 Y108.843 E67.68535
G1 X221.992 Y109.205 E67.72738
G1 X222.784 Y109.639 E67.76944
G1 X223.535 Y110.142 E67.81153
G1 X224.238 Y110.709 E67.85358
G1 X224.888 Y111.336 E67.89563
G1 X225.48 Y112.018 E67.93769
G1 X226.009 Y112.749 E67.9797
G1 X226.472 Y113.525 E68.02178
G1 X226.864 Y114.338 E68.06381
G1 X227.183 Y115.183 E68.10586
G1 X227.426 Y116.053 E68.14792
G1 X227.591 Y116.941 E68.18998
G1 X227.686 Y118.072 E68.24283
G1 X227.696 Y118.428 E68.25941
G1 X227.7 Y118.714 E68.27273
G1 X227.7 Y125.806 E68.60297
G1 X227.694 Y127.813 E68.69642
G1 X227.7 Y128.605 E68.7333
G1 X227.7 Y135.747 E69.06586
G1 X227.693 Y137.857 E69.16411
G1 X227.7 Y138.736 E69.20504
G1 X227.7 Y146.099 E69.5479
G1 X227.694 Y147.862 E69.62999
G1 X227.7 Y148.627 E69.66561
G1 X227.7 Y155.732 E69.99645
G1 X227.692 Y157.909 E70.09782
G1 X227.7 Y158.881 E70.14308
G1 X227.7 Y166.426 E70.49441
G1 X227.695 Y167.903 E70.56319
G1 X227.7 Y168.53 E70.59238
G1 X227.699 Y175.734 E70.92783
G1 X227.692 Y177.799 E71.02399
G1 X227.7 Y178.843 E71.0726
G1 X227.7 Y186.249 E71.41746
G1 X227.694 Y188.011 E71.4995
G1 X227.7 Y188.777 E71.53517
G1 X227.699 Y195.967 E71.86997
G1 X227.69 Y196.694 E71.90382
G1 X227.639 Y197.596 E71.94589
G1 X227.508 Y198.49 E71.98796
G1 X227.299 Y199.368 E72.02999
G1 X227.013 Y200.225 E72.07206
G1 X226.652 Y201.053 E72.11412
G1 X226.22 Y201.845 E72.15613
G1 X225.719 Y202.597 E72.1982
G1 X225.153 Y203.301 E72.24026
G1 X224.528 Y203.952 E72.28229
G1 X223.847 Y204.546 E72.32437
G1 X223.116 Y205.077 E72.36644
G1 X222.342 Y205.541 E72.40846
G1 X221.529 Y205.935 E72.45052
G1 X220.685 Y206.255 E72.49255
G1 X219.815 Y206.5 E72.53464
G1 X218.928 Y206.666 E72.57666
G1 X217.777 Y206.764 E72.63045
G1 X217.456 Y206.773 E72.6454
G1 X217.17 Y206.777 E72.65872
G1 X40.838 Y206.776 E80.86948
G1 X18.06 Y206.776 E81.93012
G1 X17.376 Y206.766 E81.96197
G1 X16.474 Y206.713 E82.00404
G1 X15.581 Y206.58 E82.04608
G1 X14.703 Y206.369 E82.08813
G1 X13.847 Y206.081 E82.13019
G1 X13.02 Y205.718 E82.17224
G1 X12.228 Y205.284 E82.21429
G1 X11.478 Y204.781 E82.25634
G1 X10.775 Y204.214 E82.2984
G1 X10.125 Y203.587 E82.34045
G1 X9.56 Y202.939 E82.38048
G1 X9.544 Y202.919 E82.38168
G1 X9.012 Y202.189 E82.42374
G1 X8.546 Y201.416 E82.46577
G1 X8.15 Y200.604 E82.50783
G1 X7.828 Y199.76 E82.5499
G1 X7.582 Y198.891 E82.59195
G1 X7.414 Y198.004 E82.63399
G1 X7.313 Y196.826 E82.68904
G1 X7.305 Y196.534 E82.70264
G1 X7.301 Y196.256 E82.71559
G1 X7.3 Y188.875 E83.05928
G1 X7.306 Y187.113 E83.14133
G1 X7.3 Y186.347 E83.177
G1 X7.301 Y179.122 E83.51342
G1 X7.308 Y177.057 E83.60958
G1 X7.3 Y176.013 E83.65819
G1 X7.3 Y168.389 E84.0132
G1 X7.305 Y166.912 E84.08197
G1 X7.3 Y166.285 E84.11117
G1 X7.3 Y159.198 E84.44117
G1 X7.308 Y157.021 E84.54254
G1 X7.3 Y156.049 E84.5878
G1 X7.3 Y148.721 E84.92903
G1 X7.306 Y146.958 E85.01112
G1 X7.3 Y146.193 E85.04674
G1 X7.3 Y139.089 E85.37753
G1 X7.307 Y136.979 E85.47578
G1 X7.3 Y136.101 E85.51667
G1 X7.3 Y128.982 E85.84816
G1 X7.306 Y126.975 E85.94161
G1 X7.3 Y126.183 E85.97849
G1 X7.301 Y118.882 E86.31846
G1 X7.31 Y118.219 E86.34933
G1 X7.362 Y117.317 E86.39141
G1 X7.494 Y116.424 E86.43344
G1 X7.704 Y115.545 E86.47552
G1 X7.991 Y114.689 E86.51756
G1 X8.353 Y113.862 E86.5596
G1 X8.787 Y113.069 E86.60169
G1 X9.289 Y112.318 E86.64375
G1 X9.855 Y111.615 E86.68578
G1 X10.481 Y110.964 E86.72783
G1 X11.163 Y110.372 E86.76989
G1 X11.894 Y109.842 E86.81193
G1 X12.669 Y109.378 E86.85399
G1 X13.482 Y108.985 E86.89604
G1 X14.327 Y108.666 E86.93809
G1 X15.197 Y108.423 E86.98016
G1 X16.084 Y108.257 E87.02218
G1 F2700 E82.02218
;MESH:20X20mm_V_Slot_Cover_200mm.stl(7)
G0 F6000 X17.914 Y117.683
G0 X17.914 Y118.762
G0 X18.1 Y125.868
;TYPE:WALL-INNER
G1 F2700 E87.02218
G1 F1200 X18.1 Y118.948 E87.3444
G1 X194.166 Y118.949 E95.54277
G1 X216.9 Y118.948 E96.60136
G1 X216.9 Y125.868 E96.92358
G1 X40.834 Y125.867 E105.12195
G1 X18.1 Y125.868 E106.18055
G0 F6000 X17.7 Y126.268
;TYPE:WALL-OUTER
G1 F1200 X17.7 Y118.548 E106.54002
G1 X194.166 Y118.549 E114.75702
G1 X217.3 Y118.548 E115.83423
G1 X217.3 Y126.268 E116.19371
G1 X40.834 Y126.267 E124.4107
G1 X17.7 Y126.268 E125.48792
G0 F6000 X17.97 Y125.998
G0 X18.21 Y125.478
G0 X18.49 Y125.478
;TYPE:SKIN
G1 F1200 X18.49 Y119.338 E125.77382
G1 X194.166 Y119.339 E133.95404
G1 X216.51 Y119.338 E134.99447
G1 X216.51 Y125.478 E135.28037
G1 X40.834 Y125.477 E143.46058
G1 X18.49 Y125.478 E144.50101
G0 F6000 X18.967 Y125.316
G1 F1200 X18.649 Y124.998 E144.52195
G0 F6000 X18.649 Y124.433
G1 F1200 X19.533 Y125.316 E144.58013
G0 F6000 X20.098 Y125.316
G1 F1200 X18.649 Y123.867 E144.67555
G0 F6000 X18.649 Y123.301
G1 F1200 X20.664 Y125.316 E144.80824
G0 F6000 X21.23 Y125.316
G1 F1200 X18.649 Y122.736 E144.97817
G0 F6000 X18.649 Y122.17
G1 F1200 X21.795 Y125.316 E145.18534
G0 F6000 X22.361 Y125.316
G1 F1200 X18.649 Y121.604 E145.42978
G0 F6000 X18.649 Y121.039
G1 F1200 X22.927 Y125.316 E145.71146
G0 F6000 X23.492 Y125.316
G1 F1200 X18.649 Y120.473 E146.03038
G0 F6000 X18.649 Y119.907
G1 F1200 X24.058 Y125.316 E146.38658
G0 F6000 X24.624 Y125.316
G1 F1200 X18.806 Y119.498 E146.7697
G0 F6000 X19.371 Y119.498
G1 F1200 X25.189 Y125.316 E147.15283
G0 F6000 X25.755 Y125.316
G1 F1200 X19.937 Y119.498 E147.53595
G0 F6000 X20.503 Y119.498
G1 F1200 X26.321 Y125.316 E147.91908
G0 F6000 X26.887 Y125.316
G1 F1200 X21.068 Y119.498 E148.30223
G0 F6000 X21.634 Y119.498
G1 F1200 X27.452 Y125.316 E148.68536
G0 F6000 X28.018 Y125.316
G1 F1200 X22.2 Y119.498 E149.06848
G0 F6000 X22.766 Y119.498
G1 F1200 X28.584 Y125.316 E149.45161
G0 F6000 X29.149 Y125.316
G1 F1200 X23.331 Y119.498 E149.83474
G0 F6000 X23.897 Y119.498
G1 F1200 X29.715 Y125.316 E150.21786
G0 F6000 X30.281 Y125.316
G1 F1200 X24.463 Y119.498 E150.60099
G0 F6000 X25.028 Y119.498
G1 F1200 X30.846 Y125.316 E150.98411
G0 F6000 X31.412 Y125.316
G1 F1200 X25.594 Y119.498 E151.36724
G0 F6000 X26.16 Y119.498
G1 F1200 X31.978 Y125.316 E151.75036
G0 F6000 X32.543 Y125.316
G1 F1200 X26.725 Y119.498 E152.13349
G0 F6000 X27.291 Y119.498
G1 F1200 X33.109 Y125.316 E152.51661
G0 F6000 X33.675 Y125.316
G1 F1200 X27.857 Y119.498 E152.89974
G0 F6000 X28.422 Y119.498
G1 F1200 X34.24 Y125.316 E153.28286
G0 F6000 X34.806 Y125.316
G1 F1200 X28.988 Y119.498 E153.66599
G0 F6000 X29.554 Y119.498
G1 F1200 X35.372 Y125.316 E154.04911
G0 F6000 X35.937 Y125.316
G1 F1200 X30.119 Y119.498 E154.43224
G0 F6000 X30.685 Y119.498
G1 F1200 X36.503 Y125.316 E154.81536
G0 F6000 X37.069 Y125.316
G1 F1200 X31.251 Y119.498 E155.19849
G0 F6000 X31.816 Y119.498
G1 F1200 X37.635 Y125.316 E155.58165
G0 F6000 X38.2 Y125.316
G1 F1200 X32.382 Y119.498 E155.96477
G0 F6000 X32.948 Y119.498
G1 F1200 X38.766 Y125.316 E156.3479
G0 F6000 X39.332 Y125.316
G1 F1200 X33.514 Y119.498 E156.73102
G0 F6000 X34.079 Y119.498
G1 F1200 X39.897 Y125.316 E157.11415
G0 F6000 X40.463 Y125.316
G1 F1200 X34.645 Y119.498 E157.49727
G0 F6000 X35.211 Y119.498
G1 F1200 X41.029 Y125.316 E157.8804
G0 F6000 X41.594 Y125.316
G1 F1200 X35.776 Y119.498 E158.26352
G0 F6000 X36.342 Y119.498
G1 F1200 X42.16 Y125.316 E158.64665
