;FLAVOR:Marlin
;TIME:7376
;Filament used: 5.87552m
;Layer height: 0.28
;MINX:30.3
;MINY:68.4
;MINZ:0.28
;MAXX:204.7
;MAXY:166.6
;MAXZ:1.68
;Generated with Cura_SteamEngine 4.7.0
M140 S55
M105
M190 S55
M104 S210
M105
M109 S210
M82 ;absolute extrusion mode
; Ender 3 Custom Start G-code
G92 E0 ; Reset Extruder
G28 ; Home all axes
G1 Z2.0 F3000 ; Move Z Axis up little to prevent scratching of Heat Bed
G1 X0.1 Y20 Z0.3 F5000.0 ; Move to start position
G1 X0.1 Y200.0 Z0.3 F1500.0 E15 ; Draw the first line
G1 X0.4 Y200.0 Z0.3 F5000.0 ; Move to side a little
G1 X0.4 Y20 Z0.3 F1500.0 E30 ; Draw the second line
G92 E0 ; Reset Extruder
G1 Z2.0 F3000 ; Move Z Axis up little to prevent scratching of Heat Bed
G1 X5 Y20 Z0.3 F5000.0 ; Move over to prevent blob squish
G92 E0
G92 E0
G1 F2700 E-5
;LAYER_COUNT:6
;LAYER:0
M107
G0 F6000 X36.539 Y69.497 Z0.28
;TYPE:SKIRT
G1 F2700 E0
G1 F1200 X37.401 Y69.127 E0.04368
G1 X38.291 Y68.831 E0.08735
G1 X39.203 Y68.613 E0.13102
G1 X40.13 Y68.472 E0.17468
G1 X41.001 Y68.413 E0.21533
G1 X41.322 Y68.404 E0.23028
G1 X41.63 Y68.4 E0.24462
G1 X192.993 Y68.4 E7.29272
G1 X193.151 Y68.401 E7.30008
G1 X193.849 Y68.411 E7.33258
G1 X194.785 Y68.465 E7.37624
G1 X195.713 Y68.597 E7.41989
G1 X196.627 Y68.809 E7.46357
G1 X197.519 Y69.098 E7.50724
G1 X198.384 Y69.461 E7.55092
G1 X199.214 Y69.897 E7.59457
G1 X200.005 Y70.402 E7.63827
G1 X200.749 Y70.973 E7.68194
G1 X201.442 Y71.605 E7.72561
G1 X202.079 Y72.293 E7.76927
G1 X202.654 Y73.034 E7.81295
G1 X203.165 Y73.82 E7.8566
G1 X203.607 Y74.648 E7.90031
G1 X203.976 Y75.51 E7.94397
G1 X204.271 Y76.4 E7.98763
G1 X204.489 Y77.312 E8.03129
G1 X204.629 Y78.24 E8.07499
G1 X204.687 Y79.101 E8.11517
G1 X204.696 Y79.421 E8.13008
G1 X204.7 Y79.73 E8.14447
G1 X204.7 Y154.864 E11.64302
G1 X204.69 Y155.727 E11.68321
G1 X204.639 Y156.664 E11.72691
G1 X204.507 Y157.592 E11.77055
G1 X204.298 Y158.506 E11.81421
G1 X204.011 Y159.399 E11.85789
G1 X203.649 Y160.265 E11.90159
G1 X203.215 Y161.096 E11.94525
G1 X202.711 Y161.887 E11.98892
G1 X202.142 Y162.632 E12.03257
G1 X201.511 Y163.327 E12.07628
G1 X200.824 Y163.965 E12.11994
G1 X200.085 Y164.542 E12.1636
G1 X199.299 Y165.054 E12.20728
G1 X198.473 Y165.497 E12.25092
G1 X197.611 Y165.869 E12.29464
G1 X196.722 Y166.165 E12.33827
G1 X195.81 Y166.385 E12.38195
G1 X194.883 Y166.526 E12.42561
G1 X193.999 Y166.587 E12.46687
G1 X193.678 Y166.596 E12.48183
G1 X193.37 Y166.6 E12.49617
G1 X42.007 Y166.6 E19.54426
G1 X41.167 Y166.59 E19.58338
G1 X40.231 Y166.538 E19.62703
G1 X39.302 Y166.406 E19.67073
G1 X38.388 Y166.196 E19.71439
G1 X37.495 Y165.909 E19.75807
G1 X36.63 Y165.546 E19.80175
G1 X35.799 Y165.112 E19.84541
G1 X35.008 Y164.608 E19.88908
G1 X34.263 Y164.038 E19.93276
G1 X33.569 Y163.407 E19.97643
G1 X32.932 Y162.72 E20.02006
G1 X32.355 Y161.98 E20.06375
G1 X31.843 Y161.194 E20.10743
G1 X31.4 Y160.367 E20.15112
G1 X31.029 Y159.506 E20.19477
G1 X30.733 Y158.616 E20.23845
G1 X30.514 Y157.704 E20.28212
G1 X30.373 Y156.777 E20.32578
G1 X30.313 Y155.888 E20.36727
G1 X30.304 Y155.555 E20.38278
G1 X30.3 Y155.258 E20.39662
G1 X30.3 Y80.074 E23.8975
G1 X30.31 Y79.26 E23.9354
G1 X30.363 Y78.324 E23.97906
G1 X30.495 Y77.395 E24.02275
G1 X30.706 Y76.481 E24.06643
G1 X30.994 Y75.589 E24.11008
G1 X31.357 Y74.724 E24.15376
G1 X31.792 Y73.893 E24.19743
G1 X32.296 Y73.103 E24.24107
G1 X32.866 Y72.358 E24.28475
G1 X33.498 Y71.664 E24.32845
G1 X34.186 Y71.027 E24.37211
G1 X34.926 Y70.451 E24.41578
G1 X35.712 Y69.939 E24.45946
G1 X36.539 Y69.497 E24.50312
G0 F6000 X36.911 Y69.764
G1 F1200 X37.765 Y69.419 E24.54601
G1 X38.645 Y69.149 E24.58887
G1 X39.545 Y68.957 E24.63172
G1 X40.459 Y68.843 E24.67461
G1 X41.012 Y68.813 E24.7004
G1 X41.333 Y68.804 E24.71535
G1 X41.63 Y68.8 E24.72918
G1 X192.993 Y68.8 E31.77728
G1 X193.843 Y68.811 E31.81686
G1 X194.762 Y68.864 E31.85972
G1 X195.673 Y68.997 E31.90259
G1 X196.569 Y69.208 E31.94546
G1 X197.443 Y69.496 E31.98831
G1 X198.29 Y69.859 E32.03122
G1 X199.101 Y70.294 E32.07407
G1 X199.871 Y70.798 E32.11692
G1 X200.595 Y71.367 E32.1598
G1 X201.267 Y71.997 E32.20269
G1 X201.882 Y72.682 E32.24556
G1 X202.435 Y73.418 E32.28842
G1 X202.922 Y74.199 E32.33128
G1 X203.339 Y75.02 E32.37416
G1 X203.684 Y75.874 E32.41705
G1 X203.953 Y76.754 E32.45989
G1 X204.145 Y77.655 E32.50279
G1 X204.258 Y78.568 E32.54563
G1 X204.287 Y79.112 E32.571
G1 X204.296 Y79.432 E32.5859
G1 X204.3 Y79.73 E32.59978
G1 X204.3 Y154.864 E36.09833
G1 X204.29 Y155.722 E36.13829
G1 X204.239 Y156.641 E36.18115
G1 X204.108 Y157.553 E36.22405
G1 X203.898 Y158.449 E36.2669
G1 X203.612 Y159.324 E36.30977
G1 X203.251 Y160.171 E36.35264
G1 X202.817 Y160.983 E36.39551
G1 X202.315 Y161.755 E36.43839
G1 X201.747 Y162.48 E36.48128
G1 X201.119 Y163.153 E36.52414
G1 X200.435 Y163.769 E36.567
G1 X199.7 Y164.323 E36.60986
G1 X198.92 Y164.812 E36.65272
G1 X198.1 Y165.231 E36.6956
G1 X197.247 Y165.577 E36.73847
G1 X196.367 Y165.848 E36.78134
G1 X195.467 Y166.041 E36.8242
G1 X194.553 Y166.156 E36.8671
G1 X193.988 Y166.187 E36.89345
G1 X193.667 Y166.196 E36.9084
G1 X193.37 Y166.2 E36.92223
G1 X42.007 Y166.2 E43.97032
G1 X41.172 Y166.19 E44.00921
G1 X40.253 Y166.138 E44.05207
G1 X39.342 Y166.007 E44.09493
G1 X38.446 Y165.797 E44.13778
G1 X37.571 Y165.51 E44.18066
G1 X36.724 Y165.148 E44.22355
G1 X35.912 Y164.714 E44.26642
G1 X35.141 Y164.212 E44.30926
G1 X34.416 Y163.644 E44.35215
G1 X33.743 Y163.015 E44.39504
G1 X33.128 Y162.331 E44.43787
G1 X32.574 Y161.596 E44.48073
G1 X32.086 Y160.815 E44.52361
G1 X31.667 Y159.995 E44.56649
G1 X31.321 Y159.142 E44.60935
G1 X31.051 Y158.262 E44.65221
G1 X30.858 Y157.361 E44.69512
G1 X30.744 Y156.448 E44.73796
G1 X30.713 Y155.877 E44.76459
G1 X30.704 Y155.544 E44.7801
G1 X30.7 Y155.258 E44.79342
G1 X30.7 Y80.074 E48.2943
G1 X30.71 Y79.266 E48.33193
G1 X30.762 Y78.346 E48.37484
G1 X30.894 Y77.435 E48.4177
G1 X31.105 Y76.539 E48.46056
G1 X31.392 Y75.664 E48.50344
G1 X31.755 Y74.818 E48.54631
G1 X32.189 Y74.006 E48.58918
G1 X32.692 Y73.235 E48.63205
G1 X33.261 Y72.511 E48.67492
G1 X33.889 Y71.839 E48.71775
G1 X34.574 Y71.223 E48.76065
G1 X35.31 Y70.67 E48.80352
G1 X36.091 Y70.182 E48.8464
G1 X36.911 Y69.764 E48.88926
G0 F6000 X37.282 Y70.038
G1 F1200 X38.127 Y69.718 E48.93133
G1 X38.996 Y69.475 E48.97335
G1 X39.884 Y69.309 E49.01541
G1 X41.023 Y69.213 E49.06864
G1 X41.344 Y69.204 E49.08359
G1 X41.63 Y69.2 E49.09691
G1 X192.993 Y69.2 E56.145
G1 X193.837 Y69.211 E56.18431
G1 X194.739 Y69.264 E56.22638
G1 X195.632 Y69.396 E56.26841
G1 X196.51 Y69.607 E56.31046
G1 X197.366 Y69.895 E56.35251
G1 X198.193 Y70.257 E56.39455
G1 X198.985 Y70.692 E56.43663
G1 X199.736 Y71.194 E56.47869
G1 X200.439 Y71.761 E56.52074
G1 X201.089 Y72.388 E56.5628
G1 X201.681 Y73.07 E56.60485
G1 X202.211 Y73.801 E56.64689
G1 X202.673 Y74.577 E56.68895
G1 X203.066 Y75.39 E56.73099
G1 X203.384 Y76.235 E56.77303
G1 X203.627 Y77.105 E56.8151
G1 X203.792 Y77.993 E56.85715
G1 X203.887 Y79.123 E56.90996
G1 X203.896 Y79.443 E56.92486
G1 X203.9 Y79.73 E56.93823
G1 X203.9 Y154.864 E60.43678
G1 X203.89 Y155.717 E60.4765
G1 X203.839 Y156.619 E60.51857
G1 X203.708 Y157.513 E60.56064
G1 X203.499 Y158.391 E60.60267
G1 X203.213 Y159.248 E60.64474
G1 X202.852 Y160.076 E60.6868
G1 X202.42 Y160.868 E60.72881
G1 X201.919 Y161.62 E60.77088
G1 X201.353 Y162.324 E60.81294
G1 X200.728 Y162.975 E60.85497
G1 X200.047 Y163.569 E60.89704
G1 X199.316 Y164.1 E60.93912
G1 X198.542 Y164.564 E60.98114
G1 X197.729 Y164.958 E61.0232
G1 X196.885 Y165.278 E61.06523
G1 X196.015 Y165.523 E61.10732
G1 X195.128 Y165.689 E61.14934
G1 X193.977 Y165.787 E61.20313
G1 X193.656 Y165.796 E61.21808
G1 X193.37 Y165.8 E61.2314
G1 X42.007 Y165.8 E68.2795
G1 X41.177 Y165.79 E68.31815
G1 X40.276 Y165.739 E68.36017
G1 X39.382 Y165.607 E68.40225
G1 X38.504 Y165.398 E68.44427
G1 X37.647 Y165.111 E68.48636
G1 X36.82 Y164.75 E68.52838
G1 X36.027 Y164.317 E68.57045
G1 X35.276 Y163.816 E68.61248
G1 X34.572 Y163.25 E68.65455
G1 X33.921 Y162.624 E68.6966
G1 X33.328 Y161.943 E68.73865
G1 X32.798 Y161.212 E68.78069
G1 X32.334 Y160.437 E68.82275
G1 X31.94 Y159.624 E68.86482
G1 X31.62 Y158.78 E68.90685
G1 X31.376 Y157.91 E68.94892
G1 X31.21 Y157.022 E68.99099
G1 X31.113 Y155.867 E69.04496
G1 X31.104 Y155.534 E69.06047
G1 X31.1 Y155.258 E69.07333
G1 X31.1 Y80.074 E72.57421
G1 X31.11 Y79.271 E72.6116
G1 X31.162 Y78.369 E72.65367
G1 X31.294 Y77.476 E72.69571
G1 X31.504 Y76.598 E72.73774
G1 X31.791 Y75.741 E72.77983
G1 X32.153 Y74.914 E72.82186
G1 X32.586 Y74.122 E72.86389
G1 X33.088 Y73.371 E72.90596
G1 X33.655 Y72.667 E72.94805
G1 X34.281 Y72.017 E72.99007
G1 X34.962 Y71.424 E73.03212
G1 X35.694 Y70.894 E73.0742
G1 X36.469 Y70.431 E73.11623
G1 X37.282 Y70.038 E73.15828
G1 F2700 E68.15828
;MESH:Paintball_Sizer_Gauge_V3.stl
G0 F6000 X49.268 Y85.593
G0 X47.94 Y83.76
G0 X49.408 Y83.087
;TYPE:WALL-INNER
G1 F2700 E73.15828
G1 F1200 X48.053 Y83.915 E73.23222
G1 X46.846 Y84.946 E73.30614
G1 X45.815 Y86.153 E73.38005
G1 X44.987 Y87.508 E73.454
G1 X44.976 Y87.536 E73.4554
G1 X44.377 Y88.974 E73.52793
G1 X44.017 Y90.487 E73.60035
G1 X44.009 Y90.517 E73.6018
G1 X43.884 Y92.1 E73.67574
G1 X44.009 Y93.683 E73.74968
G1 X44.377 Y95.226 E73.82354
G1 X44.987 Y96.692 E73.89748
G1 X45.815 Y98.047 E73.97142
G1 X46.846 Y99.254 E74.04534
G1 X48.053 Y100.285 E74.11925
G1 X49.408 Y101.113 E74.19319
G1 X49.436 Y101.124 E74.19459
G1 X50.874 Y101.723 E74.26713
G1 X52.387 Y102.083 E74.33955
G1 X52.417 Y102.091 E74.341
G1 X54 Y102.216 E74.41494
G1 X55.583 Y102.091 E74.48888
G1 X57.126 Y101.723 E74.56274
G1 X58.592 Y101.113 E74.63668
G1 X59.947 Y100.285 E74.71062
G1 X61.154 Y99.254 E74.78453
G1 X62.185 Y98.047 E74.85845
G1 X63.013 Y96.692 E74.93239
G1 X63.024 Y96.664 E74.93379
G1 X63.623 Y95.226 E75.00633
G1 X63.983 Y93.713 E75.07875
G1 X63.991 Y93.683 E75.08019
G1 X64.116 Y92.1 E75.15413
G1 X63.991 Y90.517 E75.22807
G1 X63.623 Y88.974 E75.30194
G1 X63.013 Y87.508 E75.37587
G1 X62.185 Y86.153 E75.44982
G1 X61.154 Y84.946 E75.52373
G1 X59.947 Y83.915 E75.59765
G1 X58.592 Y83.087 E75.67159
G1 X58.564 Y83.076 E75.67299
G1 X57.126 Y82.477 E75.74553
G1 X55.613 Y82.117 E75.81795
G1 X55.583 Y82.109 E75.81939
G1 X54 Y81.984 E75.89333
G1 X52.417 Y82.109 E75.96727
G1 X50.874 Y82.477 E76.04114
G1 X49.408 Y83.087 E76.11507
G0 F6000 X49.59 Y83.444
G1 F1200 X48.289 Y84.24 E76.18609
G1 X47.13 Y85.23 E76.25707
G1 X46.14 Y86.389 E76.32804
G1 X45.344 Y87.69 E76.39906
G1 X45.333 Y87.718 E76.40046
G1 X44.759 Y89.098 E76.47006
G1 X44.413 Y90.55 E76.53956
G1 X44.405 Y90.58 E76.54101
G1 X44.285 Y92.1 E76.61201
G1 X44.405 Y93.62 E76.68301
G1 X44.759 Y95.102 E76.75396
G1 X45.344 Y96.51 E76.82495
G1 X46.14 Y97.811 E76.89597
G1 X47.13 Y98.97 E76.96695
G1 X48.289 Y99.96 E77.03792
G1 X49.59 Y100.756 E77.10894
G1 X49.618 Y100.767 E77.11034
G1 X50.998 Y101.341 E77.17994
G1 X52.45 Y101.687 E77.24944
G1 X52.48 Y101.695 E77.25089
G1 X54 Y101.815 E77.32189
G1 X55.52 Y101.695 E77.39288
G1 X57.002 Y101.341 E77.46383
G1 X58.41 Y100.756 E77.53483
G1 X59.711 Y99.96 E77.60585
G1 X60.87 Y98.97 E77.67683
G1 X61.86 Y97.811 E77.7478
G1 X62.656 Y96.51 E77.81882
G1 X62.667 Y96.482 E77.82022
G1 X63.241 Y95.102 E77.88982
G1 X63.587 Y93.65 E77.95932
G1 X63.595 Y93.62 E77.96077
G1 X63.715 Y92.1 E78.03177
G1 X63.595 Y90.58 E78.10276
G1 X63.241 Y89.098 E78.17371
G1 X62.656 Y87.69 E78.24471
G1 X61.86 Y86.389 E78.31573
G1 X60.87 Y85.23 E78.3867
G1 X59.711 Y84.24 E78.45768
G1 X58.41 Y83.444 E78.5287
G1 X58.382 Y83.433 E78.5301
G1 X57.002 Y82.859 E78.5997
G1 X55.55 Y82.513 E78.6692
G1 X55.52 Y82.505 E78.67065
G1 X54 Y82.385 E78.74164
G1 X52.48 Y82.505 E78.81264
G1 X50.998 Y82.859 E78.88359
G1 X49.59 Y83.444 E78.95459
G0 F6000 X49.772 Y83.801
G1 F1200 X48.525 Y84.565 E79.02268
G1 X47.414 Y85.514 E79.09072
G1 X46.465 Y86.625 E79.15876
G1 X45.701 Y87.872 E79.22685
G1 X45.141 Y89.222 E79.29491
G1 X44.801 Y90.643 E79.36295
G1 X44.686 Y92.1 E79.431
G1 X44.801 Y93.557 E79.49906
G1 X45.141 Y94.978 E79.56709
G1 X45.701 Y96.328 E79.63515
G1 X46.465 Y97.575 E79.70324
G1 X47.414 Y98.686 E79.77128
G1 X48.525 Y99.635 E79.83932
G1 X49.772 Y100.399 E79.90741
G1 X51.122 Y100.959 E79.97547
G1 X52.543 Y101.299 E80.0435
G1 X54 Y101.414 E80.11156
G1 X55.457 Y101.299 E80.17961
G1 X56.878 Y100.959 E80.24765
G1 X58.228 Y100.399 E80.31571
G1 X59.475 Y99.635 E80.3838
G1 X60.586 Y98.686 E80.45184
G1 X61.535 Y97.575 E80.51988
G1 X62.299 Y96.328 E80.58797
G1 X62.859 Y94.978 E80.65603
G1 X63.199 Y93.557 E80.72406
G1 X63.314 Y92.1 E80.79212
G1 X63.199 Y90.643 E80.86017
G1 X62.859 Y89.222 E80.92821
G1 X62.299 Y87.872 E80.99626
G1 X61.535 Y86.625 E81.06436
G1 X60.586 Y85.514 E81.1324
G1 X59.475 Y84.565 E81.20043
G1 X58.228 Y83.801 E81.26853
G1 X56.878 Y83.241 E81.33659
G1 X55.457 Y82.901 E81.40462
G1 X54 Y82.786 E81.47268
G1 X52.543 Y82.901 E81.54073
G1 X51.122 Y83.241 E81.60877
G1 X49.772 Y83.801 E81.67682
G0 F6000 X49.954 Y84.158
;TYPE:WALL-OUTER
G1 F1200 X48.761 Y84.89 E81.742
G1 X47.698 Y85.798 E81.80709
G1 X46.79 Y86.861 E81.87219
G1 X46.058 Y88.054 E81.93737
G1 X45.523 Y89.346 E82.00248
G1 X45.197 Y90.706 E82.0676
G1 X45.087 Y92.1 E82.13271
G1 X45.197 Y93.494 E82.19783
G1 X45.523 Y94.854 E82.26295
G1 X46.058 Y96.146 E82.32806
G1 X46.79 Y97.339 E82.39324
G1 X47.698 Y98.402 E82.45833
G1 X48.761 Y99.31 E82.52343
G1 X49.954 Y100.042 E82.58861
G1 X51.246 Y100.577 E82.65372
G1 X52.606 Y100.903 E82.71884
G1 X54 Y101.013 E82.78395
G1 X55.394 Y100.903 E82.84907
G1 X56.754 Y100.577 E82.91419
G1 X58.046 Y100.042 E82.9793
G1 X59.239 Y99.31 E83.04448
G1 X60.302 Y98.402 E83.10957
G1 X61.21 Y97.339 E83.17467
G1 X61.942 Y96.146 E83.23985
G1 X62.477 Y94.854 E83.30496
G1 X62.803 Y93.494 E83.37008
G1 X62.913 Y92.1 E83.43519
G1 X62.803 Y90.706 E83.50031
G1 X62.477 Y89.346 E83.56543
G1 X61.942 Y88.054 E83.63054
G1 X61.21 Y86.861 E83.69572
G1 X60.302 Y85.798 E83.76081
G1 X59.239 Y84.89 E83.82591
G1 X58.046 Y84.158 E83.89109
G1 X56.754 Y83.623 E83.9562
G1 X55.394 Y83.297 E84.02132
G1 X54 Y83.187 E84.08643
G1 X52.606 Y83.297 E84.15155
G1 X51.246 Y83.623 E84.21667
G1 X49.954 Y84.158 E84.28178
G0 F6000 X49.755 Y83.766
G1 F2700 E79.28178
G0 F6000 X52.583 Y83.159
G0 X54 Y83.048
G0 X55.417 Y83.159
G0 X56.799 Y83.49
G0 X58.111 Y84.035
G0 X59.318 Y84.775
G0 X60.4 Y85.7
G0 X60.923 Y86.312
G0 X64.18 Y90.487
G0 X61.947 Y90.843
G0 X71.424 Y91.063
G0 X69.175 Y90.886
G0 X69.271 Y92.1
;TYPE:WALL-INNER
G1 F2700 E84.28178
G1 F1200 X69.397 Y93.685 E84.35582
G1 X69.765 Y95.23 E84.42977
G1 X70.376 Y96.698 E84.50381
G1 X71.204 Y98.054 E84.5778
G1 X72.237 Y99.263 E84.65184
G1 X73.446 Y100.296 E84.72589
G1 X74.802 Y101.124 E84.79987
G1 X74.83 Y101.135 E84.80127
G1 X76.27 Y101.735 E84.87391
G1 X77.785 Y102.095 E84.94642
G1 X77.815 Y102.103 E84.94787
G1 X79.4 Y102.229 E85.0219
G1 X80.985 Y102.103 E85.09594
G1 X82.53 Y101.735 E85.1699
G1 X83.998 Y101.124 E85.24394
G1 X85.354 Y100.296 E85.31792
G1 X86.563 Y99.263 E85.39197
G1 X87.596 Y98.054 E85.46601
G1 X88.424 Y96.698 E85.53999
G1 X88.435 Y96.67 E85.54139
G1 X89.035 Y95.23 E85.61403
G1 X89.395 Y93.715 E85.68654
G1 X89.403 Y93.685 E85.68799
G1 X89.529 Y92.1 E85.76203
G1 X89.403 Y90.515 E85.83606
G1 X89.035 Y88.97 E85.91002
G1 X88.424 Y87.502 E85.98406
G1 X87.596 Y86.146 E86.05804
G1 X86.563 Y84.937 E86.13209
G1 X85.354 Y83.904 E86.20613
G1 X83.998 Y83.076 E86.28012
G1 X83.97 Y83.065 E86.28152
G1 X82.53 Y82.465 E86.35416
G1 X81.015 Y82.105 E86.42667
G1 X80.985 Y82.097 E86.42811
G1 X79.4 Y81.971 E86.50215
G1 X77.815 Y82.097 E86.57619
G1 X76.27 Y82.465 E86.65014
G1 X74.802 Y83.076 E86.72418
G1 X73.446 Y83.904 E86.79816
G1 X72.237 Y84.937 E86.87221
G1 X71.204 Y86.146 E86.94626
G1 X70.376 Y87.502 E87.02024
G1 X70.365 Y87.53 E87.02164
G1 X69.765 Y88.97 E87.09428
G1 X69.405 Y90.485 E87.16679
G1 X69.397 Y90.515 E87.16823
G1 X69.271 Y92.1 E87.24227
G0 F6000 X69.672 Y92.1
G1 F1200 X69.793 Y93.622 E87.31336
G1 X70.147 Y95.106 E87.3844
G1 X70.733 Y96.516 E87.4555
G1 X71.529 Y97.818 E87.52656
G1 X72.521 Y98.979 E87.59767
G1 X73.682 Y99.971 E87.66878
G1 X74.984 Y100.767 E87.73984
G1 X75.012 Y100.778 E87.74124
G1 X76.394 Y101.353 E87.81094
G1 X77.848 Y101.699 E87.88053
G1 X77.878 Y101.707 E87.88198
G1 X79.4 Y101.828 E87.95307
