;FLAVOR:Marlin
;TIME:1393
;Filament used: 1.13802m
;Layer height: 0.28
;MINX:86
;MINY:95
;MINZ:0.28
;MAXX:149
;MAXY:140
;MAXZ:8.96
;Generated with Cura_SteamEngine 4.6.1
M140 S50
M105
M190 S50
M104 S210
M105
M109 S210
M82 ;absolute extrusion mode
; Ender 3 Custom Start G-code
G92 E0 ; Reset Extruder
G28 ; Home all axes
G1 Z2.0 F3000 ; Move Z Axis up little to prevent scratching of Heat Bed
G1 X0.1 Y20 Z0.3 F5000.0 ; Move to start position
G1 X0.1 Y200.0 Z0.3 F1500.0 E15 ; Draw the first line
G1 X0.4 Y200.0 Z0.3 F5000.0 ; Move to side a little
G1 X0.4 Y20 Z0.3 F1500.0 E30 ; Draw the second line
G92 E0 ; Reset Extruder
G1 Z2.0 F3000 ; Move Z Axis up little to prevent scratching of Heat Bed
G1 X5 Y20 Z0.3 F5000.0 ; Move over to prevent blob squish
G92 E0
G92 E0
G1 F2700 E-5
;LAYER_COUNT:32
;LAYER:0
M107
G0 F6000 X138.137 Y95.811 Z0.28
;TYPE:SKIRT
G1 F2700 E0
G1 F1200 X139.039 Y95.864 E0.04207
G1 X139.932 Y95.996 E0.08411
G1 X140.81 Y96.207 E0.12615
G1 X141.666 Y96.495 E0.16821
G1 X142.493 Y96.857 E0.21025
G1 X143.285 Y97.292 E0.25232
G1 X144.036 Y97.794 E0.29438
G1 X144.739 Y98.361 E0.33644
G1 X145.389 Y98.988 E0.37849
G1 X145.981 Y99.67 E0.42054
G1 X146.511 Y100.401 E0.46259
G1 X146.973 Y101.177 E0.50464
G1 X147.366 Y101.99 E0.54669
G1 X147.684 Y102.835 E0.58873
G1 X147.927 Y103.705 E0.63079
G1 X148.092 Y104.593 E0.67285
G1 X148.187 Y105.723 E0.72565
G1 X148.2 Y106.33 E0.75392
G1 X148.199 Y128.39 E1.78113
G1 X148.19 Y129.117 E1.81498
G1 X148.139 Y130.019 E1.85705
G1 X148.008 Y130.913 E1.89912
G1 X147.799 Y131.791 E1.94115
G1 X147.513 Y132.648 E1.98322
G1 X147.152 Y133.476 E2.02528
G1 X146.72 Y134.268 E2.06729
G1 X146.219 Y135.02 E2.10936
G1 X145.653 Y135.724 E2.15142
G1 X145.028 Y136.375 E2.19345
G1 X144.347 Y136.969 E2.23552
G1 X143.616 Y137.5 E2.27759
G1 X142.842 Y137.964 E2.31961
G1 X142.029 Y138.358 E2.36168
G1 X141.185 Y138.678 E2.40371
G1 X140.315 Y138.923 E2.4458
G1 X139.428 Y139.089 E2.48782
G1 X138.277 Y139.187 E2.54161
G1 X137.666 Y139.2 E2.57007
G1 X134.969 Y139.199 E2.69565
G1 X97.679 Y139.199 E4.43203
G1 X96.978 Y139.189 E4.46467
G1 X96.076 Y139.136 E4.50675
G1 X95.183 Y139.004 E4.54878
G1 X94.304 Y138.793 E4.59087
G1 X93.448 Y138.505 E4.63293
G1 X92.621 Y138.143 E4.67496
G1 X91.829 Y137.709 E4.71702
G1 X91.079 Y137.206 E4.75907
G1 X90.376 Y136.639 E4.80112
G1 X89.862 Y136.156 E4.83396
G1 X89.247 Y135.495 E4.876
G1 X88.692 Y134.782 E4.91808
G1 X88.202 Y134.023 E4.96014
G1 X87.782 Y133.224 E5.00218
G1 X87.434 Y132.391 E5.04421
G1 X87.161 Y131.53 E5.08627
G1 X86.965 Y130.648 E5.12834
G1 X86.848 Y129.753 E5.17037
G1 X86.811 Y129.049 E5.2032
G1 X86.8 Y128.278 E5.2391
G1 X86.801 Y106.653 E6.24605
G1 X86.811 Y105.975 E6.27763
G1 X86.864 Y105.073 E6.3197
G1 X86.997 Y104.18 E6.36174
G1 X87.209 Y103.302 E6.4038
G1 X87.497 Y102.446 E6.44586
G1 X87.859 Y101.619 E6.48789
G1 X88.294 Y100.827 E6.52997
G1 X88.797 Y100.077 E6.57202
G1 X89.364 Y99.374 E6.61407
G1 X89.782 Y98.926 E6.6426
G1 X90.437 Y98.305 E6.68463
G1 X91.145 Y97.744 E6.72669
G1 X91.9 Y97.248 E6.76876
G1 X92.695 Y96.82 E6.8108
G1 X93.525 Y96.465 E6.85283
G1 X94.384 Y96.184 E6.89492
G1 X95.264 Y95.981 E6.93697
G1 X96.158 Y95.856 E6.979
G1 X96.938 Y95.812 E7.01538
G1 X97.679 Y95.8 E7.04989
G1 X137.439 Y95.801 E8.90128
G1 X138.137 Y95.811 E8.93379
G0 F6000 X138.143 Y95.411
G1 F1200 X139.062 Y95.464 E8.97665
G1 X139.973 Y95.597 E9.01952
G1 X140.869 Y95.808 E9.06238
G1 X141.743 Y96.096 E9.10523
G1 X142.59 Y96.459 E9.14814
G1 X143.401 Y96.894 E9.191
G1 X144.171 Y97.398 E9.23385
G1 X144.895 Y97.967 E9.27673
G1 X145.567 Y98.597 E9.31962
G1 X146.182 Y99.282 E9.36248
G1 X146.735 Y100.018 E9.40535
G1 X147.222 Y100.799 E9.44821
G1 X147.639 Y101.62 E9.49109
G1 X147.984 Y102.474 E9.53397
G1 X148.253 Y103.354 E9.57682
G1 X148.445 Y104.255 E9.61972
G1 X148.558 Y105.168 E9.66256
G1 X148.587 Y105.712 E9.68792
G1 X148.6 Y106.33 E9.71671
G1 X148.599 Y128.395 E10.74414
G1 X148.59 Y129.122 E10.778
G1 X148.539 Y130.041 E10.82086
G1 X148.408 Y130.953 E10.86376
G1 X148.198 Y131.849 E10.90661
G1 X147.912 Y132.724 E10.94948
G1 X147.551 Y133.571 E10.99235
G1 X147.117 Y134.383 E11.03522
G1 X146.615 Y135.155 E11.0781
G1 X146.047 Y135.88 E11.12099
G1 X145.419 Y136.553 E11.16385
G1 X144.735 Y137.169 E11.20671
G1 X144 Y137.723 E11.24957
G1 X143.22 Y138.212 E11.29244
G1 X142.4 Y138.631 E11.33531
G1 X141.547 Y138.977 E11.37818
G1 X140.667 Y139.248 E11.42105
G1 X139.767 Y139.441 E11.46391
G1 X138.853 Y139.556 E11.50681
G1 X138.288 Y139.587 E11.53316
G1 X137.666 Y139.6 E11.56213
G1 X134.969 Y139.599 E11.68771
G1 X97.673 Y139.599 E13.42437
G1 X96.972 Y139.589 E13.45701
G1 X96.053 Y139.536 E13.49988
G1 X95.142 Y139.403 E13.54275
G1 X94.246 Y139.192 E13.58561
G1 X93.371 Y138.904 E13.6285
G1 X92.525 Y138.541 E13.67137
G1 X91.714 Y138.106 E13.71422
G1 X90.943 Y137.602 E13.75711
G1 X90.219 Y137.033 E13.79999
G1 X89.695 Y136.552 E13.83311
G1 X89.582 Y136.441 E13.84049
G1 X88.954 Y135.768 E13.88335
G1 X88.386 Y135.043 E13.92624
G1 X87.884 Y134.271 E13.96911
G1 X87.451 Y133.459 E14.01196
G1 X87.089 Y132.612 E14.05486
G1 X86.803 Y131.737 E14.09772
G1 X86.593 Y130.841 E14.14057
G1 X86.462 Y129.93 E14.18343
G1 X86.411 Y129.055 E14.22424
G1 X86.4 Y128.278 E14.26043
G1 X86.401 Y106.647 E15.26766
G1 X86.411 Y105.969 E15.29923
G1 X86.465 Y105.05 E15.3421
G1 X86.598 Y104.139 E15.38497
G1 X86.809 Y103.243 E15.42783
G1 X87.098 Y102.368 E15.47074
G1 X87.461 Y101.522 E15.5136
G1 X87.897 Y100.711 E15.55648
G1 X88.401 Y99.941 E15.59933
G1 X88.97 Y99.217 E15.64221
G1 X89.494 Y98.648 E15.67823
G1 X90.162 Y98.014 E15.72111
G1 X90.882 Y97.441 E15.76396
G1 X91.649 Y96.932 E15.80682
G1 X92.457 Y96.491 E15.84968
G1 X93.301 Y96.122 E15.89258
G1 X94.173 Y95.828 E15.93543
G1 X95.068 Y95.611 E15.97831
G1 X95.978 Y95.472 E16.02117
G1 X96.931 Y95.412 E16.06564
G1 X97.679 Y95.4 E16.10047
G1 X137.445 Y95.401 E17.95214
G1 X138.143 Y95.411 E17.98465
G0 F6000 X138.149 Y95.011
G1 F1200 X139.085 Y95.065 E18.0283
G1 X140.013 Y95.197 E18.07195
G1 X140.927 Y95.409 E18.11564
G1 X141.819 Y95.698 E18.1593
G1 X142.684 Y96.061 E18.20298
G1 X143.514 Y96.497 E18.24664
G1 X144.305 Y97.002 E18.29034
G1 X145.049 Y97.573 E18.33401
G1 X145.742 Y98.205 E18.37768
G1 X146.379 Y98.893 E18.42134
G1 X146.954 Y99.634 E18.46501
G1 X147.465 Y100.42 E18.50867
G1 X147.907 Y101.248 E18.55237
G1 X148.276 Y102.11 E18.59603
G1 X148.571 Y103 E18.63969
G1 X148.789 Y103.912 E18.68336
G1 X148.929 Y104.84 E18.72706
G1 X148.987 Y105.701 E18.76724
G1 X149 Y106.33 E18.79653
G1 X148.999 Y128.4 E19.82421
G1 X148.99 Y129.127 E19.85806
G1 X148.939 Y130.064 E19.90176
G1 X148.807 Y130.992 E19.9454
G1 X148.598 Y131.906 E19.98906
G1 X148.311 Y132.799 E20.03274
G1 X147.949 Y133.665 E20.07644
G1 X147.515 Y134.496 E20.1201
G1 X147.011 Y135.287 E20.16377
G1 X146.442 Y136.032 E20.20742
G1 X145.811 Y136.727 E20.25113
G1 X145.124 Y137.365 E20.29479
G1 X144.385 Y137.942 E20.33845
G1 X143.599 Y138.454 E20.38213
G1 X142.773 Y138.897 E20.42577
G1 X141.911 Y139.269 E20.46949
G1 X141.022 Y139.565 E20.51312
G1 X140.11 Y139.785 E20.5568
G1 X139.183 Y139.926 E20.60046
G1 X138.299 Y139.987 E20.64172
G1 X137.666 Y140 E20.67121
G1 X134.969 Y139.999 E20.79679
G1 X97.667 Y139.999 E22.53373
G1 X96.966 Y139.989 E22.56637
G1 X96.03 Y139.936 E22.61002
G1 X95.101 Y139.803 E22.65372
G1 X94.188 Y139.591 E22.69737
G1 X93.295 Y139.303 E22.74106
G1 X92.431 Y138.939 E22.78472
G1 X91.6 Y138.503 E22.82841
G1 X90.81 Y137.998 E22.87207
G1 X90.066 Y137.428 E22.91571
G1 X89.415 Y136.837 E22.95666
G1 X89.302 Y136.726 E22.96403
G1 X88.661 Y136.041 E23.00772
G1 X88.081 Y135.304 E23.05139
G1 X87.567 Y134.52 E23.09504
G1 X87.12 Y133.695 E23.13873
G1 X86.746 Y132.835 E23.1824
G1 X86.446 Y131.946 E23.22609
G1 X86.223 Y131.035 E23.26976
G1 X86.079 Y130.109 E23.3134
G1 X86.012 Y129.062 E23.36225
G1 X86 Y128.278 E23.39876
G1 X86.001 Y106.641 E24.40627
G1 X86.011 Y105.963 E24.43784
G1 X86.065 Y105.026 E24.48155
G1 X86.198 Y104.098 E24.5252
G1 X86.41 Y103.185 E24.56884
G1 X86.699 Y102.292 E24.61255
G1 X87.063 Y101.428 E24.6562
G1 X87.5 Y100.598 E24.69988
G1 X88.005 Y99.808 E24.74354
G1 X88.576 Y99.064 E24.78721
G1 X89.095 Y98.486 E24.82338
G1 X89.206 Y98.371 E24.83083
G1 X89.886 Y97.724 E24.87453
G1 X90.618 Y97.138 E24.91819
G1 X91.397 Y96.616 E24.96186
G1 X92.218 Y96.163 E25.00552
G1 X93.075 Y95.781 E25.04921
G1 X93.961 Y95.474 E25.09287
G1 X94.87 Y95.243 E25.13655
G1 X95.795 Y95.09 E25.1802
G1 X96.924 Y95.012 E25.2329
G1 X97.679 Y95 E25.26806
G1 X137.451 Y95.001 E27.12001
G1 X138.149 Y95.011 E27.15252
G1 F2700 E22.15252
G0 F6000 X127.123 Y109.342
G0 X127.127 Y109.8
G1 F2700 E27.15252
G1 F1200 X131.4 Y109.8 E27.35148
G1 X131.4 Y125.2 E28.06857
G1 X127.127 Y125.2 E28.26754
G1 X127.804 Y124.316 E28.31939
G1 X128.107 Y123.855 E28.34508
G1 X128.299 Y123.456 E28.36569
G1 X129.193 Y121.291 E28.47476
G1 X129.366 Y120.768 E28.50041
G1 X129.448 Y120.343 E28.52057
G1 X129.762 Y117.985 E28.63134
G1 X129.795 Y117.435 E28.65699
G1 X129.763 Y116.99 E28.67777
G1 X129.46 Y114.674 E28.78653
G1 X129.349 Y114.134 E28.8122
G1 X129.202 Y113.71 E28.8331
G1 X128.305 Y111.549 E28.94204
G1 X128.057 Y111.057 E28.9677
G1 X127.813 Y110.696 E28.98799
G1 X127.127 Y109.8 E29.04053
G0 F6000 X126.316 Y109.4
G1 F1200 X131.8 Y109.4 E29.29589
G1 X131.8 Y125.6 E30.05023
G1 X126.318 Y125.6 E30.3055
G1 X127.487 Y124.073 E30.39505
G1 X127.771 Y123.636 E30.41931
G1 X127.93 Y123.304 E30.43645
G1 X128.824 Y121.139 E30.54552
G1 X128.985 Y120.643 E30.5698
G1 X129.051 Y120.29 E30.58653
G1 X129.365 Y117.932 E30.69729
G1 X129.394 Y117.411 E30.72159
G1 X129.366 Y117.042 E30.73882
G1 X129.063 Y114.726 E30.84758
G1 X128.956 Y114.216 E30.87185
G1 X128.832 Y113.864 E30.88923
G1 X127.935 Y111.703 E30.99818
G1 X127.699 Y111.238 E31.02246
G1 X127.495 Y110.94 E31.03927
G1 X126.316 Y109.4 E31.12959
G0 F6000 X127.177 Y111.183
G1 F1200 X125.742 Y109.308 E31.23953
G1 X125.464 Y109 E31.25885
G1 X132.2 Y109 E31.5725
G1 X132.2 Y126 E32.3641
G1 X125.461 Y126 E32.67789
G1 X125.551 Y125.918 E32.68356
G1 X125.745 Y125.69 E32.6975
G1 X127.169 Y123.83 E32.80658
G1 X127.434 Y123.418 E32.82939
G1 X127.56 Y123.151 E32.84314
G1 X128.454 Y120.986 E32.9522
G1 X128.603 Y120.52 E32.97499
G1 X128.655 Y120.237 E32.98838
G1 X128.969 Y117.879 E33.09915
G1 X128.994 Y117.39 E33.12195
G1 X128.97 Y117.094 E33.13578
G1 X128.667 Y114.778 E33.24454
G1 X128.564 Y114.299 E33.26735
G1 X128.463 Y114.017 E33.2813
G1 X127.566 Y111.856 E33.39025
G1 X127.342 Y111.421 E33.41304
G1 X127.177 Y111.183 E33.42652
G0 F6000 X126.86 Y111.426
G1 F1200 X125.425 Y109.551 E33.53646
G1 X125.117 Y109.215 E33.55769
G1 X124.942 Y109.068 E33.56833
G1 X124.332 Y108.6 E33.60413
G1 X132.6 Y108.6 E33.98912
G1 X132.6 Y126.4 E34.81797
G1 X124.331 Y126.4 E35.20301
G1 X124.945 Y125.929 E35.23904
G1 X125.281 Y125.621 E35.26026
G1 X125.427 Y125.447 E35.27084
G1 X126.851 Y123.587 E35.37992
G1 X127.19 Y122.998 E35.41156
G1 X128.084 Y120.833 E35.52063
G1 X128.258 Y120.184 E35.55192
G1 X128.572 Y117.826 E35.66268
G1 X128.573 Y117.146 E35.69435
G1 X128.27 Y114.83 E35.80311
G1 X128.172 Y114.385 E35.82433
G1 X128.093 Y114.17 E35.83499
G1 X127.196 Y112.009 E35.94394
G1 X126.86 Y111.426 E35.97528
G0 F6000 X126.542 Y111.669
G1 F1200 X125.107 Y109.794 E36.08522
G1 X124.699 Y109.385 E36.11212
G1 X123.154 Y108.2 E36.20279
G1 X133 Y108.2 E36.66126
G1 X133 Y126.8 E37.52735
G1 X123.153 Y126.8 E37.98587
G1 X124.702 Y125.612 E38.07677
G1 X125.11 Y125.203 E38.10367
G1 X126.534 Y123.343 E38.21274
G1 X126.82 Y122.846 E38.23944
G1 X127.714 Y120.681 E38.34851
G1 X127.862 Y120.131 E38.37503
G1 X128.176 Y117.773 E38.4858
G1 X128.176 Y117.198 E38.51258
G1 X127.873 Y114.882 E38.62134
G1 X127.724 Y114.324 E38.64823
G1 X126.827 Y112.163 E38.75718
G1 X126.542 Y111.669 E38.78374
G0 F6000 X126.224 Y111.912
G1 F1200 X124.789 Y110.037 E38.89368
G1 X124.456 Y109.703 E38.91564
G1 X122.593 Y108.274 E39.02497
G1 X122.182 Y108.037 E39.04706
G1 X121.606 Y107.8 E39.07607
G1 X133.4 Y107.8 E39.62524
G1 X133.4 Y127.2 E40.52859
G1 X121.604 Y127.2 E41.07786
G1 X122.186 Y126.959 E41.10719
G1 X122.593 Y126.724 E41.12908
G1 X124.458 Y125.294 E41.23851
G1 X124.792 Y124.96 E41.2605
G1 X126.216 Y123.1 E41.36958
G1 X126.451 Y122.693 E41.39146
G1 X127.345 Y120.528 E41.50053
G1 X127.465 Y120.079 E41.52217
G1 X127.779 Y117.721 E41.63294
G1 X127.78 Y117.249 E41.65492
G1 X127.477 Y114.933 E41.76368
G1 X127.354 Y114.477 E41.78567
G1 X126.457 Y112.316 E41.89462
G1 X126.224 Y111.912 E41.91634
G0 F6000 X125.907 Y112.155
G1 F1200 X124.472 Y110.28 E42.02628
G1 X124.212 Y110.02 E42.0434
G1 X122.349 Y108.591 E42.15273
G1 X122.03 Y108.407 E42.16988
G1 X119.887 Y107.525 E42.27779
G1 X119.538 Y107.432 E42.29461
G1 X119.297 Y107.4 E42.30593
G1 X133.8 Y107.4 E42.98125
G1 X133.8 Y127.6 E43.92185
G1 X119.355 Y127.6 E44.59446
G1 X119.516 Y127.579 E44.60203
G1 X119.87 Y127.485 E44.61908
G1 X122.033 Y126.59 E44.72808
G1 X122.35 Y126.407 E44.74512
G1 X124.215 Y124.977 E44.85456
G1 X124.475 Y124.717 E44.87168
G1 X125.899 Y122.857 E44.98075
G1 X126.081 Y122.54 E44.99778
G1 X126.975 Y120.375 E45.10684
G1 X127.069 Y120.026 E45.12367
G1 X127.383 Y117.668 E45.23444
G1 X127.383 Y117.301 E45.25153
G1 X127.08 Y114.985 E45.36029
G1 X126.985 Y114.63 E45.3774
G1 X126.088 Y112.469 E45.48635
G1 X125.907 Y112.155 E45.50323
G0 F6000 X125.589 Y112.398
G1 F1200 X124.154 Y110.523 E45.61317
G1 X123.969 Y110.338 E45.62536
G1 X122.106 Y108.909 E45.73469
G1 X121.878 Y108.777 E45.74695
G1 X119.735 Y107.895 E45.85486
G1 X119.486 Y107.829 E45.86686
G1 X117.12 Y107.515 E45.97799
G1 X116.858 Y107.514 E45.99019
G1 X114.542 Y107.817 E46.09895
G1 X114.291 Y107.885 E46.11106
G1 X112.11 Y108.785 E46.22093
G1 X111.882 Y108.915 E46.23315
G1 X110.029 Y110.336 E46.34188
G1 X109.844 Y110.522 E46.3541
G1 X108.415 Y112.389 E46.46357
G1 X108.285 Y112.616 E46.47576
G1 X107.388 Y114.79 E46.58526
G1 X107.321 Y115.039 E46.59727
G1 X107.012 Y117.368 E46.70667
G1 X107.012 Y117.63 E46.71887
G1 X107.318 Y119.958 E46.8282
G1 X107.385 Y120.209 E46.8403
G1 X108.287 Y122.395 E46.95041
G1 X108.418 Y122.623 E46.96266
G1 X109.833 Y124.465 E47.07082
G1 X110.019 Y124.65 E47.08303
G1 X111.896 Y126.085 E47.19305
G1 X112.121 Y126.215 E47.20515
G1 X114.275 Y127.104 E47.31365
G1 X114.525 Y127.171 E47.32571
G1 X116.882 Y127.485 E47.43643
G1 X117.143 Y127.486 E47.44858
G1 X119.464 Y127.183 E47.55757
G1 X119.717 Y127.115 E47.56977
G1 X121.88 Y126.22 E47.67877
G1 X122.106 Y126.09 E47.69091
G1 X123.971 Y124.66 E47.80034
G1 X124.157 Y124.474 E47.81259
G1 X125.581 Y122.614 E47.92167
G1 X125.711 Y122.388 E47.93381
G1 X126.605 Y120.223 E48.04288
G1 X126.672 Y119.973 E48.05493
G1 X126.986 Y117.615 E48.1657
G1 X126.987 Y117.353 E48.1779
G1 X126.684 Y115.037 E48.28666
G1 X126.616 Y114.784 E48.29886
G1 X125.719 Y112.623 E48.40781
G1 X125.589 Y112.398 E48.41991
G0 F6000 X125.271 Y112.641
G1 F1200 X123.836 Y110.766 E48.52985
G1 X123.725 Y110.655 E48.53716
G1 X121.862 Y109.226 E48.64649
G1 X121.725 Y109.147 E48.65385
G1 X119.582 Y108.265 E48.76176
G1 X119.433 Y108.225 E48.76895
G1 X117.067 Y107.911 E48.88008
G1 X116.91 Y107.911 E48.88739
G1 X114.594 Y108.214 E48.99616
G1 X114.443 Y108.254 E49.00343
G1 X112.262 Y109.154 E49.11329
G1 X112.126 Y109.233 E49.12062
G1 X110.273 Y110.654 E49.22935
G1 X110.162 Y110.765 E49.23666
G1 X108.733 Y112.632 E49.34614
G1 X108.654 Y112.768 E49.35346
G1 X107.757 Y114.942 E49.46297
G1 X107.717 Y115.092 E49.4702
G1 X107.408 Y117.421 E49.5796
G1 X107.408 Y117.578 E49.58691
G1 X107.714 Y119.906 E49.69624
G1 X107.754 Y120.057 E49.70351
G1 X108.656 Y122.243 E49.81363
G1 X108.735 Y122.38 E49.82099
G1 X110.15 Y124.222 E49.92915
G1 X110.262 Y124.333 E49.93649
G1 X112.139 Y125.768 E50.04651
G1 X112.274 Y125.846 E50.05377
G1 X114.428 Y126.735 E50.16228
G1 X114.578 Y126.775 E50.1695
G1 X116.935 Y127.089 E50.28023
G1 X117.092 Y127.089 E50.28754
G1 X119.413 Y126.786 E50.39653
G1 X119.564 Y126.745 E50.40381
G1 X121.727 Y125.85 E50.51281
G1 X121.863 Y125.772 E50.52012
G1 X123.728 Y124.342 E50.62955
G1 X123.839 Y124.231 E50.63686
G1 X125.263 Y122.371 E50.74593
G1 X125.342 Y122.235 E50.75326
G1 X126.236 Y120.07 E50.86233
G1 X126.276 Y119.92 E50.86955
