;FLAVOR:Marlin
;TIME:3309
;Filament used: 3.08678m
;Layer height: 0.28
;MINX:79.031
;MINY:98.393
;MINZ:0.28
;MAXX:145.982
;MAXY:158.641
;MAXZ:25.2
;Generated with Cura_SteamEngine 4.5.0
M140 S65
M105
M190 S65
M104 S215
M105
M109 S215
M82 ;absolute extrusion mode
; Ender 3 Custom Start G-code
G92 E0 ; Reset Extruder
G28 ; Home all axes
G1 Z2.0 F3000 ; Move Z Axis up little to prevent scratching of Heat Bed
G1 X0.1 Y20 Z0.3 F5000.0 ; Move to start position
G1 X0.1 Y200.0 Z0.3 F1500.0 E15 ; Draw the first line
G1 X0.4 Y200.0 Z0.3 F5000.0 ; Move to side a little
G1 X0.4 Y20 Z0.3 F1500.0 E30 ; Draw the second line
G92 E0 ; Reset Extruder
G1 Z2.0 F3000 ; Move Z Axis up little to prevent scratching of Heat Bed
G1 X5 Y20 Z0.3 F5000.0 ; Move over to prevent blob squish
G92 E0
G92 E0
G1 F2700 E-5
;LAYER_COUNT:90
;LAYER:0
M107
G0 F6000 X94.718 Y101.254 Z0.28
;TYPE:SKIRT
G1 F2700 E0
G1 F1200 X95.437 Y100.653 E0.04364
G1 X96.206 Y100.115 E0.08734
G1 X97.017 Y99.645 E0.13098
G1 X97.866 Y99.245 E0.17468
G1 X98.745 Y98.919 E0.21834
G1 X99.649 Y98.67 E0.262
G1 X100.571 Y98.498 E0.30567
G1 X101.505 Y98.405 E0.34938
G1 X102.442 Y98.393 E0.39301
G1 X103.378 Y98.46 E0.43671
G1 X104.304 Y98.606 E0.48036
G1 X104.835 Y98.727 E0.50572
G1 X107.835 Y99.487 E0.64982
G1 X110.29 Y100.041 E0.76701
G1 X112.751 Y100.52 E0.88376
G1 X115.199 Y100.928 E0.99932
G1 X117.753 Y101.279 E1.11936
G1 X120.203 Y101.546 E1.23412
G1 X122.749 Y101.75 E1.35305
G1 X125.212 Y101.877 E1.46789
G1 X128.696 Y101.943 E1.63015
G1 X134.433 Y101.944 E1.89729
G1 X135.131 Y101.954 E1.9298
G1 X136.067 Y102.008 E1.97345
G1 X136.995 Y102.14 E2.0171
G1 X137.909 Y102.352 E2.06079
G1 X138.801 Y102.641 E2.10445
G1 X139.666 Y103.004 E2.14813
G1 X140.496 Y103.44 E2.19179
G1 X141.287 Y103.945 E2.23549
G1 X142.031 Y104.516 E2.27916
G1 X142.724 Y105.148 E2.32283
G1 X143.361 Y105.836 E2.36649
G1 X143.936 Y106.577 E2.41016
G1 X144.447 Y107.363 E2.45382
G1 X144.889 Y108.191 E2.49752
G1 X145.258 Y109.053 E2.54118
G1 X145.553 Y109.943 E2.58484
G1 X145.771 Y110.855 E2.6285
G1 X145.911 Y111.783 E2.6722
G1 X145.969 Y112.644 E2.71239
G1 X145.982 Y113.273 E2.74168
G1 X145.981 Y125.094 E3.29212
G1 X145.971 Y125.792 E3.32462
G1 X145.917 Y126.728 E3.36828
G1 X145.785 Y127.656 E3.41193
G1 X145.573 Y128.57 E3.45562
G1 X145.284 Y129.462 E3.49928
G1 X144.921 Y130.327 E3.54296
G1 X144.536 Y131.069 E3.58188
G1 X144.215 Y131.628 E3.6119
G1 X143.281 Y133.194 E3.6968
G1 X142.047 Y135.401 E3.81454
G1 X140.882 Y137.634 E3.93182
G1 X139.787 Y139.883 E4.0483
G1 X138.736 Y142.207 E4.16706
G1 X137.781 Y144.488 E4.28221
G1 X136.856 Y146.882 E4.40172
G1 X136.028 Y149.232 E4.51773
G1 X135.682 Y150.303 E4.57014
G1 X135.391 Y151.162 E4.61237
G1 X135.053 Y152.037 E4.65605
G1 X134.641 Y152.88 E4.69974
G1 X134.159 Y153.684 E4.74339
G1 X133.61 Y154.445 E4.78709
G1 X132.999 Y155.156 E4.83074
G1 X132.329 Y155.812 E4.8744
G1 X131.605 Y156.409 E4.9181
G1 X130.833 Y156.942 E4.96178
G1 X130.019 Y157.407 E5.00543
G1 X129.168 Y157.802 E5.04912
G1 X128.287 Y158.122 E5.09276
G1 X127.381 Y158.366 E5.13645
G1 X126.458 Y158.532 E5.18012
G1 X125.305 Y158.628 E5.234
G1 X125.04 Y158.636 E5.24634
G1 X124.708 Y158.641 E5.2618
G1 X104.031 Y158.64 E6.22461
G1 X103.365 Y158.631 E6.25563
G1 X102.429 Y158.578 E6.29928
G1 X101.5 Y158.446 E6.34297
G1 X100.836 Y158.301 E6.37462
G1 X99.631 Y157.996 E6.4325
G1 X87.671 Y154.747 E7.00959
G1 X87.012 Y154.559 E7.0415
G1 X86.122 Y154.263 E7.08517
G1 X85.261 Y153.893 E7.12881
G1 X84.433 Y153.451 E7.17251
G1 X83.647 Y152.94 E7.21617
G1 X82.907 Y152.363 E7.25986
G1 X82.219 Y151.726 E7.30352
G1 X81.588 Y151.033 E7.34716
G1 X81.018 Y150.288 E7.39084
G1 X80.513 Y149.497 E7.43454
G1 X80.078 Y148.667 E7.47818
G1 X79.715 Y147.802 E7.52186
G1 X79.427 Y146.909 E7.56555
G1 X79.216 Y145.995 E7.60923
G1 X79.084 Y145.067 E7.65287
G1 X79.031 Y144.131 E7.69653
G1 X79.058 Y143.193 E7.74022
G1 X79.152 Y142.344 E7.78
G1 X79.278 Y141.518 E7.8189
G1 X79.963 Y137.425 E8.01214
G1 X80.025 Y137.105 E8.02732
G1 X80.485 Y134.535 E8.14889
G1 X80.753 Y132.806 E8.23036
G1 X80.934 Y131.565 E8.28876
G1 X81.167 Y130.171 E8.35457
G1 X81.3 Y129.431 E8.38958
G1 X81.506 Y128.516 E8.43325
G1 X81.788 Y127.622 E8.4769
G1 X82.145 Y126.755 E8.52056
G1 X82.653 Y125.788 E8.57143
G1 X84.056 Y123.41 E8.69999
G1 X85.263 Y121.221 E8.81639
G1 X86.425 Y118.965 E8.93455
G1 X87.503 Y116.718 E9.0506
G1 X88.541 Y114.39 E9.16929
G1 X89.504 Y112.056 E9.28686
G1 X90.384 Y109.729 E9.4027
G1 X91.276 Y107.148 E9.52986
G1 X91.683 Y105.922 E9.59001
G1 X92.016 Y105.046 E9.63365
G1 X92.423 Y104.2 E9.67736
G1 X92.9 Y103.393 E9.72101
G1 X93.444 Y102.629 E9.76469
G1 X94.052 Y101.914 E9.80839
G1 X94.718 Y101.254 E9.85205
G0 F6000 X95.062 Y101.482
G1 F1200 X95.775 Y100.899 E9.89493
G1 X96.535 Y100.38 E9.93779
G1 X97.338 Y99.929 E9.98067
G1 X98.177 Y99.55 E10.02354
G1 X99.045 Y99.245 E10.06638
G1 X99.937 Y99.016 E10.10926
G1 X100.845 Y98.865 E10.15212
G1 X101.763 Y98.794 E10.195
G1 X102.684 Y98.803 E10.23789
G1 X103.6 Y98.891 E10.28074
G1 X104.736 Y99.115 E10.33465
G1 X107.728 Y99.873 E10.47837
G1 X110.23 Y100.437 E10.5978
G1 X112.645 Y100.908 E10.71237
G1 X115.184 Y101.331 E10.83223
G1 X117.656 Y101.671 E10.94842
G1 X120.195 Y101.947 E11.06734
G1 X122.697 Y102.147 E11.18421
G1 X125.214 Y102.277 E11.30157
G1 X128.688 Y102.343 E11.46337
G1 X134.427 Y102.344 E11.7306
G1 X135.125 Y102.354 E11.7631
G1 X136.044 Y102.407 E11.80597
G1 X136.955 Y102.54 E11.84884
G1 X137.851 Y102.751 E11.8917
G1 X138.725 Y103.039 E11.93455
G1 X139.572 Y103.402 E11.97746
G1 X140.383 Y103.837 E12.02031
G1 X141.153 Y104.341 E12.06316
G1 X141.877 Y104.91 E12.10604
G1 X142.549 Y105.54 E12.14893
G1 X143.164 Y106.225 E12.1918
G1 X143.717 Y106.961 E12.23467
G1 X144.204 Y107.742 E12.27752
G1 X144.621 Y108.563 E12.3204
G1 X144.966 Y109.417 E12.36329
G1 X145.235 Y110.297 E12.40614
G1 X145.427 Y111.198 E12.44903
G1 X145.54 Y112.111 E12.49187
G1 X145.569 Y112.655 E12.51724
G1 X145.582 Y113.273 E12.54602
G1 X145.581 Y125.088 E13.09618
G1 X145.571 Y125.786 E13.12868
G1 X145.518 Y126.705 E13.17155
G1 X145.385 Y127.616 E13.21442
G1 X145.174 Y128.512 E13.25728
G1 X144.886 Y129.386 E13.30013
G1 X144.523 Y130.233 E13.34304
G1 X144.188 Y130.871 E13.37659
G1 X143.872 Y131.423 E13.40621
G1 X142.931 Y133 E13.49172
G1 X141.692 Y135.217 E13.60998
G1 X140.539 Y137.424 E13.72593
G1 X139.407 Y139.75 E13.84638
G1 X138.393 Y141.993 E13.961
G1 X137.399 Y144.369 E14.08093
G1 X136.482 Y146.742 E14.19939
G1 X135.646 Y149.113 E14.31645
G1 X135.304 Y150.175 E14.36841
G1 X135.013 Y151.034 E14.41064
G1 X134.68 Y151.892 E14.45349
G1 X134.273 Y152.719 E14.49641
G1 X133.797 Y153.506 E14.53924
G1 X133.254 Y154.25 E14.58213
G1 X132.649 Y154.944 E14.625
G1 X131.985 Y155.582 E14.66788
G1 X131.269 Y156.16 E14.71073
G1 X130.505 Y156.675 E14.75363
G1 X129.7 Y157.121 E14.79648
G1 X128.859 Y157.495 E14.83934
G1 X127.989 Y157.795 E14.88219
G1 X127.095 Y158.018 E14.92509
G1 X126.186 Y158.163 E14.96796
G1 X125.293 Y158.228 E15.00965
G1 X124.708 Y158.241 E15.0369
G1 X104.037 Y158.24 E15.99942
G1 X103.371 Y158.231 E16.03044
G1 X102.452 Y158.179 E16.0733
G1 X101.54 Y158.047 E16.11621
G1 X100.933 Y157.913 E16.14515
G1 X99.735 Y157.61 E16.20269
G1 X87.781 Y154.362 E16.7795
G1 X87.122 Y154.174 E16.81141
G1 X86.249 Y153.884 E16.85425
G1 X85.404 Y153.518 E16.89713
G1 X84.593 Y153.081 E16.94002
G1 X83.824 Y152.575 E16.98289
G1 X83.102 Y152.004 E17.02575
G1 X82.432 Y151.372 E17.06864
G1 X81.819 Y150.685 E17.11151
G1 X81.269 Y149.947 E17.15437
G1 X80.784 Y149.165 E17.19722
G1 X80.369 Y148.343 E17.24009
G1 X80.027 Y147.488 E17.28297
G1 X79.76 Y146.607 E17.32584
G1 X79.571 Y145.706 E17.36871
G1 X79.461 Y144.792 E17.41157
G1 X79.431 Y143.872 E17.45444
G1 X79.48 Y142.952 E17.49733
G1 X79.548 Y142.404 E17.52305
G1 X79.673 Y141.584 E17.56167
G1 X80.356 Y137.501 E17.75443
G1 X80.42 Y137.175 E17.7699
G1 X80.875 Y134.629 E17.89034
G1 X81.147 Y132.874 E17.97303
G1 X81.329 Y131.631 E18.03153
G1 X81.561 Y130.242 E18.0971
G1 X81.694 Y129.502 E18.13211
G1 X81.896 Y128.604 E18.17497
G1 X82.175 Y127.726 E18.21787
G1 X82.53 Y126.877 E18.26072
G1 X82.997 Y125.991 E18.30735
G1 X84.407 Y123.601 E18.43657
G1 X85.611 Y121.418 E18.55265
G1 X86.783 Y119.142 E18.67186
G1 X87.885 Y116.845 E18.79049
G1 X88.891 Y114.587 E18.90559
G1 X89.883 Y112.185 E19.0266
G1 X90.76 Y109.865 E19.14209
G1 X91.656 Y107.274 E19.26975
G1 X92.063 Y106.048 E19.3299
G1 X92.391 Y105.188 E19.37276
G1 X92.792 Y104.359 E19.41564
G1 X93.263 Y103.569 E19.45847
G1 X93.802 Y102.822 E19.50136
G1 X94.403 Y102.124 E19.54425
G1 X95.062 Y101.482 E19.58709
G0 F6000 X95.406 Y101.712
G1 F1200 X96.111 Y101.148 E19.62913
G1 X96.864 Y100.648 E19.67122
G1 X97.657 Y100.217 E19.71325
G1 X98.486 Y99.858 E19.75531
G1 X99.343 Y99.574 E19.79735
G1 X100.222 Y99.367 E19.8394
G1 X101.116 Y99.238 E19.88146
G1 X102.018 Y99.189 E19.92352
G1 X102.92 Y99.219 E19.96555
G1 X103.817 Y99.33 E20.00763
G1 X104.637 Y99.503 E20.04666
G1 X107.62 Y100.258 E20.18994
G1 X110.131 Y100.825 E20.3098
G1 X112.616 Y101.309 E20.42769
G1 X115.096 Y101.722 E20.54476
G1 X117.63 Y102.07 E20.66386
G1 X120.156 Y102.345 E20.78218
G1 X122.68 Y102.548 E20.90009
G1 X125.185 Y102.677 E21.01688
G1 X128.681 Y102.743 E21.1797
G1 X134.421 Y102.744 E21.44698
G1 X135.119 Y102.754 E21.47948
G1 X136.021 Y102.807 E21.52156
G1 X136.914 Y102.939 E21.56359
G1 X137.792 Y103.15 E21.60564
G1 X138.648 Y103.438 E21.64769
G1 X139.475 Y103.8 E21.68973
G1 X140.267 Y104.235 E21.7318
G1 X141.018 Y104.737 E21.77387
G1 X141.721 Y105.304 E21.81592
G1 X142.371 Y105.931 E21.85798
G1 X142.963 Y106.613 E21.90003
G1 X143.493 Y107.344 E21.94207
G1 X143.955 Y108.12 E21.98412
G1 X144.348 Y108.933 E22.02617
G1 X144.666 Y109.778 E22.06821
G1 X144.909 Y110.648 E22.11027
G1 X145.074 Y111.536 E22.15233
G1 X145.169 Y112.666 E22.20513
G1 X145.182 Y113.273 E22.2334
G1 X145.181 Y125.082 E22.78328
G1 X145.171 Y125.78 E22.81579
G1 X145.118 Y126.682 E22.85786
G1 X144.986 Y127.575 E22.89989
G1 X144.775 Y128.453 E22.94194
G1 X144.487 Y129.309 E22.984
G1 X144.125 Y130.136 E23.02603
G1 X143.84 Y130.673 E23.05434
G1 X143.528 Y131.218 E23.08358
G1 X142.597 Y132.78 E23.16825
G1 X141.341 Y135.026 E23.28808
G1 X140.169 Y137.271 E23.406
G1 X139.054 Y139.56 E23.52456
G1 X138.018 Y141.853 E23.64173
G1 X137.033 Y144.206 E23.7605
G1 X136.096 Y146.631 E23.88156
G1 X135.285 Y148.932 E23.99516
G1 X134.925 Y150.047 E24.04972
G1 X134.634 Y150.906 E24.09195
G1 X134.306 Y151.747 E24.13399
G1 X133.906 Y152.557 E24.17605
G1 X133.435 Y153.328 E24.21812
G1 X132.898 Y154.054 E24.26017
G1 X132.299 Y154.73 E24.30223
G1 X131.643 Y155.35 E24.34426
G1 X130.934 Y155.91 E24.38633
G1 X130.179 Y156.405 E24.42836
G1 X129.382 Y156.831 E24.47045
G1 X128.552 Y157.185 E24.51246
G1 X127.693 Y157.464 E24.55452
G1 X126.813 Y157.666 E24.59656
G1 X125.918 Y157.789 E24.63863
G1 X125.281 Y157.828 E24.66834
G1 X124.708 Y157.841 E24.69503
G1 X104.042 Y157.84 E25.65733
G1 X103.376 Y157.831 E25.68834
G1 X102.475 Y157.779 E25.73037
G1 X101.581 Y157.647 E25.77245
G1 X101.031 Y157.525 E25.79868
G1 X99.84 Y157.224 E25.85588
G1 X87.891 Y153.978 E26.43244
G1 X87.232 Y153.79 E26.46435
G1 X86.375 Y153.504 E26.50642
G1 X85.547 Y153.143 E26.54848
G1 X84.754 Y152.711 E26.59053
G1 X84.003 Y152.21 E26.63257
G1 X83.299 Y151.644 E26.67463
G1 X82.647 Y151.019 E26.71668
G1 X82.054 Y150.338 E26.75873
G1 X81.522 Y149.608 E26.80079
G1 X81.058 Y148.833 E26.84285
G1 X80.664 Y148.021 E26.88488
G1 X80.343 Y147.176 E26.92697
G1 X80.099 Y146.307 E26.969
G1 X79.932 Y145.42 E27.01103
G1 X79.844 Y144.521 E27.05309
G1 X79.836 Y143.618 E27.09514
G1 X79.944 Y142.463 E27.14915
G1 X80.067 Y141.65 E27.18744
G1 X80.748 Y137.578 E27.37968
G1 X80.808 Y137.268 E27.39438
G1 X81.273 Y134.674 E27.5171
G1 X81.533 Y132.993 E27.5963
G1 X81.724 Y131.696 E27.65735
G1 X81.955 Y130.313 E27.72264
G1 X82.088 Y129.573 E27.75765
G1 X82.287 Y128.692 E27.7997
G1 X82.563 Y127.832 E27.84176
G1 X82.914 Y127 E27.88381
G1 X83.342 Y126.195 E27.92626
G1 X84.736 Y123.833 E28.05397
G1 X85.981 Y121.574 E28.17408
G1 X87.135 Y119.334 E28.29141
G1 X88.233 Y117.045 E28.40962
G1 X89.274 Y114.71 E28.52867
G1 X90.247 Y112.353 E28.6474
G1 X91.141 Y109.989 E28.76509
G1 X92.035 Y107.4 E28.89263
G1 X92.442 Y106.174 E28.95278
G1 X92.765 Y105.331 E28.99482
G1 X93.16 Y104.519 E29.03686
G1 X93.626 Y103.745 E29.07893
G1 X94.159 Y103.016 E29.12098
G1 X94.753 Y102.336 E29.16302
G1 X95.406 Y101.712 E29.20508
G1 F2700 E24.20508
;MESH:Switch_Foot.stl
G0 F6000 X101.387 Y109.718
G0 X102.449 Y109.893
G0 X102.503 Y111.813
G0 X113.661 Y115.041
G0 X114.306 Y115.517
G0 X113.334 Y121.156
G0 X101.46 Y118.096
G0 X100.905 Y121.418
G0 X113.576 Y124.87
G0 X134.382 Y125.042
;TYPE:WALL-INNER
G1 F2700 E29.20508
G1 F1200 X134.008 Y125.041 E29.2225
G1 X113.552 Y125.041 E30.17501
G1 X100.7 Y121.55 E30.79514
G1 X101.277 Y118.083 E30.9588
G1 X101.312 Y117.869 E30.9689
G1 X101.522 Y117.923 E30.97525
G1 X112.979 Y120.876 E31.52618
G1 X113.187 Y120.929 E31.53617
G1 X113.224 Y120.718 E31.54249
G1 X114.185 Y115.225 E31.80215
G1 X113.731 Y114.893 E31.82834
G1 X102.298 Y111.947 E32.3781
G1 X102.565 Y110.344 E32.45377
G1 X102.601 Y110.127 E32.46401
G1 X102.813 Y110.184 E32.47044
G1 X115.244 Y113.543 E33.07004
G1 X134.382 Y113.543 E33.96118
G1 X134.382 Y125.042 E34.49663
G0 F6000 X134.782 Y125.443
;TYPE:WALL-OUTER
G1 F1200 X134.007 Y125.441 E34.53271
G1 X113.499 Y125.441 E35.48765
G1 X100.246 Y121.841 E36.12713
G1 X100.989 Y117.373 E36.33803
G1 X112.868 Y120.434 E36.90924
G1 X113.748 Y115.401 E37.14715
G1 X113.557 Y115.261 E37.15818
G1 X101.843 Y112.243 E37.72144
G1 X102.278 Y109.626 E37.84498
G1 X115.297 Y113.143 E38.47293
G1 X134.782 Y113.143 E39.38023
G1 X134.782 Y125.443 E39.95297
G0 F6000 X134.512 Y125.172
G0 X134.272 Y124.651
G0 X133.992 Y124.651
;TYPE:SKIN
G1 F1200 X113.602 Y124.651 E40.90241
G1 X101.142 Y121.266 E41.50363
G1 X101.626 Y118.353 E41.64113
G1 X113.499 Y121.412 E42.21204
G1 X114.61 Y115.053 E42.51263
G1 X113.901 Y114.534 E42.55354
G1 X102.741 Y111.658 E43.09018
G1 X102.915 Y110.615 E43.13942
G1 X115.192 Y113.933 E43.73159
G1 X133.992 Y113.933 E44.607
G1 X133.992 Y124.651 E45.10608
G0 F6000 X134.272 Y124.651
G0 X134.272 Y114.597
G0 X133.831 Y114.597
G1 F1200 X133.326 Y114.093 E45.1393
G0 F6000 X132.76 Y114.093
G1 F1200 X133.831 Y115.163 E45.20979
G0 F6000 X133.831 Y115.729
G1 F1200 X132.195 Y114.093 E45.31753
G0 F6000 X131.629 Y114.093
G1 F1200 X133.831 Y116.295 E45.46253
G0 F6000 X133.831 Y116.86
G1 F1200 X131.063 Y114.093 E45.64478
G0 F6000 X130.497 Y114.093
G1 F1200 X133.831 Y117.426 E45.86429
G0 F6000 X133.831 Y117.992
G1 F1200 X129.932 Y114.093 E46.12105
G0 F6000 X129.366 Y114.093
G1 F1200 X133.831 Y118.557 E46.41504
G0 F6000 X133.831 Y119.123
G1 F1200 X128.8 Y114.093 E46.74631
G0 F6000 X128.235 Y114.093
G1 F1200 X133.831 Y119.689 E47.11482
G0 F6000 X133.831 Y120.254
G1 F1200 X127.669 Y114.093 E47.52056
G0 F6000 X127.103 Y114.093
G1 F1200 X133.831 Y120.82 E47.96358
G0 F6000 X133.831 Y121.386
G1 F1200 X126.538 Y114.093 E48.44384
G0 F6000 X125.972 Y114.093
G1 F1200 X133.831 Y121.951 E48.96133
G0 F6000 X133.831 Y122.517
G1 F1200 X125.406 Y114.093 E49.5161
G0 F6000 X124.841 Y114.093
G1 F1200 X133.831 Y123.083 E50.10811
G0 F6000 X133.831 Y123.648
G1 F1200 X124.275 Y114.093 E50.73735
G0 F6000 X123.709 Y114.093
G1 F1200 X133.831 Y124.214 E51.40387
G0 F6000 X133.541 Y124.49
G1 F1200 X123.144 Y114.093 E52.08853
G0 F6000 X122.578 Y114.093
G1 F1200 X132.975 Y124.49 E52.77319
G0 F6000 X132.409 Y124.49
G1 F1200 X122.012 Y114.093 E53.45785
G0 F6000 X121.447 Y114.093
G1 F1200 X131.844 Y124.49 E54.14251
G0 F6000 X131.278 Y124.49
G1 F1200 X120.881 Y114.093 E54.82717
G0 F6000 X120.315 Y114.093
G1 F1200 X130.712 Y124.49 E55.51183
G0 F6000 X130.147 Y124.49
G1 F1200 X119.749 Y114.093 E56.19652
G0 F6000 X119.184 Y114.093
G1 F1200 X129.581 Y124.49 E56.88118
G0 F6000 X129.015 Y124.49
G1 F1200 X118.618 Y114.093 E57.56585
G0 F6000 X118.052 Y114.093
G1 F1200 X128.45 Y124.49 E58.25054
G0 F6000 X127.884 Y124.49
G1 F1200 X117.487 Y114.093 E58.9352
G0 F6000 X116.921 Y114.093
G1 F1200 X127.318 Y124.49 E59.61986
G0 F6000 X126.753 Y124.49
