;FLAVOR:Marlin
;TIME:4123
;Filament used: 3.44262m
;Layer height: 0.28
;MINX:73.499
;MINY:95.241
;MINZ:0.28
;MAXX:161.5
;MAXY:142.02
;MAXZ:29.4
;Generated with Cura_SteamEngine 4.6.1
M140 S60
M105
M190 S60
M104 S210
M105
M109 S210
M82 ;absolute extrusion mode
; Ender 3 Custom Start G-code
G92 E0 ; Reset Extruder
G28 ; Home all axes
G1 Z2.0 F3000 ; Move Z Axis up little to prevent scratching of Heat Bed
G1 X0.1 Y20 Z0.3 F5000.0 ; Move to start position
G1 X0.1 Y200.0 Z0.3 F1500.0 E15 ; Draw the first line
G1 X0.4 Y200.0 Z0.3 F5000.0 ; Move to side a little
G1 X0.4 Y20 Z0.3 F1500.0 E30 ; Draw the second line
G92 E0 ; Reset Extruder
G1 Z2.0 F3000 ; Move Z Axis up little to prevent scratching of Heat Bed
G1 X5 Y20 Z0.3 F5000.0 ; Move over to prevent blob squish
G92 E0
G92 E0
G1 F2700 E-5
;LAYER_COUNT:105
;LAYER:0
M107
G0 F6000 X92.626 Y100.455 Z0.28
;TYPE:SKIRT
G1 F2700 E0
G1 F1200 X93.803 Y100.155 E0.05656
G1 X97.672 Y99.231 E0.24178
G1 X100.18 Y98.595 E0.36226
G1 X102.593 Y97.91 E0.47906
G1 X106.075 Y96.793 E0.64933
G1 X106.659 Y96.594 E0.67806
G1 X107.526 Y96.34 E0.72013
G1 X108.412 Y96.164 E0.76219
G1 X109.681 Y96.05 E0.82152
G1 X110.013 Y96.041 E0.83699
G1 X110.705 Y96.046 E0.86921
G1 X113.879 Y96.176 E1.01713
G1 X116.183 Y96.205 E1.12442
G1 X117.747 Y96.206 E1.19725
G1 X118.564 Y96.218 E1.23529
G1 X123.213 Y96.21 E1.45177
G1 X123.913 Y96.226 E1.48438
G1 X124.814 Y96.286 E1.52642
G1 X125.706 Y96.426 E1.56847
G1 X126.49 Y96.618 E1.60605
G1 X128.539 Y97.205 E1.7053
G1 X131.007 Y97.855 E1.82414
G1 X133.492 Y98.436 E1.94297
G1 X135.567 Y98.855 E2.04154
G1 X137.627 Y99.307 E2.13975
G1 X141.578 Y100.255 E2.32894
G1 X142.369 Y100.462 E2.36702
G1 X143.526 Y100.796 E2.42309
G1 X144.967 Y101.238 E2.49327
G1 X147.72 Y102.092 E2.62749
G1 X148.631 Y102.394 E2.67218
G1 X149.268 Y102.625 E2.70373
G1 X150.952 Y103.283 E2.78792
G1 X153.607 Y104.301 E2.92033
G1 X154.3 Y104.58 E2.95511
G1 X155.122 Y104.954 E2.99716
G1 X155.908 Y105.399 E3.03922
G1 X156.651 Y105.912 E3.08126
G1 X157.346 Y106.489 E3.12332
G1 X157.987 Y107.125 E3.16537
G1 X158.57 Y107.815 E3.20743
G1 X159.089 Y108.554 E3.24948
G1 X159.541 Y109.336 E3.29154
G1 X159.921 Y110.155 E3.33358
G1 X160.228 Y111.005 E3.37566
G1 X160.459 Y111.878 E3.41771
G1 X160.611 Y112.768 E3.45976
G1 X160.687 Y113.748 E3.50553
G1 X160.7 Y114.353 E3.5337
G1 X160.7 Y130.426 E4.28213
G1 X160.691 Y131.15 E4.31585
G1 X160.64 Y132.051 E4.35787
G1 X160.509 Y132.945 E4.39994
G1 X160.3 Y133.824 E4.44201
G1 X160.014 Y134.68 E4.48404
G1 X159.653 Y135.508 E4.5261
G1 X159.22 Y136.301 E4.56817
G1 X158.719 Y137.052 E4.6102
G1 X158.154 Y137.756 E4.65224
G1 X157.528 Y138.408 E4.69432
G1 X156.847 Y139.001 E4.73637
G1 X156.117 Y139.532 E4.77841
G1 X155.342 Y139.996 E4.82047
G1 X154.529 Y140.39 E4.86253
G1 X153.685 Y140.71 E4.90456
G1 X152.816 Y140.955 E4.94661
G1 X151.928 Y141.121 E4.98867
G1 X151.029 Y141.209 E5.03073
G1 X150.126 Y141.216 E5.07278
G1 X149.226 Y141.144 E5.11482
G1 X148.336 Y140.992 E5.15687
G1 X147.25 Y140.694 E5.2093
G1 X144.876 Y139.898 E5.3259
G1 X142.461 Y139.162 E5.44345
G1 X140.006 Y138.49 E5.56197
G1 X137.532 Y137.887 E5.68055
G1 X135.038 Y137.353 E5.79931
G1 X132.559 Y136.896 E5.91669
G1 X130.059 Y136.508 E6.03449
G1 X127.532 Y136.187 E6.1531
G1 X124.975 Y135.937 E6.27274
G1 X122.472 Y135.763 E6.38957
G1 X119.931 Y135.658 E6.50799
G1 X117.405 Y135.626 E6.62562
G1 X114.836 Y135.666 E6.74526
G1 X112.33 Y135.776 E6.86206
G1 X109.772 Y135.96 E6.98148
G1 X107.259 Y136.213 E7.09909
G1 X104.733 Y136.54 E7.21769
G1 X102.199 Y136.941 E7.33715
G1 X99.754 Y137.399 E7.45298
G1 X97.247 Y137.942 E7.57242
G1 X94.773 Y138.552 E7.69107
G1 X92.386 Y139.211 E7.80638
G1 X88.611 Y140.401 E7.99069
G1 X87.78 Y140.682 E8.03153
G1 X86.912 Y140.934 E8.07362
G1 X86.026 Y141.108 E8.11566
G1 X85.128 Y141.202 E8.15771
G1 X84.225 Y141.217 E8.19976
G1 X83.324 Y141.152 E8.24182
G1 X82.433 Y141.007 E8.28386
G1 X81.557 Y140.785 E8.32594
G1 X80.705 Y140.485 E8.368
G1 X79.883 Y140.112 E8.41003
G1 X79.097 Y139.667 E8.45209
G1 X78.354 Y139.154 E8.49413
G1 X77.658 Y138.578 E8.5362
G1 X77.017 Y137.942 E8.57825
G1 X76.434 Y137.253 E8.62027
G1 X75.914 Y136.514 E8.66235
G1 X75.462 Y135.732 E8.70441
G1 X75.081 Y134.913 E8.74647
G1 X74.774 Y134.064 E8.78851
G1 X74.543 Y133.191 E8.83056
G1 X74.39 Y132.301 E8.87261
G1 X74.314 Y131.331 E8.91791
G1 X74.299 Y130.692 E8.94767
G1 X74.3 Y114.572 E9.69829
G1 X74.31 Y113.894 E9.72986
G1 X74.363 Y112.992 E9.77194
G1 X74.496 Y112.099 E9.81398
G1 X74.708 Y111.221 E9.85603
G1 X74.996 Y110.365 E9.89809
G1 X75.358 Y109.538 E9.94013
G1 X75.793 Y108.746 E9.9822
G1 X76.296 Y107.996 E10.02425
G1 X76.863 Y107.293 E10.06631
G1 X77.49 Y106.643 E10.10836
G1 X78.172 Y106.051 E10.15041
G1 X78.904 Y105.522 E10.19247
G1 X79.68 Y105.06 E10.23452
G1 X80.505 Y104.663 E10.27715
G1 X80.826 Y104.526 E10.2934
G1 X81.157 Y104.391 E10.31005
G1 X85.626 Y102.667 E10.53309
G1 X86.522 Y102.341 E10.57749
G1 X87.055 Y102.164 E10.60364
G1 X89.648 Y101.353 E10.73015
G1 X90.7 Y101.033 E10.78135
G1 X91.99 Y100.634 E10.84422
G1 X92.626 Y100.455 E10.87499
G0 F6000 X113.901 Y95.776
G1 F1200 X116.188 Y95.805 E10.98149
G1 X117.753 Y95.806 E11.05436
G1 X118.569 Y95.818 E11.09236
G1 X123.222 Y95.81 E11.30903
G1 X123.922 Y95.826 E11.34163
G1 X124.841 Y95.887 E11.38452
G1 X125.751 Y96.027 E11.42739
G1 X126.6 Y96.233 E11.46807
G1 X128.654 Y96.822 E11.56757
G1 X131.128 Y97.473 E11.68669
G1 X133.571 Y98.044 E11.80351
G1 X135.653 Y98.464 E11.90241
G1 X137.72 Y98.918 E12.00095
G1 X141.677 Y99.867 E12.19043
G1 X142.479 Y100.077 E12.22904
G1 X143.643 Y100.414 E12.28546
G1 X145.084 Y100.856 E12.35565
G1 X147.845 Y101.712 E12.49025
G1 X148.765 Y102.017 E12.53538
G1 X149.414 Y102.253 E12.56754
G1 X151.029 Y102.884 E12.64827
G1 X153.757 Y103.93 E12.78432
G1 X154.45 Y104.209 E12.8191
G1 X155.288 Y104.59 E12.86197
G1 X156.09 Y105.041 E12.90481
G1 X156.85 Y105.561 E12.94769
G1 X157.562 Y106.145 E12.99057
G1 X158.221 Y106.788 E13.03344
G1 X158.821 Y107.486 E13.0763
G1 X159.358 Y108.234 E13.11918
G1 X159.829 Y109.025 E13.16205
G1 X160.229 Y109.854 E13.20491
G1 X160.555 Y110.715 E13.24778
G1 X160.806 Y111.601 E13.29066
G1 X160.979 Y112.505 E13.33351
G1 X161.087 Y113.736 E13.39105
G1 X161.1 Y114.353 E13.41979
G1 X161.1 Y130.431 E14.16845
G1 X161.091 Y131.155 E14.20217
G1 X161.04 Y132.074 E14.24502
G1 X160.909 Y132.985 E14.28788
G1 X160.699 Y133.882 E14.33078
G1 X160.413 Y134.757 E14.37364
G1 X160.051 Y135.603 E14.41649
G1 X159.618 Y136.416 E14.45938
G1 X159.115 Y137.187 E14.50225
G1 X158.548 Y137.912 E14.5451
G1 X157.92 Y138.585 E14.58797
G1 X157.236 Y139.201 E14.63083
G1 X156.501 Y139.756 E14.67371
G1 X155.72 Y140.244 E14.7166
G1 X154.9 Y140.663 E14.75947
G1 X154.047 Y141.009 E14.80234
G1 X153.167 Y141.28 E14.84521
G1 X152.267 Y141.473 E14.88807
G1 X151.354 Y141.588 E14.93092
G1 X150.434 Y141.623 E14.97379
G1 X149.514 Y141.578 E15.01668
G1 X148.602 Y141.453 E15.05955
G1 X147.704 Y141.25 E15.10242
G1 X147.123 Y141.073 E15.1307
G1 X144.78 Y140.288 E15.24576
G1 X142.343 Y139.545 E15.36439
G1 X139.903 Y138.876 E15.4822
G1 X137.467 Y138.283 E15.59894
G1 X134.953 Y137.744 E15.71867
G1 X132.491 Y137.291 E15.83523
G1 X129.989 Y136.902 E15.95314
G1 X127.475 Y136.583 E16.07114
G1 X124.944 Y136.336 E16.18955
G1 X122.462 Y136.164 E16.3054
G1 X119.91 Y136.058 E16.42433
G1 X117.406 Y136.026 E16.54094
G1 X114.859 Y136.066 E16.65955
G1 X112.342 Y136.176 E16.77687
G1 X109.805 Y136.359 E16.89531
G1 X107.279 Y136.613 E17.01352
G1 X104.81 Y136.932 E17.12945
G1 X102.304 Y137.329 E17.24759
G1 X99.807 Y137.797 E17.36589
G1 X97.323 Y138.335 E17.48423
G1 X94.904 Y138.931 E17.60024
G1 X92.47 Y139.604 E17.71783
G1 X88.761 Y140.772 E17.8989
G1 X87.908 Y141.061 E17.94083
G1 X87.024 Y141.318 E17.9837
G1 X86.121 Y141.498 E18.02658
G1 X85.206 Y141.598 E18.06944
G1 X84.285 Y141.619 E18.11233
G1 X83.367 Y141.559 E18.15517
G1 X82.456 Y141.42 E18.19808
G1 X81.562 Y141.203 E18.24092
G1 X80.689 Y140.909 E18.28381
G1 X79.846 Y140.54 E18.32666
G1 X79.037 Y140.1 E18.36954
G1 X78.27 Y139.591 E18.41241
G1 X77.55 Y139.017 E18.45528
G1 X76.883 Y138.383 E18.49813
G1 X76.273 Y137.693 E18.54102
G1 X75.725 Y136.954 E18.58386
G1 X75.243 Y136.169 E18.62675
G1 X74.831 Y135.345 E18.66965
G1 X74.493 Y134.489 E18.7125
G1 X74.229 Y133.607 E18.75537
G1 X74.044 Y132.705 E18.79825
G1 X73.914 Y131.343 E18.86196
G1 X73.899 Y130.692 E18.89228
G1 X73.9 Y114.566 E19.64317
G1 X73.91 Y113.888 E19.67475
G1 X73.964 Y112.969 E19.71761
G1 X74.097 Y112.058 E19.76048
G1 X74.308 Y111.162 E19.80334
G1 X74.597 Y110.287 E19.84625
G1 X74.96 Y109.441 E19.88912
G1 X75.396 Y108.63 E19.93199
G1 X75.9 Y107.86 E19.97485
G1 X76.469 Y107.136 E20.01772
G1 X77.099 Y106.465 E20.06058
G1 X77.784 Y105.85 E20.10345
G1 X78.521 Y105.298 E20.14632
G1 X79.302 Y104.811 E20.18918
G1 X80.348 Y104.295 E20.24349
G1 X80.669 Y104.158 E20.25974
G1 X81.013 Y104.018 E20.27704
G1 X85.487 Y102.292 E20.50033
G1 X86.394 Y101.962 E20.54527
G1 X86.935 Y101.783 E20.57181
G1 X89.531 Y100.971 E20.69846
G1 X90.583 Y100.651 E20.74966
G1 X91.879 Y100.25 E20.81283
G1 X92.218 Y100.152 E20.82927
G1 X92.527 Y100.068 E20.84418
G1 X93.71 Y99.766 E20.90103
G1 X97.544 Y98.851 E21.08457
G1 X100.087 Y98.205 E21.20674
G1 X102.479 Y97.526 E21.32253
G1 X105.935 Y96.418 E21.49152
G1 X106.53 Y96.215 E21.52079
G1 X107.413 Y95.956 E21.56364
G1 X108.316 Y95.774 E21.60653
G1 X109.67 Y95.65 E21.66985
G1 X110.002 Y95.641 E21.68531
G1 X110.722 Y95.646 E21.71884
G1 X113.901 Y95.776 E21.86699
G0 F6000 X113.922 Y95.376
G1 F1200 X116.193 Y95.405 E21.97275
G1 X117.759 Y95.406 E22.04567
G1 X118.574 Y95.418 E22.08362
G1 X123.231 Y95.41 E22.30047
G1 X123.931 Y95.426 E22.33307
G1 X124.867 Y95.487 E22.37675
G1 X125.794 Y95.628 E22.42041
G1 X126.71 Y95.849 E22.46429
G1 X128.725 Y96.426 E22.56188
G1 X131.215 Y97.083 E22.6818
G1 X133.675 Y97.657 E22.79942
G1 X135.738 Y98.073 E22.89742
G1 X137.813 Y98.529 E22.99634
G1 X141.776 Y99.48 E23.18612
G1 X142.59 Y99.693 E23.2253
G1 X143.761 Y100.032 E23.28206
G1 X145.202 Y100.474 E23.35225
G1 X147.969 Y101.332 E23.48714
G1 X148.899 Y101.64 E23.53276
G1 X149.559 Y101.88 E23.56546
G1 X151.243 Y102.538 E23.64965
G1 X153.906 Y103.559 E23.78245
G1 X154.599 Y103.838 E23.81724
G1 X155.453 Y104.225 E23.86089
G1 X156.272 Y104.683 E23.90459
G1 X157.048 Y105.21 E23.94827
G1 X157.776 Y105.8 E23.9919
G1 X158.452 Y106.451 E24.0356
G1 X159.07 Y107.157 E24.07929
G1 X159.625 Y107.912 E24.12292
G1 X160.114 Y108.713 E24.16662
G1 X160.533 Y109.552 E24.21029
G1 X160.879 Y110.424 E24.25397
G1 X161.149 Y111.322 E24.29764
G1 X161.342 Y112.239 E24.34127
G1 X161.456 Y113.17 E24.38495
G1 X161.486 Y113.725 E24.41083
G1 X161.5 Y114.353 E24.44008
G1 X161.5 Y130.436 E25.18897
G1 X161.491 Y131.16 E25.22269
G1 X161.44 Y132.096 E25.26633
G1 X161.308 Y133.025 E25.31003
G1 X161.098 Y133.939 E25.3537
G1 X160.812 Y134.832 E25.39736
G1 X160.45 Y135.697 E25.44102
G1 X160.015 Y136.528 E25.4847
G1 X159.512 Y137.319 E25.52835
G1 X158.943 Y138.065 E25.57203
G1 X158.312 Y138.759 E25.61571
G1 X157.625 Y139.397 E25.65937
G1 X156.885 Y139.974 E25.70306
G1 X156.1 Y140.486 E25.7467
G1 X155.273 Y140.93 E25.79041
G1 X154.412 Y141.301 E25.83406
G1 X153.522 Y141.597 E25.87774
G1 X152.61 Y141.817 E25.92142
G1 X151.683 Y141.958 E25.96508
G1 X150.747 Y142.02 E26.00876
G1 X149.81 Y142.002 E26.0524
G1 X148.877 Y141.904 E26.09609
G1 X147.956 Y141.727 E26.13976
G1 X146.996 Y141.453 E26.18624
G1 X144.641 Y140.664 E26.30189
G1 X142.235 Y139.931 E26.41901
G1 X139.808 Y139.265 E26.5362
G1 X137.352 Y138.667 E26.6539
G1 X134.869 Y138.135 E26.77214
G1 X132.429 Y137.686 E26.88767
G1 X129.914 Y137.295 E27.00618
G1 X127.457 Y136.983 E27.12151
G1 X124.949 Y136.738 E27.23885
G1 X122.418 Y136.563 E27.35699
G1 X119.888 Y136.458 E27.47489
G1 X117.407 Y136.426 E27.59043
G1 X114.849 Y136.466 E27.70955
G1 X112.388 Y136.574 E27.82426
G1 X109.838 Y136.757 E27.9433
G1 X107.339 Y137.009 E28.06026
G1 X104.853 Y137.33 E28.17698
G1 X102.362 Y137.724 E28.29441
G1 X99.866 Y138.192 E28.41266
G1 X97.431 Y138.72 E28.52868
G1 X95.025 Y139.313 E28.64407
G1 X92.586 Y139.987 E28.76189
G1 X88.869 Y141.158 E28.94336
G1 X88.036 Y141.44 E28.98431
G1 X87.136 Y141.703 E29.02797
G1 X86.216 Y141.888 E29.07166
G1 X85.284 Y141.994 E29.11534
G1 X84.347 Y142.02 E29.15899
G1 X83.411 Y141.966 E29.20265
G1 X82.482 Y141.833 E29.24634
G1 X81.569 Y141.621 E29.28999
G1 X80.676 Y141.332 E29.33369
G1 X79.812 Y140.968 E29.37735
G1 X78.982 Y140.532 E29.42101
G1 X78.192 Y140.026 E29.46469
G1 X77.448 Y139.455 E29.50836
G1 X76.755 Y138.823 E29.55203
G1 X76.118 Y138.134 E29.59573
G1 X75.543 Y137.394 E29.63936
G1 X75.033 Y136.607 E29.68303
G1 X74.591 Y135.779 E29.72674
G1 X74.222 Y134.917 E29.7704
G1 X73.928 Y134.027 E29.81404
G1 X73.71 Y133.114 E29.85775
G1 X73.571 Y132.187 E29.9014
G1 X73.514 Y131.355 E29.94023
G1 X73.504 Y131.026 E29.95556
G1 X73.499 Y130.692 E29.97111
G1 X73.5 Y114.56 E30.72229
G1 X73.51 Y113.882 E30.75386
G1 X73.564 Y112.945 E30.79756
G1 X73.697 Y112.017 E30.84122
G1 X73.909 Y111.104 E30.88486
G1 X74.198 Y110.211 E30.92857
G1 X74.562 Y109.347 E30.97222
G1 X74.999 Y108.517 E31.0159
G1 X75.504 Y107.727 E31.05956
G1 X76.075 Y106.983 E31.10323
G1 X76.707 Y106.29 E31.1469
G1 X77.396 Y105.653 E31.1906
G1 X78.136 Y105.078 E31.23423
G1 X78.923 Y104.568 E31.2779
G1 X79.751 Y104.126 E31.3216
G1 X80.191 Y103.927 E31.34409
G1 X80.512 Y103.79 E31.36034
G1 X80.869 Y103.645 E31.37828
G1 X85.349 Y101.917 E31.60187
G1 X86.267 Y101.583 E31.64736
G1 X86.816 Y101.401 E31.67429
G1 X89.415 Y100.588 E31.80109
G1 X90.467 Y100.268 E31.8523
G1 X91.768 Y99.866 E31.9157
G1 X92.427 Y99.68 E31.94759
G1 X93.617 Y99.377 E32.00477
G1 X97.433 Y98.466 E32.18745
G1 X99.985 Y97.818 E32.31005
G1 X102.366 Y97.143 E32.42529
G1 X105.825 Y96.033 E32.59445
G1 X106.4 Y95.837 E32.62273
G1 X107.3 Y95.572 E32.66642
G1 X108.219 Y95.384 E32.7101
G1 X109.151 Y95.276 E32.75379
G1 X109.659 Y95.25 E32.77747
G1 X109.991 Y95.241 E32.79294
G1 X110.738 Y95.246 E32.82772
G1 X113.922 Y95.376 E32.9761
G1 F2700 E27.9761
G0 F6000 X90.824 Y115.168
G0 X90.962 Y115.611
G1 F2700 E32.9761
G1 F1200 X94.164 Y114.61 E33.13232
G1 X95.324 Y114.264 E33.18869
G1 X95.811 Y114.103 E33.21257
G1 X96.33 Y113.944 E33.23784
G1 X101.364 Y112.743 E33.47883
G1 X106.749 Y111.835 E33.73312
G1 X107.284 Y111.705 E33.75875
G1 X107.795 Y111.499 E33.78441
G1 X108.085 Y111.329 E33.80006
G1 X109.195 Y111.319 E33.85175
G1 X109.744 Y111.274 E33.8774
G1 X110.281 Y111.15 E33.90306
G1 X110.794 Y110.95 E33.9287
G1 X111.263 Y110.668 E33.95418
G1 X111.661 Y111.016 E33.9788
G1 X112.124 Y111.314 E34.00444
G1 X112.626 Y111.543 E34.03013
G1 X113.155 Y111.697 E34.05579
G1 X113.937 Y111.78 E34.0924
G1 X114.335 Y111.781 E34.11094
G1 X114.885 Y111.742 E34.13661
G1 X115.423 Y111.625 E34.16225
G1 X115.939 Y111.431 E34.18792
G1 X116.421 Y111.164 E34.21357
G1 X117.035 Y110.665 E34.25042
G1 X117.128 Y110.571 E34.25657
G1 X117.227 Y110.671 E34.26313
G1 X117.642 Y111.034 E34.2888
G1 X118.106 Y111.332 E34.31448
G1 X118.607 Y111.56 E34.34011
G1 X119.136 Y111.714 E34.36576
G1 X119.937 Y111.797 E34.40326
G1 X120.335 Y111.796 E34.42179
G1 X120.884 Y111.755 E34.44743
G1 X121.422 Y111.634 E34.4731
G1 X121.936 Y111.437 E34.49874
G1 X122.417 Y111.168 E34.5244
G1 X122.988 Y110.699 E34.55881
G1 X123.159 Y110.814 E34.5684
G1 X123.503 Y111.013 E34.58691
G1 X123.999 Y111.254 E34.61258
G1 X124.524 Y111.42 E34.63822
G1 X125.022 Y111.505 E34.66175
G1 X128.195 Y111.823 E34.81024
G1 X129.856 Y112.115 E34.88877
G1 X130.177 Y112.157 E34.90384
G1 X133.548 Y112.726 E35.06303
G1 X138.701 Y113.96 E35.30976
G1 X140.901 Y114.635 E35.41691
G1 X143.973 Y115.587 E35.56667
G1 X144.036 Y115.612 E35.56982
G1 X144.036 Y124.647 E35.99053
G1 X142.389 Y124.137 E36.07082
G1 X142.264 Y124.077 E36.07727
G1 X141.503 Y123.806 E36.11489
G1 X135.344 Y122.332 E36.40978
G1 X135.094 Y122.281 E36.42166
G1 X129.434 Y121.324 E36.68895
G1 X129.187 Y121.291 E36.70055
G1 X123.539 Y120.718 E36.9649
G1 X123.285 Y120.701 E36.97675
G1 X117.628 Y120.511 E37.24031
G1 X117.372 Y120.511 E37.25223
G1 X111.728 Y120.701 E37.51519
G1 X111.472 Y120.718 E37.52714
G1 X105.798 Y121.295 E37.79271
