;FLAVOR:Marlin
;TIME:3939
;Filament used: 3.66274m
;Layer height: 0.28
;MINX:81.65
;MINY:81.65
;MINZ:0.28
;MAXX:153.349
;MAXY:153.349
;MAXZ:14.84
;Generated with Cura_SteamEngine 4.7.0
M140 S65
M105
M190 S65
M104 S225
M105
M109 S225
M82 ;absolute extrusion mode
; Ender 3 Custom Start G-code
G92 E0 ; Reset Extruder
G28 ; Home all axes
G1 Z2.0 F3000 ; Move Z Axis up little to prevent scratching of Heat Bed
G1 X0.1 Y20 Z0.3 F5000.0 ; Move to start position
G1 X0.1 Y200.0 Z0.3 F1500.0 E15 ; Draw the first line
G1 X0.4 Y200.0 Z0.3 F5000.0 ; Move to side a little
G1 X0.4 Y20 Z0.3 F1500.0 E30 ; Draw the second line
G92 E0 ; Reset Extruder
G1 Z2.0 F3000 ; Move Z Axis up little to prevent scratching of Heat Bed
G1 X5 Y20 Z0.3 F5000.0 ; Move over to prevent blob squish
G92 E0
G92 E0
G1 F2700 E-5
;LAYER_COUNT:53
;LAYER:0
M107
G0 F6000 X85.816 Y85.484 Z0.28
;TYPE:SKIRT
G1 F2700 E0
G1 F1200 X86.102 Y85.213 E0.01835
G1 X87.058 Y84.408 E0.07654
G1 X87.113 Y84.367 E0.07974
G1 X87.799 Y83.897 E0.11846
G1 X88.134 Y83.686 E0.13689
G1 X89.071 Y83.16 E0.18693
G1 X89.47 Y82.962 E0.20767
G1 X90.312 Y82.589 E0.25055
G1 X90.759 Y82.425 E0.27272
G1 X90.97 Y82.353 E0.2831
G1 X91.675 Y82.139 E0.31741
G1 X91.773 Y82.113 E0.32213
G1 X92.728 Y81.907 E0.36762
G1 X93.232 Y81.822 E0.39142
G1 X94.276 Y81.698 E0.44038
G1 X94.379 Y81.691 E0.44518
G1 X94.916 Y81.669 E0.47021
G1 X96.03 Y81.651 E0.52209
G1 X139.039 Y81.65 E2.52477
G1 X139.908 Y81.661 E2.56524
G1 X140.304 Y81.674 E2.58368
G1 X140.538 Y81.686 E2.5946
G1 X141.341 Y81.758 E2.63214
G1 X141.591 Y81.79 E2.64387
G1 X142.63 Y81.976 E2.69302
G1 X143.024 Y82.067 E2.71185
G1 X143.888 Y82.305 E2.75358
G1 X143.947 Y82.324 E2.75647
G1 X144.383 Y82.475 E2.77795
G1 X144.588 Y82.551 E2.78813
G1 X145.32 Y82.854 E2.82502
G1 X145.632 Y83.001 E2.84108
G1 X145.814 Y83.09 E2.85052
G1 X146.49 Y83.451 E2.8862
G1 X146.636 Y83.536 E2.89407
G1 X147.479 Y84.082 E2.94083
G1 X147.758 Y84.282 E2.95682
G1 X148.562 Y84.92 E3.00461
G1 X148.802 Y85.13 E3.01946
G1 X149.519 Y85.819 E3.06576
G1 X149.786 Y86.101 E3.08385
G1 X150.43 Y86.847 E3.12974
G1 X150.47 Y86.898 E3.13276
G1 X151.099 Y87.791 E3.18362
G1 X151.315 Y88.134 E3.20249
G1 X151.835 Y89.062 E3.25202
G1 X152.032 Y89.458 E3.27262
G1 X152.406 Y90.299 E3.31548
G1 X152.569 Y90.742 E3.33746
G1 X152.642 Y90.955 E3.34794
G1 X152.867 Y91.699 E3.38414
G1 X152.893 Y91.798 E3.3889
G1 X153.093 Y92.725 E3.43306
G1 X153.178 Y93.228 E3.45681
G1 X153.298 Y94.223 E3.50348
G1 X153.305 Y94.319 E3.50796
G1 X153.331 Y94.906 E3.53532
G1 X153.349 Y96.01 E3.58674
G1 X153.349 Y139.159 E5.59594
G1 X153.339 Y139.894 E5.63016
G1 X153.327 Y140.266 E5.64749
G1 X153.315 Y140.512 E5.65896
G1 X153.242 Y141.347 E5.69799
G1 X153.21 Y141.596 E5.70968
G1 X153.024 Y142.63 E5.7586
G1 X152.933 Y143.024 E5.77743
G1 X152.695 Y143.888 E5.81916
G1 X152.676 Y143.947 E5.82205
G1 X152.528 Y144.374 E5.84309
G1 X152.457 Y144.566 E5.85262
G1 X152.192 Y145.216 E5.88531
G1 X152.154 Y145.301 E5.88964
G1 X151.986 Y145.659 E5.90806
G1 X151.886 Y145.862 E5.91859
G1 X151.498 Y146.578 E5.95652
G1 X151.424 Y146.703 E5.96328
G1 X150.918 Y147.479 E6.00642
G1 X150.718 Y147.758 E6.0224
G1 X150.08 Y148.562 E6.07019
G1 X149.87 Y148.802 E6.08504
G1 X149.184 Y149.516 E6.13115
G1 X148.898 Y149.787 E6.14949
G1 X147.942 Y150.592 E6.20769
G1 X147.887 Y150.633 E6.21088
G1 X147.201 Y151.103 E6.24961
G1 X146.866 Y151.314 E6.26804
G1 X145.929 Y151.84 E6.31808
G1 X145.53 Y152.038 E6.33882
G1 X144.688 Y152.411 E6.3817
G1 X144.241 Y152.575 E6.40387
G1 X144.03 Y152.647 E6.41425
G1 X143.325 Y152.861 E6.44856
G1 X143.227 Y152.887 E6.45328
G1 X142.272 Y153.093 E6.49877
G1 X141.768 Y153.178 E6.52257
G1 X140.724 Y153.302 E6.57152
G1 X140.621 Y153.309 E6.57633
G1 X140.084 Y153.331 E6.60136
G1 X138.97 Y153.349 E6.65324
G1 X95.814 Y153.349 E8.66276
G1 X95.093 Y153.339 E8.69634
G1 X94.702 Y153.326 E8.71455
G1 X94.466 Y153.314 E8.72556
G1 X93.653 Y153.242 E8.76356
G1 X93.404 Y153.21 E8.77525
G1 X92.37 Y153.024 E8.82417
G1 X91.976 Y152.933 E8.843
G1 X91.056 Y152.677 E8.88747
G1 X90.992 Y152.656 E8.8906
G1 X90.619 Y152.525 E8.90901
G1 X90.419 Y152.451 E8.91894
G1 X89.68 Y152.146 E8.95617
G1 X89.357 Y151.994 E8.97279
G1 X89.147 Y151.891 E8.98368
G1 X88.35 Y151.457 E9.02594
G1 X88.232 Y151.386 E9.03235
G1 X87.516 Y150.914 E9.07229
G1 X87.236 Y150.713 E9.08833
G1 X86.439 Y150.081 E9.1357
G1 X86.2 Y149.872 E9.15048
G1 X85.484 Y149.184 E9.19672
G1 X85.213 Y148.898 E9.21507
G1 X84.427 Y147.967 E9.2718
G1 X84.385 Y147.911 E9.27506
G1 X83.888 Y147.188 E9.31591
G1 X83.677 Y146.852 E9.33439
G1 X83.164 Y145.936 E9.38327
G1 X82.967 Y145.54 E9.40387
G1 X82.593 Y144.699 E9.44673
G1 X82.42 Y144.228 E9.47009
G1 X82.348 Y144.016 E9.48052
G1 X82.137 Y143.314 E9.51465
G1 X82.109 Y143.208 E9.51976
G1 X81.902 Y142.25 E9.56539
G1 X81.819 Y141.754 E9.58881
G1 X81.698 Y140.724 E9.6371
G1 X81.691 Y140.621 E9.64191
G1 X81.668 Y140.079 E9.66717
G1 X81.652 Y139.122 E9.71174
G1 X81.65 Y95.948 E11.7221
G1 X81.661 Y95.09 E11.76205
G1 X81.674 Y94.702 E11.78013
G1 X81.686 Y94.466 E11.79113
G1 X81.758 Y93.653 E11.82914
G1 X81.79 Y93.404 E11.84083
G1 X81.976 Y92.37 E11.88975
G1 X82.067 Y91.976 E11.90858
G1 X82.305 Y91.112 E11.95031
G1 X82.324 Y91.053 E11.9532
G1 X82.471 Y90.628 E11.97414
G1 X82.546 Y90.425 E11.98421
G1 X82.857 Y89.673 E12.0221
G1 X83.006 Y89.357 E12.03837
G1 X83.109 Y89.147 E12.04926
G1 X83.543 Y88.35 E12.09152
G1 X83.614 Y88.232 E12.09793
G1 X84.082 Y87.521 E12.13757
G1 X84.282 Y87.242 E12.15355
G1 X84.92 Y86.438 E12.20135
G1 X85.13 Y86.198 E12.2162
G1 X85.816 Y85.484 E12.2623
G0 F6000 X86.091 Y85.774
G1 F1200 X86.377 Y85.503 E12.28065
G1 X87.297 Y84.729 E12.33663
G1 X87.352 Y84.688 E12.33983
G1 X88.012 Y84.235 E12.3771
G1 X88.347 Y84.024 E12.39554
G1 X89.249 Y83.518 E12.44369
G1 X89.648 Y83.32 E12.46443
G1 X90.888 Y82.804 E12.52697
G1 X91.099 Y82.732 E12.53736
G1 X91.777 Y82.526 E12.57035
G1 X91.875 Y82.5 E12.57507
G1 X92.795 Y82.301 E12.6189
G1 X93.299 Y82.216 E12.6427
G1 X94.303 Y82.097 E12.68978
G1 X94.406 Y82.09 E12.69459
G1 X94.923 Y82.069 E12.71868
G1 X96.03 Y82.051 E12.77023
G1 X139.039 Y82.05 E14.77291
G1 X139.902 Y82.061 E14.8131
G1 X140.283 Y82.073 E14.83085
G1 X140.517 Y82.085 E14.84176
G1 X141.29 Y82.155 E14.8779
G1 X141.54 Y82.187 E14.88964
G1 X142.54 Y82.366 E14.93694
G1 X142.934 Y82.457 E14.95577
G1 X143.766 Y82.686 E14.99595
G1 X143.825 Y82.705 E14.99884
G1 X144.244 Y82.85 E15.01949
G1 X144.449 Y82.926 E15.02967
G1 X145.153 Y83.218 E15.06516
G1 X145.456 Y83.36 E15.08074
G1 X145.638 Y83.449 E15.09017
G1 X146.289 Y83.797 E15.12454
G1 X146.435 Y83.882 E15.13241
G1 X147.246 Y84.407 E15.1774
G1 X147.525 Y84.607 E15.19338
G1 X148.299 Y85.221 E15.23938
G1 X148.539 Y85.431 E15.25423
G1 X149.229 Y86.094 E15.29879
G1 X149.496 Y86.376 E15.31687
G1 X150.115 Y87.094 E15.36102
G1 X150.155 Y87.145 E15.36403
G1 X150.76 Y88.005 E15.413
G1 X150.976 Y88.348 E15.43187
G1 X151.477 Y89.24 E15.47951
G1 X151.674 Y89.636 E15.5001
G1 X152.191 Y90.872 E15.56249
G1 X152.264 Y91.085 E15.57297
G1 X152.48 Y91.801 E15.6078
G1 X152.506 Y91.9 E15.61256
G1 X152.698 Y92.791 E15.655
G1 X152.783 Y93.294 E15.67876
G1 X152.899 Y94.252 E15.72369
G1 X152.906 Y94.348 E15.72818
G1 X152.931 Y94.913 E15.75451
G1 X152.949 Y96.01 E15.8056
G1 X152.949 Y139.154 E17.81456
G1 X152.939 Y139.889 E17.84879
G1 X152.928 Y140.247 E17.86547
G1 X152.916 Y140.493 E17.87694
G1 X152.845 Y141.296 E17.91447
G1 X152.813 Y141.545 E17.92616
G1 X152.634 Y142.54 E17.97324
G1 X152.543 Y142.934 E17.99207
G1 X152.314 Y143.766 E18.03225
G1 X152.295 Y143.825 E18.03514
G1 X152.153 Y144.236 E18.05538
G1 X152.082 Y144.428 E18.06492
G1 X151.827 Y145.053 E18.09635
G1 X151.789 Y145.138 E18.10068
G1 X151.627 Y145.482 E18.11839
G1 X151.527 Y145.685 E18.12893
G1 X151.154 Y146.374 E18.16541
G1 X151.08 Y146.499 E18.17217
G1 X150.593 Y147.246 E18.2137
G1 X150.393 Y147.525 E18.22968
G1 X149.779 Y148.299 E18.27568
G1 X149.569 Y148.539 E18.29053
G1 X148.909 Y149.226 E18.33489
G1 X148.623 Y149.497 E18.35324
G1 X147.703 Y150.271 E18.40922
G1 X147.648 Y150.312 E18.41242
G1 X146.988 Y150.765 E18.44969
G1 X146.653 Y150.976 E18.46813
G1 X145.751 Y151.482 E18.51629
G1 X145.352 Y151.68 E18.53703
G1 X144.112 Y152.196 E18.59957
G1 X143.901 Y152.268 E18.60995
G1 X143.223 Y152.474 E18.64294
G1 X143.125 Y152.5 E18.64766
G1 X142.205 Y152.699 E18.69149
G1 X141.701 Y152.784 E18.71529
G1 X140.697 Y152.903 E18.76237
G1 X140.594 Y152.91 E18.76718
G1 X140.077 Y152.931 E18.79127
G1 X138.97 Y152.949 E18.84282
G1 X95.82 Y152.949 E20.85207
G1 X95.099 Y152.939 E20.88565
G1 X94.722 Y152.927 E20.90321
G1 X94.486 Y152.915 E20.91421
G1 X93.704 Y152.845 E20.95077
G1 X93.455 Y152.813 E20.96246
G1 X92.46 Y152.634 E21.00954
G1 X92.066 Y152.543 E21.02837
G1 X91.181 Y152.297 E21.07114
G1 X91.117 Y152.276 E21.07427
G1 X90.758 Y152.15 E21.09199
G1 X90.558 Y152.076 E21.10192
G1 X89.847 Y151.782 E21.13775
G1 X89.533 Y151.635 E21.15389
G1 X89.323 Y151.532 E21.16478
G1 X88.556 Y151.114 E21.20546
G1 X88.438 Y151.043 E21.21187
G1 X87.749 Y150.589 E21.25029
G1 X87.469 Y150.388 E21.26634
G1 X86.703 Y149.78 E21.31188
G1 X86.464 Y149.571 E21.32666
G1 X85.774 Y148.909 E21.37119
G1 X85.503 Y148.623 E21.38953
G1 X84.747 Y147.727 E21.44412
G1 X84.705 Y147.671 E21.44738
G1 X84.227 Y146.975 E21.4867
G1 X84.016 Y146.639 E21.50517
G1 X83.522 Y145.758 E21.5522
G1 X83.325 Y145.362 E21.5728
G1 X82.959 Y144.537 E21.61482
G1 X82.799 Y144.099 E21.63654
G1 X82.727 Y143.887 E21.64696
G1 X82.523 Y143.212 E21.6798
G1 X82.495 Y143.106 E21.6849
G1 X82.297 Y142.184 E21.72881
G1 X82.214 Y141.688 E21.75223
G1 X82.097 Y140.697 E21.7987
G1 X82.09 Y140.594 E21.8035
G1 X82.068 Y140.073 E21.82779
G1 X82.052 Y139.116 E21.87235
G1 X82.05 Y95.948 E23.88244
G1 X82.061 Y95.096 E23.92211
G1 X82.073 Y94.722 E23.93954
G1 X82.085 Y94.486 E23.95054
G1 X82.155 Y93.704 E23.9871
G1 X82.187 Y93.455 E23.99879
G1 X82.366 Y92.46 E24.04586
G1 X82.457 Y92.066 E24.06469
G1 X82.686 Y91.234 E24.10487
G1 X82.705 Y91.175 E24.10776
G1 X82.846 Y90.767 E24.12786
G1 X82.921 Y90.564 E24.13794
G1 X83.22 Y89.84 E24.17441
G1 X83.365 Y89.533 E24.19022
G1 X83.468 Y89.323 E24.20111
G1 X83.886 Y88.556 E24.24179
G1 X83.957 Y88.438 E24.2482
G1 X84.407 Y87.754 E24.28632
G1 X84.607 Y87.475 E24.30231
G1 X85.221 Y86.701 E24.34831
G1 X85.431 Y86.461 E24.36316
G1 X86.091 Y85.774 E24.40752
G1 F2700 E19.40752
;MESH:60mmlower.stl
G0 F6000 X97.313 Y131.585
G0 X96.199 Y130.648
G0 X95.472 Y132.239
;TYPE:WALL-INNER
G1 F2700 E24.40752
G1 F1200 X95.327 Y132.644 E24.42755
G1 X95.213 Y133.056 E24.44746
G1 X95.131 Y133.478 E24.46748
G1 X95.082 Y133.906 E24.48754
G1 X95.067 Y134.333 E24.50743
G1 X95.082 Y134.761 E24.52737
G1 X95.131 Y135.189 E24.54743
G1 X95.213 Y135.611 E24.56745
G1 X95.327 Y136.023 E24.58736
G1 X95.472 Y136.427 E24.60734
G1 X95.648 Y136.819 E24.62735
G1 X95.853 Y137.194 E24.64725
G1 X96.085 Y137.555 E24.66723
G1 X96.346 Y137.897 E24.68727
G1 X96.632 Y138.217 E24.70725
G1 X96.941 Y138.514 E24.72721
G1 X97.272 Y138.787 E24.74719
G1 X97.622 Y139.034 E24.76713
G1 X97.99 Y139.253 E24.78707
G1 X98.376 Y139.444 E24.80713
G1 X98.774 Y139.604 E24.8271
G1 X99.182 Y139.734 E24.84704
G1 X99.601 Y139.832 E24.86708
G1 X100.024 Y139.897 E24.88701
G1 X100.451 Y139.93 E24.90695
G1 X100.882 Y139.93 E24.92702
G1 X101.309 Y139.897 E24.94696
G1 X101.733 Y139.832 E24.96693
G1 X102.152 Y139.734 E24.98697
G1 X102.56 Y139.604 E25.00691
G1 X102.958 Y139.444 E25.02688
G1 X103.342 Y139.254 E25.04683
G1 X103.712 Y139.034 E25.06688
G1 X104.062 Y138.787 E25.08682
G1 X104.392 Y138.514 E25.10677
G1 X104.701 Y138.217 E25.12672
G1 X104.987 Y137.897 E25.14671
G1 X105.247 Y137.555 E25.16671
G1 X105.481 Y137.194 E25.18674
G1 X105.685 Y136.819 E25.20662
G1 X105.861 Y136.427 E25.22663
G1 X106.007 Y136.023 E25.24663
G1 X106.12 Y135.61 E25.26657
G1 X106.202 Y135.189 E25.28654
G1 X106.251 Y134.762 E25.30656
G1 X106.267 Y134.333 E25.32655
G1 X106.251 Y133.905 E25.34649
G1 X106.202 Y133.478 E25.3665
G1 X106.12 Y133.057 E25.38648
G1 X106.007 Y132.644 E25.40641
G1 X105.861 Y132.239 E25.42646
G1 X105.685 Y131.848 E25.44643
G1 X105.481 Y131.472 E25.46635
G1 X105.247 Y131.111 E25.48638
G1 X104.987 Y130.77 E25.50634
G1 X104.701 Y130.449 E25.52636
G1 X104.392 Y130.153 E25.54629
G1 X104.062 Y129.88 E25.56623
G1 X103.712 Y129.633 E25.58618
G1 X103.342 Y129.413 E25.60622
G1 X102.958 Y129.223 E25.62617
G1 X102.56 Y129.063 E25.64615
G1 X102.151 Y128.933 E25.66613
G1 X101.733 Y128.836 E25.68611
G1 X101.309 Y128.769 E25.7061
G1 X100.881 Y128.737 E25.72608
G1 X100.452 Y128.737 E25.74606
G1 X100.024 Y128.769 E25.76605
G1 X99.601 Y128.836 E25.78599
G1 X99.183 Y128.933 E25.80597
G1 X98.774 Y129.063 E25.82595
G1 X98.376 Y129.223 E25.84593
G1 X97.99 Y129.414 E25.86598
G1 X97.622 Y129.633 E25.88592
G1 X97.273 Y129.88 E25.90583
G1 X96.941 Y130.152 E25.92581
G1 X96.631 Y130.45 E25.94584
G1 X96.346 Y130.77 E25.96579
G1 X96.086 Y131.112 E25.9858
G1 X95.853 Y131.472 E26.00576
G1 X95.648 Y131.848 E26.0257
G1 X95.472 Y132.239 E26.04567
G0 F6000 X95.843 Y132.389
;TYPE:WALL-OUTER
G1 F1200 X95.709 Y132.765 E26.06426
G1 X95.603 Y133.148 E26.08276
G1 X95.527 Y133.539 E26.10131
G1 X95.481 Y133.936 E26.11992
G1 X95.467 Y134.333 E26.13842
G1 X95.481 Y134.731 E26.15696
G1 X95.527 Y135.128 E26.17557
G1 X95.603 Y135.519 E26.19412
G1 X95.709 Y135.902 E26.21262
G1 X95.843 Y136.277 E26.23116
G1 X96.007 Y136.641 E26.24976
G1 X96.197 Y136.99 E26.26826
G1 X96.413 Y137.325 E26.28682
G1 X96.655 Y137.642 E26.30539
G1 X96.92 Y137.939 E26.32392
G1 X97.207 Y138.215 E26.34246
G1 X97.515 Y138.469 E26.36105
G1 X97.84 Y138.698 E26.37957
G1 X98.182 Y138.902 E26.39811
G1 X98.539 Y139.079 E26.41666
G1 X98.909 Y139.227 E26.43522
G1 X99.289 Y139.348 E26.45379
G1 X99.677 Y139.439 E26.47235
G1 X100.07 Y139.499 E26.49086
G1 X100.467 Y139.53 E26.5094
G1 X100.866 Y139.53 E26.52798
G1 X101.263 Y139.499 E26.54652
G1 X101.657 Y139.439 E26.56508
G1 X102.045 Y139.348 E26.58364
G1 X102.425 Y139.227 E26.60221
G1 X102.794 Y139.079 E26.62072
G1 X103.151 Y138.902 E26.63927
G1 X103.494 Y138.698 E26.65786
G1 X103.819 Y138.469 E26.67637
G1 X104.126 Y138.215 E26.69492
G1 X104.413 Y137.939 E26.71346
G1 X104.678 Y137.642 E26.732
G1 X104.92 Y137.325 E26.75057
G1 X105.137 Y136.99 E26.76915
G1 X105.326 Y136.641 E26.78764
G1 X105.49 Y136.277 E26.80623
G1 X105.625 Y135.902 E26.82478
G1 X105.73 Y135.519 E26.84328
G1 X105.806 Y135.128 E26.86182
G1 X105.852 Y134.731 E26.88043
G1 X105.867 Y134.333 E26.89898
G1 X105.852 Y133.936 E26.91748
G1 X105.806 Y133.539 E26.93609
G1 X105.73 Y133.148 E26.95464
G1 X105.625 Y132.765 E26.97313
G1 X105.49 Y132.389 E26.99173
G1 X105.326 Y132.026 E27.01028
G1 X105.137 Y131.676 E27.0288
G1 X104.92 Y131.342 E27.04735
G1 X104.678 Y131.025 E27.06592
G1 X104.413 Y130.727 E27.08449
G1 X104.126 Y130.452 E27.10299
G1 X103.819 Y130.198 E27.12155
G1 X103.494 Y129.969 E27.14006
G1 X103.151 Y129.765 E27.15864
G1 X102.794 Y129.588 E27.1772
G1 X102.425 Y129.44 E27.19571
G1 X102.045 Y129.319 E27.21428
G1 X101.657 Y129.229 E27.23283
G1 X101.263 Y129.167 E27.2514
G1 X100.866 Y129.137 E27.26994
G1 X100.467 Y129.137 E27.28852
G1 X100.07 Y129.167 E27.30706
G1 X99.677 Y129.229 E27.32558
G1 X99.289 Y129.319 E27.34413
G1 X98.909 Y129.44 E27.3627
G1 X98.539 Y129.588 E27.38125
G1 X98.182 Y129.765 E27.39981
G1 X97.84 Y129.969 E27.41835
G1 X97.515 Y130.198 E27.43686
G1 X97.207 Y130.451 E27.45542
G1 X96.92 Y130.727 E27.47396
G1 X96.655 Y131.025 E27.49253
G1 X96.413 Y131.342 E27.5111
G1 X96.197 Y131.676 E27.52963
G1 X96.007 Y132.026 E27.54817
G1 X95.843 Y132.389 E27.56672
G0 F6000 X95.435 Y132.225
G1 F2700 E22.56672
G0 F6000 X96.199 Y130.648
G0 X97.544 Y131.325
G0 X100.008 Y104.951
G0 X99.782 Y106.391
G0 X102.307 Y105.854
G0 X103.446 Y105.343
G0 X104.439 Y104.585
G0 X105.232 Y103.624
G0 X105.785 Y102.506
G0 X106.071 Y101.29
G0 X106.071 Y100.043
G0 X105.785 Y98.828
G0 X105.232 Y97.71
G0 X104.439 Y96.748
G0 X102.761 Y95.472
;TYPE:WALL-INNER
G1 F2700 E27.56672
G1 F1200 X102.356 Y95.327 E27.58675
G1 X101.944 Y95.213 E27.60665
G1 X101.522 Y95.131 E27.62667
G1 X101.094 Y95.082 E27.64673
G1 X100.667 Y95.067 E27.66663
G1 X100.239 Y95.082 E27.68657
