;FLAVOR:Marlin
;TIME:5681
;Filament used: 3.64313m
;Layer height: 0.2
;MINX:74.207
;MINY:76.881
;MINZ:0.2
;MAXX:161.907
;MAXY:154.656
;MAXZ:30
;Generated with Cura_SteamEngine 4.7.0
M140 S55
M105
M190 S55
M104 S210
M105
M109 S210
M82 ;absolute extrusion mode
; Ender 3 Custom Start G-code
G92 E0 ; Reset Extruder
G28 ; Home all axes
G1 Z2.0 F3000 ; Move Z Axis up little to prevent scratching of Heat Bed
G1 X0.1 Y20 Z0.3 F5000.0 ; Move to start position
G1 X0.1 Y200.0 Z0.3 F1500.0 E15 ; Draw the first line
G1 X0.4 Y200.0 Z0.3 F5000.0 ; Move to side a little
G1 X0.4 Y20 Z0.3 F1500.0 E30 ; Draw the second line
G92 E0 ; Reset Extruder
G1 Z2.0 F3000 ; Move Z Axis up little to prevent scratching of Heat Bed
G1 X5 Y20 Z0.3 F5000.0 ; Move over to prevent blob squish
G92 E0
G92 E0
G1 F2700 E-5
;LAYER_COUNT:150
;LAYER:0
M107
G0 F6000 X95.165 Y81.617 Z0.2
;TYPE:SKIRT
G1 F2700 E0
G1 F1200 X95.792 Y80.92 E0.03118
G1 X96.477 Y80.279 E0.06238
G1 X97.157 Y79.74 E0.09124
G1 X97.235 Y79.683 E0.09446
G1 X97.502 Y79.494 E0.10534
G1 X97.776 Y79.306 E0.11639
G1 X98.023 Y79.141 E0.12627
G1 X98.482 Y78.844 E0.14445
G1 X99.291 Y78.368 E0.17567
G1 X100.137 Y77.963 E0.20687
G1 X101.014 Y77.632 E0.23805
G1 X102.137 Y77.327 E0.27675
G1 X102.591 Y77.229 E0.2922
G1 X102.94 Y77.159 E0.30404
G1 X103.423 Y77.071 E0.32037
G1 X104.638 Y76.919 E0.36109
G1 X104.696 Y76.915 E0.36303
G1 X105.305 Y76.89 E0.3833
G1 X106.047 Y76.881 E0.40798
G1 X111.869 Y76.882 E0.60162
G1 X112.586 Y76.893 E0.62547
G1 X113.814 Y76.981 E0.66642
G1 X114.945 Y77.127 E0.70435
G1 X115.629 Y77.224 E0.72733
G1 X118.15 Y77.511 E0.81172
G1 X120.614 Y77.72 E0.89396
G1 X123.154 Y77.863 E0.97858
G1 X125.685 Y77.935 E1.06279
G1 X128.173 Y77.935 E1.14554
G1 X130.731 Y77.863 E1.23066
G1 X133.215 Y77.722 E1.31341
G1 X135.725 Y77.508 E1.39719
G1 X138.247 Y77.221 E1.48162
G1 X139.89 Y76.997 E1.53677
G1 X141.108 Y76.894 E1.57743
G1 X141.427 Y76.885 E1.58804
G1 X141.737 Y76.881 E1.59835
G1 X147.87 Y76.882 E1.80234
G1 X148.58 Y76.893 E1.82595
G1 X149.93 Y76.998 E1.87099
G1 X150.469 Y77.084 E1.88914
G1 X150.882 Y77.161 E1.90312
G1 X151.163 Y77.218 E1.91265
G1 X151.65 Y77.322 E1.92922
G1 X152.558 Y77.556 E1.9604
G1 X153.443 Y77.868 E1.99161
G1 X154.298 Y78.253 E2.0228
G1 X154.864 Y78.559 E2.0442
G1 X154.94 Y78.603 E2.04712
G1 X155.399 Y78.884 E2.06502
G1 X155.707 Y79.083 E2.07722
G1 X156.003 Y79.281 E2.08906
G1 X156.433 Y79.579 E2.10646
G1 X157.18 Y80.146 E2.13766
G1 X157.876 Y80.774 E2.16884
G1 X158.517 Y81.459 E2.20004
G1 X159.037 Y82.115 E2.22788
G1 X159.092 Y82.19 E2.23097
G1 X159.3 Y82.482 E2.2429
G1 X159.48 Y82.745 E2.2535
G1 X159.629 Y82.969 E2.26245
G1 X159.936 Y83.442 E2.2812
G1 X160.412 Y84.25 E2.31239
G1 X160.819 Y85.095 E2.34359
G1 X161.151 Y85.972 E2.37478
G1 X161.415 Y86.903 E2.40696
G1 X161.493 Y87.251 E2.41882
G1 X161.566 Y87.6 E2.43068
G1 X161.619 Y87.868 E2.43977
G1 X161.716 Y88.397 E2.45766
G1 X161.845 Y89.326 E2.48885
G1 X161.882 Y89.822 E2.5054
G1 X161.898 Y90.293 E2.52107
G1 X161.907 Y91.037 E2.54582
G1 X161.906 Y132.846 E3.93639
G1 X161.895 Y133.559 E3.96011
G1 X161.84 Y134.495 E3.99129
G1 X161.714 Y135.382 E4.02109
G1 X161.632 Y135.827 E4.03614
G1 X161.564 Y136.164 E4.04758
G1 X161.455 Y136.667 E4.06469
G1 X161.218 Y137.574 E4.09587
G1 X160.904 Y138.458 E4.12707
G1 X160.516 Y139.311 E4.15824
G1 X160.137 Y139.996 E4.18428
G1 X160.086 Y140.081 E4.18758
G1 X159.885 Y140.405 E4.20026
G1 X159.71 Y140.675 E4.21096
G1 X159.536 Y140.935 E4.22137
G1 X159.232 Y141.376 E4.23918
G1 X158.667 Y142.125 E4.27039
G1 X158.04 Y142.823 E4.30159
G1 X156.996 Y143.763 E4.34832
G1 X156.934 Y143.812 E4.35095
G1 X156.334 Y144.254 E4.37573
G1 X156.038 Y144.457 E4.38767
G1 X155.805 Y144.613 E4.397
G1 X155.355 Y144.905 E4.41484
G1 X154.547 Y145.381 E4.44603
G1 X153.701 Y145.787 E4.47724
G1 X153.046 Y146.044 E4.50064
G1 X153.015 Y146.055 E4.50174
G1 X152.118 Y146.33 E4.53294
G1 X151.619 Y146.448 E4.55
G1 X151.176 Y146.542 E4.56506
G1 X150.805 Y146.615 E4.57763
G1 X150.635 Y146.645 E4.58338
G1 X150.287 Y146.7 E4.59509
G1 X149.939 Y146.75 E4.60679
G1 X148.596 Y146.86 E4.6516
G1 X147.65 Y146.879 E4.68308
G1 X147.429 Y146.881 E4.69043
G1 X143.544 Y146.881 E4.81964
G1 X140.936 Y146.918 E4.90639
G1 X138.414 Y147.025 E4.99035
G1 X135.919 Y147.202 E5.07354
G1 X133.421 Y147.45 E5.15704
G1 X130.932 Y147.768 E5.24049
G1 X128.423 Y148.162 E5.32497
G1 X125.96 Y148.62 E5.40829
G1 X123.435 Y149.164 E5.4942
G1 X121.059 Y149.747 E5.57557
G1 X118.612 Y150.421 E5.65999
G1 X116.233 Y151.149 E5.74273
G1 X113.83 Y151.96 E5.82709
G1 X111.47 Y152.83 E5.91075
G1 X109.979 Y153.43 E5.9642
G1 X109.263 Y153.707 E5.98974
G1 X108.374 Y154.007 E6.02094
G1 X107.463 Y154.231 E6.05214
G1 X106.543 Y154.375 E6.08312
G1 X105.821 Y154.457 E6.10728
G1 X104.79 Y154.558 E6.14174
G1 X104.327 Y154.597 E6.15719
G1 X103.626 Y154.634 E6.18054
G1 X102.584 Y154.655 E6.21521
G1 X102.209 Y154.656 E6.22768
G1 X101.778 Y154.65 E6.24201
G1 X101.459 Y154.641 E6.25263
G1 X100.784 Y154.612 E6.2751
G1 X99.23 Y154.524 E6.32687
G1 X96.742 Y154.453 E6.40965
G1 X94.219 Y154.451 E6.49357
G1 X91.701 Y154.521 E6.57735
G1 X90.928 Y154.567 E6.60311
G1 X90.802 Y154.569 E6.6073
G1 X90.802 Y154.572 E6.6074
G1 X89.389 Y154.639 E6.65445
G1 X88.155 Y154.628 E6.69549
G1 X87.16 Y154.563 E6.72866
G1 X85.106 Y154.452 E6.79707
G1 X84.747 Y154.437 E6.80902
G1 X83.813 Y154.357 E6.8402
G1 X82.888 Y154.198 E6.87142
G1 X81.981 Y153.96 E6.90261
G1 X81.097 Y153.646 E6.93381
G1 X80.243 Y153.258 E6.96501
G1 X79.426 Y152.799 E6.99617
G1 X78.65 Y152.272 E7.02737
G1 X77.922 Y151.68 E7.05858
G1 X77.247 Y151.029 E7.08977
G1 X76.631 Y150.323 E7.12094
G1 X76.076 Y149.566 E7.15216
G1 X75.588 Y148.765 E7.18335
G1 X75.17 Y147.926 E7.21453
G1 X74.825 Y147.054 E7.24572
G1 X74.556 Y146.155 E7.27693
G1 X74.364 Y145.237 E7.30812
G1 X74.251 Y144.306 E7.33932
G1 X74.221 Y143.755 E7.35767
G1 X74.211 Y143.398 E7.36955
G1 X74.207 Y143.089 E7.37983
G1 X74.208 Y132.143 E7.74389
G1 X74.213 Y131.444 E7.76714
G1 X74.217 Y131.225 E7.77443
G1 X74.234 Y130.598 E7.79529
G1 X74.272 Y129.937 E7.81731
G1 X74.305 Y129.56 E7.8299
G1 X74.385 Y128.887 E7.85244
G1 X74.424 Y128.627 E7.86118
G1 X74.602 Y127.707 E7.89235
G1 X74.859 Y126.804 E7.92358
G1 X75.063 Y126.239 E7.94356
G1 X75.202 Y125.885 E7.9562
G1 X75.332 Y125.567 E7.96763
G1 X75.441 Y125.313 E7.97682
G1 X75.848 Y124.468 E8.00802
G1 X76.325 Y123.66 E8.03923
G1 X76.612 Y123.239 E8.05617
G1 X77.958 Y121.363 E8.13297
G1 X79.349 Y119.304 E8.21561
G1 X80.698 Y117.176 E8.29941
G1 X82.002 Y114.988 E8.38413
G1 X83.211 Y112.822 E8.46664
G1 X84.382 Y110.575 E8.55091
G1 X85.481 Y108.313 E8.63456
G1 X86.523 Y106.003 E8.71884
G1 X87.492 Y103.686 E8.80237
G1 X88.382 Y101.379 E8.88462
G1 X89.234 Y98.962 E8.96985
G1 X89.997 Y96.586 E9.05285
G1 X90.705 Y94.151 E9.1372
G1 X91.337 Y91.72 E9.22074
G1 X91.909 Y89.234 E9.30559
G1 X92.2 Y87.83 E9.35328
G1 X92.351 Y87.125 E9.37726
G1 X92.586 Y86.217 E9.40845
G1 X92.898 Y85.333 E9.43963
G1 X93.284 Y84.478 E9.47083
G1 X93.727 Y83.684 E9.50107
G1 X93.932 Y83.355 E9.51397
G1 X94.125 Y83.058 E9.52575
G1 X94.301 Y82.796 E9.53624
G1 X94.599 Y82.365 E9.55367
G1 X95.165 Y81.617 E9.58487
G0 F6000 X95.484 Y81.859
G1 F1200 X96.102 Y81.176 E9.61551
G1 X96.776 Y80.549 E9.64612
G1 X97.393 Y80.063 E9.67225
G1 X97.471 Y80.006 E9.67546
G1 X97.728 Y79.824 E9.68593
G1 X98.002 Y79.636 E9.69699
G1 X98.241 Y79.477 E9.70653
G1 X98.7 Y79.18 E9.72472
G1 X99.493 Y78.713 E9.75533
G1 X100.325 Y78.318 E9.78596
G1 X101.187 Y77.996 E9.81656
G1 X102.221 Y77.718 E9.85218
G1 X102.675 Y77.62 E9.86762
G1 X103.012 Y77.553 E9.87905
G1 X103.495 Y77.465 E9.89538
G1 X104.666 Y77.318 E9.93463
G1 X104.724 Y77.314 E9.93657
G1 X105.31 Y77.29 E9.95608
G1 X106.047 Y77.281 E9.98059
G1 X111.863 Y77.282 E10.17403
G1 X112.58 Y77.293 E10.19788
G1 X113.764 Y77.378 E10.23736
G1 X114.889 Y77.523 E10.27509
G1 X115.599 Y77.624 E10.29894
G1 X118.072 Y77.905 E10.38172
G1 X120.627 Y78.122 E10.46701
G1 X123.119 Y78.263 E10.55003
G1 X125.674 Y78.335 E10.63504
G1 X128.184 Y78.335 E10.71852
G1 X130.729 Y78.263 E10.8032
G1 X133.234 Y78.121 E10.88665
G1 X135.771 Y77.905 E10.97134
G1 X138.302 Y77.617 E11.05606
G1 X139.946 Y77.393 E11.11125
G1 X141.119 Y77.294 E11.1504
G1 X141.438 Y77.285 E11.16102
G1 X141.737 Y77.281 E11.17096
G1 X147.864 Y77.282 E11.37475
G1 X148.574 Y77.293 E11.39836
G1 X149.875 Y77.394 E11.44177
G1 X150.396 Y77.478 E11.45932
G1 X150.809 Y77.555 E11.47329
G1 X151.08 Y77.609 E11.48248
G1 X151.567 Y77.713 E11.49905
G1 X152.458 Y77.944 E11.52966
G1 X153.326 Y78.252 E11.56029
G1 X154.163 Y78.633 E11.59088
G1 X154.664 Y78.905 E11.60984
G1 X154.74 Y78.949 E11.61276
G1 X155.181 Y79.22 E11.62998
G1 X155.489 Y79.419 E11.64217
G1 X155.775 Y79.61 E11.65361
G1 X156.205 Y79.908 E11.67101
G1 X156.938 Y80.464 E11.70161
G1 X157.62 Y81.083 E11.73225
G1 X158.246 Y81.758 E11.76287
G1 X158.715 Y82.352 E11.78804
G1 X158.77 Y82.427 E11.79113
G1 X158.969 Y82.708 E11.80258
G1 X159.149 Y82.971 E11.81318
G1 X159.293 Y83.187 E11.82182
G1 X159.6 Y83.66 E11.84057
G1 X160.068 Y84.453 E11.8712
G1 X160.464 Y85.284 E11.90182
G1 X160.787 Y86.146 E11.93243
G1 X161.025 Y86.995 E11.96176
G1 X161.101 Y87.333 E11.97328
G1 X161.174 Y87.682 E11.98514
G1 X161.225 Y87.94 E11.99389
G1 X161.322 Y88.469 E12.01178
G1 X161.449 Y89.381 E12.0424
G1 X161.482 Y89.843 E12.05781
G1 X161.498 Y90.298 E12.07295
G1 X161.507 Y91.037 E12.09753
G1 X161.506 Y132.84 E13.4879
G1 X161.495 Y133.553 E13.51162
G1 X161.441 Y134.472 E13.54224
G1 X161.32 Y135.31 E13.5704
G1 X161.238 Y135.755 E13.58545
G1 X161.174 Y136.079 E13.59644
G1 X161.065 Y136.582 E13.61355
G1 X160.831 Y137.472 E13.64416
G1 X160.52 Y138.339 E13.6748
G1 X160.136 Y139.176 E13.70543
G1 X159.794 Y139.791 E13.72883
G1 X159.743 Y139.876 E13.73213
G1 X159.549 Y140.187 E13.74432
G1 X159.374 Y140.457 E13.75502
G1 X159.206 Y140.708 E13.76507
G1 X158.902 Y141.149 E13.78288
G1 X158.347 Y141.884 E13.81351
G1 X157.731 Y142.567 E13.84411
G1 X156.748 Y143.449 E13.88803
G1 X156.686 Y143.498 E13.89066
G1 X156.108 Y143.924 E13.91454
G1 X155.812 Y144.127 E13.92648
G1 X155.587 Y144.277 E13.93547
G1 X155.137 Y144.569 E13.95332
G1 X154.344 Y145.036 E13.98392
G1 X153.513 Y145.433 E14.01456
G1 X152.881 Y145.678 E14.0371
G1 X152.001 Y145.948 E14.06772
G1 X151.536 Y146.057 E14.0836
G1 X151.093 Y146.151 E14.09866
G1 X150.735 Y146.221 E14.1108
G1 X150.565 Y146.251 E14.11654
G1 X150.231 Y146.304 E14.12779
G1 X149.883 Y146.354 E14.13948
G1 X148.588 Y146.46 E14.1827
G1 X147.642 Y146.479 E14.21417
G1 X147.429 Y146.481 E14.22125
G1 X143.538 Y146.481 E14.35067
G1 X140.913 Y146.518 E14.43798
G1 X138.405 Y146.625 E14.52147
G1 X135.888 Y146.803 E14.6054
G1 X133.364 Y147.053 E14.68976
G1 X130.856 Y147.374 E14.77386
G1 X128.394 Y147.761 E14.85675
G1 X125.872 Y148.23 E14.94207
G1 X123.36 Y148.77 E15.02753
G1 X120.929 Y149.368 E15.11079
G1 X118.527 Y150.029 E15.19365
G1 X116.093 Y150.774 E15.27831
G1 X113.668 Y151.592 E15.36344
G1 X111.348 Y152.448 E15.44568
G1 X109.829 Y153.059 E15.50014
G1 X109.119 Y153.334 E15.52546
G1 X108.246 Y153.628 E15.5561
G1 X107.352 Y153.845 E15.5867
G1 X106.498 Y153.977 E15.61544
G1 X105.616 Y154.076 E15.64496
G1 X104.757 Y154.16 E15.67367
G1 X104.294 Y154.199 E15.68912
G1 X103.618 Y154.234 E15.71164
G1 X102.576 Y154.255 E15.7463
G1 X102.214 Y154.256 E15.75834
G1 X101.783 Y154.25 E15.77268
G1 X101.476 Y154.241 E15.78289
G1 X100.652 Y154.205 E15.81032
G1 X99.264 Y154.126 E15.85656
G1 X96.719 Y154.053 E15.94125
G1 X94.208 Y154.051 E16.02476
G1 X91.699 Y154.121 E16.10824
G1 X90.905 Y154.168 E16.1347
G1 X90.783 Y154.17 E16.13876
G1 X90.783 Y154.172 E16.13882
G1 X89.37 Y154.239 E16.18587
G1 X88.181 Y154.229 E16.22542
G1 X87.206 Y154.166 E16.25792
G1 X85.066 Y154.05 E16.3292
G1 X84.764 Y154.037 E16.33925
G1 X83.847 Y153.958 E16.36987
G1 X82.94 Y153.8 E16.40049
G1 X82.05 Y153.563 E16.43112
G1 X81.185 Y153.25 E16.46172
G1 X80.349 Y152.863 E16.49236
G1 X79.55 Y152.405 E16.52299
G1 X78.794 Y151.88 E16.5536
G1 X78.087 Y151.291 E16.58421
G1 X77.433 Y150.642 E16.61485
G1 X76.838 Y149.94 E16.64546
G1 X76.306 Y149.188 E16.6761
G1 X75.842 Y148.393 E16.70671
G1 X75.448 Y147.561 E16.73733
G1 X75.128 Y146.698 E16.76794
G1 X74.884 Y145.81 E16.79857
G1 X74.718 Y144.905 E16.82918
G1 X74.621 Y143.744 E16.86793
G1 X74.611 Y143.387 E16.8798
G1 X74.607 Y143.089 E16.88972
G1 X74.608 Y132.146 E17.25368
G1 X74.613 Y131.447 E17.27693
G1 X74.617 Y131.236 E17.28395
G1 X74.634 Y130.609 E17.30481
G1 X74.67 Y129.972 E17.32603
G1 X74.703 Y129.595 E17.33862
G1 X74.78 Y128.947 E17.36032
G1 X74.819 Y128.687 E17.36907
G1 X74.995 Y127.783 E17.3997
G1 X75.249 Y126.898 E17.43032
G1 X75.435 Y126.385 E17.44847
G1 X75.574 Y126.031 E17.46112
G1 X75.7 Y125.725 E17.47213
G1 X75.809 Y125.471 E17.48132
G1 X76.209 Y124.641 E17.51197
G1 X76.937 Y123.472 E17.55777
G1 X78.281 Y121.598 E17.63447
G1 X79.691 Y119.512 E17.71822
G1 X81.047 Y117.374 E17.80242
G1 X82.337 Y115.208 E17.88627
G1 X83.581 Y112.978 E17.9712
G1 X84.739 Y110.756 E18.05454
G1 X85.848 Y108.474 E18.13893
G1 X86.88 Y106.187 E18.22238
G1 X87.863 Y103.836 E18.30713
G1 X88.756 Y101.519 E18.38972
G1 X89.605 Y99.111 E18.47465
G1 X90.388 Y96.672 E18.55985
G1 X91.087 Y94.267 E18.64315
G1 X91.73 Y91.797 E18.72804
G1 X92.3 Y89.318 E18.81264
G1 X92.591 Y87.914 E18.86033
G1 X92.742 Y87.209 E18.88431
G1 X92.974 Y86.318 E18.91493
G1 X93.282 Y85.45 E18.94557
G1 X93.664 Y84.613 E18.97617
G1 X94.068 Y83.892 E19.00366
G1 X94.268 Y83.573 E19.01618
G1 X94.461 Y83.276 E19.02796
G1 X94.63 Y83.024 E19.03805
G1 X94.928 Y82.593 E19.05548
G1 X95.484 Y81.859 E19.08611
G0 F6000 X95.803 Y82.101
G1 F1200 X96.411 Y81.432 E19.11617
G1 X97.075 Y80.821 E19.14619
G1 X97.629 Y80.386 E19.16961
G1 X97.954 Y80.153 E19.18291
G1 X98.228 Y79.965 E19.19397
G1 X98.458 Y79.812 E19.20315
G1 X98.917 Y79.515 E19.22134
G1 X99.696 Y79.059 E19.25136
G1 X100.513 Y78.673 E19.28141
G1 X101.36 Y78.361 E19.31143
G1 X102.306 Y78.109 E19.344
G1 X102.76 Y78.011 E19.35944
G1 X103.084 Y77.946 E19.37044
G1 X103.567 Y77.858 E19.38676
G1 X104.693 Y77.717 E19.42451
G1 X104.751 Y77.713 E19.42644
G1 X105.316 Y77.69 E19.44525
G1 X106.047 Y77.681 E19.46956
G1 X111.856 Y77.682 E19.66277
G1 X112.573 Y77.693 E19.68662
G1 X113.713 Y77.775 E19.72464
G1 X114.832 Y77.919 E19.76216
G1 X115.529 Y78.018 E19.78558
G1 X118.064 Y78.306 E19.87043
G1 X120.57 Y78.519 E19.95408
G1 X123.122 Y78.663 E20.0391
G1 X125.663 Y78.735 E20.12365
G1 X128.195 Y78.735 E20.20786
G1 X130.729 Y78.663 E20.29218
G1 X133.29 Y78.518 E20.37749
G1 X135.779 Y78.306 E20.46058
G1 X138.403 Y78.007 E20.54842
G1 X139.673 Y77.835 E20.59104
G1 X140.001 Y77.789 E20.60206
G1 X141.13 Y77.694 E20.63974
G1 X141.449 Y77.685 E20.65036
G1 X141.737 Y77.681 E20.65994
G1 X147.858 Y77.682 E20.86352
G1 X148.568 Y77.693 E20.88714
G1 X149.82 Y77.79 E20.9289
G1 X150.322 Y77.871 E20.94582
G1 X150.735 Y77.948 E20.95979
G1 X150.996 Y78 E20.96864
G1 X151.483 Y78.104 E20.9852
G1 X152.357 Y78.331 E21.01524
G1 X153.208 Y78.635 E21.04529
G1 X154.028 Y79.013 E21.07533
G1 X154.464 Y79.252 E21.09186
G1 X154.54 Y79.296 E21.09478
G1 X154.964 Y79.556 E21.11133
G1 X155.272 Y79.755 E21.12352
G1 X155.547 Y79.938 E21.13451
G1 X155.977 Y80.236 E21.15191
G1 X156.696 Y80.783 E21.18196
G1 X157.363 Y81.391 E21.21198
G1 X157.975 Y82.056 E21.24204
G1 X158.392 Y82.588 E21.26452
G1 X158.447 Y82.663 E21.26761
G1 X158.639 Y82.934 E21.27866
G1 X158.819 Y83.197 E21.28926
G1 X158.958 Y83.405 E21.29758
G1 X159.265 Y83.878 E21.31633
G1 X159.722 Y84.656 E21.34634
G1 X160.109 Y85.472 E21.37638
G1 X160.423 Y86.319 E21.40643
G1 X160.636 Y87.087 E21.43293
G1 X160.71 Y87.415 E21.44412
G1 X160.783 Y87.764 E21.45598
G1 X160.832 Y88.012 E21.46439
G1 X160.929 Y88.541 E21.48227
G1 X161.083 Y89.863 E21.52654
G1 X161.098 Y90.303 E21.54118
G1 X161.107 Y91.037 E21.5656
G1 X161.106 Y132.833 E22.95574
G1 X161.095 Y133.546 E22.97946
G1 X161.041 Y134.448 E23.00951
G1 X160.927 Y135.237 E23.03603
G1 X160.845 Y135.682 E23.05108
G1 X160.783 Y135.994 E23.06166
G1 X160.674 Y136.497 E23.07877
G1 X160.443 Y137.37 E23.10881
G1 X160.137 Y138.22 E23.13886
G1 X159.757 Y139.039 E23.16889
G1 X159.451 Y139.585 E23.1897
G1 X159.4 Y139.67 E23.193
