;FLAVOR:Marlin
;TIME:2915
;Filament used: 2.67779m
;Layer height: 0.28
;MINX:32.656
;MINY:35
;MINZ:0.28
;MAXX:76.133
;MAXY:200
;MAXZ:3.08
;Generated with Cura_SteamEngine 4.7.0
M140 S55
M105
M190 S55
M104 S210
M105
M109 S210
M82 ;absolute extrusion mode
; Ender 3 Custom Start G-code
G92 E0 ; Reset Extruder
G28 ; Home all axes
G1 Z2.0 F3000 ; Move Z Axis up little to prevent scratching of Heat Bed
G1 X0.1 Y20 Z0.3 F5000.0 ; Move to start position
G1 X0.1 Y200.0 Z0.3 F1500.0 E15 ; Draw the first line
G1 X0.4 Y200.0 Z0.3 F5000.0 ; Move to side a little
G1 X0.4 Y20 Z0.3 F1500.0 E30 ; Draw the second line
G92 E0 ; Reset Extruder
G1 Z2.0 F3000 ; Move Z Axis up little to prevent scratching of Heat Bed
G1 X5 Y20 Z0.3 F5000.0 ; Move over to prevent blob squish
G92 E0
G92 E0
G1 F2700 E-5
;LAYER_COUNT:11
;LAYER:0
M107
G0 F6000 X35.855 Y38.264 Z0.28
;TYPE:SKIRT
G1 F2700 E0
G1 F1200 X36.543 Y37.627 E0.04366
G1 X37.283 Y37.051 E0.08732
G1 X38.069 Y36.539 E0.131
G1 X38.896 Y36.097 E0.17467
G1 X39.758 Y35.727 E0.21835
G1 X40.648 Y35.431 E0.26202
G1 X41.56 Y35.213 E0.30568
G1 X42.487 Y35.072 E0.34935
G1 X43.358 Y35.013 E0.39
G1 X43.679 Y35.004 E0.40495
G1 X43.987 Y35 E0.41929
G1 X53.35 Y35 E0.85527
G1 X54.825 Y35.005 E0.92396
G1 X55.467 Y35 E0.95385
G1 X64.584 Y35.001 E1.37838
G1 X65.282 Y35.011 E1.41088
G1 X66.218 Y35.065 E1.45454
G1 X67.146 Y35.197 E1.49818
G1 X68.06 Y35.409 E1.54187
G1 X68.952 Y35.698 E1.58553
G1 X69.817 Y36.061 E1.62922
G1 X70.647 Y36.497 E1.67287
G1 X71.438 Y37.002 E1.71657
G1 X72.182 Y37.573 E1.76024
G1 X72.875 Y38.205 E1.80391
G1 X73.512 Y38.893 E1.84757
G1 X74.087 Y39.634 E1.89125
G1 X74.598 Y40.42 E1.9349
G1 X75.04 Y41.248 E1.97861
G1 X75.409 Y42.11 E2.02227
G1 X75.704 Y43 E2.06593
G1 X75.922 Y43.912 E2.10959
G1 X76.062 Y44.84 E2.15329
G1 X76.12 Y45.701 E2.19347
G1 X76.129 Y46.021 E2.20838
G1 X76.133 Y46.33 E2.22277
G1 X76.132 Y111 E5.23407
G1 X76.132 Y188.264 E8.83181
G1 X76.122 Y189.127 E8.872
G1 X76.071 Y190.064 E8.91569
G1 X75.939 Y190.992 E8.95934
G1 X75.73 Y191.906 E9.003
G1 X75.443 Y192.799 E9.04667
G1 X75.081 Y193.665 E9.09038
G1 X74.647 Y194.496 E9.13403
G1 X74.143 Y195.287 E9.17771
G1 X73.574 Y196.032 E9.22136
G1 X72.943 Y196.727 E9.26507
G1 X72.256 Y197.365 E9.30873
G1 X71.517 Y197.942 E9.35238
G1 X70.731 Y198.454 E9.39606
G1 X69.905 Y198.897 E9.43971
G1 X69.043 Y199.269 E9.48342
G1 X68.154 Y199.565 E9.52705
G1 X67.242 Y199.785 E9.57074
G1 X66.315 Y199.926 E9.6144
G1 X65.431 Y199.987 E9.65566
G1 X65.11 Y199.996 E9.67061
G1 X64.802 Y200 E9.68496
G1 X55.44 Y200 E10.12089
G1 X53.965 Y199.995 E10.18957
G1 X53.323 Y200 E10.21947
G1 X44.221 Y199.999 E10.6433
G1 X43.523 Y199.99 E10.6758
G1 X42.587 Y199.938 E10.71945
G1 X41.658 Y199.806 E10.76314
G1 X40.744 Y199.596 E10.80681
G1 X39.851 Y199.309 E10.85049
G1 X38.986 Y198.946 E10.89417
G1 X38.155 Y198.512 E10.93782
G1 X37.364 Y198.008 E10.9815
G1 X36.619 Y197.438 E11.02518
G1 X35.925 Y196.807 E11.06885
G1 X35.288 Y196.12 E11.11248
G1 X34.711 Y195.38 E11.15617
G1 X34.199 Y194.594 E11.19985
G1 X33.756 Y193.767 E11.24354
G1 X33.385 Y192.906 E11.28719
G1 X33.089 Y192.016 E11.33087
G1 X32.87 Y191.104 E11.37454
G1 X32.729 Y190.177 E11.4182
G1 X32.668 Y189.268 E11.46062
G1 X32.659 Y188.911 E11.47725
G1 X32.656 Y188.634 E11.49015
G1 X32.657 Y124 E14.49978
G1 X32.657 Y46.674 E18.1004
G1 X32.667 Y45.86 E18.13831
G1 X32.72 Y44.924 E18.18196
G1 X32.852 Y43.995 E18.22566
G1 X33.063 Y43.081 E18.26934
G1 X33.351 Y42.189 E18.31298
G1 X33.714 Y41.324 E18.35666
G1 X34.149 Y40.493 E18.40034
G1 X34.653 Y39.703 E18.44397
G1 X35.223 Y38.958 E18.48765
G1 X35.855 Y38.264 E18.53136
G0 F6000 X36.246 Y38.439
G1 F1200 X36.931 Y37.823 E18.57426
G1 X37.667 Y37.27 E18.61712
G1 X38.448 Y36.782 E18.66001
G1 X39.268 Y36.364 E18.70286
G1 X40.122 Y36.019 E18.74575
G1 X41.002 Y35.749 E18.78861
G1 X41.902 Y35.557 E18.83146
G1 X42.816 Y35.443 E18.87435
G1 X43.369 Y35.413 E18.90014
G1 X43.69 Y35.404 E18.91509
G1 X43.987 Y35.4 E18.92892
G1 X53.349 Y35.4 E19.36486
G1 X54.827 Y35.405 E19.43368
G1 X55.47 Y35.4 E19.46362
G1 X64.578 Y35.401 E19.88773
G1 X65.276 Y35.411 E19.92023
G1 X66.195 Y35.464 E19.9631
G1 X67.106 Y35.597 E20.00597
G1 X68.002 Y35.808 E20.04883
G1 X68.876 Y36.096 E20.09168
G1 X69.723 Y36.459 E20.13459
G1 X70.534 Y36.894 E20.17744
G1 X71.304 Y37.398 E20.22029
G1 X72.028 Y37.967 E20.26317
G1 X72.7 Y38.597 E20.30606
G1 X73.315 Y39.282 E20.34893
G1 X73.868 Y40.018 E20.3918
G1 X74.355 Y40.799 E20.43465
G1 X74.772 Y41.62 E20.47753
G1 X75.117 Y42.474 E20.52042
G1 X75.386 Y43.354 E20.56327
G1 X75.578 Y44.255 E20.60616
G1 X75.691 Y45.168 E20.649
G1 X75.72 Y45.712 E20.67437
G1 X75.729 Y46.032 E20.68928
G1 X75.733 Y46.33 E20.70315
G1 X75.732 Y111 E23.71446
G1 X75.732 Y188.264 E27.31219
G1 X75.722 Y189.122 E27.35215
G1 X75.671 Y190.041 E27.39501
G1 X75.54 Y190.953 E27.43791
G1 X75.33 Y191.849 E27.48076
G1 X75.044 Y192.724 E27.52363
G1 X74.683 Y193.571 E27.5665
G1 X74.249 Y194.383 E27.60937
G1 X73.747 Y195.155 E27.65225
G1 X73.179 Y195.88 E27.69514
G1 X72.551 Y196.553 E27.738
G1 X71.867 Y197.169 E27.78086
G1 X71.132 Y197.723 E27.82372
G1 X70.352 Y198.212 E27.86659
G1 X69.532 Y198.631 E27.90946
G1 X68.679 Y198.977 E27.95233
G1 X67.799 Y199.248 E27.9952
G1 X66.899 Y199.441 E28.03806
G1 X65.985 Y199.556 E28.08096
G1 X65.42 Y199.587 E28.10731
G1 X65.099 Y199.596 E28.12226
G1 X64.802 Y199.6 E28.13609
G1 X55.441 Y199.6 E28.57198
G1 X53.963 Y199.595 E28.6408
G1 X53.32 Y199.6 E28.67074
G1 X44.226 Y199.599 E29.0942
G1 X43.528 Y199.59 E29.1267
G1 X42.609 Y199.538 E29.16956
G1 X41.698 Y199.407 E29.21242
G1 X40.802 Y199.197 E29.25527
G1 X39.927 Y198.91 E29.29815
G1 X39.08 Y198.548 E29.34104
G1 X38.268 Y198.114 E29.38391
G1 X37.497 Y197.612 E29.42675
G1 X36.772 Y197.044 E29.46964
G1 X36.099 Y196.415 E29.51253
G1 X35.484 Y195.731 E29.55536
G1 X34.93 Y194.996 E29.59822
G1 X34.442 Y194.215 E29.6411
G1 X34.023 Y193.395 E29.68398
G1 X33.677 Y192.542 E29.72684
G1 X33.407 Y191.662 E29.76971
G1 X33.214 Y190.761 E29.81261
G1 X33.1 Y189.848 E29.85546
G1 X33.068 Y189.258 E29.88297
G1 X33.059 Y188.901 E29.8996
G1 X33.056 Y188.634 E29.91203
G1 X33.057 Y124 E32.92166
G1 X33.057 Y46.674 E36.52228
G1 X33.067 Y45.866 E36.55991
G1 X33.119 Y44.946 E36.60282
G1 X33.251 Y44.035 E36.64568
G1 X33.462 Y43.139 E36.68854
G1 X33.749 Y42.264 E36.73142
G1 X34.112 Y41.418 E36.77429
G1 X34.546 Y40.606 E36.81716
G1 X35.049 Y39.835 E36.86003
G1 X35.618 Y39.111 E36.9029
G1 X36.246 Y38.439 E36.94573
G0 F6000 X36.638 Y38.617
G1 F1200 X37.319 Y38.024 E36.98778
G1 X38.051 Y37.494 E37.02986
G1 X38.826 Y37.031 E37.0719
G1 X39.639 Y36.638 E37.11395
G1 X40.484 Y36.318 E37.15602
G1 X41.353 Y36.075 E37.19804
G1 X42.241 Y35.909 E37.2401
G1 X43.38 Y35.813 E37.29333
G1 X43.701 Y35.804 E37.30828
G1 X43.987 Y35.8 E37.3216
G1 X53.348 Y35.8 E37.75748
G1 X54.829 Y35.805 E37.82645
G1 X55.473 Y35.8 E37.85644
G1 X64.572 Y35.801 E38.28012
G1 X65.27 Y35.811 E38.31263
G1 X66.172 Y35.864 E38.3547
G1 X67.065 Y35.996 E38.39673
G1 X67.943 Y36.207 E38.43878
G1 X68.799 Y36.495 E38.48084
G1 X69.626 Y36.857 E38.52287
G1 X70.418 Y37.292 E38.56495
G1 X71.169 Y37.794 E38.60701
G1 X71.872 Y38.361 E38.64907
G1 X72.522 Y38.988 E38.69112
G1 X73.114 Y39.67 E38.73317
G1 X73.644 Y40.401 E38.77521
G1 X74.106 Y41.177 E38.81727
G1 X74.499 Y41.99 E38.85932
G1 X74.817 Y42.835 E38.90136
G1 X75.06 Y43.705 E38.94342
G1 X75.225 Y44.593 E38.98547
G1 X75.32 Y45.723 E39.03828
G1 X75.329 Y46.043 E39.05318
G1 X75.333 Y46.33 E39.06655
G1 X75.332 Y111 E42.07786
G1 X75.332 Y188.264 E45.67559
G1 X75.322 Y189.117 E45.71531
G1 X75.271 Y190.019 E45.75738
G1 X75.14 Y190.913 E45.79945
G1 X74.931 Y191.791 E45.84148
G1 X74.645 Y192.648 E45.88355
G1 X74.284 Y193.476 E45.92561
G1 X73.852 Y194.268 E45.96762
G1 X73.351 Y195.02 E46.00969
G1 X72.785 Y195.724 E46.05175
G1 X72.16 Y196.375 E46.09378
G1 X71.479 Y196.969 E46.13585
G1 X70.748 Y197.5 E46.17793
G1 X69.974 Y197.964 E46.21995
G1 X69.161 Y198.358 E46.26201
G1 X68.317 Y198.678 E46.30404
G1 X67.447 Y198.923 E46.34613
G1 X66.56 Y199.089 E46.38815
G1 X65.409 Y199.187 E46.44194
G1 X65.088 Y199.196 E46.45689
G1 X64.802 Y199.2 E46.47021
G1 X55.442 Y199.2 E46.90605
G1 X53.961 Y199.195 E46.97501
G1 X53.317 Y199.2 E47.005
G1 X44.231 Y199.199 E47.42808
G1 X43.533 Y199.19 E47.46059
G1 X42.632 Y199.139 E47.50261
G1 X41.738 Y199.007 E47.54469
G1 X40.86 Y198.798 E47.58672
G1 X40.003 Y198.511 E47.6288
G1 X39.176 Y198.15 E47.67082
G1 X38.383 Y197.717 E47.71289
G1 X37.632 Y197.216 E47.75493
G1 X36.928 Y196.65 E47.79699
G1 X36.277 Y196.024 E47.83904
G1 X35.684 Y195.343 E47.88109
G1 X35.154 Y194.612 E47.92313
G1 X34.69 Y193.837 E47.96519
G1 X34.296 Y193.024 E48.00726
G1 X33.976 Y192.18 E48.04929
G1 X33.732 Y191.31 E48.09137
G1 X33.566 Y190.422 E48.13343
G1 X33.468 Y189.248 E48.18829
G1 X33.459 Y188.891 E48.20492
G1 X33.456 Y188.634 E48.21688
G1 X33.457 Y124 E51.22651
G1 X33.457 Y46.674 E54.82714
G1 X33.467 Y45.871 E54.86453
G1 X33.519 Y44.969 E54.9066
G1 X33.651 Y44.076 E54.94863
G1 X33.861 Y43.198 E54.99067
G1 X34.148 Y42.341 E55.03275
G1 X34.51 Y41.514 E55.07479
G1 X34.943 Y40.722 E55.11682
G1 X35.445 Y39.971 E55.15888
G1 X36.012 Y39.267 E55.20098
G1 X36.638 Y38.617 E55.243
G1 F2700 E50.243
;MESH:V_slot_Cover.stl
G0 F6000 X44.077 Y45.335
G0 X44.077 Y46.42
G0 X44.438 Y188.218
G0 X52.975 Y188.4
;TYPE:WALL-INNER
G1 F2700 E55.243
G1 F1200 X44.455 Y188.4 E55.63972
G1 X44.256 Y188.4 E55.64899
G1 X44.256 Y188.201 E55.65498
G1 X44.257 Y124 E58.64445
G1 X44.257 Y46.6 E62.24852
G1 X52.777 Y46.6 E62.64525
G1 X52.976 Y46.6 E62.65451
G1 X52.976 Y46.799 E62.66051
G1 X52.975 Y111 E65.64998
G1 X52.975 Y188.4 E69.25404
G0 F6000 X53.375 Y188.8
;TYPE:WALL-OUTER
G1 F1200 X43.856 Y188.8 E69.69729
G1 X43.857 Y124 E72.71465
G1 X43.857 Y46.2 E76.33734
G1 X53.376 Y46.2 E76.78059
G1 X53.375 Y111 E79.79795
G1 X53.375 Y176 E82.82462
G1 X53.375 Y188.8 E83.42064
G0 F6000 X53.105 Y188.53
G0 X52.865 Y188.01
G0 X52.585 Y188.01
;TYPE:SKIN
G1 F1200 X44.646 Y188.01 E83.79031
G1 X44.647 Y124 E86.77089
G1 X44.647 Y46.99 E90.3568
G1 X52.586 Y46.99 E90.72647
G1 X52.585 Y111 E93.70704
G1 X52.585 Y188.01 E97.29295
G0 F6000 X52.865 Y188.01
G0 X52.801 Y188.197
G0 X45.296 Y188.29
G0 X45.296 Y187.849
G1 F1200 X44.805 Y187.358 E97.32528
G0 F6000 X44.805 Y186.792
G1 F1200 X45.862 Y187.849 E97.39489
G0 F6000 X46.427 Y187.849
G1 F1200 X44.805 Y186.227 E97.5017
G0 F6000 X44.805 Y185.661
G1 F1200 X46.993 Y187.849 E97.64578
G0 F6000 X47.559 Y187.849
G1 F1200 X44.805 Y185.095 E97.82714
G0 F6000 X44.805 Y184.53
G1 F1200 X48.124 Y187.849 E98.0457
G0 F6000 X48.69 Y187.849
G1 F1200 X44.805 Y183.964 E98.30154
G0 F6000 X44.805 Y183.398
G1 F1200 X49.256 Y187.849 E98.59464
G0 F6000 X49.822 Y187.849
G1 F1200 X44.805 Y182.833 E98.92499
G0 F6000 X44.805 Y182.267
G1 F1200 X50.387 Y187.849 E99.29257
G0 F6000 X50.953 Y187.849
G1 F1200 X44.805 Y181.701 E99.69743
G0 F6000 X44.805 Y181.136
G1 F1200 X51.519 Y187.849 E100.13952
G0 F6000 X52.084 Y187.849
G1 F1200 X44.805 Y180.57 E100.61886
G0 F6000 X44.805 Y180.004
G1 F1200 X52.425 Y187.624 E101.12065
G0 F6000 X52.425 Y187.058
G1 F1200 X44.805 Y179.438 E101.62244
G0 F6000 X44.805 Y178.873
G1 F1200 X52.425 Y186.493 E102.12423
G0 F6000 X52.425 Y185.927
G1 F1200 X44.805 Y178.307 E102.62602
G0 F6000 X44.805 Y177.741
G1 F1200 X52.425 Y185.361 E103.12781
G0 F6000 X52.425 Y184.795
G1 F1200 X44.805 Y177.176 E103.62956
G0 F6000 X44.805 Y176.61
G1 F1200 X52.425 Y184.23 E104.13135
G0 F6000 X52.425 Y183.664
G1 F1200 X44.805 Y176.044 E104.63314
G0 F6000 X44.805 Y175.479
G1 F1200 X52.425 Y183.098 E105.1349
G0 F6000 X52.425 Y182.533
G1 F1200 X44.805 Y174.913 E105.63669
G0 F6000 X44.805 Y174.347
G1 F1200 X52.425 Y181.967 E106.13848
G0 F6000 X52.425 Y181.401
G1 F1200 X44.805 Y173.782 E106.64024
G0 F6000 X44.805 Y173.216
G1 F1200 X52.425 Y180.836 E107.14203
G0 F6000 X52.425 Y180.27
G1 F1200 X44.805 Y172.65 E107.64382
G0 F6000 X44.805 Y172.085
G1 F1200 X52.425 Y179.704 E108.14558
G0 F6000 X52.425 Y179.139
G1 F1200 X44.805 Y171.519 E108.64737
G0 F6000 X44.805 Y170.953
G1 F1200 X52.425 Y178.573 E109.14916
G0 F6000 X52.425 Y178.007
G1 F1200 X44.805 Y170.387 E109.65095
G0 F6000 X44.805 Y169.822
G1 F1200 X52.425 Y177.442 E110.15274
G0 F6000 X52.425 Y176.876
G1 F1200 X44.805 Y169.256 E110.65453
G0 F6000 X44.805 Y168.69
G1 F1200 X52.425 Y176.31 E111.15632
G0 F6000 X52.425 Y175.745
G1 F1200 X44.805 Y168.125 E111.65811
G0 F6000 X44.805 Y167.559
G1 F1200 X52.425 Y175.179 E112.1599
G0 F6000 X52.425 Y174.613
G1 F1200 X44.805 Y166.993 E112.66169
G0 F6000 X44.805 Y166.428
G1 F1200 X52.425 Y174.047 E113.16344
G0 F6000 X52.425 Y173.482
G1 F1200 X44.805 Y165.862 E113.66523
G0 F6000 X44.805 Y165.296
G1 F1200 X52.425 Y172.916 E114.16702
G0 F6000 X52.425 Y172.35
G1 F1200 X44.805 Y164.731 E114.66878
G0 F6000 X44.805 Y164.165
G1 F1200 X52.425 Y171.785 E115.17057
G0 F6000 X52.425 Y171.219
G1 F1200 X44.805 Y163.599 E115.67236
G0 F6000 X44.805 Y163.034
G1 F1200 X52.425 Y170.653 E116.17412
G0 F6000 X52.425 Y170.088
G1 F1200 X44.805 Y162.468 E116.67591
G0 F6000 X44.805 Y161.902
G1 F1200 X52.425 Y169.522 E117.1777
G0 F6000 X52.425 Y168.956
G1 F1200 X44.805 Y161.337 E117.67945
G0 F6000 X44.805 Y160.771
G1 F1200 X52.425 Y168.391 E118.18124
G0 F6000 X52.425 Y167.825
G1 F1200 X44.805 Y160.205 E118.68303
G0 F6000 X44.805 Y159.639
G1 F1200 X52.425 Y167.259 E119.18482
G0 F6000 X52.425 Y166.694
G1 F1200 X44.805 Y159.074 E119.68661
G0 F6000 X44.805 Y158.508
G1 F1200 X52.425 Y166.128 E120.1884
G0 F6000 X52.425 Y165.562
G1 F1200 X44.805 Y157.942 E120.69019
G0 F6000 X44.805 Y157.377
G1 F1200 X52.425 Y164.997 E121.19198
G0 F6000 X52.425 Y164.431
G1 F1200 X44.805 Y156.811 E121.69377
G0 F6000 X44.805 Y156.245
G1 F1200 X52.425 Y163.865 E122.19556
G0 F6000 X52.425 Y163.299
G1 F1200 X44.806 Y155.68 E122.69729
G0 F6000 X44.806 Y155.115
G1 F1200 X52.425 Y162.734 E123.19901
G0 F6000 X52.425 Y162.168
G1 F1200 X44.806 Y154.549 E123.70074
G0 F6000 X44.806 Y153.983
G1 F1200 X52.425 Y161.602 E124.20246
G0 F6000 X52.425 Y161.037
G1 F1200 X44.806 Y153.418 E124.70418
G0 F6000 X44.806 Y152.852
G1 F1200 X52.425 Y160.471 E125.20591
G0 F6000 X52.425 Y159.905
G1 F1200 X44.806 Y152.286 E125.70763
G0 F6000 X44.806 Y151.721
G1 F1200 X52.425 Y159.34 E126.20936
G0 F6000 X52.425 Y158.774
G1 F1200 X44.806 Y151.155 E126.71108
G0 F6000 X44.806 Y150.589
G1 F1200 X52.425 Y158.208 E127.21281
G0 F6000 X52.425 Y157.643
G1 F1200 X44.806 Y150.024 E127.71453
G0 F6000 X44.806 Y149.458
G1 F1200 X52.425 Y157.077 E128.21625
G0 F6000 X52.425 Y156.511
G1 F1200 X44.806 Y148.892 E128.71798
G0 F6000 X44.806 Y148.326
G1 F1200 X52.425 Y155.946 E129.21974
G0 F6000 X52.425 Y155.38
G1 F1200 X44.806 Y147.761 E129.72146
G0 F6000 X44.806 Y147.195
G1 F1200 X52.425 Y154.814 E130.22318
G0 F6000 X52.425 Y154.248
G1 F1200 X44.806 Y146.629 E130.72491
G0 F6000 X44.806 Y146.064
G1 F1200 X52.425 Y153.683 E131.22663
G0 F6000 X52.425 Y153.117
G1 F1200 X44.806 Y145.498 E131.72836
G0 F6000 X44.806 Y144.932
G1 F1200 X52.425 Y152.551 E132.23008
G0 F6000 X52.425 Y151.986
G1 F1200 X44.806 Y144.367 E132.7318
G0 F6000 X44.806 Y143.801
G1 F1200 X52.425 Y151.42 E133.23353
G0 F6000 X52.425 Y150.854
G1 F1200 X44.806 Y143.235 E133.73525
G0 F6000 X44.806 Y142.67
G1 F1200 X52.425 Y150.289 E134.23698
G0 F6000 X52.425 Y149.723
G1 F1200 X44.806 Y142.104 E134.7387
G0 F6000 X44.806 Y141.538
G1 F1200 X52.425 Y149.157 E135.24043
G0 F6000 X52.425 Y148.592
G1 F1200 X44.806 Y140.973 E135.74215
G0 F6000 X44.806 Y140.407
G1 F1200 X52.425 Y148.026 E136.24387
G0 F6000 X52.425 Y147.46
G1 F1200 X44.806 Y139.841 E136.7456
G0 F6000 X44.806 Y139.275
G1 F1200 X52.425 Y146.895 E137.24735
G0 F6000 X52.425 Y146.329
G1 F1200 X44.806 Y138.71 E137.74908
G0 F6000 X44.806 Y138.144
G1 F1200 X52.425 Y145.763 E138.2508
G0 F6000 X52.425 Y145.198
G1 F1200 X44.806 Y137.578 E138.75256
G0 F6000 X44.806 Y137.013
G1 F1200 X52.425 Y144.632 E139.25428
G0 F6000 X52.425 Y144.066
G1 F1200 X44.806 Y136.447 E139.75601
G0 F6000 X44.806 Y135.881
G1 F1200 X52.425 Y143.5 E140.25773
G0 F6000 X52.425 Y142.935
G1 F1200 X44.806 Y135.316 E140.75946
G0 F6000 X44.806 Y134.75
G1 F1200 X52.425 Y142.369 E141.26118
G0 F6000 X52.425 Y141.803
