;FLAVOR:Marlin
;TIME:998
;Filament used: 0.541324m
;Layer height: 0.2
;MINX:88.4
;MINY:90.9
;MINZ:0.2
;MAXX:146.6
;MAXY:144.1
;MAXZ:6.4
;Generated with Cura_SteamEngine 4.7.0
M140 S55
M105
M190 S55
M104 S210
M105
M109 S210
M82 ;absolute extrusion mode
; Ender 3 Custom Start G-code
G92 E0 ; Reset Extruder
G28 ; Home all axes
G1 Z2.0 F3000 ; Move Z Axis up little to prevent scratching of Heat Bed
G1 X0.1 Y20 Z0.3 F5000.0 ; Move to start position
G1 X0.1 Y200.0 Z0.3 F1500.0 E15 ; Draw the first line
G1 X0.4 Y200.0 Z0.3 F5000.0 ; Move to side a little
G1 X0.4 Y20 Z0.3 F1500.0 E30 ; Draw the second line
G92 E0 ; Reset Extruder
G1 Z2.0 F3000 ; Move Z Axis up little to prevent scratching of Heat Bed
G1 X5 Y20 Z0.3 F5000.0 ; Move over to prevent blob squish
G92 E0
G92 E0
G1 F2700 E-5
;LAYER_COUNT:32
;LAYER:0
M107
G0 F6000 X92.281 Y118.115 Z0.2
;TYPE:SKIRT
G1 F2700 E0
G1 F1200 X93.017 Y117.562 E0.03062
G1 X93.574 Y117.205 E0.05262
G1 X93.662 Y117.153 E0.05602
G1 X95.871 Y115.789 E0.14237
G1 X97.997 Y114.394 E0.22695
G1 X100.047 Y112.963 E0.3101
G1 X102.092 Y111.449 E0.39473
G1 X104.079 Y109.889 E0.47875
G1 X106.03 Y108.263 E0.56322
G1 X107.935 Y106.585 E0.64766
G1 X109.77 Y104.874 E0.73111
G1 X111.545 Y103.12 E0.8141
G1 X113.345 Y101.24 E0.90067
G1 X115 Y99.411 E0.98271
G1 X116.631 Y97.501 E1.06625
G1 X118.284 Y95.452 E1.15381
G1 X118.666 Y94.966 E1.17437
G1 X119.265 Y94.268 E1.20496
G1 X119.923 Y93.623 E1.23561
G1 X120.634 Y93.038 E1.26623
G1 X121.393 Y92.518 E1.29683
G1 X122.194 Y92.064 E1.32746
G1 X123.032 Y91.683 E1.35807
G1 X123.9 Y91.375 E1.38871
G1 X124.791 Y91.144 E1.41932
G1 X125.699 Y90.991 E1.44995
G1 X126.679 Y90.915 E1.48264
G1 X127.004 Y90.905 E1.49346
G1 X127.33 Y90.9 E1.5043
G1 X129.293 Y90.9 E1.56959
G1 X130.146 Y90.911 E1.59796
G1 X131.065 Y90.964 E1.62858
G1 X131.976 Y91.097 E1.6592
G1 X132.872 Y91.308 E1.68982
G1 X133.747 Y91.596 E1.72046
G1 X134.593 Y91.959 E1.75108
G1 X135.404 Y92.394 E1.78168
G1 X136.175 Y92.898 E1.81232
G1 X137.204 Y93.739 E1.85652
G1 X137.356 Y93.88 E1.86342
G1 X137.549 Y94.064 E1.87229
G1 X137.803 Y94.313 E1.88412
G1 X139.123 Y95.633 E1.94621
G1 X139.594 Y96.118 E1.96869
G1 X140.206 Y96.806 E1.99932
G1 X140.757 Y97.544 E2.02995
G1 X141.241 Y98.327 E2.06057
G1 X141.655 Y99.15 E2.09121
G1 X141.996 Y100.005 E2.12182
G1 X142.262 Y100.886 E2.15243
G1 X142.45 Y101.787 E2.18305
G1 X142.583 Y103.125 E2.22777
G1 X142.626 Y104.343 E2.2683
G1 X142.76 Y107.016 E2.35732
G1 X142.959 Y109.553 E2.44196
G1 X143.227 Y112.051 E2.52552
G1 X143.57 Y114.587 E2.61064
G1 X143.972 Y117.029 E2.69295
G1 X144.464 Y119.562 E2.77877
G1 X145.004 Y121.982 E2.86124
G1 X145.631 Y124.462 E2.94632
G1 X145.818 Y125.121 E2.96911
G1 X146.193 Y126.498 E3.01657
G1 X146.396 Y127.396 E3.04719
G1 X146.495 Y128.07 E3.06985
G1 X146.52 Y128.287 E3.07712
G1 X146.581 Y129.068 E3.10317
G1 X146.591 Y129.414 E3.11469
G1 X146.6 Y130.175 E3.14
G1 X146.599 Y131.914 E3.19784
G1 X146.589 Y132.635 E3.22182
G1 X146.532 Y133.593 E3.25374
G1 X146.508 Y133.822 E3.2614
G1 X146.373 Y134.732 E3.292
G1 X146.158 Y135.628 E3.32264
G1 X145.982 Y136.188 E3.34217
G1 X145.912 Y136.39 E3.34928
G1 X145.573 Y137.246 E3.3799
G1 X144.938 Y138.45 E3.42517
G1 X144.823 Y138.638 E3.4325
G1 X144.309 Y139.402 E3.46313
G1 X143.85 Y139.981 E3.4877
G1 X143.827 Y140.008 E3.48888
G1 X143.173 Y140.708 E3.52075
G1 X143.03 Y140.848 E3.5274
G1 X142.345 Y141.463 E3.55802
G1 X141.312 Y142.213 E3.60048
G1 X141.13 Y142.329 E3.60766
G1 X140.333 Y142.789 E3.63826
G1 X139.499 Y143.179 E3.66889
G1 X138.989 Y143.376 E3.68707
G1 X138.784 Y143.449 E3.69431
G1 X137.904 Y143.72 E3.72493
G1 X137.004 Y143.913 E3.75555
G1 X136.469 Y143.99 E3.77353
G1 X136.24 Y144.017 E3.78119
G1 X135.44 Y144.081 E3.80789
G1 X135.087 Y144.091 E3.81963
G1 X134.326 Y144.1 E3.84495
G1 X99.555 Y144.099 E5.00143
G1 X98.857 Y144.089 E5.02465
G1 X97.938 Y144.036 E5.05527
G1 X97.027 Y143.903 E5.08589
G1 X96.131 Y143.692 E5.11651
G1 X95.257 Y143.404 E5.14711
G1 X94.41 Y143.041 E5.17776
G1 X93.599 Y142.606 E5.20837
G1 X92.829 Y142.102 E5.23898
G1 X92.105 Y141.533 E5.26961
G1 X91.433 Y140.903 E5.30024
G1 X90.818 Y140.218 E5.33086
G1 X90.265 Y139.482 E5.36148
G1 X89.778 Y138.701 E5.39209
G1 X89.361 Y137.88 E5.42272
G1 X89.016 Y137.026 E5.45336
G1 X88.747 Y136.146 E5.48396
G1 X88.555 Y135.245 E5.5146
G1 X88.442 Y134.332 E5.5452
G1 X88.413 Y133.777 E5.56369
G1 X88.404 Y133.445 E5.57473
G1 X88.4 Y133.158 E5.58428
G1 X88.401 Y126.856 E5.79388
G1 X88.411 Y126.154 E5.81723
G1 X88.464 Y125.235 E5.84785
G1 X88.597 Y124.324 E5.87847
G1 X88.808 Y123.428 E5.90909
G1 X89.096 Y122.553 E5.93973
G1 X89.459 Y121.707 E5.97035
G1 X89.894 Y120.896 E6.00096
G1 X90.398 Y120.125 E6.03159
G1 X90.966 Y119.401 E6.0622
G1 X91.596 Y118.729 E6.09284
G1 X92.281 Y118.115 E6.12343
G0 F6000 X92.669 Y118.316
G1 F1200 X93.779 Y117.548 E6.16833
G1 X93.871 Y117.493 E6.17189
G1 X96.096 Y116.121 E6.25883
G1 X98.224 Y114.724 E6.3435
G1 X100.292 Y113.28 E6.42739
G1 X102.332 Y111.77 E6.51181
G1 X104.315 Y110.212 E6.59568
G1 X106.288 Y108.569 E6.68108
G1 X108.208 Y106.877 E6.7662
G1 X110.04 Y105.169 E6.8495
G1 X111.85 Y103.38 E6.93415
G1 X113.614 Y101.539 E7.01895
G1 X115.317 Y99.655 E7.10342
G1 X116.948 Y97.746 E7.18693
G1 X118.555 Y95.755 E7.27203
G1 X118.98 Y95.213 E7.29494
G1 X119.569 Y94.528 E7.32499
G1 X120.216 Y93.898 E7.35502
G1 X120.916 Y93.327 E7.38507
G1 X121.663 Y92.821 E7.41508
G1 X122.453 Y92.382 E7.44514
G1 X123.278 Y92.015 E7.47517
G1 X124.132 Y91.723 E7.50519
G1 X125.009 Y91.507 E7.53523
G1 X125.902 Y91.37 E7.56528
G1 X126.691 Y91.315 E7.59158
G1 X127.016 Y91.305 E7.6024
G1 X127.33 Y91.3 E7.61284
G1 X129.293 Y91.3 E7.67813
G1 X130.14 Y91.311 E7.70631
G1 X131.042 Y91.364 E7.73636
G1 X131.935 Y91.496 E7.76638
G1 X132.813 Y91.707 E7.79642
G1 X133.669 Y91.995 E7.82645
G1 X134.497 Y92.357 E7.85651
G1 X135.289 Y92.791 E7.88655
G1 X136.039 Y93.294 E7.91658
G1 X136.932 Y94.032 E7.95512
G1 X137.084 Y94.173 E7.96201
G1 X137.27 Y94.35 E7.97055
G1 X137.521 Y94.596 E7.98224
G1 X138.729 Y95.803 E8.03904
G1 X139.307 Y96.397 E8.0666
G1 X139.907 Y97.072 E8.09664
G1 X140.445 Y97.797 E8.12667
G1 X140.917 Y98.568 E8.15674
G1 X141.318 Y99.377 E8.18677
G1 X141.647 Y100.218 E8.2168
G1 X141.899 Y101.085 E8.24683
G1 X142.074 Y101.971 E8.27687
G1 X142.184 Y103.139 E8.31589
G1 X142.232 Y104.481 E8.36056
G1 X142.36 Y107.033 E8.44554
G1 X142.561 Y109.588 E8.53078
G1 X142.831 Y112.115 E8.61531
G1 X143.168 Y114.6 E8.69872
G1 X143.585 Y117.138 E8.78426
G1 X144.066 Y119.612 E8.86809
G1 X144.62 Y122.096 E8.95274
G1 X145.236 Y124.532 E9.03631
G1 X145.432 Y125.226 E9.0603
G1 X145.807 Y126.603 E9.10776
G1 X146.005 Y127.484 E9.1378
G1 X146.098 Y128.116 E9.15904
G1 X146.123 Y128.333 E9.16631
G1 X146.182 Y129.084 E9.19136
G1 X146.191 Y129.419 E9.20251
G1 X146.2 Y130.175 E9.22766
G1 X146.199 Y131.908 E9.2853
G1 X146.189 Y132.629 E9.30928
G1 X146.134 Y133.551 E9.34
G1 X146.11 Y133.78 E9.34766
G1 X145.977 Y134.673 E9.37769
G1 X145.764 Y135.551 E9.40774
G1 X145.604 Y136.057 E9.42539
G1 X145.534 Y136.259 E9.4325
G1 X145.201 Y137.098 E9.46252
G1 X144.597 Y138.242 E9.50555
G1 X144.482 Y138.43 E9.51288
G1 X143.977 Y139.178 E9.5429
G1 X143.546 Y139.721 E9.56595
G1 X143.523 Y139.748 E9.56713
G1 X142.894 Y140.423 E9.59782
G1 X142.751 Y140.563 E9.60448
G1 X142.078 Y141.165 E9.63451
G1 X141.097 Y141.875 E9.67479
G1 X140.915 Y141.991 E9.68196
G1 X140.133 Y142.443 E9.71201
G1 X139.314 Y142.823 E9.74204
G1 X138.855 Y142.999 E9.75839
G1 X138.65 Y143.072 E9.76562
G1 X137.786 Y143.337 E9.79568
G1 X136.903 Y143.525 E9.82571
G1 X136.422 Y143.593 E9.84187
G1 X136.193 Y143.62 E9.84953
G1 X135.424 Y143.681 E9.87519
G1 X135.082 Y143.691 E9.88657
G1 X134.326 Y143.7 E9.91172
G1 X99.561 Y143.699 E11.06801
G1 X98.863 Y143.689 E11.09123
G1 X97.961 Y143.636 E11.12128
G1 X97.068 Y143.504 E11.1513
G1 X96.19 Y143.293 E11.18134
G1 X95.334 Y143.005 E11.21137
G1 X94.507 Y142.643 E11.2414
G1 X93.715 Y142.208 E11.27145
G1 X92.964 Y141.706 E11.3015
G1 X92.261 Y141.139 E11.33154
G1 X91.611 Y140.512 E11.36158
G1 X91.019 Y139.83 E11.39161
G1 X90.489 Y139.099 E11.42164
G1 X90.027 Y138.323 E11.45168
G1 X89.634 Y137.51 E11.48172
G1 X89.316 Y136.665 E11.51175
G1 X89.073 Y135.795 E11.54179
G1 X88.908 Y134.907 E11.57183
G1 X88.813 Y133.766 E11.60991
G1 X88.804 Y133.434 E11.62096
G1 X88.8 Y133.158 E11.63014
G1 X88.801 Y126.862 E11.83954
G1 X88.811 Y126.16 E11.86289
G1 X88.864 Y125.258 E11.89295
G1 X88.996 Y124.365 E11.92297
G1 X89.207 Y123.487 E11.95301
G1 X89.495 Y122.631 E11.98304
G1 X89.857 Y121.803 E12.0131
G1 X90.291 Y121.011 E12.04314
G1 X90.794 Y120.261 E12.07317
G1 X91.36 Y119.558 E12.10319
G1 X91.987 Y118.908 E12.13323
G1 X92.669 Y118.316 E12.16327
G1 F2700 E7.16327
;MESH:TMC_MW_MR_v4.stl
G0 F6000 X98.335 Y132.69
G0 X99.81 Y132.69
G0 X132.8 Y132.692
G0 X132.9 Y132.501
;TYPE:WALL-INNER
G1 F2700 E12.16327
G1 F1200 X133.316 Y132.475 E12.17713
G1 X133.713 Y132.358 E12.1909
G1 X134.081 Y132.145 E12.20504
G1 X134.383 Y131.857 E12.21892
G1 X134.613 Y131.509 E12.23279
G1 X134.756 Y131.114 E12.24676
G1 X134.804 Y130.7 E12.26063
G1 X134.756 Y130.286 E12.27449
G1 X134.613 Y129.891 E12.28846
G1 X134.383 Y129.543 E12.30233
G1 X134.301 Y129.464 E12.30612
G1 X134.08 Y129.254 E12.31626
G1 X133.812 Y129.1 E12.32654
G1 X134.08 Y129.1 E12.32798
G1 X134.385 Y129.1 E12.33524
G1 X134.963 Y129.1 E12.35446
G1 X135.089 Y129.114 E12.35868
G1 X135.171 Y129.143 E12.36157
G1 X135.249 Y129.192 E12.36463
G1 X135.308 Y129.251 E12.36741
G1 X135.357 Y129.329 E12.37047
G1 X135.386 Y129.411 E12.37336
G1 X135.4 Y129.539 E12.37765
G1 X135.4 Y132.463 E12.4749
G1 X135.386 Y132.589 E12.47912
G1 X135.357 Y132.671 E12.48201
G1 X135.308 Y132.749 E12.48507
G1 X135.249 Y132.808 E12.48785
G1 X135.171 Y132.857 E12.49091
G1 X135.089 Y132.886 E12.4938
G1 X134.961 Y132.9 E12.49809
G1 X132.9 Y132.9 E12.56664
G1 X99.6 Y132.9 E13.6742
G1 X99.6 Y126.9 E13.87376
G1 X106.4 Y126.9 E14.09993
G1 X106.4 Y130.1 E14.20636
G1 X115.6 Y130.1 E14.51235
G1 X115.6 Y129.1 E14.54561
G1 X127.6 Y129.1 E14.94474
G1 X127.6 Y108.214 E15.63941
G1 X130.6 Y108.213 E15.73919
G1 X130.6 Y104.787 E15.85314
G1 X127.6 Y104.786 E15.95292
G1 X127.6 Y102.1 E16.04225
G1 X129.752 Y102.1 E16.11383
G1 X131.4 Y103.748 E16.19135
G1 X131.4 Y129.1 E17.03456
G1 X131.642 Y129.1 E17.04261
G1 X131.766 Y129.1 E17.04673
G1 X132.103 Y129.1 E17.05794
G1 X132.185 Y129.1 E17.06067
G1 X132.103 Y129.135
G1 X131.766 Y129.383 E17.06739
G1 X131.687 Y129.477 E17.07094
G1 X131.496 Y129.704 E17.0808
G1 X131.306 Y130.079 E17.09478
G1 X131.208 Y130.49 E17.10884
G1 X131.208 Y130.91 E17.12281
G1 X131.306 Y131.321 E17.13686
G1 X131.496 Y131.696 E17.15084
G1 X131.766 Y132.017 E17.16479
G1 X132.103 Y132.265 E17.17871
G1 X132.488 Y132.43 E17.19264
G1 X132.9 Y132.501 E17.20655
G0 F6000 X132.922 Y132.099
;TYPE:WALL-OUTER
G1 F1200 X133.246 Y132.079 E17.21734
G1 X133.554 Y131.988 E17.22803
G1 X133.839 Y131.823 E17.23898
G1 X134.074 Y131.599 E17.24978
G1 X134.253 Y131.328 E17.26058
G1 X134.364 Y131.022 E17.27141
G1 X134.401 Y130.7 E17.28219
G1 X134.364 Y130.378 E17.29297
G1 X134.253 Y130.072 E17.30379
G1 X134.074 Y129.801 E17.31459
G1 X133.839 Y129.577 E17.32539
G1 X133.556 Y129.414 E17.33626
G1 X133.298 Y129.337 E17.34521
G1 X133.277 Y129.323 E17.34605
G1 X132.922 Y129.301 E17.35788
G1 X132.602 Y129.356 E17.36868
G1 X132.303 Y129.484 E17.3795
G1 X132.042 Y129.677 E17.39029
G1 X131.832 Y129.926 E17.40113
G1 X131.684 Y130.218 E17.41202
G1 X131.608 Y130.537 E17.42292
G1 X131.608 Y130.863 E17.43376
G1 X131.684 Y131.182 E17.44467
G1 X131.832 Y131.474 E17.45556
G1 X132.042 Y131.723 E17.46639
G1 X132.303 Y131.916 E17.47719
G1 X132.602 Y132.044 E17.48801
G1 X132.922 Y132.099 E17.49881
G0 F6000 X132.899 Y132.538
G1 F2700 E12.49881
G0 F6000 X132.8 Y132.692
G0 X99.37 Y133.13
G0 X99.2 Y133.3
G1 F2700 E17.49881
G1 F1200 X99.2 Y126.5 E17.72498
G1 X106.8 Y126.5 E17.97775
G1 X106.8 Y129.7 E18.08419
G1 X115.2 Y129.7 E18.36357
G1 X115.2 Y128.7 E18.39683
G1 X127.2 Y128.7 E18.79595
G1 X127.2 Y107.814 E19.49062
G1 X130.2 Y107.813 E19.5904
G1 X130.2 Y105.187 E19.67775
G1 X127.2 Y105.186 E19.77753
G1 X127.2 Y101.7 E19.89347
G1 X129.918 Y101.7 E19.98387
G1 X131.8 Y103.582 E20.0724
G1 X131.8 Y128.7 E20.90782
G1 X134.989 Y128.7 E21.01389
G1 X135.178 Y128.721 E21.02021
G1 X135.347 Y128.781 E21.02618
G1 X135.5 Y128.877 E21.03219
G1 X135.623 Y129 E21.03797
G1 X135.719 Y129.153 E21.04398
G1 X135.779 Y129.322 E21.04994
G1 X135.8 Y129.513 E21.05634
G1 X135.8 Y132.489 E21.15532
G1 X135.779 Y132.678 E21.16164
G1 X135.719 Y132.847 E21.16761
G1 X135.623 Y133 E21.17362
G1 X135.5 Y133.123 E21.1794
G1 X135.347 Y133.219 E21.18541
G1 X135.178 Y133.279 E21.19137
G1 X134.987 Y133.3 E21.19776
G1 X99.2 Y133.3 E22.38804
G0 F6000 X99.37 Y133.13
G0 X99.71 Y132.51
G0 X99.99 Y132.51
;TYPE:SKIN
G1 F1200 X99.99 Y127.29 E22.56166
G1 X106.01 Y127.29 E22.76189
G1 X106.01 Y130.49 E22.86832
G1 X115.99 Y130.49 E23.20026
G1 X115.99 Y129.49 E23.23352
G1 X127.99 Y129.49 E23.63264
G1 X127.99 Y108.604 E24.32731
G1 X130.99 Y108.603 E24.42709
G1 X130.99 Y104.397 E24.56698
G1 X127.99 Y104.396 E24.66676
G1 X127.99 Y102.49 E24.73016
G1 X129.592 Y102.49 E24.78344
G1 X131.01 Y103.908 E24.85014
G1 X131.01 Y129.49 E25.701
G1 X131.167 Y129.49 E25.70622
G1 X130.937 Y129.944 E25.72315
G1 X130.818 Y130.444 E25.74024
G1 X130.818 Y130.956 E25.75727
G1 X130.937 Y131.456 E25.77437
G1 X131.168 Y131.912 E25.79137
G1 X131.497 Y132.304 E25.80839
G1 X131.777 Y132.51 E25.81995
G1 X99.99 Y132.51 E26.87719
G0 F6000 X100.67 Y132.349
G1 F1200 X100.149 Y131.828 E26.9017
G0 F6000 X100.149 Y131.262
G1 F1200 X101.236 Y132.349 E26.95283
G0 F6000 X101.802 Y132.349
G1 F1200 X100.149 Y130.696 E27.03058
G0 F6000 X100.149 Y130.13
G1 F1200 X102.367 Y132.349 E27.13493
G0 F6000 X102.933 Y132.349
G1 F1200 X100.149 Y129.565 E27.26588
G0 F6000 X100.149 Y128.999
G1 F1200 X103.499 Y132.349 E27.42345
G0 F6000 X104.064 Y132.349
G1 F1200 X100.149 Y128.433 E27.60763
G0 F6000 X100.149 Y127.868
G1 F1200 X104.63 Y132.349 E27.8184
G0 F6000 X105.196 Y132.349
G1 F1200 X100.296 Y127.449 E28.04888
G0 F6000 X100.862 Y127.449
G1 F1200 X105.761 Y132.349 E28.27934
G0 F6000 X106.327 Y132.349
G1 F1200 X101.428 Y127.449 E28.5098
G0 F6000 X101.993 Y127.449
G1 F1200 X106.893 Y132.349 E28.74028
G0 F6000 X107.459 Y132.349
G1 F1200 X102.559 Y127.449 E28.97076
G0 F6000 X103.125 Y127.449
G1 F1200 X105.85 Y130.174 E29.09893
G0 F6000 X105.85 Y129.609
G1 F1200 X103.69 Y127.449 E29.20053
G0 F6000 X104.256 Y127.449
G1 F1200 X105.85 Y129.043 E29.27551
G0 F6000 X105.85 Y128.477
G1 F1200 X104.822 Y127.449 E29.32386
G0 F6000 X105.387 Y127.449
G1 F1200 X105.85 Y127.912 E29.34564
G0 F6000 X106.29 Y127.912
G0 X106.324 Y130.21
G0 X106.324 Y130.649
G1 F1200 X108.024 Y132.349 E29.4256
G0 F6000 X108.59 Y132.349
G1 F1200 X106.89 Y130.649 E29.50557
G0 F6000 X107.456 Y130.649
G1 F1200 X109.156 Y132.349 E29.58553
G0 F6000 X109.721 Y132.349
G1 F1200 X108.021 Y130.649 E29.66549
G0 F6000 X108.587 Y130.649
G1 F1200 X110.287 Y132.349 E29.74546
G0 F6000 X110.853 Y132.349
G1 F1200 X109.153 Y130.649 E29.82542
G0 F6000 X109.718 Y130.649
G1 F1200 X111.418 Y132.349 E29.90538
G0 F6000 X111.984 Y132.349
G1 F1200 X110.284 Y130.649 E29.98534
G0 F6000 X110.85 Y130.649
G1 F1200 X112.55 Y132.349 E30.06531
G0 F6000 X113.115 Y132.349
G1 F1200 X111.415 Y130.649 E30.14527
G0 F6000 X111.981 Y130.649
G1 F1200 X113.681 Y132.349 E30.22523
G0 F6000 X114.247 Y132.349
G1 F1200 X112.547 Y130.649 E30.3052
G0 F6000 X113.113 Y130.649
G1 F1200 X114.812 Y132.349 E30.38513
G0 F6000 X115.378 Y132.349
G1 F1200 X113.678 Y130.649 E30.4651
G0 F6000 X114.244 Y130.649
G1 F1200 X115.944 Y132.349 E30.54506
G0 F6000 X116.509 Y132.349
G1 F1200 X114.81 Y130.649 E30.625
G0 F6000 X115.375 Y130.649
G1 F1200 X117.075 Y132.349 E30.70496
G0 F6000 X117.641 Y132.349
G1 F1200 X115.941 Y130.649 E30.78493
G0 F6000 X116.149 Y130.291
G1 F1200 X118.207 Y132.349 E30.88173
G0 F6000 X118.772 Y132.349
G1 F1200 X116.149 Y129.725 E31.00513
G0 F6000 X116.638 Y129.649
G1 F1200 X119.338 Y132.349 E31.13213
G0 F6000 X119.904 Y132.349
G1 F1200 X117.204 Y129.649 E31.25913
G0 F6000 X117.77 Y129.649
G1 F1200 X120.469 Y132.349 E31.3861
