;FLAVOR:Marlin
;TIME:1783
;Filament used: 0.971298m
;Layer height: 0.2
;MINX:57.045
;MINY:94.764
;MINZ:0.2
;MAXX:177.949
;MAXY:140.235
;MAXZ:11.4
;Generated with Cura_SteamEngine 4.7.1
M140 S55
M105
M190 S55
M104 S210
M105
M109 S210
M82 ;absolute extrusion mode
; Ender 3 Custom Start G-code
G92 E0 ; Reset Extruder
G28 ; Home all axes
G1 Z2.0 F3000 ; Move Z Axis up little to prevent scratching of Heat Bed
G1 X0.1 Y20 Z0.3 F5000.0 ; Move to start position
G1 X0.1 Y200.0 Z0.3 F1500.0 E15 ; Draw the first line
G1 X0.4 Y200.0 Z0.3 F5000.0 ; Move to side a little
G1 X0.4 Y20 Z0.3 F1500.0 E30 ; Draw the second line
G92 E0 ; Reset Extruder
G1 Z2.0 F3000 ; Move Z Axis up little to prevent scratching of Heat Bed
G1 X5 Y20 Z0.3 F5000.0 ; Move over to prevent blob squish
G92 E0
G92 E0
G1 F2700 E-5
;LAYER_COUNT:57
;LAYER:0
M107
G0 F6000 X67.039 Y98.674 Z0.2
;TYPE:SKIRT
G1 F2700 E0
G1 F1200 X67.267 Y98.524 E0.00908
G1 X67.844 Y98.153 E0.03189
G1 X68.346 Y97.848 E0.05143
G1 X68.539 Y97.738 E0.05882
G1 X68.813 Y97.587 E0.06922
G1 X69.102 Y97.433 E0.08012
G1 X69.324 Y97.318 E0.08843
G1 X69.945 Y97.005 E0.11156
G1 X70.538 Y96.728 E0.13333
G1 X70.83 Y96.602 E0.14391
G1 X71.123 Y96.481 E0.15445
G1 X71.426 Y96.361 E0.16529
G1 X72.078 Y96.111 E0.18852
G1 X72.704 Y95.893 E0.21056
G1 X73.1 Y95.77 E0.22435
G1 X73.348 Y95.697 E0.23295
G1 X73.612 Y95.622 E0.24208
G1 X74.345 Y95.426 E0.26732
G1 X74.941 Y95.285 E0.28769
G1 X75.152 Y95.241 E0.29486
G1 X75.415 Y95.189 E0.30377
G1 X75.666 Y95.143 E0.31226
G1 X75.929 Y95.098 E0.32114
G1 X76.649 Y94.984 E0.34538
G1 X77.255 Y94.906 E0.3657
G1 X77.54 Y94.877 E0.37523
G1 X77.826 Y94.851 E0.38478
G1 X78.038 Y94.835 E0.39185
G1 X78.251 Y94.821 E0.39895
G1 X78.965 Y94.781 E0.42274
G1 X79.58 Y94.764 E0.4432
G1 X79.817 Y94.764 E0.45108
G1 X80.107 Y94.768 E0.46073
G1 X80.372 Y94.775 E0.46955
G1 X80.608 Y94.784 E0.4774
G1 X81.297 Y94.817 E0.50034
G1 X81.849 Y94.857 E0.51875
G1 X82.042 Y94.876 E0.5252
G1 X82.373 Y94.914 E0.53628
G1 X82.706 Y94.957 E0.54745
G1 X82.955 Y94.992 E0.55581
G1 X83.637 Y95.096 E0.57876
G1 X84.262 Y95.209 E0.59988
G1 X84.493 Y95.258 E0.60774
G1 X84.723 Y95.31 E0.61558
G1 X85 Y95.375 E0.62505
G1 X85.272 Y95.442 E0.63436
G1 X85.979 Y95.627 E0.65867
G1 X86.552 Y95.794 E0.67852
G1 X86.877 Y95.899 E0.68988
G1 X89.341 Y96.719 E0.77625
G1 X91.731 Y97.44 E0.85928
G1 X94.163 Y98.099 E0.94309
G1 X96.567 Y98.68 E1.02535
G1 X99.093 Y99.214 E1.11122
G1 X101.546 Y99.659 E1.19414
G1 X104.07 Y100.045 E1.27906
G1 X106.547 Y100.352 E1.36208
G1 X109.052 Y100.59 E1.44577
G1 X111.546 Y100.757 E1.52891
G1 X114.101 Y100.856 E1.61395
G1 X116.588 Y100.88 E1.69667
G1 X119.113 Y100.835 E1.78067
G1 X121.622 Y100.719 E1.86421
G1 X124.137 Y100.529 E1.94809
G1 X126.644 Y100.271 E2.03192
G1 X129.148 Y99.94 E2.11592
G1 X131.6 Y99.545 E2.19853
G1 X134.118 Y99.067 E2.28377
G1 X136.574 Y98.527 E2.36741
G1 X138.992 Y97.923 E2.45031
G1 X140.591 Y97.476 E2.50553
G1 X140.857 Y97.404 E2.51469
G1 X141.068 Y97.343 E2.522
G1 X141.405 Y97.249 E2.53364
G1 X142.496 Y96.908 E2.57165
G1 X143.663 Y96.554 E2.61221
G1 X144.611 Y96.25 E2.64533
G1 X145.506 Y96.004 E2.6762
G1 X145.963 Y95.899 E2.69179
G1 X146.848 Y95.713 E2.72187
G1 X147.754 Y95.561 E2.75243
G1 X148.202 Y95.505 E2.76744
G1 X148.518 Y95.47 E2.77802
G1 X149.239 Y95.401 E2.80211
G1 X149.874 Y95.359 E2.82328
G1 X150.007 Y95.354 E2.8277
G1 X150.29 Y95.347 E2.83712
G1 X150.713 Y95.342 E2.85119
G1 X150.997 Y95.342 E2.86063
G1 X151.641 Y95.351 E2.88206
G1 X152.384 Y95.387 E2.9068
G1 X152.714 Y95.414 E2.91781
G1 X153.058 Y95.447 E2.9293
G1 X153.886 Y95.541 E2.95702
G1 X154.821 Y95.688 E2.9885
G1 X155.371 Y95.799 E3.00716
G1 X155.609 Y95.85 E3.01526
G1 X156.258 Y95.996 E3.03738
G1 X157.173 Y96.244 E3.06891
G1 X157.689 Y96.406 E3.0869
G1 X157.998 Y96.509 E3.09773
G1 X158.564 Y96.705 E3.11766
G1 X159.181 Y96.939 E3.1396
G1 X159.328 Y97 E3.1449
G1 X159.575 Y97.106 E3.15384
G1 X159.906 Y97.254 E3.1659
G1 X160.641 Y97.593 E3.19282
G1 X161.504 Y98.039 E3.22513
G1 X161.989 Y98.317 E3.24372
G1 X162.183 Y98.431 E3.25121
G1 X162.734 Y98.762 E3.27258
G1 X163.536 Y99.292 E3.30456
G1 X163.602 Y99.34 E3.30727
G1 X165.705 Y100.816 E3.39273
G1 X167.811 Y102.206 E3.47665
G1 X169.926 Y103.519 E3.55945
G1 X170.62 Y103.923 E3.58616
G1 X171.912 Y104.691 E3.63615
G1 X172.697 Y105.205 E3.66736
G1 X173.129 Y105.531 E3.68536
G1 X173.347 Y105.704 E3.69462
G1 X174.056 Y106.317 E3.72579
G1 X174.71 Y106.989 E3.75698
G1 X175.152 Y107.516 E3.77986
G1 X175.226 Y107.61 E3.78383
G1 X175.774 Y108.371 E3.81502
G1 X176.201 Y109.076 E3.84244
G1 X176.307 Y109.267 E3.8497
G1 X176.727 Y110.106 E3.88091
G1 X177.074 Y110.977 E3.91209
G1 X177.425 Y112.208 E3.95467
G1 X177.448 Y112.311 E3.95818
G1 X177.601 Y113.148 E3.98648
G1 X177.702 Y113.853 E4.01017
G1 X177.739 Y114.135 E4.01963
G1 X177.817 Y114.802 E4.04196
G1 X177.871 Y115.419 E4.06256
G1 X177.917 Y116.183 E4.08802
G1 X177.932 Y116.529 E4.09954
G1 X177.949 Y117.122 E4.11927
G1 X177.949 Y117.754 E4.14029
G1 X177.927 Y118.518 E4.16571
G1 X177.913 Y118.844 E4.17656
G1 X177.874 Y119.51 E4.19875
G1 X177.848 Y119.864 E4.21056
G1 X177.814 Y120.201 E4.22183
G1 X177.751 Y120.746 E4.24007
G1 X177.716 Y121.018 E4.24919
G1 X177.599 Y121.848 E4.27707
G1 X177.429 Y122.771 E4.30829
G1 X177.2 Y123.615 E4.33737
G1 X177.155 Y123.758 E4.34236
G1 X176.835 Y124.64 E4.37357
G1 X176.442 Y125.491 E4.40474
G1 X175.833 Y126.529 E4.44477
G1 X175.684 Y126.754 E4.45375
G1 X175.134 Y127.514 E4.48495
G1 X174.52 Y128.223 E4.51614
G1 X173.546 Y129.139 E4.56062
G1 X173.368 Y129.287 E4.56832
G1 X172.622 Y129.856 E4.59952
G1 X171.861 Y130.333 E4.62939
G1 X171.863 Y130.337 E4.62954
G1 X169.575 Y131.69 E4.71795
G1 X167.421 Y133.047 E4.80262
G1 X165.33 Y134.448 E4.88634
G1 X164.385 Y135.119 E4.92489
G1 X164.225 Y135.231 E4.93138
G1 X163.354 Y135.826 E4.96647
G1 X163.157 Y135.957 E4.97434
G1 X162.585 Y136.33 E4.99705
G1 X161.791 Y136.802 E5.02777
G1 X161.36 Y137.034 E5.04405
G1 X161.129 Y137.155 E5.05272
G1 X160.509 Y137.47 E5.07585
G1 X159.684 Y137.847 E5.10602
G1 X159.204 Y138.043 E5.12327
G1 X158.971 Y138.135 E5.1316
G1 X158.34 Y138.376 E5.15407
G1 X157.443 Y138.675 E5.18551
G1 X156.961 Y138.813 E5.20219
G1 X156.175 Y139.024 E5.22926
G1 X155.213 Y139.237 E5.26203
G1 X154.573 Y139.349 E5.28364
G1 X153.802 Y139.469 E5.30959
G1 X152.868 Y139.573 E5.34085
G1 X152.337 Y139.609 E5.35855
G1 X152.102 Y139.622 E5.36638
G1 X151.411 Y139.654 E5.38938
G1 X150.468 Y139.657 E5.42075
G1 X149.961 Y139.637 E5.43762
G1 X149.716 Y139.625 E5.44578
G1 X149.037 Y139.583 E5.46841
G1 X148.108 Y139.486 E5.49948
G1 X147.641 Y139.417 E5.51518
G1 X147.416 Y139.381 E5.52276
G1 X146.712 Y139.262 E5.5465
G1 X145.758 Y139.057 E5.57896
G1 X145.103 Y138.884 E5.60149
G1 X144.41 Y138.689 E5.62544
G1 X144.107 Y138.599 E5.63595
G1 X142.804 Y138.192 E5.68135
G1 X140.36 Y137.466 E5.76615
G1 X137.934 Y136.819 E5.84966
G1 X135.509 Y136.244 E5.93255
G1 X132.991 Y135.723 E6.01807
G1 X130.524 Y135.285 E6.10141
G1 X128.044 Y134.916 E6.1848
G1 X125.53 Y134.615 E6.26902
G1 X123.031 Y134.387 E6.35248
G1 X120.552 Y134.232 E6.43509
G1 X117.996 Y134.144 E6.52015
G1 X115.471 Y134.129 E6.60414
G1 X112.983 Y134.184 E6.68691
G1 X110.464 Y134.312 E6.7708
G1 X107.937 Y134.512 E6.85511
G1 X105.437 Y134.78 E6.93874
G1 X102.966 Y135.117 E7.02168
G1 X100.447 Y135.533 E7.1066
G1 X98.016 Y136.005 E7.18897
G1 X95.498 Y136.569 E7.27479
G1 X93.1 Y137.179 E7.35709
G1 X90.719 Y137.855 E7.43941
G1 X87.196 Y138.986 E7.56248
G1 X86.729 Y139.146 E7.5789
G1 X86.166 Y139.322 E7.59851
G1 X85.993 Y139.371 E7.6045
G1 X85.72 Y139.444 E7.61389
G1 X85.368 Y139.534 E7.62598
G1 X85.088 Y139.602 E7.63556
G1 X84.395 Y139.76 E7.6592
G1 X83.798 Y139.879 E7.67945
G1 X83.575 Y139.917 E7.68697
G1 X83.321 Y139.957 E7.69553
G1 X83.123 Y139.986 E7.70218
G1 X82.872 Y140.02 E7.71061
G1 X82.124 Y140.112 E7.73567
G1 X81.594 Y140.164 E7.75338
G1 X81.459 Y140.174 E7.75789
G1 X81.156 Y140.192 E7.76798
G1 X80.725 Y140.212 E7.78233
G1 X80.439 Y140.222 E7.79185
G1 X79.802 Y140.235 E7.81304
G1 X79.205 Y140.231 E7.8329
G1 X79.028 Y140.225 E7.83879
G1 X78.744 Y140.211 E7.84825
G1 X78.393 Y140.19 E7.85994
G1 X78.127 Y140.171 E7.86881
G1 X77.474 Y140.116 E7.89061
G1 X76.907 Y140.054 E7.90958
G1 X76.629 Y140.016 E7.91891
G1 X76.332 Y139.971 E7.9289
G1 X76.083 Y139.93 E7.9373
G1 X75.839 Y139.887 E7.94554
G1 X75.131 Y139.754 E7.9695
G1 X74.494 Y139.615 E7.99118
G1 X74.322 Y139.572 E7.99708
G1 X74.073 Y139.506 E8.00565
G1 X73.753 Y139.418 E8.01668
G1 X73.524 Y139.352 E8.02461
G1 X72.854 Y139.152 E8.04787
G1 X72.241 Y138.95 E8.06933
G1 X72.021 Y138.87 E8.07712
G1 X71.814 Y138.792 E8.08448
G1 X71.532 Y138.683 E8.09453
G1 X71.265 Y138.576 E8.1041
G1 X70.663 Y138.325 E8.12579
G1 X70.141 Y138.091 E8.14482
G1 X69.899 Y137.975 E8.15374
G1 X69.626 Y137.84 E8.16387
G1 X69.375 Y137.711 E8.17326
G1 X69.158 Y137.596 E8.18143
G1 X68.546 Y137.264 E8.20459
G1 X67.977 Y136.933 E8.22648
G1 X67.646 Y136.725 E8.23948
G1 X67.387 Y136.557 E8.24975
G1 X67.142 Y136.393 E8.25956
G1 X66.547 Y135.984 E8.28357
G1 X66.089 Y135.652 E8.30239
G1 X65.901 Y135.508 E8.31026
G1 X65.631 Y135.294 E8.32172
G1 X65.407 Y135.111 E8.33134
G1 X65.237 Y134.969 E8.33871
G1 X64.727 Y134.535 E8.36098
G1 X64.259 Y134.113 E8.38194
G1 X64.059 Y133.922 E8.39114
G1 X63.878 Y133.745 E8.39956
G1 X63.706 Y133.573 E8.40765
G1 X63.536 Y133.399 E8.41574
G1 X63.05 Y132.891 E8.43912
G1 X62.601 Y132.392 E8.46145
G1 X62.436 Y132.197 E8.46995
G1 X62.284 Y132.014 E8.47786
G1 X62.118 Y131.809 E8.48663
G1 X61.958 Y131.607 E8.4952
G1 X61.512 Y131.029 E8.51949
G1 X61.14 Y130.516 E8.54056
G1 X60.914 Y130.183 E8.55395
G1 X60.754 Y129.939 E8.56365
G1 X60.599 Y129.695 E8.57327
G1 X60.229 Y129.097 E8.59666
G1 X59.993 Y128.698 E8.61207
G1 X59.934 Y128.593 E8.61608
G1 X59.758 Y128.265 E8.62846
G1 X59.545 Y127.854 E8.64386
G1 X59.401 Y127.568 E8.65451
G1 X59.122 Y126.989 E8.67588
G1 X58.873 Y126.433 E8.69615
G1 X58.775 Y126.197 E8.70465
G1 X58.673 Y125.941 E8.71381
G1 X58.578 Y125.695 E8.72258
G1 X58.495 Y125.474 E8.73043
G1 X58.262 Y124.83 E8.75321
G1 X58.064 Y124.228 E8.77429
G1 X57.994 Y123.993 E8.78245
G1 X57.879 Y123.585 E8.79654
G1 X57.804 Y123.302 E8.80628
G1 X57.623 Y122.575 E8.8312
G1 X57.488 Y121.956 E8.85227
G1 X57.428 Y121.638 E8.86304
G1 X57.383 Y121.387 E8.87152
G1 X57.355 Y121.217 E8.87725
G1 X57.32 Y120.985 E8.88505
G1 X57.219 Y120.278 E8.9088
G1 X57.15 Y119.682 E8.92876
G1 X57.126 Y119.408 E8.93791
G1 X57.102 Y119.079 E8.94888
G1 X57.087 Y118.818 E8.95757
G1 X57.076 Y118.584 E8.96537
G1 X57.051 Y117.892 E8.9884
G1 X57.045 Y117.315 E9.00759
G1 X57.049 Y117.071 E9.01571
G1 X57.058 Y116.779 E9.02542
G1 X57.069 Y116.523 E9.03394
G1 X57.083 Y116.267 E9.04247
G1 X57.13 Y115.558 E9.06611
G1 X57.183 Y114.983 E9.08531
G1 X57.204 Y114.807 E9.09121
G1 X57.248 Y114.485 E9.10202
G1 X57.297 Y114.157 E9.11305
G1 X57.337 Y113.906 E9.1215
G1 X57.463 Y113.178 E9.14607
G1 X57.576 Y112.612 E9.16527
G1 X57.632 Y112.366 E9.17366
G1 X57.727 Y111.985 E9.18672
G1 X57.846 Y111.538 E9.20211
G1 X58.012 Y110.945 E9.22259
G1 X58.196 Y110.381 E9.24232
G1 X58.189 Y110.379 E9.24256
G1 X58.264 Y110.157 E9.25036
G1 X58.375 Y109.843 E9.26143
G1 X58.468 Y109.593 E9.2703
G1 X58.552 Y109.375 E9.27807
G1 X58.812 Y108.719 E9.30154
G1 X58.825 Y108.724 E9.30201
G1 X59.073 Y108.109 E9.32406
G1 X59.165 Y107.912 E9.33129
G1 X59.385 Y107.461 E9.34798
G1 X59.5 Y107.234 E9.35645
G1 X59.822 Y106.616 E9.37963
G1 X60.127 Y106.068 E9.40049
G1 X60.214 Y105.922 E9.40614
G1 X60.326 Y105.739 E9.41327
G1 X60.524 Y105.421 E9.42573
G1 X60.687 Y105.167 E9.43577
G1 X61.066 Y104.594 E9.45862
G1 X61.435 Y104.069 E9.47996
G1 X61.578 Y103.878 E9.4879
G1 X61.733 Y103.677 E9.49634
G1 X61.905 Y103.458 E9.5056
G1 X62.055 Y103.271 E9.51358
G1 X62.487 Y102.745 E9.53622
G1 X62.891 Y102.28 E9.5567
G1 X63.074 Y102.081 E9.5657
G1 X63.273 Y101.871 E9.57532
G1 X63.431 Y101.708 E9.58287
G1 X63.595 Y101.542 E9.59063
G1 X64.128 Y101.015 E9.61556
G1 X64.572 Y100.6 E9.63577
G1 X64.746 Y100.446 E9.6435
G1 X64.969 Y100.254 E9.65329
G1 X65.167 Y100.088 E9.66188
G1 X65.351 Y99.937 E9.6698
G1 X65.902 Y99.495 E9.69329
G1 X66.387 Y99.127 E9.71354
G1 X66.566 Y98.999 E9.72086
G1 X66.787 Y98.845 E9.72982
G1 X67.039 Y98.674 E9.73995
G0 F6000 X67.264 Y99.005
G1 F1200 X67.483 Y98.86 E9.74869
G1 X68.06 Y98.489 E9.7715
G1 X68.544 Y98.196 E9.79032
G1 X68.737 Y98.086 E9.79771
G1 X69.001 Y97.94 E9.80774
G1 X69.29 Y97.786 E9.81863
G1 X69.504 Y97.675 E9.82665
G1 X70.125 Y97.362 E9.84978
G1 X70.696 Y97.095 E9.87075
G1 X70.988 Y96.969 E9.88133
G1 X71.271 Y96.852 E9.89151
G1 X71.569 Y96.735 E9.90216
G1 X72.221 Y96.485 E9.92538
G1 X72.824 Y96.274 E9.94663
G1 X73.213 Y96.153 E9.96018
G1 X73.461 Y96.08 E9.96878
G1 X73.716 Y96.009 E9.97758
G1 X74.449 Y95.813 E10.00282
G1 X75.023 Y95.676 E10.02245
G1 X75.234 Y95.632 E10.02962
G1 X75.487 Y95.583 E10.03819
G1 X75.738 Y95.537 E10.04668
G1 X75.991 Y95.493 E10.05522
G1 X76.711 Y95.379 E10.07946
G1 X77.296 Y95.303 E10.09908
G1 X77.581 Y95.274 E10.10861
G1 X77.856 Y95.25 E10.11779
G1 X78.068 Y95.234 E10.12486
G1 X78.273 Y95.221 E10.1317
G1 X78.987 Y95.181 E10.15548
G1 X79.58 Y95.164 E10.17521
G1 X79.817 Y95.164 E10.18309
G1 X80.097 Y95.168 E10.19241
G1 X80.362 Y95.175 E10.20123
G1 X80.589 Y95.183 E10.20878
G1 X81.278 Y95.216 E10.23172
G1 X81.81 Y95.255 E10.24946
G1 X82.003 Y95.274 E10.25591
G1 X82.321 Y95.31 E10.26656
G1 X82.654 Y95.353 E10.27773
G1 X82.895 Y95.387 E10.28582
G1 X83.577 Y95.491 E10.30877
G1 X84.179 Y95.601 E10.32912
G1 X84.632 Y95.699 E10.34454
G1 X84.909 Y95.764 E10.354
G1 X85.17 Y95.829 E10.36295
G1 X85.877 Y96.014 E10.38725
G1 X86.43 Y96.175 E10.40641
G1 X86.75 Y96.278 E10.41759
G1 X89.226 Y97.102 E10.50438
G1 X91.626 Y97.826 E10.58776
G1 X94.07 Y98.489 E10.67199
G1 X96.463 Y99.066 E10.75386
G1 X99.004 Y99.604 E10.84025
G1 X101.491 Y100.055 E10.92431
G1 X103.992 Y100.437 E11.00846
G1 X106.531 Y100.752 E11.09356
G1 X109.024 Y100.989 E11.17685
G1 X111.538 Y101.157 E11.26065
G1 X114.082 Y101.256 E11.34533
G1 X116.591 Y101.28 E11.42878
G1 X119.105 Y101.235 E11.51241
G1 X121.669 Y101.116 E11.59778
G1 X124.172 Y100.928 E11.68127
G1 X126.7 Y100.667 E11.76579
G1 X129.192 Y100.338 E11.8494
G1 X131.672 Y99.939 E11.93294
G1 X134.174 Y99.464 E12.01765
G1 X136.683 Y98.912 E12.10309
G1 X139.116 Y98.304 E12.1865
G1 X140.695 Y97.863 E12.24103
G1 X140.967 Y97.789 E12.25041
G1 X141.176 Y97.728 E12.25765
G1 X141.526 Y97.63 E12.26974
G1 X142.612 Y97.291 E12.30758
G1 X143.775 Y96.938 E12.348
G1 X144.733 Y96.631 E12.38146
G1 X145.595 Y96.394 E12.41119
G1 X146.052 Y96.289 E12.42679
G1 X146.396 Y96.216 E12.43849
G1 X146.449 Y96.206 E12.44028
G1 X146.931 Y96.104 E12.45667
G1 X147.803 Y95.958 E12.48607
G1 X148.251 Y95.902 E12.50109
G1 X148.556 Y95.868 E12.5113
G1 X149.277 Y95.799 E12.53539
G1 X149.889 Y95.758 E12.55579
G1 X150.022 Y95.753 E12.56021
G1 X150.295 Y95.747 E12.5693
G1 X150.718 Y95.742 E12.58337
G1 X150.991 Y95.742 E12.59245
G1 X151.635 Y95.751 E12.61387
G1 X152.351 Y95.785 E12.63771
G1 X152.681 Y95.812 E12.64872
G1 X153.013 Y95.845 E12.65982
G1 X153.841 Y95.939 E12.68753
G1 X154.742 Y96.08 E12.71787
G1 X155.292 Y96.191 E12.73653
G1 X155.521 Y96.24 E12.74432
G1 X156.17 Y96.386 E12.76644
G1 X157.059 Y96.627 E12.79708
G1 X157.081 Y96.635 E12.79786
G1 X157.569 Y96.788 E12.81487
G1 X157.868 Y96.887 E12.82534
G1 X158.434 Y97.083 E12.84526
G1 X159.028 Y97.308 E12.86639
G1 X159.175 Y97.369 E12.87168
G1 X159.412 Y97.471 E12.88027
G1 X159.739 Y97.617 E12.89218
G1 X160.474 Y97.956 E12.9191
G1 X161.305 Y98.386 E12.95022
G1 X161.978 Y98.773 E12.97604
G1 X162.529 Y99.104 E12.99742
G1 X163.301 Y99.616 E13.02823
G1 X165.484 Y101.15 E13.11697
G1 X167.601 Y102.547 E13.20133
G1 X169.72 Y103.862 E13.28428
G1 X170.415 Y104.267 E13.31103
G1 X171.707 Y105.035 E13.36102
G1 X172.477 Y105.54 E13.39165
G1 X172.88 Y105.844 E13.40844
G1 X173.098 Y106.017 E13.41769
G1 X173.794 Y106.62 E13.44832
G1 X174.435 Y107.281 E13.47895
G1 X174.838 Y107.763 E13.49984
G1 X174.912 Y107.857 E13.50382
G1 X175.449 Y108.605 E13.53445
G1 X175.851 Y109.27 E13.5603
G1 X175.957 Y109.461 E13.56756
G1 X176.369 Y110.285 E13.5982
G1 X176.707 Y111.141 E13.62881
