;FLAVOR:Marlin
;TIME:21606
;Filament used: 18.8603m
;Layer height: 0.28
;MINX:65.5
;MINY:44.5
;MINZ:0.28
;MAXX:165.499
;MAXY:191.724
;MAXZ:74.76
;Generated with Cura_SteamEngine 4.6.1
M140 S60
M105
M190 S60
M104 S210
M105
M109 S210
M82 ;absolute extrusion mode
; Ender 3 Custom Start G-code
G92 E0 ; Reset Extruder
G28 ; Home all axes
G1 Z2.0 F3000 ; Move Z Axis up little to prevent scratching of Heat Bed
G1 X0.1 Y20 Z0.3 F5000.0 ; Move to start position
G1 X0.1 Y200.0 Z0.3 F1500.0 E15 ; Draw the first line
G1 X0.4 Y200.0 Z0.3 F5000.0 ; Move to side a little
G1 X0.4 Y20 Z0.3 F1500.0 E30 ; Draw the second line
G92 E0 ; Reset Extruder
G1 Z2.0 F3000 ; Move Z Axis up little to prevent scratching of Heat Bed
G1 X5 Y20 Z0.3 F5000.0 ; Move over to prevent blob squish
G92 E0
G92 E0
G1 F2700 E-5
;LAYER_COUNT:267
;LAYER:0
M107
G0 F6000 X151.638 Y45.311 Z0.28
;TYPE:SKIRT
G1 F2700 E0
G1 F1200 X152.54 Y45.364 E0.04207
G1 X153.433 Y45.497 E0.08411
G1 X154.311 Y45.708 E0.12616
G1 X155.167 Y45.995 E0.1682
G1 X155.994 Y46.358 E0.21026
G1 X156.786 Y46.792 E0.25231
G1 X157.536 Y47.295 E0.29436
G1 X158.48 Y48.08 E0.35153
G1 X158.8 Y48.381 E0.37198
G1 X159.023 Y48.599 E0.38651
G1 X161.322 Y50.899 E0.53793
G1 X161.792 Y51.382 E0.56931
G1 X162.393 Y52.056 E0.61136
G1 X162.931 Y52.781 E0.6534
G1 X163.404 Y53.551 E0.69548
G1 X163.806 Y54.359 E0.7375
G1 X164.135 Y55.2 E0.77955
G1 X164.389 Y56.067 E0.82162
G1 X164.565 Y56.953 E0.86368
G1 X164.68 Y58.298 E0.92654
G1 X164.693 Y59.061 E0.96207
G1 X164.699 Y79.934 E1.93401
G1 X164.691 Y80.493 E1.96004
G1 X164.638 Y81.395 E2.00211
G1 X164.619 Y81.579 E2.01073
G1 X164.487 Y82.472 E2.05276
G1 X164.276 Y83.35 E2.09481
G1 X163.887 Y84.457 E2.14944
G1 X163.84 Y84.569 E2.1551
G1 X162.862 Y87.025 E2.2782
G1 X161.994 Y89.396 E2.39577
G1 X161.19 Y91.801 E2.51384
G1 X160.454 Y94.23 E2.63203
G1 X159.78 Y96.701 E2.75129
G1 X159.177 Y99.189 E2.8705
G1 X158.659 Y101.63 E2.98669
G1 X158.204 Y104.12 E3.10455
G1 X157.815 Y106.643 E3.22342
G1 X157.498 Y109.168 E3.34192
G1 X157.251 Y111.723 E3.46145
G1 X157.082 Y114.212 E3.57761
G1 X156.98 Y116.78 E3.69728
G1 X156.95 Y119.119 E3.80621
G1 X156.949 Y137.916 E4.68147
G1 X156.939 Y138.633 E4.71486
G1 X156.893 Y139.472 E4.75399
G1 X156.838 Y140.026 E4.77991
G1 X156.619 Y141.956 E4.87036
G1 X156.406 Y144.454 E4.9871
G1 X156.261 Y147.016 E5.10659
G1 X156.189 Y149.549 E5.22458
G1 X156.189 Y152.088 E5.34281
G1 X156.243 Y154.196 E5.441
G1 X156.298 Y155.795 E5.5155
G1 X156.304 Y156.336 E5.54069
G1 X156.303 Y160.169 E5.71917
G1 X156.296 Y160.64 E5.74111
G1 X156.286 Y160.964 E5.7562
G1 X156.202 Y162.716 E5.83787
G1 X156.167 Y163.257 E5.86312
G1 X156.075 Y165.773 E5.98035
G1 X156.055 Y168.341 E6.09993
G1 X156.106 Y170.876 E6.218
G1 X156.281 Y174.269 E6.3762
G1 X156.294 Y174.657 E6.39427
G1 X156.304 Y175.466 E6.43195
G1 X156.303 Y179.158 E6.60386
G1 X156.294 Y179.789 E6.63325
G1 X156.195 Y181.072 E6.69317
G1 X156.139 Y181.468 E6.71179
G1 X155.973 Y182.356 E6.75386
G1 X155.729 Y183.226 E6.79593
G1 X155.409 Y184.07 E6.83796
G1 X154.84 Y185.196 E6.89671
G1 X154.632 Y185.551 E6.91586
G1 X154.141 Y186.31 E6.95796
G1 X153.585 Y187.022 E7.00002
G1 X152.969 Y187.681 E7.04203
G1 X152.174 Y188.383 E7.09141
G1 X151.941 Y188.568 E7.10526
G1 X151.209 Y189.098 E7.14735
G1 X150.434 Y189.561 E7.18938
G1 X149.611 Y189.958 E7.23193
G1 X149.396 Y190.05 E7.24282
G1 X148.551 Y190.368 E7.28486
G1 X147.68 Y190.61 E7.32695
G1 X147.053 Y190.734 E7.35672
G1 X146.818 Y190.773 E7.36781
G1 X145.921 Y190.882 E7.40988
G1 X145.414 Y190.908 E7.43352
G1 X144.65 Y190.924 E7.4691
G1 X90.044 Y190.923 E10.01179
G1 X89.359 Y190.913 E10.04369
G1 X88.458 Y190.86 E10.08572
G1 X87.564 Y190.727 E10.1278
G1 X86.686 Y190.516 E10.16985
G1 X85.83 Y190.228 E10.2119
G1 X85.003 Y189.865 E10.25396
G1 X84.211 Y189.431 E10.29601
G1 X83.461 Y188.928 E10.33806
G1 X82.758 Y188.361 E10.38012
G1 X82.108 Y187.734 E10.42217
G1 X81.516 Y187.052 E10.46422
G1 X80.987 Y186.32 E10.50628
G1 X80.524 Y185.545 E10.54831
G1 X80.132 Y184.731 E10.59038
G1 X79.814 Y183.886 E10.63242
G1 X79.571 Y183.016 E10.67448
G1 X79.407 Y182.128 E10.71653
G1 X79.311 Y180.95 E10.77157
G1 X79.284 Y179.688 E10.83034
G1 X79.28 Y176.026 E11.00086
G1 X79.286 Y174.293 E11.08156
G1 X79.298 Y173.549 E11.11621
G1 X79.308 Y173.245 E11.13037
G1 X79.373 Y171.831 E11.19628
G1 X79.448 Y169.734 E11.29399
G1 X79.471 Y167.144 E11.4146
G1 X79.42 Y164.597 E11.53322
G1 X79.319 Y162.332 E11.63879
G1 X79.283 Y160.732 E11.71331
G1 X79.279 Y159.339 E11.77818
G1 X79.287 Y153.223 E12.06296
G1 X79.221 Y150.635 E12.18351
G1 X79.088 Y148.153 E12.29925
G1 X78.877 Y145.581 E12.41941
G1 X78.597 Y143.057 E12.53766
G1 X78.158 Y139.904 E12.6859
G1 X78.065 Y138.803 E12.73735
G1 X78.05 Y138.164 E12.76711
G1 X78.05 Y127.584 E13.25976
G1 X78.013 Y124.978 E13.38112
G1 X77.904 Y122.41 E13.5008
G1 X77.727 Y119.908 E13.6176
G1 X77.478 Y117.395 E13.73518
G1 X77.15 Y114.832 E13.8555
G1 X76.759 Y112.347 E13.97264
G1 X76.299 Y109.871 E14.0899
G1 X75.754 Y107.337 E14.21059
G1 X75.16 Y104.919 E14.32653
G1 X74.479 Y102.441 E14.4462
G1 X73.746 Y100.046 E14.56283
G1 X72.921 Y97.601 E14.68298
G1 X72.048 Y95.233 E14.8005
G1 X71.108 Y92.892 E14.91797
G1 X70.081 Y90.533 E15.03777
G1 X69.012 Y88.252 E15.15507
G1 X67.424 Y85.131 E15.31813
G1 X67.05 Y84.309 E15.36018
G1 X66.75 Y83.457 E15.40224
G1 X66.526 Y82.582 E15.44429
G1 X66.38 Y81.691 E15.48634
G1 X66.312 Y80.678 E15.53361
G1 X66.3 Y79.938 E15.56807
G1 X66.301 Y59.061 E16.54019
G1 X66.311 Y58.363 E16.5727
G1 X66.364 Y57.461 E16.61477
G1 X66.496 Y56.568 E16.65681
G1 X66.707 Y55.69 E16.69885
G1 X66.995 Y54.834 E16.74091
G1 X67.357 Y54.007 E16.78294
G1 X67.792 Y53.215 E16.82502
G1 X68.294 Y52.464 E16.86708
G1 X68.943 Y51.669 E16.91487
G1 X69.084 Y51.513 E16.92466
G1 X69.541 Y51.035 E16.95546
G1 X71.898 Y48.679 E17.11063
G1 X72.381 Y48.209 E17.14202
G1 X73.055 Y47.608 E17.18407
G1 X73.78 Y47.07 E17.2261
G1 X74.55 Y46.597 E17.26818
G1 X75.358 Y46.195 E17.31021
G1 X76.199 Y45.866 E17.35226
G1 X77.066 Y45.612 E17.39432
G1 X77.952 Y45.436 E17.43639
G1 X79.295 Y45.321 E17.49915
G1 X80.057 Y45.308 E17.53464
G1 X150.796 Y45.3 E20.82854
G1 X150.944 Y45.301 E20.83543
G1 X151.638 Y45.311 E20.86775
G0 F6000 X151.644 Y44.911
G1 F1200 X152.563 Y44.964 E20.91062
G1 X153.474 Y45.097 E20.95349
G1 X154.37 Y45.308 E20.99635
G1 X155.244 Y45.597 E21.03921
G1 X156.09 Y45.96 E21.08208
G1 X156.902 Y46.395 E21.12497
G1 X157.672 Y46.899 E21.16783
G1 X158.396 Y47.468 E21.2107
G1 X158.754 Y47.789 E21.23309
G1 X159.074 Y48.09 E21.25355
G1 X159.306 Y48.316 E21.26863
G1 X161.609 Y50.62 E21.42032
G1 X162.079 Y51.103 E21.4517
G1 X162.692 Y51.79 E21.49457
G1 X163.243 Y52.527 E21.53742
G1 X163.727 Y53.31 E21.58029
G1 X164.142 Y54.132 E21.62316
G1 X164.485 Y54.987 E21.66606
G1 X164.751 Y55.868 E21.70891
G1 X164.94 Y56.769 E21.75178
G1 X165.051 Y57.683 E21.79465
G1 X165.08 Y58.29 E21.82295
G1 X165.093 Y59.06 E21.85881
G1 X165.099 Y79.94 E22.83107
G1 X165.091 Y80.499 E22.8571
G1 X165.036 Y81.436 E22.90081
G1 X165.017 Y81.62 E22.90942
G1 X164.883 Y82.531 E22.9523
G1 X164.67 Y83.426 E22.99513
G1 X164.256 Y84.611 E23.05358
G1 X164.2 Y84.744 E23.0603
G1 X163.249 Y87.132 E23.17999
G1 X162.362 Y89.555 E23.30014
G1 X161.576 Y91.906 E23.41557
G1 X160.837 Y94.346 E23.53428
G1 X160.169 Y96.795 E23.65248
G1 X159.571 Y99.261 E23.77064
G1 X159.051 Y101.713 E23.88735
G1 X158.593 Y104.216 E24.00584
G1 X158.213 Y106.682 E24.12202
G1 X157.894 Y109.224 E24.24132
G1 X157.654 Y111.715 E24.35784
G1 X157.481 Y114.256 E24.47644
G1 X157.38 Y116.801 E24.59504
G1 X157.35 Y119.125 E24.70326
G1 X157.349 Y137.922 E25.57853
G1 X157.339 Y138.639 E25.61192
G1 X157.291 Y139.51 E25.65254
G1 X157.235 Y140.072 E25.67884
G1 X157.019 Y141.968 E25.76769
G1 X156.803 Y144.511 E25.88653
G1 X156.661 Y147.014 E26.00327
G1 X156.589 Y149.56 E26.12187
G1 X156.589 Y152.078 E26.23912
G1 X156.642 Y154.169 E26.33651
G1 X156.698 Y155.79 E26.41204
G1 X156.704 Y156.336 E26.43747
G1 X156.703 Y160.175 E26.61623
G1 X156.696 Y160.646 E26.63816
G1 X156.685 Y160.983 E26.65386
G1 X156.601 Y162.742 E26.73586
G1 X156.567 Y163.262 E26.76012
G1 X156.475 Y165.791 E26.87796
G1 X156.455 Y168.336 E26.99647
G1 X156.506 Y170.848 E27.11347
G1 X156.681 Y174.249 E27.27204
G1 X156.694 Y174.652 E27.29082
G1 X156.704 Y175.466 E27.32872
G1 X156.703 Y179.164 E27.50092
G1 X156.694 Y179.795 E27.5303
G1 X156.591 Y181.128 E27.59256
G1 X156.535 Y181.524 E27.61118
G1 X156.366 Y182.429 E27.65405
G1 X156.12 Y183.316 E27.69691
G1 X155.798 Y184.179 E27.7398
G1 X155.185 Y185.399 E27.80338
G1 X154.977 Y185.754 E27.82254
G1 X154.477 Y186.527 E27.8654
G1 X153.913 Y187.254 E27.90825
G1 X153.287 Y187.93 E27.95115
G1 X152.422 Y188.696 E28.00495
G1 X152.189 Y188.881 E28.0188
G1 X151.444 Y189.422 E28.06168
G1 X150.655 Y189.896 E28.10453
G1 X149.768 Y190.325 E28.15041
G1 X149.553 Y190.417 E28.1613
G1 X148.692 Y190.742 E28.20416
G1 X147.805 Y190.991 E28.24706
G1 X147.118 Y191.129 E28.27968
G1 X146.883 Y191.168 E28.29078
G1 X145.969 Y191.279 E28.33365
G1 X145.425 Y191.307 E28.35901
G1 X144.65 Y191.324 E28.39511
G1 X90.038 Y191.323 E30.93807
G1 X89.353 Y191.313 E30.96997
G1 X88.434 Y191.259 E31.01284
G1 X87.523 Y191.127 E31.0557
G1 X86.627 Y190.915 E31.09858
G1 X85.753 Y190.627 E31.14142
G1 X84.907 Y190.263 E31.18431
G1 X84.096 Y189.828 E31.22716
G1 X83.325 Y189.324 E31.27005
G1 X82.601 Y188.755 E31.31293
G1 X81.93 Y188.125 E31.35579
G1 X81.315 Y187.44 E31.39865
G1 X80.762 Y186.704 E31.44152
G1 X80.276 Y185.922 E31.48439
G1 X79.859 Y185.101 E31.52727
G1 X79.514 Y184.248 E31.57012
G1 X79.245 Y183.367 E31.61301
G1 X79.054 Y182.467 E31.65585
G1 X78.941 Y181.553 E31.69873
G1 X78.911 Y180.959 E31.72643
G1 X78.884 Y179.689 E31.78558
G1 X78.88 Y176.027 E31.9561
G1 X78.886 Y174.286 E32.03717
G1 X78.908 Y173.226 E32.08653
G1 X78.973 Y171.812 E32.15245
G1 X79.048 Y169.717 E32.25006
G1 X79.071 Y167.148 E32.36969
G1 X79.021 Y164.622 E32.48733
G1 X78.919 Y162.341 E32.59365
G1 X78.883 Y160.733 E32.66855
G1 X78.879 Y159.34 E32.73341
G1 X78.887 Y153.232 E33.01782
G1 X78.821 Y150.666 E33.13735
G1 X78.686 Y148.138 E33.25523
G1 X78.482 Y145.656 E33.37119
G1 X78.202 Y143.125 E33.48976
G1 X77.761 Y139.96 E33.63856
G1 X77.665 Y138.815 E33.69207
G1 X77.65 Y138.164 E33.72239
G1 X77.65 Y127.59 E34.21476
G1 X77.613 Y124.965 E34.337
G1 X77.506 Y122.457 E34.45389
G1 X77.328 Y119.936 E34.57157
G1 X77.078 Y117.418 E34.6894
G1 X76.757 Y114.907 E34.80727
G1 X76.37 Y112.445 E34.92332
G1 X75.901 Y109.923 E35.04277
G1 X75.368 Y107.444 E35.16084
G1 X74.772 Y105.015 E35.2773
G1 X74.1 Y102.571 E35.39532
G1 X73.357 Y100.144 E35.51351
G1 X72.539 Y97.719 E35.63268
G1 X71.678 Y95.384 E35.74856
G1 X70.729 Y93.022 E35.86709
G1 X69.73 Y90.727 E35.98364
G1 X68.657 Y88.437 E36.1014
G1 X67.068 Y85.312 E36.26465
G1 X66.686 Y84.475 E36.30749
G1 X66.377 Y83.607 E36.35039
G1 X66.145 Y82.716 E36.39326
G1 X65.992 Y81.809 E36.43609
G1 X65.912 Y80.685 E36.48856
G1 X65.9 Y79.938 E36.52335
G1 X65.901 Y59.055 E37.49575
G1 X65.911 Y58.357 E37.52826
G1 X65.964 Y57.438 E37.57112
G1 X66.097 Y56.527 E37.61399
G1 X66.308 Y55.631 E37.65685
G1 X66.596 Y54.757 E37.6997
G1 X66.959 Y53.91 E37.74261
G1 X67.394 Y53.099 E37.78546
G1 X67.898 Y52.329 E37.82832
G1 X68.646 Y51.401 E37.88382
G1 X68.787 Y51.245 E37.89361
G1 X69.074 Y50.94 E37.91311
G1 X69.255 Y50.755 E37.92516
G1 X71.619 Y48.392 E38.0808
G1 X72.102 Y47.922 E38.11218
G1 X72.789 Y47.309 E38.15506
G1 X73.526 Y46.758 E38.1979
G1 X74.309 Y46.274 E38.24077
G1 X75.131 Y45.859 E38.28364
G1 X75.986 Y45.516 E38.32654
G1 X76.867 Y45.25 E38.36939
G1 X77.768 Y45.061 E38.41226
G1 X78.682 Y44.95 E38.45513
G1 X79.287 Y44.921 E38.48334
G1 X80.057 Y44.908 E38.5192
G1 X150.796 Y44.9 E41.8131
G1 X150.95 Y44.901 E41.82027
G1 X151.644 Y44.911 E41.85259
G0 F6000 X151.649 Y44.511
G1 F1200 X152.586 Y44.565 E41.89629
G1 X153.514 Y44.698 E41.93995
G1 X154.428 Y44.909 E41.98363
G1 X155.32 Y45.198 E42.02729
G1 X156.185 Y45.562 E42.07099
G1 X157.015 Y45.998 E42.11464
G1 X157.805 Y46.503 E42.1583
G1 X158.55 Y47.073 E42.20198
G1 X159.028 Y47.498 E42.23176
G1 X159.348 Y47.799 E42.25222
G1 X159.589 Y48.033 E42.26786
G1 X161.896 Y50.341 E42.41981
G1 X162.366 Y50.824 E42.4512
G1 X162.99 Y51.523 E42.49483
G1 X163.553 Y52.273 E42.53849
G1 X164.05 Y53.069 E42.58219
G1 X164.478 Y53.903 E42.62584
G1 X164.833 Y54.771 E42.66951
G1 X165.112 Y55.667 E42.71321
G1 X165.314 Y56.583 E42.75688
G1 X165.438 Y57.512 E42.80052
G1 X165.48 Y58.282 E42.83643
G1 X165.493 Y59.06 E42.87266
G1 X165.499 Y79.945 E43.84516
G1 X165.491 Y80.504 E43.87119
G1 X165.434 Y81.477 E43.91657
G1 X165.415 Y81.661 E43.92519
G1 X165.279 Y82.589 E43.96886
G1 X165.064 Y83.502 E44.01254
G1 X164.625 Y84.765 E44.0748
G1 X164.583 Y84.866 E44.07989
G1 X163.613 Y87.3 E44.2019
G1 X162.752 Y89.651 E44.31848
G1 X161.953 Y92.044 E44.43596
G1 X161.22 Y94.462 E44.55361
G1 X160.558 Y96.889 E44.67075
G1 X159.957 Y99.366 E44.78943
G1 X159.442 Y101.797 E44.90514
G1 X158.995 Y104.243 E45.02093
G1 X158.607 Y106.756 E45.13933
G1 X158.291 Y109.276 E45.25759
G1 X158.052 Y111.748 E45.37323
G1 X157.879 Y114.299 E45.49229
G1 X157.78 Y116.785 E45.60814
G1 X157.75 Y119.13 E45.71734
G1 X157.749 Y137.927 E46.59261
G1 X157.739 Y138.644 E46.626
G1 X157.689 Y139.549 E46.6682
G1 X157.633 Y140.117 E46.69478
G1 X157.413 Y142.049 E46.78532
G1 X157.202 Y144.529 E46.90122
G1 X157.061 Y147.014 E47.01712
G1 X156.989 Y149.571 E47.13623
G1 X156.989 Y152.107 E47.25432
G1 X157.039 Y154.066 E47.34557
G1 X157.098 Y155.785 E47.42566
G1 X157.104 Y156.336 E47.45132
G1 X157.103 Y160.18 E47.63031
G1 X157.096 Y160.651 E47.65224
G1 X157.085 Y161.001 E47.66855
G1 X157.001 Y162.768 E47.75092
G1 X156.966 Y163.302 E47.77584
G1 X156.875 Y165.809 E47.89265
G1 X156.855 Y168.331 E48.01009
G1 X156.906 Y170.85 E48.12741
G1 X157.08 Y174.228 E48.28491
G1 X157.094 Y174.647 E48.30443
G1 X157.104 Y175.466 E48.34257
G1 X157.103 Y179.17 E48.51505
G1 X157.094 Y179.801 E48.54443
G1 X156.987 Y181.184 E48.60902
G1 X156.931 Y181.58 E48.62764
G1 X156.76 Y182.502 E48.67131
G1 X156.511 Y183.407 E48.71502
G1 X156.186 Y184.287 E48.7587
G1 X155.788 Y185.135 E48.80232
G1 X155.53 Y185.601 E48.82712
G1 X155.322 Y185.956 E48.84628
G1 X154.814 Y186.744 E48.88993
G1 X154.24 Y187.486 E48.93362
G1 X153.606 Y188.177 E48.97728
G1 X152.671 Y189.01 E49.03559
G1 X152.438 Y189.195 E49.04945
G1 X151.679 Y189.746 E49.09312
G1 X150.876 Y190.231 E49.1368
G1 X149.925 Y190.693 E49.18603
G1 X149.71 Y190.785 E49.19692
G1 X148.833 Y191.117 E49.24059
G1 X147.931 Y191.373 E49.28425
G1 X147.184 Y191.524 E49.31973
G1 X146.949 Y191.563 E49.33083
G1 X146.018 Y191.677 E49.3745
G1 X145.435 Y191.707 E49.40168
G1 X144.65 Y191.724 E49.43825
G1 X90.032 Y191.723 E51.98149
G1 X89.347 Y191.713 E52.01339
G1 X88.411 Y191.659 E52.05704
G1 X87.483 Y191.526 E52.1007
G1 X86.569 Y191.314 E52.14439
G1 X85.677 Y191.025 E52.18805
G1 X84.812 Y190.661 E52.23175
G1 X83.982 Y190.225 E52.2754
G1 X83.192 Y189.72 E52.31906
G1 X82.448 Y189.149 E52.36273
G1 X81.755 Y188.517 E52.40641
G1 X81.118 Y187.828 E52.4501
G1 X80.543 Y187.088 E52.49374
G1 X80.032 Y186.301 E52.53743
G1 X79.591 Y185.474 E52.58107
G1 X79.222 Y184.611 E52.62478
G1 X78.927 Y183.721 E52.66844
G1 X78.709 Y182.809 E52.7121
G1 X78.57 Y181.881 E52.75579
G1 X78.511 Y180.969 E52.79835
G1 X78.484 Y179.689 E52.85796
G1 X78.48 Y176.027 E53.02848
G1 X78.486 Y174.28 E53.10983
G1 X78.498 Y173.536 E53.14448
G1 X78.509 Y173.208 E53.15976
G1 X78.569 Y171.898 E53.22082
G1 X78.648 Y169.698 E53.32333
G1 X78.671 Y167.153 E53.44184
G1 X78.621 Y164.648 E53.55851
G1 X78.519 Y162.351 E53.66557
G1 X78.483 Y160.735 E53.74084
G1 X78.479 Y159.342 E53.8057
G1 X78.487 Y153.204 E54.09151
G1 X78.423 Y150.699 E54.20819
G1 X78.289 Y148.192 E54.3251
G1 X78.081 Y145.662 E54.4433
G1 X77.807 Y143.187 E54.55925
G1 X77.365 Y140.015 E54.70838
G1 X77.265 Y138.827 E54.76389
G1 X77.25 Y138.164 E54.79477
G1 X77.25 Y127.596 E55.28686
G1 X77.213 Y124.988 E55.40832
G1 X77.106 Y122.466 E55.52586
G1 X76.929 Y119.971 E55.64233
G1 X76.681 Y117.472 E55.75926
G1 X76.363 Y114.983 E55.8761
G1 X75.969 Y112.474 E55.99436
G1 X75.51 Y110.008 E56.11116
G1 X74.976 Y107.526 E56.22938
