;FLAVOR:Marlin
;TIME:3486
;Filament used: 2.74304m
;Layer height: 0.28
;MINX:69.076
;MINY:73.249
;MINZ:0.28
;MAXX:166.079
;MAXY:161.822
;MAXZ:18.76
;Generated with Cura_SteamEngine 4.6.1
M140 S60
M105
M190 S60
M104 S210
M105
M109 S210
M82 ;absolute extrusion mode
; Ender 3 Custom Start G-code
G92 E0 ; Reset Extruder
G28 ; Home all axes
G1 Z2.0 F3000 ; Move Z Axis up little to prevent scratching of Heat Bed
G1 X0.1 Y20 Z0.3 F5000.0 ; Move to start position
G1 X0.1 Y200.0 Z0.3 F1500.0 E15 ; Draw the first line
G1 X0.4 Y200.0 Z0.3 F5000.0 ; Move to side a little
G1 X0.4 Y20 Z0.3 F1500.0 E30 ; Draw the second line
G92 E0 ; Reset Extruder
G1 Z2.0 F3000 ; Move Z Axis up little to prevent scratching of Heat Bed
G1 X5 Y20 Z0.3 F5000.0 ; Move over to prevent blob squish
G92 E0
G92 E0
G1 F2700 E-5
;LAYER_COUNT:67
;LAYER:0
M107
G0 F6000 X89.622 Y74.071 Z0.28
;TYPE:SKIRT
G1 F2700 E0
G1 F1200 X90.531 Y74.16 E0.04253
G1 X91.024 Y74.231 E0.06572
G1 X91.91 Y74.399 E0.10771
G1 X92.173 Y74.461 E0.1203
G1 X92.609 Y74.574 E0.14127
G1 X92.853 Y74.643 E0.15308
G1 X93.438 Y74.828 E0.18164
G1 X94.292 Y75.127 E0.22378
G1 X155.196 Y97.302 E3.24185
G1 X157.773 Y98.234 E3.36945
G1 X158.304 Y98.435 E3.39589
G1 X159.155 Y98.802 E3.43905
G1 X159.34 Y98.892 E3.44863
G1 X160.134 Y99.322 E3.49067
G1 X160.887 Y99.822 E3.53276
G1 X161.592 Y100.385 E3.57477
G1 X162.482 Y101.265 E3.63305
G1 X162.634 Y101.435 E3.64367
G1 X163.205 Y102.135 E3.68573
G1 X163.713 Y102.882 E3.7278
G1 X164.152 Y103.671 E3.76984
G1 X164.52 Y104.495 E3.81186
G1 X164.814 Y105.349 E3.85392
G1 X165.053 Y106.343 E3.90152
G1 X165.103 Y106.608 E3.91408
G1 X165.231 Y107.502 E3.95613
G1 X165.28 Y108.404 E3.99819
G1 X165.248 Y109.306 E4.04022
G1 X165.137 Y110.202 E4.08226
G1 X164.947 Y111.085 E4.12432
G1 X164.767 Y111.694 E4.15389
G1 X164.38 Y112.852 E4.21074
G1 X163.388 Y115.568 E4.34538
G1 X163.138 Y116.225 E4.37812
G1 X162.78 Y117.054 E4.42016
G1 X162.35 Y117.848 E4.46221
G1 X161.958 Y118.45 E4.49566
G1 X161.379 Y119.27 E4.5424
G1 X160.48 Y120.479 E4.61256
G1 X159.005 Y122.586 E4.73232
G1 X157.633 Y124.668 E4.84842
G1 X156.278 Y126.86 E4.96842
G1 X155.009 Y129.047 E5.08615
G1 X153.79 Y131.291 E5.20507
G1 X152.649 Y133.539 E5.32245
G1 X151.554 Y135.859 E5.44191
G1 X150.551 Y138.15 E5.55837
G1 X149.597 Y140.508 E5.67681
G1 X148.705 Y142.902 E5.79577
G1 X147.879 Y145.332 E5.91528
G1 X147.148 Y147.699 E6.03063
G1 X146.523 Y149.971 E6.14036
G1 X146.329 Y150.65 E6.17324
G1 X146.168 Y151.161 E6.19819
G1 X145.899 Y151.94 E6.23656
G1 X145.354 Y153.43 E6.31044
G1 X145.099 Y154.103 E6.34395
G1 X144.742 Y154.933 E6.38602
G1 X144.243 Y155.843 E6.43435
G1 X144.132 Y156.023 E6.4442
G1 X143.624 Y156.77 E6.48626
G1 X143.053 Y157.469 E6.52829
G1 X142.421 Y158.115 E6.57037
G1 X141.735 Y158.702 E6.61241
G1 X141.332 Y159.002 E6.6358
G1 X141.145 Y159.134 E6.64646
G1 X140.385 Y159.622 E6.68852
G1 X139.585 Y160.04 E6.73055
G1 X138.751 Y160.386 E6.77259
G1 X137.889 Y160.657 E6.81467
G1 X137.007 Y160.851 E6.85672
G1 X136.269 Y160.951 E6.8914
G1 X136.047 Y160.973 E6.90179
G1 X135.145 Y161.022 E6.94385
G1 X134.243 Y160.992 E6.98587
G1 X133.346 Y160.881 E7.02796
G1 X132.463 Y160.692 E7.07001
G1 X131.785 Y160.49 E7.10295
G1 X130.818 Y160.161 E7.15051
G1 X130.462 Y160.033 E7.16813
G1 X121.332 Y156.704 E7.62064
G1 X120.498 Y156.357 E7.6627
G1 X119.698 Y155.938 E7.70475
G1 X119.262 Y155.669 E7.7286
G1 X119.05 Y155.531 E7.74038
G1 X118.316 Y155.006 E7.7824
G1 X117.631 Y154.417 E7.82447
G1 X117.001 Y153.77 E7.86652
G1 X116.22 Y152.777 E7.92535
G1 X116.073 Y152.564 E7.9374
G1 X115.665 Y151.923 E7.97278
G1 X114.427 Y149.808 E8.08689
G1 X113.104 Y147.688 E8.20325
G1 X111.689 Y145.558 E8.32233
G1 X110.233 Y143.495 E8.4399
G1 X108.712 Y141.463 E8.55809
G1 X107.127 Y139.467 E8.67677
G1 X105.491 Y137.523 E8.79508
G1 X103.805 Y135.63 E8.91312
G1 X102.054 Y133.773 E9.03197
G1 X100.27 Y131.984 E9.14962
G1 X98.421 Y130.233 E9.26819
G1 X96.527 Y128.538 E9.38654
G1 X94.59 Y126.902 E9.50461
G1 X92.614 Y125.325 E9.62233
G1 X90.56 Y123.779 E9.74203
G1 X88.518 Y122.332 E9.85857
G1 X86.384 Y120.907 E9.97806
G1 X84.237 Y119.56 E10.09608
G1 X82.057 Y118.277 E10.21386
G1 X79.811 Y117.039 E10.33328
G1 X77.57 Y115.885 E10.45065
G1 X76.21 Y115.228 E10.52098
G1 X75.846 Y115.045 E10.53995
G1 X75.058 Y114.604 E10.582
G1 X74.312 Y114.095 E10.62405
G1 X73.614 Y113.522 E10.6661
G1 X72.969 Y112.89 E10.70815
G1 X72.264 Y112.047 E10.75932
G1 X72.085 Y111.808 E10.77323
G1 X71.576 Y111.061 E10.81532
G1 X71.135 Y110.273 E10.85737
G1 X70.766 Y109.449 E10.89941
G1 X70.572 Y108.919 E10.92569
G1 X70.469 Y108.61 E10.94085
G1 X70.134 Y107.331 E11.00242
G1 X70.085 Y107.079 E11.01437
G1 X69.952 Y106.186 E11.05641
G1 X69.899 Y105.316 E11.097
G1 X69.876 Y103.973 E11.15954
G1 X69.876 Y99.754 E11.356
G1 X69.886 Y99.067 E11.38799
G1 X69.939 Y98.165 E11.43006
G1 X70.072 Y97.272 E11.47211
G1 X70.283 Y96.394 E11.51415
G1 X70.437 Y95.904 E11.53807
G1 X70.814 Y94.813 E11.59182
G1 X73.788 Y86.654 E11.99619
G1 X74.653 Y84.263 E12.11458
G1 X74.937 Y83.508 E12.15215
G1 X75.102 Y83.096 E12.17281
G1 X75.201 Y82.864 E12.18456
G1 X75.452 Y82.321 E12.21241
G1 X75.569 Y82.086 E12.22464
G1 X75.901 Y81.472 E12.25714
G1 X76.091 Y81.148 E12.27463
G1 X76.588 Y80.382 E12.31715
G1 X76.845 Y80.022 E12.33774
G1 X77.418 Y79.291 E12.38099
G1 X77.685 Y78.981 E12.40004
G1 X78.337 Y78.293 E12.44418
G1 X78.611 Y78.029 E12.4619
G1 X79.284 Y77.435 E12.50369
G1 X79.584 Y77.193 E12.52164
G1 X80.347 Y76.634 E12.56568
G1 X80.802 Y76.332 E12.59111
G1 X81.7 Y75.8 E12.63972
G1 X81.898 Y75.696 E12.65013
G1 X82.608 Y75.357 E12.68676
G1 X83.14 Y75.128 E12.71373
G1 X84.063 Y74.783 E12.75962
G1 X84.316 Y74.702 E12.77199
G1 X85.132 Y74.477 E12.8114
G1 X85.652 Y74.357 E12.83625
G1 X86.662 Y74.177 E12.88402
G1 X86.93 Y74.143 E12.8966
G1 X87.784 Y74.071 E12.93651
G1 X88.329 Y74.048 E12.96191
G1 X89.304 Y74.054 E13.00731
G1 X89.622 Y74.071 E13.02214
G0 F6000 X89.643 Y73.671
G1 F1200 X90.588 Y73.764 E13.06635
G1 X91.081 Y73.835 E13.08955
G1 X92.002 Y74.01 E13.1332
G1 X92.265 Y74.072 E13.14578
G1 X92.717 Y74.189 E13.16752
G1 X92.961 Y74.258 E13.17933
G1 X93.569 Y74.45 E13.20902
G1 X94.429 Y74.751 E13.25145
G1 X155.332 Y96.925 E16.26946
G1 X157.915 Y97.859 E16.39736
G1 X158.446 Y98.06 E16.42379
G1 X159.33 Y98.442 E16.46864
G1 X159.515 Y98.532 E16.47822
G1 X160.325 Y98.97 E16.52109
G1 X161.093 Y99.477 E16.56394
G1 X161.815 Y100.049 E16.60684
G1 X162.78 Y100.999 E16.66989
G1 X162.932 Y101.169 E16.68051
G1 X163.515 Y101.881 E16.72336
G1 X164.035 Y102.641 E16.76624
G1 X164.486 Y103.444 E16.80912
G1 X164.866 Y104.282 E16.85197
G1 X165.172 Y105.151 E16.89487
G1 X165.446 Y106.269 E16.94847
G1 X165.496 Y106.534 E16.96103
G1 X165.627 Y107.445 E17.00388
G1 X165.679 Y108.364 E17.04674
G1 X165.651 Y109.284 E17.0896
G1 X165.543 Y110.199 E17.1325
G1 X165.356 Y111.1 E17.17535
G1 X165.147 Y111.819 E17.21022
G1 X164.864 Y112.677 E17.25229
G1 X164.755 Y112.989 E17.26768
G1 X163.762 Y115.71 E17.40255
G1 X163.512 Y116.367 E17.43528
G1 X163.148 Y117.212 E17.47813
G1 X162.711 Y118.023 E17.52102
G1 X162.286 Y118.68 E17.55746
G1 X161.7 Y119.508 E17.60469
G1 X160.813 Y120.701 E17.67391
G1 X159.334 Y122.814 E17.79401
G1 X157.964 Y124.893 E17.90995
G1 X156.621 Y127.065 E18.02886
G1 X155.356 Y129.244 E18.14618
G1 X154.155 Y131.456 E18.26338
G1 X153.01 Y133.712 E18.38119
G1 X151.927 Y136.006 E18.49931
G1 X150.912 Y138.324 E18.61714
G1 X149.959 Y140.681 E18.73552
G1 X149.082 Y143.034 E18.85245
G1 X148.263 Y145.442 E18.97089
G1 X147.536 Y147.797 E19.08565
G1 X146.907 Y150.081 E19.19596
G1 X146.713 Y150.76 E19.22885
G1 X146.546 Y151.291 E19.25477
G1 X146.274 Y152.077 E19.29349
G1 X145.728 Y153.572 E19.36761
G1 X145.473 Y154.245 E19.40112
G1 X145.11 Y155.091 E19.44398
G1 X144.583 Y156.053 E19.49506
G1 X144.472 Y156.233 E19.50491
G1 X143.956 Y156.995 E19.54776
G1 X143.375 Y157.709 E19.59062
G1 X142.734 Y158.37 E19.6335
G1 X142.038 Y158.973 E19.67638
G1 X141.563 Y159.329 E19.70402
G1 X141.376 Y159.461 E19.71468
G1 X140.601 Y159.959 E19.75757
G1 X139.787 Y160.387 E19.80039
G1 X138.938 Y160.744 E19.84328
G1 X138.061 Y161.025 E19.88616
G1 X137.163 Y161.229 E19.92904
G1 X136.308 Y161.349 E19.96924
G1 X136.086 Y161.371 E19.97963
G1 X135.167 Y161.422 E20.02249
G1 X134.247 Y161.393 E20.06535
G1 X133.333 Y161.284 E20.10821
G1 X132.431 Y161.097 E20.15111
G1 X131.658 Y160.869 E20.18863
G1 X130.683 Y160.538 E20.23658
G1 X130.327 Y160.41 E20.25419
G1 X121.195 Y157.079 E20.70682
G1 X120.344 Y156.727 E20.74971
G1 X119.528 Y156.301 E20.79257
G1 X119.044 Y156.005 E20.81899
G1 X118.832 Y155.867 E20.83076
G1 X118.083 Y155.331 E20.87365
G1 X117.383 Y154.733 E20.91652
G1 X116.738 Y154.076 E20.95939
G1 X115.891 Y153.004 E21.02301
G1 X115.744 Y152.791 E21.03506
G1 X115.32 Y152.125 E21.07182
G1 X114.101 Y150.043 E21.18417
G1 X112.764 Y147.899 E21.30182
G1 X111.356 Y145.78 E21.42029
G1 X109.902 Y143.72 E21.53769
G1 X108.394 Y141.707 E21.65481
G1 X106.809 Y139.71 E21.77353
G1 X105.203 Y137.801 E21.88969
G1 X103.498 Y135.887 E22.00905
G1 X101.78 Y134.065 E22.12566
G1 X99.976 Y132.257 E22.24459
G1 X98.162 Y130.538 E22.36096
G1 X96.248 Y128.825 E22.48056
G1 X94.367 Y127.236 E22.59522
G1 X92.33 Y125.611 E22.71655
G1 X90.357 Y124.126 E22.83154
G1 X88.263 Y122.641 E22.95108
G1 X86.195 Y121.261 E23.06684
G1 X84.027 Y119.901 E23.18601
G1 X81.84 Y118.614 E23.30417
G1 X79.642 Y117.402 E23.42105
G1 X77.361 Y116.228 E23.5405
G1 X76.031 Y115.585 E23.60929
G1 X75.667 Y115.402 E23.62826
G1 X74.863 Y114.954 E23.67112
G1 X74.101 Y114.437 E23.714
G1 X73.387 Y113.856 E23.75686
G1 X72.726 Y113.215 E23.79974
G1 X71.944 Y112.286 E23.85628
G1 X71.765 Y112.047 E23.87018
G1 X71.245 Y111.287 E23.91306
G1 X70.794 Y110.485 E23.95591
G1 X70.414 Y109.646 E23.99879
G1 X70.193 Y109.045 E24.02861
G1 X70.09 Y108.736 E24.04378
G1 X69.741 Y107.407 E24.10776
G1 X69.692 Y107.155 E24.11971
G1 X69.556 Y106.245 E24.16256
G1 X69.499 Y105.324 E24.20553
G1 X69.476 Y103.973 E24.26844
G1 X69.476 Y99.748 E24.46518
G1 X69.486 Y99.061 E24.49717
G1 X69.539 Y98.142 E24.54003
G1 X69.672 Y97.231 E24.5829
G1 X69.884 Y96.335 E24.62578
G1 X70.059 Y95.774 E24.65314
G1 X70.438 Y94.676 E24.70723
G1 X73.402 Y86.543 E25.1103
G1 X74.279 Y84.122 E25.2302
G1 X74.563 Y83.367 E25.26776
G1 X74.735 Y82.939 E25.28924
G1 X74.834 Y82.707 E25.30099
G1 X75.094 Y82.143 E25.3299
G1 X75.211 Y81.908 E25.34213
G1 X75.556 Y81.27 E25.3759
G1 X75.746 Y80.946 E25.39339
G1 X76.263 Y80.149 E25.43763
G1 X76.52 Y79.789 E25.45822
G1 X77.115 Y79.03 E25.50313
G1 X77.382 Y78.72 E25.52218
G1 X78.059 Y78.005 E25.56803
G1 X78.333 Y77.741 E25.58575
G1 X79.033 Y77.124 E25.6292
G1 X79.333 Y76.882 E25.64715
G1 X80.126 Y76.3 E25.69295
G1 X80.581 Y75.998 E25.71838
G1 X81.514 Y75.446 E25.76886
G1 X81.712 Y75.342 E25.77927
G1 X82.45 Y74.99 E25.81734
G1 X82.982 Y74.761 E25.84431
G1 X83.941 Y74.402 E25.89199
G1 X84.194 Y74.321 E25.90436
G1 X85.042 Y74.087 E25.94533
G1 X85.562 Y73.967 E25.97018
G1 X86.612 Y73.78 E26.01984
G1 X86.88 Y73.746 E26.03242
G1 X87.767 Y73.671 E26.07387
G1 X88.312 Y73.648 E26.09927
G1 X89.325 Y73.654 E26.14644
G1 X89.643 Y73.671 E26.16127
G0 F6000 X89.664 Y73.272
G1 F1200 X90.645 Y73.368 E26.20716
G1 X91.138 Y73.439 E26.23036
G1 X92.094 Y73.62 E26.27566
G1 X92.357 Y73.682 E26.28825
G1 X92.826 Y73.804 E26.31081
G1 X93.07 Y73.873 E26.32262
G1 X93.701 Y74.072 E26.35343
G1 X94.565 Y74.375 E26.39606
G1 X155.494 Y96.558 E29.41535
G1 X158.056 Y97.485 E29.54222
G1 X158.587 Y97.686 E29.56866
G1 X159.505 Y98.082 E29.61521
G1 X159.69 Y98.172 E29.62479
G1 X160.515 Y98.618 E29.66846
G1 X161.299 Y99.133 E29.71214
G1 X162.037 Y99.712 E29.75582
G1 X162.722 Y100.352 E29.79947
G1 X163.078 Y100.732 E29.82372
G1 X163.23 Y100.902 E29.83434
G1 X163.825 Y101.627 E29.87801
G1 X164.356 Y102.4 E29.92168
G1 X164.819 Y103.216 E29.96536
G1 X165.211 Y104.068 E30.00903
G1 X165.529 Y104.95 E30.05269
G1 X165.839 Y106.195 E30.11243
G1 X165.889 Y106.46 E30.12499
G1 X166.024 Y107.388 E30.16866
G1 X166.079 Y108.324 E30.21232
G1 X166.054 Y109.261 E30.25596
G1 X165.949 Y110.193 E30.29963
G1 X165.765 Y111.113 E30.34332
G1 X165.526 Y111.945 E30.38363
G1 X165.243 Y112.803 E30.4257
G1 X165.131 Y113.126 E30.44162
G1 X164.136 Y115.852 E30.57674
G1 X163.886 Y116.509 E30.60948
G1 X163.515 Y117.371 E30.65317
G1 X163.073 Y118.197 E30.6968
G1 X162.614 Y118.909 E30.73624
G1 X162.021 Y119.747 E30.78404
G1 X161.117 Y120.963 E30.8546
G1 X159.68 Y123.017 E30.97132
G1 X158.305 Y125.102 E31.08762
G1 X156.964 Y127.271 E31.20636
G1 X155.711 Y129.429 E31.32256
G1 X154.505 Y131.649 E31.4402
G1 X153.357 Y133.914 E31.55844
G1 X152.288 Y136.177 E31.67498
G1 X151.29 Y138.456 E31.79083
G1 X150.329 Y140.834 E31.91026
G1 X149.464 Y143.155 E32.0256
G1 X148.649 Y145.552 E32.14349
G1 X147.908 Y147.953 E32.26049
G1 X147.292 Y150.191 E32.36858
G1 X147.098 Y150.87 E32.40146
G1 X146.925 Y151.42 E32.42831
G1 X146.65 Y152.214 E32.46743
G1 X146.102 Y153.714 E32.5418
G1 X145.847 Y154.387 E32.57531
G1 X145.478 Y155.249 E32.61897
G1 X144.924 Y156.263 E32.67277
G1 X144.813 Y156.443 E32.68262
G1 X144.287 Y157.219 E32.72627
G1 X143.697 Y157.948 E32.76994
G1 X143.047 Y158.624 E32.81361
G1 X142.342 Y159.243 E32.85729
G1 X141.794 Y159.656 E32.88925
G1 X141.607 Y159.788 E32.89991
G1 X140.818 Y160.295 E32.94358
G1 X139.989 Y160.734 E32.98726
G1 X139.126 Y161.1 E33.03091
G1 X138.234 Y161.392 E33.07461
G1 X137.321 Y161.607 E33.11829
G1 X136.348 Y161.747 E33.16406
G1 X136.126 Y161.769 E33.17445
G1 X135.189 Y161.822 E33.21815
G1 X134.252 Y161.795 E33.2618
G1 X133.32 Y161.688 E33.30548
G1 X132.401 Y161.501 E33.34915
G1 X131.53 Y161.248 E33.39138
G1 X130.547 Y160.914 E33.43973
G1 X130.191 Y160.786 E33.45734
G1 X121.058 Y157.455 E33.91001
G1 X120.191 Y157.096 E33.95371
G1 X119.358 Y156.665 E33.99738
G1 X118.826 Y156.34 E34.02641
G1 X118.614 Y156.202 E34.03819
G1 X117.851 Y155.657 E34.08185
G1 X117.136 Y155.049 E34.12555
G1 X116.476 Y154.383 E34.16921
G1 X115.875 Y153.663 E34.21288
G1 X115.562 Y153.231 E34.23773
G1 X115.415 Y153.018 E34.24978
G1 X114.975 Y152.327 E34.28792
G1 X113.76 Y150.251 E34.39993
G1 X112.425 Y148.11 E34.51741
G1 X111.04 Y146.026 E34.63393
G1 X109.587 Y143.968 E34.75124
G1 X108.059 Y141.928 E34.86992
G1 X106.506 Y139.971 E34.98625
G1 X104.899 Y138.062 E35.10245
G1 X103.191 Y136.145 E35.222
G1 X101.489 Y134.339 E35.33755
G1 X99.701 Y132.546 E35.45546
G1 X97.886 Y130.827 E35.57186
G1 X96.007 Y129.145 E35.68929
G1 X94.083 Y127.521 E35.80653
G1 X92.125 Y125.958 E35.92319
G1 X90.091 Y124.427 E36.04173
G1 X88.056 Y122.985 E36.15787
G1 X85.942 Y121.573 E36.27624
G1 X83.833 Y120.25 E36.39217
G1 X81.65 Y118.966 E36.5101
G1 X79.445 Y117.75 E36.62735
G1 X77.229 Y116.609 E36.74341
G1 X75.851 Y115.943 E36.81468
G1 X75.487 Y115.76 E36.83365
G1 X74.668 Y115.303 E36.87732
G1 X73.891 Y114.779 E36.92096
G1 X73.161 Y114.189 E36.96467
G1 X72.484 Y113.54 E37.00834
G1 X71.624 Y112.526 E37.07025
G1 X71.445 Y112.287 E37.08415
G1 X70.915 Y111.513 E37.12783
G1 X70.453 Y110.697 E37.1715
G1 X70.062 Y109.844 E37.21519
G1 X69.813 Y109.172 E37.24856
G1 X69.71 Y108.863 E37.26373
G1 X69.452 Y107.961 E37.30741
G1 X69.348 Y107.484 E37.33014
G1 X69.299 Y107.232 E37.3421
G1 X69.16 Y106.304 E37.38579
G1 X69.099 Y105.331 E37.43119
G1 X69.076 Y103.973 E37.49443
G1 X69.076 Y99.742 E37.69144
G1 X69.086 Y99.055 E37.72344
G1 X69.14 Y98.119 E37.76709
G1 X69.273 Y97.19 E37.81079
G1 X69.485 Y96.277 E37.85444
G1 X69.681 Y95.644 E37.88529
G1 X70.062 Y94.539 E37.93972
G1 X73.036 Y86.38 E38.34409
G1 X73.904 Y83.981 E38.46288
G1 X74.188 Y83.226 E38.50044
G1 X74.367 Y82.782 E38.52274
G1 X74.466 Y82.55 E38.53448
G1 X74.736 Y81.964 E38.56452
G1 X74.853 Y81.729 E38.57675
G1 X75.211 Y81.068 E38.61175
G1 X75.401 Y80.744 E38.62924
G1 X75.937 Y79.917 E38.67513
G1 X76.194 Y79.557 E38.69573
G1 X76.812 Y78.769 E38.74236
G1 X77.079 Y78.459 E38.76141
G1 X77.782 Y77.717 E38.809
G1 X78.056 Y77.453 E38.82672
G1 X78.782 Y76.812 E38.87182
G1 X79.082 Y76.57 E38.88977
G1 X79.905 Y75.967 E38.93727
G1 X80.36 Y75.665 E38.9627
G1 X81.328 Y75.092 E39.01508
G1 X81.526 Y74.988 E39.02549
G1 X82.292 Y74.622 E39.06503
G1 X82.824 Y74.393 E39.092
G1 X83.819 Y74.021 E39.14146
