;FLAVOR:Marlin
;TIME:12591
;Filament used: 11.0151m
;Layer height: 0.28
;MINX:39.25
;MINY:57
;MINZ:0.28
;MAXX:195.75
;MAXY:178
;MAXZ:19.88
;Generated with Cura_SteamEngine 4.6.1
M140 S60
M105
M190 S60
M104 S210
M105
M109 S210
M82 ;absolute extrusion mode
; Ender 3 Custom Start G-code
G92 E0 ; Reset Extruder
G28 ; Home all axes
G1 Z2.0 F3000 ; Move Z Axis up little to prevent scratching of Heat Bed
G1 X0.1 Y20 Z0.3 F5000.0 ; Move to start position
G1 X0.1 Y200.0 Z0.3 F1500.0 E15 ; Draw the first line
G1 X0.4 Y200.0 Z0.3 F5000.0 ; Move to side a little
G1 X0.4 Y20 Z0.3 F1500.0 E30 ; Draw the second line
G92 E0 ; Reset Extruder
G1 Z2.0 F3000 ; Move Z Axis up little to prevent scratching of Heat Bed
G1 X5 Y20 Z0.3 F5000.0 ; Move over to prevent blob squish
G92 E0
G92 E0
G1 F2700 E-5
;LAYER_COUNT:71
;LAYER:0
M107
G0 F6000 X184.887 Y57.811 Z0.28
;TYPE:SKIRT
G1 F2700 E0
G1 F1200 X185.789 Y57.864 E0.04207
G1 X186.682 Y57.996 E0.08411
G1 X187.56 Y58.207 E0.12615
G1 X188.416 Y58.495 E0.16821
G1 X189.243 Y58.857 E0.21025
G1 X190.035 Y59.292 E0.25232
G1 X190.786 Y59.794 E0.29438
G1 X191.489 Y60.361 E0.33644
G1 X192.139 Y60.988 E0.37849
G1 X192.731 Y61.67 E0.42054
G1 X193.261 Y62.401 E0.46259
G1 X193.723 Y63.177 E0.50464
G1 X194.116 Y63.99 E0.54669
G1 X194.434 Y64.835 E0.58873
G1 X194.677 Y65.705 E0.63079
G1 X194.842 Y66.593 E0.67285
G1 X194.937 Y67.723 E0.72565
G1 X194.95 Y68.33 E0.75392
G1 X194.95 Y158.293 E4.94297
G1 X194.949 Y158.439 E4.94977
G1 X194.939 Y159.137 E4.98228
G1 X194.886 Y160.039 E5.02435
G1 X194.754 Y160.932 E5.06639
G1 X194.543 Y161.81 E5.10843
G1 X194.255 Y162.666 E5.15049
G1 X193.893 Y163.493 E5.19252
G1 X193.458 Y164.285 E5.2346
G1 X192.956 Y165.036 E5.27666
G1 X192.389 Y165.739 E5.31872
G1 X191.619 Y166.522 E5.36985
G1 X191.13 Y166.969 E5.4007
G1 X189.21 Y168.759 E5.52293
G1 X187.388 Y170.556 E5.64209
G1 X185.62 Y172.4 E5.76105
G1 X184.765 Y173.345 E5.82039
G1 X184.207 Y173.944 E5.85851
G1 X183.563 Y174.576 E5.90052
G1 X182.865 Y175.15 E5.9426
G1 X182.12 Y175.659 E5.98462
G1 X181.332 Y176.101 E6.02669
G1 X180.508 Y176.471 E6.06875
G1 X179.655 Y176.767 E6.11079
G1 X178.779 Y176.986 E6.15283
G1 X177.887 Y177.127 E6.19489
G1 X177.027 Y177.187 E6.23503
G1 X176.42 Y177.2 E6.2633
G1 X147.311 Y177.199 E7.61874
G1 X146.613 Y177.189 E7.65124
G1 X145.711 Y177.136 E7.69331
G1 X144.818 Y177.004 E7.73535
G1 X143.94 Y176.793 E7.7774
G1 X143.084 Y176.505 E7.81945
G1 X142.257 Y176.143 E7.86149
G1 X141.465 Y175.708 E7.90356
G1 X140.714 Y175.206 E7.94562
G1 X140.011 Y174.639 E7.98768
G1 X139.361 Y174.012 E8.02973
G1 X138.769 Y173.33 E8.07178
G1 X138.239 Y172.599 E8.11383
G1 X137.777 Y171.823 E8.15588
G1 X137.474 Y171.213 E8.1876
G1 X136.905 Y169.962 E8.25159
G1 X135.827 Y167.671 E8.36949
G1 X134.655 Y165.347 E8.49069
G1 X133.477 Y163.175 E8.60574
G1 X132.19 Y160.948 E8.72551
G1 X130.857 Y158.786 E8.84378
G1 X129.454 Y156.649 E8.96282
G1 X128.015 Y154.586 E9.07994
G1 X126.504 Y152.545 E9.19819
G1 X124.934 Y150.547 E9.31651
G1 X123.316 Y148.602 E9.43432
G1 X121.614 Y146.671 E9.55417
G1 X119.884 Y144.814 E9.67235
G1 X118.132 Y143.041 E9.78842
G1 X116.274 Y141.261 E9.90823
G1 X114.404 Y139.57 E10.02563
G1 X112.451 Y137.901 E10.14525
G1 X110.472 Y136.306 E10.2636
G1 X108.46 Y134.775 E10.38133
G1 X106.41 Y133.305 E10.49879
G1 X104.272 Y131.861 E10.61893
G1 X102.162 Y130.521 E10.73531
G1 X99.979 Y129.221 E10.85362
G1 X97.749 Y127.976 E10.97255
G1 X95.484 Y126.795 E11.09149
G1 X93.224 Y125.696 E11.20851
G1 X90.886 Y124.64 E11.32797
G1 X88.57 Y123.672 E11.44485
G1 X86.171 Y122.747 E11.56457
G1 X83.797 Y121.911 E11.68177
G1 X81.358 Y121.127 E11.80106
G1 X78.942 Y120.424 E11.91823
G1 X76.464 Y119.78 E12.03745
G1 X73.987 Y119.21 E12.1558
G1 X71.498 Y118.709 E12.27402
G1 X69.017 Y118.286 E12.39122
G1 X66.498 Y117.927 E12.5097
G1 X63.984 Y117.642 E12.62751
G1 X61.434 Y117.426 E12.74667
G1 X58.938 Y117.284 E12.86309
G1 X54.976 Y117.2 E13.04762
G1 X50.811 Y117.199 E13.24155
G1 X50.113 Y117.189 E13.27406
G1 X49.211 Y117.136 E13.31613
G1 X48.318 Y117.004 E13.35817
G1 X47.44 Y116.793 E13.40021
G1 X46.584 Y116.505 E13.44227
G1 X45.757 Y116.143 E13.48431
G1 X44.965 Y115.708 E13.52638
G1 X44.214 Y115.206 E13.56844
G1 X43.511 Y114.639 E13.6105
G1 X42.861 Y114.012 E13.65255
G1 X42.269 Y113.33 E13.6946
G1 X41.739 Y112.599 E13.73665
G1 X41.277 Y111.823 E13.7787
G1 X40.884 Y111.01 E13.82075
G1 X40.566 Y110.165 E13.86279
G1 X40.323 Y109.295 E13.90485
G1 X40.158 Y108.407 E13.94691
G1 X40.063 Y107.266 E14.00022
G1 X40.05 Y106.658 E14.02854
G1 X40.051 Y101.061 E14.28916
G1 X40.061 Y100.364 E14.32162
G1 X40.136 Y99.271 E14.37263
G1 X40.171 Y98.985 E14.38605
G1 X40.464 Y96.413 E14.50658
G1 X40.678 Y93.895 E14.62426
G1 X40.823 Y91.329 E14.74393
G1 X40.895 Y88.795 E14.86197
G1 X40.895 Y86.262 E14.97992
G1 X40.823 Y83.722 E15.09824
G1 X40.679 Y81.169 E15.21731
G1 X40.465 Y78.649 E15.33507
G1 X40.125 Y75.645 E15.47584
G1 X40.065 Y74.809 E15.51487
G1 X40.05 Y74.17 E15.54463
G1 X40.051 Y68.536 E15.80698
G1 X40.06 Y67.871 E15.83794
G1 X40.112 Y66.969 E15.88001
G1 X40.244 Y66.076 E15.92205
G1 X40.454 Y65.198 E15.96408
G1 X40.741 Y64.341 E16.00617
G1 X41.103 Y63.514 E16.0482
G1 X41.536 Y62.722 E16.09023
G1 X42.038 Y61.971 E16.1323
G1 X42.605 Y61.267 E16.17439
G1 X43.231 Y60.617 E16.21641
G1 X43.912 Y60.024 E16.25846
G1 X44.644 Y59.494 E16.30054
G1 X45.419 Y59.031 E16.34258
G1 X46.232 Y58.638 E16.38462
G1 X47.077 Y58.318 E16.4267
G1 X47.946 Y58.075 E16.46871
G1 X48.834 Y57.909 E16.51078
G1 X49.973 Y57.813 E16.564
G1 X50.58 Y57.8 E16.59227
G1 X184.043 Y57.8 E22.80687
G1 X184.189 Y57.801 E22.81367
G1 X184.887 Y57.811 E22.84617
G0 F6000 X184.893 Y57.411
G1 F1200 X185.812 Y57.464 E22.88904
G1 X186.723 Y57.597 E22.93191
G1 X187.619 Y57.808 E22.97477
G1 X188.493 Y58.096 E23.01762
G1 X189.34 Y58.459 E23.06053
G1 X190.151 Y58.894 E23.10338
G1 X190.921 Y59.398 E23.14623
G1 X191.645 Y59.967 E23.18911
G1 X192.317 Y60.597 E23.232
G1 X192.932 Y61.282 E23.27487
G1 X193.485 Y62.018 E23.31774
G1 X193.972 Y62.799 E23.36059
G1 X194.389 Y63.62 E23.40347
G1 X194.734 Y64.474 E23.44636
G1 X195.003 Y65.354 E23.48921
G1 X195.195 Y66.255 E23.5321
G1 X195.308 Y67.168 E23.57494
G1 X195.337 Y67.712 E23.60031
G1 X195.35 Y68.33 E23.62909
G1 X195.35 Y158.293 E27.81815
G1 X195.349 Y158.445 E27.82522
G1 X195.339 Y159.143 E27.85773
G1 X195.286 Y160.062 E27.90059
G1 X195.153 Y160.973 E27.94346
G1 X194.942 Y161.869 E27.98633
G1 X194.654 Y162.743 E28.02917
G1 X194.291 Y163.59 E28.07208
G1 X193.856 Y164.401 E28.11494
G1 X193.352 Y165.171 E28.15779
G1 X192.783 Y165.895 E28.20067
G1 X191.889 Y166.818 E28.2605
G1 X191.358 Y167.303 E28.29399
G1 X189.498 Y169.036 E28.41236
G1 X187.657 Y170.852 E28.53278
G1 X185.938 Y172.646 E28.64847
G1 X185.058 Y173.617 E28.70949
G1 X184.5 Y174.216 E28.74761
G1 X183.844 Y174.862 E28.79048
G1 X183.134 Y175.448 E28.83335
G1 X182.376 Y175.971 E28.87623
G1 X181.576 Y176.426 E28.91908
G1 X180.739 Y176.809 E28.96195
G1 X179.872 Y177.119 E29.00482
G1 X178.981 Y177.352 E29.0477
G1 X178.074 Y177.507 E29.09055
G1 X177.038 Y177.587 E29.13893
G1 X176.42 Y177.6 E29.16772
G1 X147.305 Y177.599 E30.52343
G1 X146.607 Y177.589 E30.55594
G1 X145.688 Y177.536 E30.5988
G1 X144.777 Y177.403 E30.64167
G1 X143.881 Y177.192 E30.68453
G1 X143.007 Y176.904 E30.72738
G1 X142.16 Y176.541 E30.77029
G1 X141.349 Y176.106 E30.81315
G1 X140.579 Y175.602 E30.856
G1 X139.855 Y175.033 E30.89888
G1 X139.183 Y174.403 E30.94177
G1 X138.568 Y173.718 E30.98463
G1 X138.015 Y172.982 E31.0275
G1 X137.528 Y172.201 E31.07036
G1 X137.11 Y171.379 E31.1133
G1 X136.541 Y170.128 E31.17729
G1 X135.465 Y167.842 E31.29494
G1 X134.303 Y165.538 E31.4151
G1 X133.122 Y163.359 E31.5305
G1 X131.862 Y161.179 E31.64775
G1 X130.509 Y158.985 E31.76778
G1 X129.125 Y156.876 E31.88524
G1 X127.698 Y154.831 E32.00135
G1 X126.183 Y152.785 E32.1199
G1 X124.613 Y150.787 E32.23822
G1 X123.006 Y148.856 E32.3552
G1 X121.338 Y146.962 E32.47272
G1 X119.589 Y145.085 E32.59218
G1 X117.854 Y143.328 E32.70716
G1 X115.975 Y141.53 E32.82826
G1 X114.159 Y139.888 E32.94226
G1 X112.186 Y138.201 E33.06313
G1 X110.224 Y136.62 E33.18046
G1 X108.23 Y135.103 E33.29713
G1 X106.159 Y133.617 E33.41582
G1 X104.097 Y132.224 E33.53169
G1 X101.933 Y130.85 E33.65105
G1 X99.774 Y129.564 E33.76807
G1 X97.575 Y128.337 E33.88532
G1 X95.303 Y127.152 E34.00464
G1 X93.063 Y126.062 E34.12064
G1 X90.703 Y124.997 E34.2412
G1 X88.42 Y124.043 E34.35641
G1 X86.031 Y123.121 E34.47565
G1 X83.647 Y122.282 E34.59334
G1 X81.271 Y121.518 E34.70955
G1 X78.834 Y120.81 E34.82772
G1 X76.371 Y120.169 E34.94623
G1 X73.898 Y119.6 E35.06439
G1 X71.417 Y119.101 E35.18223
G1 X68.966 Y118.683 E35.29801
G1 X66.433 Y118.322 E35.41715
G1 X63.938 Y118.039 E35.53407
G1 X61.416 Y117.825 E35.65192
G1 X58.935 Y117.684 E35.76764
G1 X54.968 Y117.6 E35.9524
G1 X50.805 Y117.599 E36.14625
G1 X50.107 Y117.589 E36.17875
G1 X49.188 Y117.536 E36.22161
G1 X48.277 Y117.403 E36.26448
G1 X47.381 Y117.192 E36.30735
G1 X46.507 Y116.904 E36.3502
G1 X45.66 Y116.541 E36.39311
G1 X44.849 Y116.106 E36.43596
G1 X44.079 Y115.602 E36.47881
G1 X43.355 Y115.033 E36.52169
G1 X42.683 Y114.403 E36.56458
G1 X42.068 Y113.718 E36.60745
G1 X41.515 Y112.982 E36.65031
G1 X41.028 Y112.201 E36.69317
G1 X40.611 Y111.38 E36.73605
G1 X40.266 Y110.526 E36.77894
G1 X39.997 Y109.646 E36.82178
G1 X39.805 Y108.745 E36.86468
G1 X39.692 Y107.832 E36.90752
G1 X39.663 Y107.277 E36.9334
G1 X39.65 Y106.658 E36.96223
G1 X39.651 Y101.055 E37.22313
G1 X39.661 Y100.358 E37.25558
G1 X39.738 Y99.222 E37.3086
G1 X39.773 Y98.936 E37.32202
G1 X40.065 Y96.37 E37.44227
G1 X40.281 Y93.837 E37.56065
G1 X40.423 Y91.331 E37.67753
G1 X40.495 Y88.784 E37.79617
G1 X40.495 Y86.274 E37.91305
G1 X40.423 Y83.718 E38.03211
G1 X40.282 Y81.226 E38.14834
G1 X40.067 Y78.692 E38.26675
G1 X39.727 Y75.69 E38.40743
G1 X39.665 Y74.821 E38.448
G1 X39.65 Y74.17 E38.47832
G1 X39.651 Y68.531 E38.7409
G1 X39.66 Y67.866 E38.77187
G1 X39.712 Y66.946 E38.81477
G1 X39.844 Y66.035 E38.85764
G1 X40.055 Y65.139 E38.9005
G1 X40.342 Y64.264 E38.94338
G1 X40.705 Y63.418 E38.98625
G1 X41.139 Y62.606 E39.02912
G1 X41.642 Y61.835 E39.07198
G1 X42.211 Y61.111 E39.11486
G1 X42.839 Y60.439 E39.15769
G1 X43.524 Y59.823 E39.20059
G1 X44.26 Y59.27 E39.24345
G1 X45.041 Y58.782 E39.28633
G1 X45.861 Y58.364 E39.32919
G1 X46.715 Y58.019 E39.37208
G1 X47.595 Y57.749 E39.41494
G1 X48.495 Y57.557 E39.45779
G1 X49.409 Y57.443 E39.50068
G1 X49.962 Y57.413 E39.52647
G1 X50.58 Y57.4 E39.55525
G1 X184.043 Y57.4 E45.76985
G1 X184.195 Y57.401 E45.77693
G1 X184.893 Y57.411 E45.80943
G0 F6000 X184.899 Y57.011
G1 F1200 X185.835 Y57.065 E45.85309
G1 X186.763 Y57.197 E45.89674
G1 X187.677 Y57.409 E45.94043
G1 X188.569 Y57.698 E45.98409
G1 X189.434 Y58.061 E46.02777
G1 X190.264 Y58.497 E46.07142
G1 X191.055 Y59.002 E46.11512
G1 X191.799 Y59.573 E46.15879
G1 X192.492 Y60.205 E46.20247
G1 X193.129 Y60.893 E46.24612
G1 X193.704 Y61.634 E46.2898
G1 X194.215 Y62.42 E46.33345
G1 X194.657 Y63.248 E46.37716
G1 X195.026 Y64.11 E46.42082
G1 X195.321 Y65 E46.46448
G1 X195.539 Y65.912 E46.50814
G1 X195.679 Y66.84 E46.55184
G1 X195.737 Y67.701 E46.59202
G1 X195.75 Y68.33 E46.62132
G1 X195.75 Y158.293 E50.81037
G1 X195.749 Y158.451 E50.81773
G1 X195.739 Y159.149 E50.85024
G1 X195.685 Y160.085 E50.89389
G1 X195.553 Y161.013 E50.93754
G1 X195.341 Y161.927 E50.98123
G1 X195.052 Y162.819 E51.02489
G1 X194.689 Y163.684 E51.06857
G1 X194.253 Y164.514 E51.11223
G1 X193.748 Y165.305 E51.15592
G1 X193.177 Y166.049 E51.1996
G1 X192.545 Y166.742 E51.24327
G1 X192.158 Y167.113 E51.26823
G1 X191.71 Y167.522 E51.29648
G1 X189.751 Y169.349 E51.42121
G1 X187.962 Y171.113 E51.5382
G1 X186.225 Y172.925 E51.65508
G1 X185.351 Y173.89 E51.7157
G1 X184.793 Y174.489 E51.75382
G1 X184.125 Y175.147 E51.79748
G1 X183.403 Y175.746 E51.84117
G1 X182.633 Y176.282 E51.88485
G1 X181.82 Y176.75 E51.92853
G1 X180.971 Y177.147 E51.97218
G1 X180.09 Y177.47 E52.01587
G1 X179.185 Y177.717 E52.05955
G1 X178.263 Y177.886 E52.1032
G1 X177.049 Y177.987 E52.15992
G1 X176.42 Y178 E52.18922
G1 X147.299 Y177.999 E53.54521
G1 X146.601 Y177.989 E53.57772
G1 X145.665 Y177.935 E53.62138
G1 X144.737 Y177.803 E53.66502
G1 X143.823 Y177.591 E53.70871
G1 X142.931 Y177.302 E53.75237
G1 X142.066 Y176.939 E53.79605
G1 X141.236 Y176.503 E53.83971
G1 X140.445 Y175.998 E53.88341
G1 X139.701 Y175.427 E53.92708
G1 X139.008 Y174.795 E53.97075
G1 X138.371 Y174.107 E54.01441
G1 X137.796 Y173.366 E54.05808
G1 X137.285 Y172.58 E54.10174
G1 X136.746 Y171.544 E54.15612
G1 X136.212 Y170.371 E54.21613
G1 X135.097 Y167.999 E54.33818
G1 X133.959 Y165.744 E54.45579
G1 X132.758 Y163.528 E54.57316
G1 X131.509 Y161.367 E54.68938
G1 X130.193 Y159.234 E54.80608
G1 X128.789 Y157.095 E54.92522
G1 X127.364 Y155.052 E55.04121
G1 X125.863 Y153.024 E55.15869
G1 X124.308 Y151.044 E55.27593
G1 X122.7 Y149.113 E55.39293
G1 X121.028 Y147.215 E55.51071
G1 X119.329 Y145.391 E55.62679
G1 X117.557 Y143.598 E55.74417
G1 X115.731 Y141.849 E55.86191
G1 X113.859 Y140.156 E55.97943
G1 X111.938 Y138.514 E56.09711
G1 X109.999 Y136.952 E56.21305
G1 X107.994 Y135.426 E56.33037
G1 X105.931 Y133.946 E56.4486
G1 X103.864 Y132.55 E56.56474
G1 X101.735 Y131.198 E56.68218
G1 X99.554 Y129.899 E56.80038
G1 X97.374 Y128.683 E56.91662
G1 X95.15 Y127.523 E57.03341
G1 X92.86 Y126.409 E57.15199
G1 X90.577 Y125.378 E57.26864
G1 X88.258 Y124.409 E57.38567
G1 X85.891 Y123.496 E57.5038
G1 X83.529 Y122.664 E57.62041
G1 X81.152 Y121.9 E57.73667
G1 X78.718 Y121.192 E57.8547
G1 X76.294 Y120.562 E57.97132
G1 X73.835 Y119.996 E58.08882
G1 X71.337 Y119.493 E58.20747
G1 X68.883 Y119.075 E58.32339
G1 X66.398 Y118.721 E58.44027
G1 X63.895 Y118.437 E58.55756
G1 X61.358 Y118.222 E58.67612
G1 X58.933 Y118.084 E58.78922
G1 X54.959 Y118 E58.97431
G1 X50.799 Y117.999 E59.16802
G1 X50.101 Y117.989 E59.20052
G1 X49.165 Y117.935 E59.24418
G1 X48.237 Y117.803 E59.28782
G1 X47.323 Y117.591 E59.33151
G1 X46.431 Y117.302 E59.37518
G1 X45.566 Y116.939 E59.41886
G1 X44.736 Y116.503 E59.46251
G1 X43.945 Y115.998 E59.50621
G1 X43.201 Y115.427 E59.54988
G1 X42.508 Y114.795 E59.59355
G1 X41.871 Y114.107 E59.63721
G1 X41.296 Y113.366 E59.68089
G1 X40.785 Y112.58 E59.72454
G1 X40.343 Y111.752 E59.76825
G1 X39.974 Y110.89 E59.81191
G1 X39.679 Y110 E59.85557
G1 X39.461 Y109.088 E59.89923
G1 X39.321 Y108.16 E59.94293
G1 X39.263 Y107.288 E59.98362
G1 X39.25 Y106.658 E60.01297
G1 X39.251 Y101.049 E60.27414
G1 X39.261 Y100.352 E60.3066
G1 X39.341 Y99.174 E60.36158
G1 X39.376 Y98.888 E60.375
G1 X39.668 Y96.323 E60.49521
G1 X39.882 Y93.816 E60.61237
G1 X40.023 Y91.331 E60.72827
G1 X40.095 Y88.773 E60.84742
G1 X40.095 Y86.285 E60.96328
G1 X40.023 Y83.753 E61.08122
G1 X39.88 Y81.213 E61.19968
G1 X39.669 Y78.731 E61.31567
G1 X39.33 Y75.734 E61.45612
G1 X39.265 Y74.833 E61.49818
G1 X39.255 Y74.505 E61.51346
G1 X39.25 Y74.17 E61.52906
G1 X39.251 Y68.525 E61.79192
G1 X39.26 Y67.86 E61.82288
G1 X39.313 Y66.924 E61.86654
G1 X39.445 Y65.995 E61.91023
G1 X39.656 Y65.081 E61.95391
G1 X39.944 Y64.189 E61.99756
G1 X40.307 Y63.324 E62.04124
G1 X40.742 Y62.493 E62.08491
G1 X41.246 Y61.703 E62.12855
G1 X41.816 Y60.958 E62.17223
G1 X42.448 Y60.264 E62.21593
G1 X43.136 Y59.627 E62.25959
G1 X43.876 Y59.051 E62.30326
G1 X44.662 Y58.539 E62.34694
G1 X45.489 Y58.097 E62.3906
G1 X46.351 Y57.727 E62.43428
G1 X47.241 Y57.431 E62.47796
G1 X48.153 Y57.213 E62.52162
G1 X49.08 Y57.072 E62.56528
G1 X49.951 Y57.013 E62.60593
G1 X50.58 Y57 E62.63522
G1 X184.043 Y57 E68.84982
G1 X184.201 Y57.001 E68.85718
G1 X184.899 Y57.011 E68.88968
G1 F2700 E63.88968
;MESH:camera_boom.stl
G0 F6000 X142.886 Y74.101
G0 X142.35 Y73.29
G0 X141.504 Y74.664
G0 X135.113 Y77.264
G0 X120.949 Y101.71
G0 X112.157 Y86.603
G0 X108.229 Y88.201
G0 X99.55 Y73.289
G0 X85.565 Y97.421
G0 X79.078 Y100.062
G0 X80.321 Y100.78
G0 X78.498 Y103.6
;TYPE:WALL-INNER
G1 F2700 E68.88968
G1 F1200 X78.795 Y103.082 E68.91749
G1 X96.915 Y71.694 E70.6051
G1 X97.087 Y71.396 E70.62113
G1 X96.743 Y71.396 E70.63022
G1 X96.742 Y71.396 E70.63026
G1 X59.556 Y71.396 E72.3618
G1 X59.555 Y71.396 E72.36185
G1 X59.211 Y71.396 E72.37786
G1 X59.383 Y71.694 E72.38696
