;FLAVOR:Marlin
;TIME:12266
;Filament used: 8.43367m
;Layer height: 0.24
;MINX:12.517
;MINY:22.834
;MINZ:0.28
;MAXX:222.171
;MAXY:213.336
;MAXZ:1.96
;Generated with Cura_SteamEngine 4.5.0
M140 S65
M105
M190 S65
M104 S215
M105
M109 S215
M82 ;absolute extrusion mode
; Ender 3 Custom Start G-code
G92 E0 ; Reset Extruder
G28 ; Home all axes
G1 Z2.0 F3000 ; Move Z Axis up little to prevent scratching of Heat Bed
G1 X0.1 Y20 Z0.3 F5000.0 ; Move to start position
G1 X0.1 Y200.0 Z0.3 F1500.0 E15 ; Draw the first line
G1 X0.4 Y200.0 Z0.3 F5000.0 ; Move to side a little
G1 X0.4 Y20 Z0.3 F1500.0 E30 ; Draw the second line
G92 E0 ; Reset Extruder
G1 Z2.0 F3000 ; Move Z Axis up little to prevent scratching of Heat Bed
G1 X5 Y20 Z0.3 F5000.0 ; Move over to prevent blob squish
G92 E0
G92 E0
G1 F2700 E-5
;LAYER_COUNT:8
;LAYER:0
M107
;MESH:Surgical_Mask_Strap_Remix.stl(2)
G0 F6000 X113.59 Y74.108 Z0.28
;TYPE:WALL-INNER
G1 F2700 E0
G1 F1200 X113.645 Y74.115 E0.00258
G1 X113.822 Y74.115 E0.01082
G1 X114.022 Y74.095 E0.02018
G1 X114.226 Y74.045 E0.02996
G1 X114.44 Y73.961 E0.04067
G1 X114.599 Y73.872 E0.04915
G1 X114.763 Y73.754 E0.05856
G1 X114.912 Y73.614 E0.06808
G1 X115.043 Y73.457 E0.0776
G1 X115.152 Y73.281 E0.08724
G1 X115.238 Y73.099 E0.09661
G1 X115.301 Y72.902 E0.10625
G1 X115.342 Y72.671 E0.11717
G1 X115.345 Y72.491 E0.12555
G1 X115.335 Y72.295 E0.13469
G1 X115.285 Y72.063 E0.14574
G1 X115.243 Y71.948 E0.15144
G1 X114.843 Y70.833 E0.2066
G1 X112.365 Y63.884 E0.55013
G1 X112.274 Y63.703 E0.55957
G1 X112.161 Y63.534 E0.56903
G1 X112.026 Y63.379 E0.57861
G1 X111.872 Y63.243 E0.58817
G1 X111.703 Y63.128 E0.59769
G1 X111.518 Y63.036 E0.60731
G1 X111.328 Y62.969 E0.61669
G1 X111.093 Y62.917 E0.6279
G1 X110.852 Y62.91 E0.63913
G1 X81.913 Y62.91 E1.98665
G1 X81.79 Y62.903 E1.99238
G1 X81.588 Y62.915 E2.00181
G1 X81.414 Y62.951 E2.01008
G1 X81.221 Y63.008 E2.01945
G1 X81.011 Y63.107 E2.03026
G1 X80.857 Y63.206 E2.03879
G1 X80.701 Y63.334 E2.04818
G1 X80.562 Y63.483 E2.05767
G1 X80.44 Y63.649 E2.06726
G1 X80.342 Y63.832 E2.07693
G1 X80.276 Y64.003 E2.08546
G1 X77.403 Y72.043 E2.48303
G1 X77.354 Y72.237 E2.49234
G1 X77.332 Y72.435 E2.50162
G1 X77.331 Y72.641 E2.51121
G1 X77.365 Y72.874 E2.52218
G1 X77.418 Y73.053 E2.53087
G1 X77.497 Y73.235 E2.54011
G1 X77.597 Y73.411 E2.54953
G1 X77.723 Y73.576 E2.5592
G1 X77.869 Y73.722 E2.56881
G1 X78.031 Y73.847 E2.57834
G1 X78.208 Y73.951 E2.5879
G1 X78.397 Y74.031 E2.59746
G1 X78.593 Y74.087 E2.60695
G1 X78.795 Y74.117 E2.61646
G1 X78.997 Y74.121 E2.62587
G1 X79.103 Y74.111 E2.63082
G1 X113.59 Y74.108 E4.23668
G0 F6000 X113.617 Y73.708
;TYPE:WALL-OUTER
G1 F1200 X113.671 Y73.715 E4.23922
G1 X113.802 Y73.715 E4.24532
G1 X113.954 Y73.7 E4.25243
G1 X114.105 Y73.663 E4.25967
G1 X114.268 Y73.599 E4.26782
G1 X114.384 Y73.534 E4.27402
G1 X114.508 Y73.445 E4.28112
G1 X114.62 Y73.339 E4.2883
G1 X114.718 Y73.222 E4.29541
G1 X114.8 Y73.09 E4.30265
G1 X114.865 Y72.952 E4.30975
G1 X114.912 Y72.805 E4.31694
G1 X114.943 Y72.632 E4.32512
G1 X114.945 Y72.499 E4.33131
G1 X114.937 Y72.348 E4.33835
G1 X114.9 Y72.175 E4.34659
G1 X114.866 Y72.083 E4.35116
G1 X114.466 Y70.968 E4.40632
G1 X111.997 Y64.042 E4.7487
G1 X111.928 Y63.905 E4.75584
G1 X111.843 Y63.778 E4.76296
G1 X111.742 Y63.662 E4.77012
G1 X111.626 Y63.56 E4.77731
G1 X111.5 Y63.474 E4.78442
G1 X111.361 Y63.405 E4.79164
G1 X111.218 Y63.354 E4.79871
G1 X111.044 Y63.316 E4.80701
G1 X110.846 Y63.31 E4.81623
G1 X81.911 Y63.31 E6.16356
G1 X81.792 Y63.304 E6.16911
G1 X81.64 Y63.313 E6.1762
G1 X81.511 Y63.339 E6.18233
G1 X81.364 Y63.383 E6.18948
G1 X81.205 Y63.458 E6.19766
G1 X81.093 Y63.53 E6.20386
G1 X80.975 Y63.627 E6.21097
G1 X80.87 Y63.739 E6.21812
G1 X80.779 Y63.863 E6.22528
G1 X80.706 Y63.999 E6.23247
G1 X80.651 Y64.142 E6.23961
G1 X77.786 Y72.159 E6.63603
G1 X77.749 Y72.308 E6.64318
G1 X77.732 Y72.459 E6.65026
G1 X77.731 Y72.613 E6.65743
G1 X77.757 Y72.788 E6.66567
G1 X77.795 Y72.917 E6.67193
G1 X77.855 Y73.056 E6.67898
G1 X77.931 Y73.189 E6.68611
G1 X78.025 Y73.312 E6.69332
G1 X78.134 Y73.421 E6.7005
G1 X78.256 Y73.515 E6.70767
G1 X78.388 Y73.593 E6.71481
G1 X78.53 Y73.653 E6.72199
G1 X78.678 Y73.695 E6.72915
G1 X78.829 Y73.718 E6.73626
G1 X78.982 Y73.721 E6.74339
G1 X79.085 Y73.711 E6.74821
G1 X113.617 Y73.708 E8.35616
G0 F6000 X113.589 Y74.147
G1 F2700 E3.35616
G0 F6000 X114.522 Y74.133
G0 X113.916 Y72.806
G0 X119.005 Y78.669
G0 X119.005 Y77.194
G0 X119.725 Y77.523
G0 X120.906 Y76.28
G0 X120.93 Y75.625
G0 X137.32 Y77.775
G0 X137.025 Y80.029
G0 X134.703 Y80.542
G0 X133.722 Y82.908
G0 X134.132 Y83.923
G0 X135.943 Y84.947
;TYPE:WALL-INNER
G1 F2700 E8.35616
G1 F1200 X135.338 Y84.785 E8.38532
G1 X134.803 Y84.476 E8.41409
G1 X134.356 Y84.028 E8.44356
G1 X134.045 Y83.49 E8.4725
G1 X133.883 Y82.887 E8.50157
G1 X133.883 Y82.259 E8.53081
G1 X134.044 Y81.657 E8.55983
G1 X134.356 Y81.118 E8.58883
G1 X134.803 Y80.671 E8.61827
G1 X135.342 Y80.359 E8.64727
G1 X135.943 Y80.199 E8.67623
G1 X137.175 Y80.199 E8.73359
G1 X137.489 Y77.823 E8.84519
G1 X137.514 Y77.626 E8.85444
G1 X137.317 Y77.601 E8.86042
G1 X120.981 Y75.456 E9.62762
G1 X120.76 Y75.427 E9.638
G1 X120.758 Y75.649 E9.64446
G1 X120.757 Y75.65 E9.64452
G1 X120.745 Y76.275 E9.67363
G1 X120.737 Y76.367 E9.67793
G1 X120.717 Y76.497 E9.68406
G1 X120.691 Y76.608 E9.68936
G1 X120.65 Y76.725 E9.69514
G1 X120.625 Y76.781 E9.69799
G1 X120.568 Y76.88 E9.70331
G1 X120.531 Y76.931 E9.70625
G1 X120.464 Y77.006 E9.71093
G1 X120.392 Y77.07 E9.71541
G1 X120.329 Y77.117 E9.71907
G1 X120.255 Y77.162 E9.72311
G1 X120.134 Y77.222 E9.7294
G1 X120.039 Y77.258 E9.73413
G1 X119.892 Y77.306 E9.74133
G1 X119.738 Y77.342 E9.74869
G1 X119.625 Y77.361 E9.75403
G1 X119.387 Y77.388 E9.76518
G1 X119.227 Y77.399 E9.77265
G1 X119.01 Y77.404 E9.78276
G1 X73.126 Y77.399 E11.91931
G1 X72.903 Y77.383 E11.92972
G1 X72.765 Y77.367 E11.93619
G1 X72.577 Y77.334 E11.94507
G1 X72.463 Y77.307 E11.95053
G1 X72.318 Y77.262 E11.9576
G1 X72.22 Y77.224 E11.96249
G1 X72.135 Y77.183 E11.96689
G1 X72.023 Y77.117 E11.97294
G1 X71.963 Y77.073 E11.97641
G1 X71.883 Y77.004 E11.98133
G1 X71.842 Y76.957 E11.98423
G1 X71.784 Y76.881 E11.98868
G1 X71.737 Y76.802 E11.99296
G1 X71.691 Y76.702 E11.99809
G1 X71.666 Y76.628 E12.00172
G1 X71.638 Y76.519 E12.00696
G1 X71.62 Y76.408 E12.0122
G1 X71.605 Y76.241 E12.02001
G1 X71.594 Y75.65 E12.04753
G1 X71.593 Y75.649 E12.0476
G1 X71.59 Y75.427 E12.05794
G1 X71.369 Y75.456 E12.06443
G1 X55.033 Y77.601 E12.83164
G1 X54.836 Y77.626 E12.84088
G1 X54.861 Y77.823 E12.84686
G1 X55.175 Y80.199 E12.95846
G1 X56.407 Y80.199 E13.01583
G1 X57.008 Y80.359 E13.04479
G1 X57.547 Y80.671 E13.07379
G1 X57.994 Y81.118 E13.10322
G1 X58.306 Y81.657 E13.13222
G1 X58.467 Y82.259 E13.16124
G1 X58.467 Y82.887 E13.19048
G1 X58.305 Y83.49 E13.21955
G1 X57.994 Y84.028 E13.24849
G1 X57.552 Y84.471 E13.27763
G1 X57.006 Y84.787 E13.307
G1 X56.408 Y84.947 E13.33583
G1 X55.781 Y84.947 E13.36503
G1 X55.172 Y84.785 E13.39437
G1 X54.634 Y84.473 E13.42333
G1 X54.192 Y84.031 E13.45243
G1 X53.878 Y83.489 E13.4816
G1 X53.708 Y82.853 E13.51226
G1 X53.05 Y77.861 E13.74672
G1 X43.135 Y79.163 E14.21236
G1 X42.938 Y79.188 E14.22161
G1 X42.963 Y79.385 E14.22759
G1 X43.277 Y81.765 E14.33937
G1 X44.509 Y81.765 E14.39674
G1 X45.111 Y81.926 E14.42575
G1 X45.653 Y82.239 E14.4549
G1 X46.095 Y82.681 E14.484
G1 X46.408 Y83.223 E14.51315
G1 X46.569 Y83.825 E14.54217
G1 X46.569 Y84.453 E14.57141
G1 X46.407 Y85.056 E14.60048
G1 X46.095 Y85.597 E14.62956
G1 X45.65 Y86.041 E14.65883
G1 X45.111 Y86.353 E14.68783
G1 X44.509 Y86.514 E14.71685
G1 X43.88 Y86.514 E14.74614
G1 X43.278 Y86.353 E14.77516
G1 X42.739 Y86.041 E14.80415
G1 X42.295 Y85.598 E14.83336
G1 X41.982 Y85.056 E14.8625
G1 X41.81 Y84.417 E14.89332
G1 X41.152 Y79.423 E15.12787
G1 X31.237 Y80.725 E15.59352
G1 X31.04 Y80.75 E15.60276
G1 X31.065 Y80.947 E15.60874
G1 X31.379 Y83.331 E15.72071
G1 X32.611 Y83.331 E15.77808
G1 X33.213 Y83.492 E15.80709
G1 X33.752 Y83.804 E15.83609
G1 X34.199 Y84.251 E15.86553
G1 X34.511 Y84.79 E15.89453
G1 X34.671 Y85.391 E15.92349
G1 X34.671 Y86.017 E15.95264
G1 X34.509 Y86.626 E15.98198
G1 X34.197 Y87.164 E16.01094
G1 X33.755 Y87.606 E16.04005
G1 X33.213 Y87.919 E16.06919
G1 X32.611 Y88.08 E16.09821
G1 X31.983 Y88.08 E16.12745
G1 X31.38 Y87.918 E16.15652
G1 X30.839 Y87.606 E16.1856
G1 X30.397 Y87.164 E16.21471
G1 X30.084 Y86.623 E16.24381
G1 X29.912 Y85.983 E16.27467
G1 X29.254 Y80.985 E16.50941
G1 X19.338 Y82.287 E16.9751
G1 X19.141 Y82.312 E16.98435
G1 X19.167 Y82.509 E16.99032
G1 X19.482 Y84.898 E17.10252
G1 X20.714 Y84.898 E17.15989
G1 X21.315 Y85.058 E17.18885
G1 X21.854 Y85.37 E17.21785
G1 X22.301 Y85.817 E17.24728
G1 X22.612 Y86.355 E17.27622
G1 X22.774 Y86.958 E17.30529
G1 X22.774 Y87.586 E17.33454
G1 X22.612 Y88.189 E17.36361
G1 X22.301 Y88.727 E17.39255
G1 X21.854 Y89.174 E17.42198
G1 X21.315 Y89.486 E17.45098
G1 X20.715 Y89.646 E17.4799
G1 X20.088 Y89.646 E17.50909
G1 X19.479 Y89.484 E17.53844
G1 X18.941 Y89.172 E17.5674
G1 X18.499 Y88.73 E17.5965
G1 X18.185 Y88.188 E17.62567
G1 X18.015 Y87.553 E17.65628
G1 X15.28 Y66.775 E18.63214
G1 X15.28 Y66.11 E18.6631
G1 X15.442 Y65.509 E18.69208
G1 X15.756 Y64.964 E18.72137
G1 X16.196 Y64.524 E18.75035
G1 X16.734 Y64.212 E18.77931
G1 X17.343 Y64.05 E18.80865
G1 X17.969 Y64.05 E18.8378
G1 X18.57 Y64.21 E18.86676
G1 X19.113 Y64.524 E18.89597
G1 X19.555 Y64.966 E18.92507
G1 X19.867 Y65.507 E18.95415
G1 X20.029 Y66.11 E18.98323
G1 X20.029 Y66.738 E19.01247
G1 X19.868 Y67.34 E19.04149
G1 X19.555 Y67.882 E19.07063
G1 X19.115 Y68.322 E19.09961
G1 X18.567 Y68.638 E19.12906
G1 X17.383 Y68.954 E19.18612
G1 X17.678 Y71.198 E19.29151
G1 X27.594 Y69.894 E19.75722
G1 X27.791 Y69.869 E19.76646
G1 X27.766 Y69.672 E19.77244
G1 X27.178 Y65.209 E19.98205
G1 X27.178 Y64.546 E20.01293
G1 X27.34 Y63.937 E20.04227
G1 X27.652 Y63.399 E20.07123
G1 X28.094 Y62.957 E20.10034
G1 X28.635 Y62.645 E20.12942
G1 X29.238 Y62.483 E20.15849
G1 X29.866 Y62.483 E20.18773
G1 X30.469 Y62.645 E20.21681
G1 X31.01 Y62.957 E20.24589
G1 X31.452 Y63.399 E20.27499
G1 X31.764 Y63.937 E20.30395
G1 X31.926 Y64.546 E20.3333
G1 X31.926 Y65.169 E20.36231
G1 X31.764 Y65.778 E20.39165
G1 X31.452 Y66.316 E20.42061
G1 X31.01 Y66.758 E20.44971
G1 X30.468 Y67.071 E20.47886
G1 X29.281 Y67.388 E20.53607
G1 X29.577 Y69.636 E20.64165
G1 X39.492 Y68.332 E21.10731
G1 X39.689 Y68.307 E21.11655
G1 X39.664 Y68.11 E21.12253
G1 X39.075 Y63.643 E21.33233
G1 X39.075 Y62.977 E21.36335
G1 X39.236 Y62.375 E21.39236
G1 X39.548 Y61.836 E21.42136
G1 X39.992 Y61.391 E21.45063
G1 X40.536 Y61.078 E21.47986
G1 X41.136 Y60.917 E21.50878
G1 X41.764 Y60.917 E21.53803
G1 X42.366 Y61.078 E21.56704
G1 X42.908 Y61.391 E21.59619
G1 X43.35 Y61.833 E21.62529
G1 X43.663 Y62.375 E21.65444
G1 X43.824 Y62.977 E21.68345
G1 X43.824 Y63.605 E21.7127
G1 X43.662 Y64.208 E21.74177
G1 X43.35 Y64.749 E21.77085
G1 X42.905 Y65.193 E21.80012
G1 X42.366 Y65.505 E21.82912
G1 X41.177 Y65.822 E21.88642
G1 X41.475 Y68.074 E21.9922
G1 X51.39 Y66.77 E22.45786
G1 X51.587 Y66.745 E22.4671
G1 X51.562 Y66.548 E22.47308
G1 X50.973 Y62.076 E22.68311
G1 X50.973 Y61.411 E22.71408
G1 X51.135 Y60.808 E22.74315
G1 X51.447 Y60.267 E22.77223
G1 X51.889 Y59.825 E22.80134
G1 X52.427 Y59.513 E22.8303
G1 X53.036 Y59.351 E22.85964
G1 X53.662 Y59.351 E22.88879
G1 X54.263 Y59.511 E22.91775
G1 X54.806 Y59.825 E22.94696
G1 X55.248 Y60.267 E22.97607
G1 X55.56 Y60.808 E23.00515
G1 X55.722 Y61.411 E23.03422
G1 X55.722 Y62.039 E23.06346
G1 X55.561 Y62.641 E23.09248
G1 X55.248 Y63.183 E23.12162
G1 X54.806 Y63.625 E23.15073
G1 X54.263 Y63.939 E23.17994
G1 X53.076 Y64.255 E23.23713
G1 X53.373 Y66.512 E23.34314
G1 X73.893 Y63.818 E24.30683
G1 X75.266 Y60.504 E24.47387
G1 X75.645 Y60.008 E24.50293
G1 X76.144 Y59.627 E24.53217
G1 X76.718 Y59.389 E24.5611
G1 X77.379 Y59.302 E24.59214
G1 X114.971 Y59.302 E26.34259
G1 X115.632 Y59.389 E26.37363
G1 X116.206 Y59.627 E26.40256
G1 X116.705 Y60.008 E26.4318
G1 X117.084 Y60.504 E26.46086
G1 X118.457 Y63.818 E26.6279
G1 X138.977 Y66.512 E27.59159
G1 X139.274 Y64.255 E27.6976
G1 X138.087 Y63.939 E27.75479
G1 X137.544 Y63.625 E27.784
G1 X137.102 Y63.183 E27.81311
G1 X136.789 Y62.641 E27.84225
G1 X136.628 Y62.039 E27.87127
G1 X136.628 Y61.411 E27.90051
G1 X136.79 Y60.808 E27.92958
G1 X137.102 Y60.267 E27.95866
G1 X137.544 Y59.825 E27.98777
G1 X138.087 Y59.511 E28.01698
G1 X138.688 Y59.351 E28.04594
G1 X139.314 Y59.351 E28.07509
G1 X139.923 Y59.513 E28.10443
G1 X140.461 Y59.825 E28.13339
G1 X140.903 Y60.267 E28.1625
G1 X141.215 Y60.808 E28.19158
G1 X141.377 Y61.411 E28.22065
G1 X141.377 Y62.076 E28.25162
G1 X140.788 Y66.548 E28.46165
G1 X140.763 Y66.745 E28.4709
G1 X140.96 Y66.77 E28.47687
G1 X150.875 Y68.074 E28.94253
G1 X151.173 Y65.822 E29.04831
G1 X149.984 Y65.505 E29.10561
G1 X149.445 Y65.193 E29.13461
G1 X149 Y64.749 E29.16388
G1 X148.687 Y64.205 E29.1931
G1 X148.526 Y63.605 E29.22203
G1 X148.526 Y62.977 E29.25127
G1 X148.687 Y62.375 E29.28029
G1 X149 Y61.833 E29.30943
G1 X149.442 Y61.391 E29.33854
G1 X149.984 Y61.078 E29.36768
G1 X150.586 Y60.917 E29.3967
G1 X151.214 Y60.917 E29.42594
G1 X151.817 Y61.079 E29.45502
G1 X152.358 Y61.391 E29.4841
G1 X152.802 Y61.836 E29.51337
G1 X153.114 Y62.375 E29.54237
G1 X153.275 Y62.977 E29.57138
G1 X153.275 Y63.643 E29.6024
G1 X152.686 Y68.11 E29.8122
G1 X152.661 Y68.307 E29.82145
G1 X152.858 Y68.332 E29.82742
G1 X162.773 Y69.636 E30.29308
G1 X163.069 Y67.388 E30.39866
G1 X161.882 Y67.071 E30.45587
G1 X161.34 Y66.758 E30.48502
G1 X160.898 Y66.316 E30.51412
G1 X160.586 Y65.778 E30.54308
G1 X160.424 Y65.169 E30.57243
G1 X160.424 Y64.546 E30.60143
G1 X160.586 Y63.937 E30.63078
G1 X160.898 Y63.399 E30.65974
G1 X161.34 Y62.957 E30.68884
G1 X161.881 Y62.645 E30.71792
G1 X162.484 Y62.483 E30.747
G1 X163.112 Y62.483 E30.77624
G1 X163.715 Y62.645 E30.80531
G1 X164.256 Y62.957 E30.83439
G1 X164.698 Y63.399 E30.8635
G1 X165.01 Y63.937 E30.89246
G1 X165.172 Y64.546 E30.9218
G1 X165.172 Y65.209 E30.95268
G1 X164.584 Y69.672 E31.16229
G1 X164.559 Y69.869 E31.17153
G1 X164.756 Y69.894 E31.17751
G1 X174.672 Y71.198 E31.64322
G1 X174.967 Y68.954 E31.74861
G1 X173.783 Y68.638 E31.80567
G1 X173.235 Y68.322 E31.83512
G1 X172.795 Y67.882 E31.8641
G1 X172.482 Y67.34 E31.89324
G1 X172.321 Y66.738 E31.92226
G1 X172.321 Y66.11 E31.9515
G1 X172.483 Y65.507 E31.98058
G1 X172.795 Y64.966 E32.00966
G1 X173.237 Y64.524 E32.03876
G1 X173.78 Y64.21 E32.06797
G1 X174.381 Y64.05 E32.09693
G1 X175.007 Y64.05 E32.12608
G1 X175.616 Y64.212 E32.15542
G1 X176.154 Y64.524 E32.18438
G1 X176.596 Y64.966 E32.21349
G1 X176.908 Y65.507 E32.24257
G1 X177.07 Y66.11 E32.27164
G1 X177.07 Y66.775 E32.30261
G1 X174.335 Y87.553 E33.27847
G1 X174.165 Y88.188 E33.30907
G1 X173.851 Y88.73 E33.33824
G1 X173.409 Y89.172 E33.36735
G1 X172.871 Y89.484 E33.39631
G1 X172.262 Y89.646 E33.42565
G1 X171.636 Y89.646 E33.4548
G1 X171.031 Y89.484 E33.48396
G1 X170.496 Y89.175 E33.51273
G1 X170.049 Y88.727 E33.5422
G1 X169.738 Y88.189 E33.57114
G1 X169.576 Y87.586 E33.60021
G1 X169.576 Y86.958 E33.62945
G1 X169.738 Y86.355 E33.65853
G1 X170.049 Y85.817 E33.68746
G1 X170.491 Y85.374 E33.7166
G1 X171.037 Y85.058 E33.74598
G1 X171.636 Y84.898 E33.77485
G1 X172.868 Y84.898 E33.83221
G1 X173.183 Y82.509 E33.94442
G1 X173.209 Y82.312 E33.95367
G1 X173.012 Y82.287 E33.95964
G1 X163.096 Y80.985 E34.42533
G1 X162.438 Y85.983 E34.66007
G1 X162.266 Y86.623 E34.69093
G1 X161.953 Y87.164 E34.72003
G1 X161.511 Y87.606 E34.74914
G1 X160.97 Y87.918 E34.77822
G1 X160.367 Y88.08 E34.80729
G1 X159.739 Y88.08 E34.83653
G1 X159.137 Y87.919 E34.86555
G1 X158.595 Y87.606 E34.89469
G1 X158.153 Y87.164 E34.9238
G1 X157.841 Y86.626 E34.95276
G1 X157.679 Y86.017 E34.9821
G1 X157.679 Y85.391 E35.01125
G1 X157.84 Y84.787 E35.04036
G1 X158.15 Y84.251 E35.06919
G1 X158.598 Y83.804 E35.09866
G1 X159.137 Y83.492 E35.12766
G1 X159.739 Y83.331 E35.15668
G1 X160.971 Y83.331 E35.21404
G1 X161.286 Y80.947 E35.32602
G1 X161.311 Y80.75 E35.33526
G1 X161.114 Y80.725 E35.34124
G1 X151.198 Y79.423 E35.80694
G1 X150.54 Y84.417 E36.04149
G1 X150.369 Y85.053 E36.07215
G1 X150.056 Y85.597 E36.10138
