;FLAVOR:Marlin
;TIME:4019
;Filament used: 3.09322m
;Layer height: 0.28
;MINX:88.678
;MINY:84.898
;MINZ:0.28
;MAXX:146.316
;MAXY:156.94
;MAXZ:35.84
;Generated with Cura_SteamEngine 4.5.0
M140 S65
M105
M190 S65
M104 S215
M105
M109 S215
M82 ;absolute extrusion mode
; Ender 3 Custom Start G-code
G92 E0 ; Reset Extruder
G28 ; Home all axes
G1 Z2.0 F3000 ; Move Z Axis up little to prevent scratching of Heat Bed
G1 X0.1 Y20 Z0.3 F5000.0 ; Move to start position
G1 X0.1 Y200.0 Z0.3 F1500.0 E15 ; Draw the first line
G1 X0.4 Y200.0 Z0.3 F5000.0 ; Move to side a little
G1 X0.4 Y20 Z0.3 F1500.0 E30 ; Draw the second line
G92 E0 ; Reset Extruder
G1 Z2.0 F3000 ; Move Z Axis up little to prevent scratching of Heat Bed
G1 X5 Y20 Z0.3 F5000.0 ; Move over to prevent blob squish
G92 E0
G92 E0
G1 F2700 E-5
;LAYER_COUNT:129
;LAYER:0
M107
G0 F6000 X98.707 Y89.225 Z0.28
;TYPE:SKIRT
G1 F2700 E0
G1 F1200 X99.359 Y88.552 E0.04363
G1 X100.067 Y87.936 E0.08733
G1 X100.824 Y87.382 E0.13101
G1 X101.626 Y86.895 E0.1747
G1 X102.466 Y86.479 E0.21835
G1 X103.338 Y86.135 E0.262
G1 X104.418 Y85.823 E0.31434
G1 X107.112 Y85.19 E0.4432
G1 X108.033 Y85.014 E0.48687
G1 X108.966 Y84.917 E0.53054
G1 X110.312 Y84.917 E0.59322
G1 X113.337 Y85.102 E0.73434
G1 X115.891 Y85.183 E0.85332
G1 X118.386 Y85.191 E0.9695
G1 X120.902 Y85.129 E1.08669
G1 X123.76 Y84.973 E1.21997
G1 X124.642 Y84.917 E1.26113
G1 X125.58 Y84.898 E1.30481
G1 X126.516 Y84.958 E1.34848
G1 X127.642 Y85.139 E1.40159
G1 X128.31 Y85.282 E1.4334
G1 X128.527 Y85.33 E1.44375
G1 X130.626 Y85.825 E1.54417
G1 X131.56 Y86.092 E1.5894
G1 X132.436 Y86.428 E1.63309
G1 X133.28 Y86.837 E1.67676
G1 X134.086 Y87.316 E1.72042
G1 X134.848 Y87.862 E1.76407
G1 X135.561 Y88.471 E1.80773
G1 X136.22 Y89.139 E1.85142
G1 X136.819 Y89.86 E1.89507
G1 X137.355 Y90.63 E1.93876
G1 X137.823 Y91.443 E1.98244
G1 X138.217 Y92.282 E2.0256
G1 X138.392 Y92.708 E2.04704
G1 X138.938 Y94.096 E2.1165
G1 X139.341 Y95.079 E2.16597
G1 X139.527 Y95.561 E2.19002
G1 X140.459 Y97.937 E2.30887
G1 X141.459 Y100.29 E2.42792
G1 X142.504 Y102.564 E2.54445
G1 X143.601 Y104.788 E2.65992
G1 X144.43 Y106.331 E2.74148
G1 X145.077 Y107.573 E2.80669
G1 X145.474 Y108.422 E2.85033
G1 X145.798 Y109.303 E2.89404
G1 X146.045 Y110.207 E2.93768
G1 X146.215 Y111.13 E2.98138
G1 X146.305 Y112.063 E3.02503
G1 X146.316 Y113.001 E3.06871
G1 X146.246 Y113.936 E3.11237
G1 X146.097 Y114.862 E3.15604
G1 X145.921 Y115.594 E3.1911
G1 X145.587 Y116.782 E3.24856
G1 X144.907 Y118.983 E3.35583
G1 X143.94 Y122.323 E3.51774
G1 X143.805 Y122.755 E3.53881
G1 X143.666 Y123.17 E3.55919
G1 X142.88 Y125.636 E3.67971
G1 X142.187 Y128.041 E3.79625
G1 X141.553 Y130.503 E3.91464
G1 X140.991 Y132.97 E4.03245
G1 X140.502 Y135.435 E4.14947
G1 X140.088 Y137.885 E4.26517
G1 X139.733 Y140.423 E4.3845
G1 X139.461 Y142.871 E4.49919
G1 X139.243 Y145.502 E4.62212
G1 X139.161 Y146.69 E4.67757
G1 X139.056 Y147.622 E4.72124
G1 X138.873 Y148.541 E4.76488
G1 X138.612 Y149.442 E4.80855
G1 X138.275 Y150.317 E4.85222
G1 X137.864 Y151.161 E4.89593
G1 X137.384 Y151.966 E4.93957
G1 X136.836 Y152.728 E4.98327
G1 X136.226 Y153.44 E5.02693
G1 X135.557 Y154.097 E5.07059
G1 X134.835 Y154.695 E5.11425
G1 X134.064 Y155.23 E5.15794
G1 X133.25 Y155.696 E5.20162
G1 X132.4 Y156.092 E5.24528
G1 X131.519 Y156.414 E5.28896
G1 X130.614 Y156.66 E5.33263
G1 X129.691 Y156.828 E5.37631
G1 X128.499 Y156.927 E5.43201
G1 X127.867 Y156.94 E5.46145
G1 X120.264 Y156.937 E5.81547
G1 X119.642 Y156.928 E5.84444
G1 X117.005 Y156.926 E5.96723
G1 X116.577 Y156.935 E5.98716
G1 X116.101 Y156.938 E6.00933
G1 X107.904 Y156.939 E6.39101
G1 X107.263 Y156.93 E6.42086
G1 X106.326 Y156.877 E6.46457
G1 X105.398 Y156.744 E6.50822
G1 X104.484 Y156.533 E6.5519
G1 X103.592 Y156.244 E6.59556
G1 X102.727 Y155.881 E6.63924
G1 X101.896 Y155.445 E6.68294
G1 X101.106 Y154.941 E6.72657
G1 X100.361 Y154.37 E6.77028
G1 X99.668 Y153.739 E6.81392
G1 X99.031 Y153.05 E6.85761
G1 X98.455 Y152.31 E6.90128
G1 X97.945 Y151.523 E6.94495
G1 X97.503 Y150.696 E6.98861
G1 X97.133 Y149.834 E7.03229
G1 X96.838 Y148.944 E7.07595
G1 X96.619 Y148.032 E7.11962
G1 X96.473 Y147.035 E7.16654
G1 X96.11 Y143.439 E7.33484
G1 X95.786 Y140.931 E7.45259
G1 X95.392 Y138.441 E7.56998
G1 X94.925 Y135.947 E7.68813
G1 X94.395 Y133.503 E7.80458
G1 X93.805 Y131.108 E7.91943
G1 X93.118 Y128.624 E8.03944
G1 X92.372 Y126.197 E8.15767
G1 X91.685 Y124.154 E8.25803
G1 X91.239 Y122.878 E8.32097
G1 X91.05 Y122.285 E8.34996
G1 X90.68 Y120.992 E8.41258
G1 X90.532 Y120.452 E8.43865
G1 X90.05 Y118.841 E8.51695
G1 X89.298 Y116.405 E8.63566
G1 X89.119 Y115.796 E8.66522
G1 X88.894 Y114.886 E8.70887
G1 X88.746 Y113.959 E8.75258
G1 X88.678 Y113.024 E8.79624
G1 X88.69 Y112.086 E8.83992
G1 X88.781 Y111.153 E8.88357
G1 X88.952 Y110.231 E8.92723
G1 X89.201 Y109.326 E8.97094
G1 X89.695 Y108.064 E9.03404
G1 X89.798 Y107.842 E9.04544
G1 X90.081 Y107.276 E9.07491
G1 X91.133 Y105.314 E9.17857
G1 X92.251 Y103.081 E9.29485
G1 X93.324 Y100.775 E9.41328
G1 X94.317 Y98.472 E9.53006
G1 X95.261 Y96.108 E9.64859
G1 X95.372 Y95.813 E9.66327
G1 X95.876 Y94.53 E9.72746
G1 X96.423 Y93.193 E9.79472
G1 X96.737 Y92.398 E9.83452
G1 X97.126 Y91.544 E9.87822
G1 X97.586 Y90.727 E9.92188
G1 X98.115 Y89.952 E9.96557
G1 X98.707 Y89.225 E10.00923
G0 F6000 X99.051 Y89.441
G1 F1200 X99.696 Y88.784 E10.0521
G1 X100.396 Y88.185 E10.095
G1 X101.145 Y87.65 E10.13786
G1 X101.937 Y87.181 E10.18072
G1 X102.768 Y86.783 E10.22362
G1 X103.629 Y86.459 E10.26646
G1 X104.509 Y86.212 E10.30902
G1 X107.204 Y85.58 E10.43791
G1 X108.109 Y85.407 E10.48082
G1 X109.024 Y85.314 E10.52364
G1 X110.288 Y85.316 E10.5825
G1 X113.334 Y85.502 E10.7246
G1 X115.878 Y85.583 E10.84312
G1 X118.394 Y85.591 E10.96027
G1 X120.934 Y85.529 E11.07858
G1 X123.707 Y85.377 E11.2079
G1 X124.668 Y85.316 E11.25274
G1 X125.588 Y85.298 E11.29558
G1 X126.507 Y85.359 E11.33847
G1 X127.558 Y85.53 E11.38805
G1 X128.435 Y85.72 E11.42984
G1 X130.531 Y86.213 E11.5301
G1 X131.449 Y86.477 E11.57458
G1 X132.308 Y86.808 E11.61744
G1 X133.135 Y87.213 E11.66032
G1 X133.924 Y87.688 E11.7032
G1 X134.668 Y88.229 E11.74604
G1 X135.363 Y88.833 E11.78891
G1 X136.003 Y89.495 E11.83179
G1 X136.582 Y90.211 E11.87467
G1 X137.098 Y90.973 E11.91752
G1 X137.546 Y91.778 E11.96042
G1 X137.848 Y92.436 E11.99413
G1 X138.02 Y92.854 E12.01518
G1 X138.567 Y94.245 E12.08477
G1 X138.971 Y95.23 E12.13435
G1 X139.16 Y95.72 E12.1588
G1 X140.095 Y98.103 E12.278
G1 X141.099 Y100.464 E12.39747
G1 X142.126 Y102.699 E12.512
G1 X143.248 Y104.975 E12.63016
G1 X144.075 Y106.516 E12.71159
G1 X144.722 Y107.758 E12.7768
G1 X145.111 Y108.592 E12.81965
G1 X145.427 Y109.457 E12.86253
G1 X145.666 Y110.346 E12.9054
G1 X145.828 Y111.252 E12.94826
G1 X145.91 Y112.169 E12.99113
G1 X145.912 Y113.09 E13.03401
G1 X145.834 Y114.007 E13.07687
G1 X145.677 Y114.914 E13.11973
G1 X145.536 Y115.487 E13.1472
G1 X145.205 Y116.664 E13.20414
G1 X144.525 Y118.864 E13.31136
G1 X143.556 Y122.212 E13.47365
G1 X143.426 Y122.628 E13.49395
G1 X143.278 Y123.069 E13.51561
G1 X142.501 Y125.508 E13.6348
G1 X141.792 Y127.968 E13.75401
G1 X141.17 Y130.386 E13.87027
G1 X140.602 Y132.875 E13.98915
G1 X140.109 Y135.362 E14.10721
G1 X139.692 Y137.834 E14.22394
G1 X139.339 Y140.356 E14.34252
G1 X139.059 Y142.865 E14.46008
G1 X138.846 Y145.443 E14.58053
G1 X138.762 Y146.662 E14.63742
G1 X138.658 Y147.577 E14.6803
G1 X138.476 Y148.479 E14.72315
G1 X138.216 Y149.362 E14.76601
G1 X137.881 Y150.22 E14.8089
G1 X137.472 Y151.045 E14.85178
G1 X136.993 Y151.831 E14.89464
G1 X136.448 Y152.573 E14.93751
G1 X135.84 Y153.265 E14.9804
G1 X135.175 Y153.901 E15.02325
G1 X134.457 Y154.478 E15.06614
G1 X133.692 Y154.989 E15.10898
G1 X132.885 Y155.433 E15.15187
G1 X132.043 Y155.805 E15.19473
G1 X131.172 Y156.102 E15.23758
G1 X130.278 Y156.323 E15.28046
G1 X129.368 Y156.465 E15.32335
G1 X128.488 Y156.527 E15.36443
G1 X127.867 Y156.54 E15.39335
G1 X120.269 Y156.537 E15.74714
G1 X119.648 Y156.528 E15.77606
G1 X117.042 Y156.526 E15.89741
G1 X116.101 Y156.538 E15.94123
G1 X107.909 Y156.539 E16.32268
G1 X107.268 Y156.53 E16.35253
G1 X106.349 Y156.477 E16.3954
G1 X105.438 Y156.345 E16.43826
G1 X104.542 Y156.134 E16.48112
G1 X103.667 Y155.846 E16.52402
G1 X102.821 Y155.483 E16.56688
G1 X102.01 Y155.048 E16.60974
G1 X101.239 Y154.544 E16.65263
G1 X100.515 Y153.976 E16.69548
G1 X99.843 Y153.347 E16.73834
G1 X99.228 Y152.661 E16.78124
G1 X98.675 Y151.926 E16.82407
G1 X98.188 Y151.144 E16.86696
G1 X97.77 Y150.324 E16.90982
G1 X97.425 Y149.47 E16.95271
G1 X97.156 Y148.59 E16.99556
G1 X96.964 Y147.689 E17.03845
G1 X96.871 Y146.995 E17.07106
G1 X96.506 Y143.38 E17.24024
G1 X96.184 Y140.893 E17.35702
G1 X95.786 Y138.377 E17.47563
G1 X95.315 Y135.854 E17.59514
G1 X94.789 Y133.427 E17.71077
G1 X94.185 Y130.978 E17.82823
G1 X93.503 Y128.514 E17.94727
G1 X92.762 Y126.102 E18.06477
G1 X92.079 Y124.071 E18.16454
G1 X91.616 Y122.746 E18.2299
G1 X91.435 Y122.175 E18.25779
G1 X91.065 Y120.886 E18.32024
G1 X90.912 Y120.33 E18.34709
G1 X90.433 Y118.727 E18.42499
G1 X89.682 Y116.292 E18.54365
G1 X89.503 Y115.683 E18.5732
G1 X89.282 Y114.789 E18.61609
G1 X89.14 Y113.88 E18.65893
G1 X89.076 Y112.961 E18.70182
G1 X89.093 Y112.041 E18.74467
G1 X89.19 Y111.125 E18.78756
G1 X89.365 Y110.222 E18.83039
G1 X89.619 Y109.337 E18.87326
G1 X90.058 Y108.233 E18.92858
G1 X90.161 Y108.011 E18.93998
G1 X90.433 Y107.465 E18.96838
G1 X91.485 Y105.503 E19.07205
G1 X92.627 Y103.221 E19.19087
G1 X93.691 Y100.937 E19.3082
G1 X94.691 Y98.617 E19.42583
G1 X95.644 Y96.224 E19.54577
G1 X95.744 Y95.959 E19.55896
G1 X96.246 Y94.681 E19.6229
G1 X96.808 Y93.307 E19.69202
G1 X97.107 Y92.548 E19.73001
G1 X97.49 Y91.711 E19.77287
G1 X97.944 Y90.91 E19.81574
G1 X98.466 Y90.151 E19.85863
G1 X99.051 Y89.441 E19.90147
G0 F6000 X99.395 Y89.657
G1 F1200 X100.032 Y89.018 E19.94348
G1 X100.724 Y88.437 E19.98556
G1 X101.464 Y87.92 E20.02759
G1 X102.248 Y87.47 E20.06968
G1 X103.068 Y87.092 E20.11173
G1 X103.918 Y86.787 E20.15378
G1 X104.6 Y86.602 E20.18668
G1 X107.296 Y85.969 E20.31563
G1 X108.183 Y85.801 E20.35767
G1 X109.082 Y85.711 E20.39974
G1 X110.263 Y85.715 E20.45473
G1 X113.33 Y85.903 E20.59781
G1 X115.863 Y85.983 E20.71582
G1 X118.402 Y85.991 E20.83405
G1 X120.934 Y85.929 E20.95198
G1 X123.741 Y85.775 E21.08289
G1 X124.693 Y85.715 E21.1273
G1 X125.596 Y85.698 E21.16936
G1 X126.497 Y85.761 E21.21141
G1 X127.474 Y85.921 E21.25751
G1 X128.142 Y86.064 E21.28932
G1 X128.343 Y86.109 E21.29891
G1 X130.437 Y86.602 E21.39909
G1 X131.338 Y86.862 E21.44275
G1 X132.179 Y87.189 E21.48477
G1 X132.989 Y87.589 E21.52683
G1 X133.76 Y88.059 E21.56888
G1 X134.486 Y88.596 E21.61093
G1 X135.162 Y89.195 E21.65298
G1 X135.782 Y89.851 E21.69501
G1 X136.342 Y90.56 E21.73708
G1 X136.837 Y91.315 E21.77912
G1 X137.264 Y92.111 E21.82118
G1 X137.478 Y92.591 E21.84566
G1 X137.647 Y93.001 E21.8663
G1 X138.17 Y94.33 E21.93281
G1 X138.601 Y95.382 E21.98575
G1 X138.792 Y95.88 E22.01058
G1 X139.725 Y98.257 E22.12949
G1 X140.718 Y100.592 E22.24764
G1 X141.775 Y102.894 E22.36559
G1 X142.901 Y105.174 E22.48399
G1 X143.72 Y106.701 E22.56468
G1 X144.367 Y107.943 E22.62989
G1 X144.749 Y108.761 E22.67193
G1 X145.056 Y109.61 E22.71396
G1 X145.287 Y110.483 E22.75601
G1 X145.44 Y111.373 E22.79806
G1 X145.514 Y112.274 E22.84016
G1 X145.508 Y113.177 E22.88221
G1 X145.422 Y114.076 E22.92426
G1 X145.15 Y115.38 E22.98629
G1 X144.823 Y116.546 E23.04268
G1 X144.144 Y118.744 E23.1498
G1 X143.172 Y122.101 E23.31253
G1 X143.047 Y122.501 E23.33205
G1 X142.898 Y122.947 E23.35394
G1 X142.111 Y125.414 E23.47452
G1 X141.413 Y127.839 E23.59202
G1 X140.778 Y130.302 E23.71046
G1 X140.206 Y132.813 E23.83038
G1 X139.723 Y135.249 E23.94602
G1 X139.295 Y137.784 E24.06573
G1 X138.939 Y140.328 E24.18534
G1 X138.661 Y142.825 E24.30233
G1 X138.451 Y145.361 E24.42082
G1 X138.363 Y146.634 E24.48024
G1 X138.261 Y147.532 E24.52232
G1 X138.08 Y148.417 E24.56439
G1 X137.821 Y149.282 E24.60643
G1 X137.487 Y150.121 E24.64848
G1 X137.08 Y150.927 E24.69052
G1 X136.603 Y151.694 E24.73258
G1 X136.06 Y152.416 E24.77465
G1 X135.456 Y153.087 E24.81669
G1 X134.794 Y153.702 E24.85876
G1 X134.081 Y154.256 E24.90081
G1 X133.322 Y154.744 E24.94282
G1 X132.522 Y155.164 E24.98489
G1 X131.688 Y155.511 E25.02696
G1 X130.827 Y155.783 E25.069
G1 X129.945 Y155.978 E25.11106
G1 X129.05 Y156.094 E25.15309
G1 X128.476 Y156.127 E25.17986
G1 X127.867 Y156.14 E25.20822
G1 X120.275 Y156.137 E25.56174
G1 X119.654 Y156.128 E25.59066
G1 X117.033 Y156.126 E25.7127
G1 X116.101 Y156.138 E25.7561
G1 X107.915 Y156.139 E26.13728
G1 X107.274 Y156.13 E26.16713
G1 X106.372 Y156.077 E26.2092
G1 X105.479 Y155.945 E26.25124
G1 X104.601 Y155.734 E26.29328
G1 X103.745 Y155.447 E26.33532
G1 X102.917 Y155.085 E26.3774
G1 X102.125 Y154.651 E26.41945
G1 X101.375 Y154.149 E26.46148
G1 X100.671 Y153.582 E26.50357
G1 X100.021 Y152.955 E26.54562
G1 X99.429 Y152.274 E26.58764
G1 X98.899 Y151.542 E26.62972
G1 X98.436 Y150.767 E26.67176
G1 X98.044 Y149.953 E26.71383
G1 X97.725 Y149.109 E26.75584
G1 X97.481 Y148.239 E26.79791
G1 X97.269 Y146.955 E26.85851
G1 X96.906 Y143.36 E27.02676
G1 X96.576 Y140.811 E27.14644
G1 X96.175 Y138.277 E27.26591
G1 X95.712 Y135.8 E27.38324
G1 X95.182 Y133.352 E27.49987
G1 X94.572 Y130.88 E27.61843
G1 X93.885 Y128.395 E27.73849
G1 X93.14 Y125.971 E27.85657
G1 X92.439 Y123.888 E27.95891
G1 X91.994 Y122.614 E28.02174
G1 X91.819 Y122.064 E28.04862
G1 X91.451 Y120.78 E28.11081
G1 X91.29 Y120.195 E28.13907
G1 X90.843 Y118.699 E28.21177
G1 X90.066 Y116.179 E28.33456
G1 X89.887 Y115.57 E28.36412
G1 X89.671 Y114.693 E28.40618
G1 X89.533 Y113.801 E28.44821
G1 X89.475 Y112.9 E28.49025
G1 X89.497 Y111.997 E28.53231
G1 X89.598 Y111.099 E28.57439
G1 X89.779 Y110.215 E28.6164
G1 X90.037 Y109.349 E28.65848
G1 X90.42 Y108.401 E28.70609
G1 X90.523 Y108.179 E28.71748
G1 X90.786 Y107.654 E28.74483
G1 X91.838 Y105.692 E28.84849
G1 X92.975 Y103.419 E28.96683
G1 X94.062 Y101.086 E29.08668
G1 X95.053 Y98.788 E29.20321
G1 X96.003 Y96.406 E29.32262
G1 X96.116 Y96.105 E29.33759
G1 X96.617 Y94.833 E29.40125
G1 X97.156 Y93.515 E29.46756
G1 X97.478 Y92.698 E29.50845
G1 X97.854 Y91.877 E29.5505
G1 X98.301 Y91.093 E29.59252
G1 X98.816 Y90.351 E29.63458
G1 X99.395 Y89.657 E29.67666
G1 F2700 E24.67666
;MESH:BlubaStand_remixed.stl
G0 F6000 X104.063 Y110.889
G0 X105.026 Y111.366
G0 X104.722 Y112.795
G0 X104.087 Y113.138
G0 X102.767 Y112.44
G0 X101.748 Y114.21
G0 X100.868 Y113.905
G0 X102.345 Y118.814
G0 X108.168 Y122.78
G0 X108.175 Y145.158
G0 X115.815 Y145.338
;TYPE:WALL-INNER
G1 F2700 E29.67666
G1 F1200 X108.192 Y145.34 E30.03162
G1 X107.993 Y145.34 E30.04089
G1 X107.993 Y145.141 E30.04688
G1 X107.993 Y122.873 E31.08377
G1 X102.18 Y118.913 E31.41129
G1 X102.162 Y118.746 E31.41911
G1 X100.687 Y113.975 E31.65164
G1 X100.569 Y113.59 E31.67039
G1 X100.947 Y113.729 E31.68074
G1 X101.732 Y114.018 E31.71969
G1 X102.279 Y113.705 E31.74904
G1 X102.582 Y112.415 E31.81074
G1 X102.641 Y112.162 E31.82284
G1 X102.869 Y112.285 E31.8301
G1 X104.087 Y112.94 E31.8945
G1 X104.592 Y112.669 E31.92118
G1 X104.892 Y112.065 E31.95259
G1 X105.047 Y111.751 E31.96889
G1 X105.237 Y112.046 E31.97811
G1 X107.257 Y115.178 E32.15165
G1 X107.41 Y115.302 E32.16082
G1 X107.663 Y115.807 E32.18712
G1 X107.795 Y116.072 E32.20091
G1 X107.99 Y115.849 E32.20897
G1 X111.542 Y111.789 E32.46016
G1 X111.53 Y111.546 E32.47149
G1 X114.893 Y102.352 E32.92734
G1 X117.422 Y102.36 E33.0451
G1 X117.5 Y102.32 E33.04919
G1 X117.579 Y102.361 E33.05333
G1 X120.107 Y102.351 E33.17104
G1 X123.471 Y111.538 E33.62661
G1 X123.458 Y111.786 E33.63817
G1 X127.019 Y115.858 E33.89006
G1 X127.217 Y116.085 E33.90408
G1 X127.347 Y115.813 E33.91226
G1 X127.593 Y115.301 E33.93871
G1 X127.743 Y115.179 E33.94771
G1 X129.764 Y112.045 E34.12135
G1 X129.954 Y111.751 E34.13765
G1 X130.109 Y112.065 E34.14686
G1 X130.404 Y112.659 E34.17775
G1 X130.903 Y112.947 E34.20458
G1 X132.132 Y112.285 E34.26958
G1 X132.361 Y112.162 E34.28168
G1 X132.42 Y112.415 E34.28897
G1 X132.721 Y113.704 E34.3506
G1 X133.268 Y114.017 E34.37995
G1 X134.056 Y113.728 E34.41903
G1 X134.433 Y113.59 E34.43772
G1 X134.315 Y113.974 E34.44805
G1 X132.841 Y118.744 E34.68052
