;FLAVOR:Marlin
;TIME:1311
;Filament used: 0.532025m
;Layer height: 0.24
;MINX:89.875
;MINY:90.497
;MINZ:0.28
;MAXX:162.007
;MAXY:144.581
;MAXZ:13.96
;Generated with Cura_SteamEngine 4.6.1
M140 S50
M105
M190 S50
M104 S200
M105
M109 S200
M82 ;absolute extrusion mode
; Ender 3 Custom Start G-code
G92 E0 ; Reset Extruder
G28 ; Home all axes
G1 Z2.0 F3000 ; Move Z Axis up little to prevent scratching of Heat Bed
G1 X0.1 Y20 Z0.3 F5000.0 ; Move to start position
G1 X0.1 Y200.0 Z0.3 F1500.0 E15 ; Draw the first line
G1 X0.4 Y200.0 Z0.3 F5000.0 ; Move to side a little
G1 X0.4 Y20 Z0.3 F1500.0 E30 ; Draw the second line
G92 E0 ; Reset Extruder
G1 Z2.0 F3000 ; Move Z Axis up little to prevent scratching of Heat Bed
G1 X5 Y20 Z0.3 F5000.0 ; Move over to prevent blob squish
G92 E0
G92 E0
G1 F2700 E-5
;LAYER_COUNT:58
;LAYER:0
M107
G0 F6000 X136.199 Y91.507 Z0.28
;TYPE:SKIRT
G1 F2700 E0
G1 F1200 X137.075 Y91.73 E0.04209
G1 X137.756 Y91.962 E0.07559
G1 X137.924 Y92.026 E0.08396
G1 X138.753 Y92.385 E0.12603
G1 X139.547 Y92.815 E0.16807
G1 X140.3 Y93.314 E0.21014
G1 X141.005 Y93.878 E0.25218
G1 X141.89 Y94.751 E0.31006
G1 X142.269 Y95.174 E0.33651
G1 X142.526 Y95.473 E0.35487
G1 X143.679 Y96.864 E0.439
G1 X145.349 Y98.768 E0.55692
G1 X147.061 Y100.613 E0.67412
G1 X148.873 Y102.457 E0.79451
G1 X150.678 Y104.192 E0.91109
G1 X152.574 Y105.915 E1.03038
G1 X154.504 Y107.573 E1.14886
G1 X156.944 Y109.541 E1.29482
G1 X157.621 Y110.139 E1.33689
G1 X158.243 Y110.794 E1.37895
G1 X159.028 Y111.823 E1.43921
G1 X159.422 Y112.414 E1.47229
G1 X159.752 Y112.942 E1.50128
G1 X160.183 Y113.736 E1.54335
G1 X160.542 Y114.565 E1.58541
G1 X160.826 Y115.422 E1.62745
G1 X161.034 Y116.301 E1.66951
G1 X161.162 Y117.195 E1.71156
G1 X161.211 Y118.096 E1.75358
G1 X161.181 Y118.999 E1.79565
G1 X161.09 Y119.771 E1.83185
G1 X160.938 Y120.747 E1.87784
G1 X160.463 Y123.647 E2.01468
G1 X160.374 Y124.121 E2.03714
G1 X160.291 Y124.511 E2.0557
G1 X160.064 Y125.385 E2.09775
G1 X159.76 Y126.236 E2.13983
G1 X159.383 Y127.056 E2.18185
G1 X158.934 Y127.84 E2.22392
G1 X158.418 Y128.581 E2.26597
G1 X157.839 Y129.274 E2.30802
G1 X157.2 Y129.913 E2.3501
G1 X156.508 Y130.492 E2.39211
G1 X155.767 Y131.008 E2.43416
G1 X155.357 Y131.254 E2.45642
G1 X154.456 Y131.765 E2.50465
G1 X153.762 Y132.145 E2.54149
G1 X151.561 Y133.432 E2.66022
G1 X149.428 Y134.763 E2.77729
G1 X147.307 Y136.17 E2.89581
G1 X145.207 Y137.65 E3.01544
G1 X143.188 Y139.162 E3.13289
G1 X141.189 Y140.747 E3.25168
G1 X140.838 Y141.04 E3.27297
G1 X140.253 Y141.513 E3.308
G1 X139.526 Y142.049 E3.35006
G1 X138.755 Y142.519 E3.3921
G1 X137.945 Y142.918 E3.43415
G1 X137.103 Y143.245 E3.47621
G1 X136.236 Y143.496 E3.51824
G1 X135.349 Y143.669 E3.56032
G1 X134.451 Y143.763 E3.60236
G1 X133.548 Y143.777 E3.64441
G1 X132.921 Y143.74 E3.67366
G1 X132.711 Y143.721 E3.68348
G1 X132.012 Y143.633 E3.71629
G1 X131.238 Y143.509 E3.75279
G1 X128.688 Y143.135 E3.87279
G1 X126.188 Y142.841 E3.99001
G1 X123.612 Y142.612 E4.11043
G1 X121.121 Y142.461 E4.22663
G1 X118.555 Y142.378 E4.34618
G1 X116.02 Y142.369 E4.46422
G1 X113.487 Y142.43 E4.5822
G1 X110.96 Y142.564 E4.70004
G1 X108.386 Y142.773 E4.82029
G1 X105.877 Y143.048 E4.93782
G1 X103.816 Y143.326 E5.03465
G1 X102.916 Y143.407 E5.07673
G1 X102.013 Y143.409 E5.11878
G1 X101.113 Y143.33 E5.16085
G1 X100.224 Y143.172 E5.20289
G1 X99.445 Y142.965 E5.24042
G1 X99.231 Y142.899 E5.25085
G1 X98.381 Y142.595 E5.29289
G1 X97.56 Y142.217 E5.33497
G1 X96.93 Y141.863 E5.36862
G1 X96.756 Y141.757 E5.37811
G1 X96.373 Y141.512 E5.39928
G1 X96.19 Y141.389 E5.40955
G1 X95.827 Y141.133 E5.43023
G1 X95.473 Y140.872 E5.45071
G1 X94.771 Y140.304 E5.49276
G1 X94.086 Y139.639 E5.53721
G1 X93.845 Y139.382 E5.55362
G1 X93.563 Y139.07 E5.5732
G1 X93.254 Y138.712 E5.59522
G1 X92.695 Y138.003 E5.63726
G1 X92.012 Y136.914 E5.69712
G1 X91.911 Y136.728 E5.70697
G1 X91.516 Y135.916 E5.74902
G1 X91.194 Y135.073 E5.79104
G1 X90.948 Y134.204 E5.8331
G1 X90.779 Y133.317 E5.87514
G1 X90.69 Y132.418 E5.91721
G1 X90.675 Y131.816 E5.94525
G1 X90.676 Y131.587 E5.95591
G1 X90.72 Y130.685 E5.99796
G1 X90.844 Y129.791 E6.03999
G1 X91.046 Y128.911 E6.08203
G1 X91.325 Y128.052 E6.12409
G1 X91.679 Y127.221 E6.16615
G1 X92.118 Y126.404 E6.20933
G1 X92.422 Y125.899 E6.23678
G1 X93.169 Y124.703 E6.30244
G1 X93.817 Y123.782 E6.35488
G1 X94.029 Y123.513 E6.37082
G1 X95.664 Y121.393 E6.49549
G1 X97.158 Y119.339 E6.61376
G1 X98.442 Y117.471 E6.7193
G1 X98.638 Y117.177 E6.73576
G1 X99.348 Y116.235 E6.79068
G1 X99.701 Y115.824 E6.81591
G1 X100.213 Y115.253 E6.85162
G1 X100.706 Y114.72 E6.88543
G1 X101.505 Y113.946 E6.93723
G1 X101.895 Y113.608 E6.96126
G1 X103.486 Y112.273 E7.05797
G1 X105.353 Y110.613 E7.1743
G1 X107.791 Y108.301 E7.33075
G1 X109.702 Y106.422 E7.45555
G1 X112.095 Y104.149 E7.60923
G1 X114.597 Y101.789 E7.76938
G1 X116.017 Y100.497 E7.85878
G1 X119.304 Y97.602 E8.06273
G1 X120.015 Y96.967 E8.10712
G1 X120.81 Y96.281 E8.15602
G1 X121.303 Y95.876 E8.18573
G1 X122.539 Y94.886 E8.25947
G1 X123.096 Y94.453 E8.29232
G1 X123.833 Y93.931 E8.33437
G1 X124.613 Y93.476 E8.37642
G1 X125.057 Y93.256 E8.39949
G1 X125.709 Y92.958 E8.43287
G1 X125.988 Y92.838 E8.44701
G1 X126.832 Y92.518 E8.48904
G1 X127.681 Y92.279 E8.53011
G1 X128.656 Y92.051 E8.57674
G1 X130.104 Y91.735 E8.64575
G1 X130.775 Y91.598 E8.67764
G1 X131.914 Y91.432 E8.73124
G1 X132.848 Y91.353 E8.77488
G1 X133.504 Y91.313 E8.80549
G1 X134.407 Y91.298 E8.84754
G1 X135.308 Y91.363 E8.8896
G1 X136.199 Y91.507 E8.93163
G0 F6000 X136.228 Y91.105
G1 F1200 X137.122 Y91.326 E8.97451
G1 X137.899 Y91.588 E9.01269
G1 X138.067 Y91.652 E9.02106
G1 X138.912 Y92.017 E9.06392
G1 X139.722 Y92.454 E9.10678
G1 X140.492 Y92.959 E9.14966
G1 X141.215 Y93.53 E9.19256
G1 X142.188 Y94.485 E9.25604
G1 X142.567 Y94.908 E9.28249
G1 X142.834 Y95.218 E9.30154
G1 X143.989 Y96.612 E9.38583
G1 X145.642 Y98.496 E9.50254
G1 X147.366 Y100.354 E9.62056
G1 X149.135 Y102.153 E9.73805
G1 X150.959 Y103.907 E9.85588
G1 X152.84 Y105.617 E9.97425
G1 X154.766 Y107.271 E10.09246
G1 X157.195 Y109.23 E10.23777
G1 X157.886 Y109.838 E10.28063
G1 X158.522 Y110.505 E10.32354
G1 X159.097 Y111.223 E10.36637
G1 X159.361 Y111.601 E10.38784
G1 X159.755 Y112.192 E10.42092
G1 X160.095 Y112.736 E10.45079
G1 X160.535 Y113.545 E10.49367
G1 X160.903 Y114.389 E10.53654
G1 X161.196 Y115.261 E10.57938
G1 X161.413 Y116.156 E10.62226
G1 X161.551 Y117.066 E10.66512
G1 X161.61 Y117.985 E10.708
G1 X161.588 Y118.905 E10.75085
G1 X161.485 Y119.833 E10.79433
G1 X161.333 Y120.811 E10.84041
G1 X160.858 Y123.711 E10.97725
G1 X160.765 Y124.204 E11.00061
G1 X160.682 Y124.594 E11.01918
G1 X160.451 Y125.486 E11.06208
G1 X160.144 Y126.354 E11.10495
G1 X159.763 Y127.192 E11.14782
G1 X159.311 Y127.994 E11.19069
G1 X158.79 Y128.753 E11.23355
G1 X158.206 Y129.465 E11.27643
G1 X157.562 Y130.123 E11.31931
G1 X156.864 Y130.722 E11.36213
G1 X156.116 Y131.259 E11.40501
G1 X155.555 Y131.602 E11.43563
G1 X154.648 Y132.116 E11.48417
G1 X153.95 Y132.498 E11.52122
G1 X151.794 Y133.759 E11.63753
G1 X149.614 Y135.119 E11.75717
G1 X147.536 Y136.498 E11.8733
G1 X145.448 Y137.969 E11.99223
G1 X143.431 Y139.48 E12.10958
G1 X141.432 Y141.066 E12.2284
G1 X141.09 Y141.351 E12.24913
G1 X140.505 Y141.824 E12.28416
G1 X139.764 Y142.371 E12.32705
G1 X138.979 Y142.852 E12.36992
G1 X138.155 Y143.263 E12.41279
G1 X137.299 Y143.601 E12.45565
G1 X136.416 Y143.863 E12.49853
G1 X135.515 Y144.048 E12.54136
G1 X134.6 Y144.154 E12.58426
G1 X133.68 Y144.18 E12.62711
G1 X132.885 Y144.138 E12.66418
G1 X132.675 Y144.119 E12.674
G1 X131.948 Y144.028 E12.70812
G1 X131.182 Y143.905 E12.74424
G1 X128.65 Y143.534 E12.8634
G1 X126.107 Y143.235 E12.98263
G1 X123.624 Y143.014 E13.09871
G1 X121.084 Y142.86 E13.2172
G1 X118.54 Y142.778 E13.33572
G1 X116.029 Y142.769 E13.45264
G1 X113.484 Y142.831 E13.57118
G1 X110.975 Y142.963 E13.68817
G1 X108.464 Y143.167 E13.80548
G1 X105.929 Y143.445 E13.92423
G1 X103.869 Y143.723 E14.02102
G1 X102.952 Y143.806 E14.06389
G1 X102.032 Y143.81 E14.10673
G1 X101.114 Y143.733 E14.14963
G1 X100.207 Y143.578 E14.19248
G1 X99.327 Y143.347 E14.23484
G1 X99.113 Y143.281 E14.24527
G1 X98.246 Y142.972 E14.28813
G1 X97.409 Y142.589 E14.33099
G1 X96.722 Y142.204 E14.36766
G1 X96.548 Y142.098 E14.37714
G1 X95.967 Y141.72 E14.40942
G1 X95.59 Y141.455 E14.43088
G1 X95.236 Y141.194 E14.45136
G1 X94.519 Y140.616 E14.49424
G1 X93.794 Y139.913 E14.54126
G1 X93.553 Y139.656 E14.55767
G1 X93.261 Y139.331 E14.57801
G1 X92.952 Y138.973 E14.60004
G1 X92.381 Y138.251 E14.6429
G1 X91.661 Y137.105 E14.70592
G1 X91.56 Y136.919 E14.71577
G1 X91.156 Y136.092 E14.75863
G1 X90.826 Y135.233 E14.80148
G1 X90.571 Y134.348 E14.84437
G1 X90.394 Y133.444 E14.88726
G1 X90.296 Y132.529 E14.93011
G1 X90.275 Y131.815 E14.96337
G1 X90.276 Y131.586 E14.97403
G1 X90.32 Y130.666 E15.01692
G1 X90.444 Y129.754 E15.05978
G1 X90.646 Y128.856 E15.10264
G1 X90.926 Y127.978 E15.14555
G1 X91.28 Y127.129 E15.18838
G1 X91.774 Y126.199 E15.23742
G1 X92.083 Y125.687 E15.26526
G1 X92.83 Y124.491 E15.33092
G1 X93.503 Y123.534 E15.3854
G1 X93.778 Y123.186 E15.40606
G1 X95.34 Y121.16 E15.52518
G1 X96.82 Y119.124 E15.64238
G1 X98.101 Y117.261 E15.74766
G1 X98.305 Y116.955 E15.76479
G1 X99.043 Y115.976 E15.82187
G1 X99.402 Y115.558 E15.84753
G1 X99.919 Y114.981 E15.88361
G1 X100.412 Y114.448 E15.91741
G1 X101.242 Y113.644 E15.97122
G1 X101.638 Y113.302 E15.99558
G1 X103.208 Y111.984 E16.09104
G1 X105.095 Y110.307 E16.20859
G1 X107.519 Y108.008 E16.36415
G1 X109.427 Y106.132 E16.48875
G1 X111.82 Y103.859 E16.64243
G1 X114.328 Y101.494 E16.80295
G1 X115.753 Y100.196 E16.8927
G1 X118.982 Y97.352 E17.09306
G1 X119.753 Y96.665 E17.14115
G1 X120.556 Y95.972 E17.19054
G1 X121.052 Y95.564 E17.22044
G1 X122.293 Y94.57 E17.29448
G1 X122.85 Y94.137 E17.32733
G1 X123.601 Y93.604 E17.37021
G1 X124.395 Y93.139 E17.41306
G1 X124.889 Y92.893 E17.43875
G1 X125.551 Y92.59 E17.47266
G1 X125.83 Y92.47 E17.4868
G1 X126.691 Y92.144 E17.52967
G1 X127.589 Y91.89 E17.57312
G1 X128.57 Y91.66 E17.62004
G1 X130.024 Y91.343 E17.68934
G1 X130.695 Y91.206 E17.72122
G1 X131.879 Y91.033 E17.77694
G1 X132.824 Y90.954 E17.8211
G1 X133.48 Y90.914 E17.8517
G1 X134.4 Y90.898 E17.89455
G1 X135.319 Y90.961 E17.93744
G1 X136.228 Y91.105 E17.98029
G0 F6000 X136.256 Y90.702
G1 F1200 X137.168 Y90.923 E18.02399
G1 X138.041 Y91.215 E18.06685
G1 X138.209 Y91.279 E18.07523
G1 X139.07 Y91.65 E18.11888
G1 X139.897 Y92.093 E18.16257
G1 X140.683 Y92.604 E18.20622
G1 X141.422 Y93.181 E18.24988
G1 X142.11 Y93.819 E18.29357
G1 X142.486 Y94.218 E18.3191
G1 X142.865 Y94.641 E18.34554
G1 X143.142 Y94.963 E18.36532
G1 X144.281 Y96.338 E18.44846
G1 X145.935 Y98.223 E18.56523
G1 X147.662 Y100.084 E18.68345
G1 X149.433 Y101.885 E18.80107
G1 X151.222 Y103.606 E18.91666
G1 X153.124 Y105.334 E19.03632
G1 X155.012 Y106.956 E19.15222
G1 X157.446 Y108.919 E19.29782
G1 X158.151 Y109.538 E19.34151
G1 X158.8 Y110.215 E19.38518
G1 X159.389 Y110.945 E19.42886
G1 X159.694 Y111.379 E19.45356
G1 X160.088 Y111.97 E19.48663
G1 X160.438 Y112.53 E19.51738
G1 X160.887 Y113.353 E19.56103
G1 X161.264 Y114.212 E19.60472
G1 X161.566 Y115.1 E19.64839
G1 X161.792 Y116.01 E19.69205
G1 X161.939 Y116.936 E19.73571
G1 X162.007 Y117.872 E19.77941
G1 X161.995 Y118.81 E19.82309
G1 X161.881 Y119.894 E19.87384
G1 X161.727 Y120.876 E19.92013
G1 X161.252 Y123.776 E20.05696
G1 X161.156 Y124.288 E20.08122
G1 X161.073 Y124.678 E20.09979
G1 X160.839 Y125.586 E20.14345
G1 X160.528 Y126.471 E20.18713
G1 X160.143 Y127.326 E20.23079
G1 X159.687 Y128.145 E20.27444
G1 X159.162 Y128.923 E20.31814
G1 X158.574 Y129.653 E20.36179
G1 X157.925 Y130.33 E20.40546
G1 X157.221 Y130.95 E20.44914
G1 X156.466 Y131.507 E20.49283
G1 X155.752 Y131.95 E20.53196
G1 X154.84 Y132.467 E20.58077
G1 X154.165 Y132.837 E20.61661
G1 X151.961 Y134.125 E20.73548
G1 X149.866 Y135.433 E20.85048
G1 X147.741 Y136.842 E20.96921
G1 X145.689 Y138.288 E21.0861
G1 X143.678 Y139.794 E21.20309
G1 X141.692 Y141.37 E21.32114
G1 X141.341 Y141.662 E21.3424
G1 X140.756 Y142.135 E21.37743
G1 X140.002 Y142.693 E21.42111
G1 X139.204 Y143.185 E21.46476
G1 X138.366 Y143.607 E21.50845
G1 X137.496 Y143.956 E21.5521
G1 X136.599 Y144.229 E21.59576
G1 X135.682 Y144.426 E21.63944
G1 X134.751 Y144.543 E21.68313
G1 X133.814 Y144.581 E21.72679
G1 X132.849 Y144.536 E21.77178
G1 X132.639 Y144.517 E21.7816
G1 X131.885 Y144.423 E21.81698
G1 X131.138 Y144.303 E21.85221
G1 X128.582 Y143.929 E21.97249
G1 X126.096 Y143.637 E22.08905
G1 X123.563 Y143.411 E22.20746
G1 X121.048 Y143.259 E22.32479
G1 X118.561 Y143.178 E22.44065
G1 X116.036 Y143.169 E22.55823
G1 X113.515 Y143.23 E22.67565
G1 X110.993 Y143.363 E22.79325
G1 X108.507 Y143.565 E22.90939
G1 X105.948 Y143.846 E23.02926
G1 X103.923 Y144.119 E23.12441
G1 X102.989 Y144.205 E23.16808
G1 X102.051 Y144.211 E23.21176
G1 X101.116 Y144.137 E23.25543
G1 X100.191 Y143.983 E23.2991
G1 X99.209 Y143.729 E23.34633
G1 X98.995 Y143.663 E23.35676
G1 X98.112 Y143.349 E23.4004
G1 X97.258 Y142.961 E23.44407
G1 X96.514 Y142.546 E23.48374
G1 X96.34 Y142.44 E23.49323
G1 X95.744 Y142.052 E23.52634
G1 X95.352 Y141.777 E23.54864
G1 X94.998 Y141.516 E23.56912
G1 X94.268 Y140.927 E23.6128
G1 X93.502 Y140.186 E23.66242
G1 X93.261 Y139.929 E23.67883
G1 X92.958 Y139.592 E23.69993
G1 X92.649 Y139.234 E23.72195
G1 X92.067 Y138.499 E23.76561
G1 X91.55 Y137.717 E23.80926
G1 X91.208 Y137.11 E23.8417
G1 X90.796 Y136.268 E23.88535
G1 X90.457 Y135.393 E23.92904
G1 X90.194 Y134.493 E23.9727
G1 X90.009 Y133.573 E24.0164
G1 X89.903 Y132.642 E24.06003
G1 X89.875 Y131.813 E24.09866
G1 X89.876 Y131.584 E24.10932
G1 X89.92 Y130.647 E24.153
G1 X90.044 Y129.717 E24.19669
G1 X90.246 Y128.802 E24.24032
G1 X90.526 Y127.907 E24.28399
G1 X90.881 Y127.038 E24.3277
G1 X91.431 Y125.994 E24.38264
G1 X91.743 Y125.475 E24.41084
G1 X92.49 Y124.279 E24.4765
G1 X93.189 Y123.286 E24.53305
G1 X93.464 Y122.938 E24.5537
G1 X95.016 Y120.926 E24.67202
G1 X96.505 Y118.877 E24.78996
G1 X97.75 Y117.066 E24.89229
G1 X97.972 Y116.733 E24.91093
G1 X98.738 Y115.718 E24.97014
G1 X99.104 Y115.292 E24.99629
G1 X99.626 Y114.71 E25.0327
G1 X100.119 Y114.177 E25.06651
G1 X100.98 Y113.342 E25.12235
G1 X101.381 Y112.996 E25.14702
G1 X102.931 Y111.695 E25.24125
G1 X104.82 Y110.016 E25.35893
G1 X107.245 Y107.716 E25.51456
G1 X109.151 Y105.842 E25.63902
G1 X111.544 Y103.569 E25.7927
G1 X114.058 Y101.198 E25.95362
G1 X115.489 Y99.896 E26.0437
G1 X118.728 Y97.043 E26.24469
G1 X119.49 Y96.364 E26.29221
G1 X120.302 Y95.663 E26.34216
G1 X120.802 Y95.252 E26.3723
G1 X122.048 Y94.254 E26.44664
G1 X122.605 Y93.821 E26.47949
G1 X123.369 Y93.278 E26.52313
G1 X124.177 Y92.801 E26.56683
G1 X124.72 Y92.531 E26.59506
G1 X125.393 Y92.223 E26.62953
G1 X125.672 Y92.103 E26.64367
G1 X126.548 Y91.77 E26.68731
G1 X127.498 Y91.501 E26.73328
G1 X128.485 Y91.27 E26.78048
G1 X129.943 Y90.951 E26.84998
G1 X130.614 Y90.814 E26.88187
G1 X131.843 Y90.635 E26.9397
G1 X132.8 Y90.554 E26.98442
G1 X133.456 Y90.514 E27.01502
G1 X134.393 Y90.497 E27.05866
G1 X135.329 Y90.56 E27.10234
G1 X136.256 Y90.702 E27.14601
G1 F2700 E22.14601
G0 F6000 X147.354 Y120.897
G1 F2700 E27.14601
G1 F1200 X148.754 Y119.755 E27.23014
G1 X148.753 Y119.907 E27.23722
G1 X148.756 Y119.966 E27.23997
G1 X148.447 Y120.922 E27.28675
G1 X148.315 Y120.882 E27.29317
G1 X147.85 Y120.853 E27.31487
G1 X147.451 Y120.88 E27.33349
G1 X147.354 Y120.897 E27.33808
G0 F6000 X147.478 Y121.279
G1 F1200 X147.15 Y121.341 E27.35362
G1 X146.861 Y121.471 E27.36838
G1 X146.798 Y121.508 E27.37178
G1 X146.1 Y121.446 E27.40441
G1 X146.047 Y121.448 E27.40688
G1 X146.557 Y121.031 E27.43755
G1 X149.416 Y118.7 E27.60932
G1 X149.207 Y119.413 E27.64392
G1 X149.152 Y119.885 E27.66604
G1 X149.16 Y120.021 E27.67239
G1 X148.807 Y121.11 E27.72569
G1 X148.743 Y121.438 E27.74125
G1 X148.743 Y121.456 E27.74209
G1 X148.521 Y121.361 E27.75334
G1 X148.2 Y121.268 E27.7689
G1 X147.877 Y121.252 E27.78396
G1 X147.478 Y121.279 E27.80258
G0 F6000 X147.505 Y121.678
G1 F1200 X147.229 Y121.737 E27.81572
G1 X147.064 Y121.815 E27.82422
G1 X146.891 Y121.917 E27.83357
G1 X146.065 Y121.844 E27.87218
