;FLAVOR:Marlin
;TIME:4327
;Filament used: 2.33996m
;Layer height: 0.2
;MINX:76.538
;MINY:108.981
;MINZ:0.2
;MAXX:158.461
;MAXY:138.019
;MAXZ:10
;Generated with Cura_SteamEngine 4.7.0
M140 S60
M105
M190 S60
M104 S220
M105
M109 S220
M82 ;absolute extrusion mode
; Ender 3 Custom Start G-code
G92 E0 ; Reset Extruder
G28 ; Home all axes
G1 Z2.0 F3000 ; Move Z Axis up little to prevent scratching of Heat Bed
G1 X0.1 Y20 Z0.3 F5000.0 ; Move to start position
G1 X0.1 Y200.0 Z0.3 F1500.0 E15 ; Draw the first line
G1 X0.4 Y200.0 Z0.3 F5000.0 ; Move to side a little
G1 X0.4 Y20 Z0.3 F1500.0 E30 ; Draw the second line
G92 E0 ; Reset Extruder
G1 Z2.0 F3000 ; Move Z Axis up little to prevent scratching of Heat Bed
G1 X5 Y20 Z0.3 F5000.0 ; Move over to prevent blob squish
G92 E0
G92 E0
G1 F2700 E-5
;LAYER_COUNT:50
;LAYER:0
M107
G0 F6000 X80.737 Y110.651 Z0.2
;TYPE:SKIRT
G1 F2700 E0
G1 F1200 X81.131 Y110.37 E0.0161
G1 X81.698 Y110.015 E0.03835
G1 X82.257 Y109.748 E0.05895
G1 X82.764 Y109.54 E0.07718
G1 X82.948 Y109.469 E0.08374
G1 X83.067 Y109.425 E0.08796
G1 X83.707 Y109.23 E0.11021
G1 X84.223 Y109.132 E0.12768
G1 X84.625 Y109.075 E0.14118
G1 X84.82 Y109.051 E0.14772
G1 X84.999 Y109.032 E0.1537
G1 X85.483 Y109.002 E0.16983
G1 X86.639 Y108.981 E0.20829
G1 X148.693 Y108.983 E2.27221
G1 X149.319 Y108.992 E2.29304
G1 X149.808 Y109.02 E2.30933
G1 X150.385 Y109.079 E2.32862
G1 X150.555 Y109.099 E2.33431
G1 X150.72 Y109.121 E2.33985
G1 X151.377 Y109.249 E2.36211
G1 X151.982 Y109.442 E2.38323
G1 X152.321 Y109.573 E2.39532
G1 X152.675 Y109.715 E2.40801
G1 X153.28 Y110 E2.43025
G1 X153.802 Y110.325 E2.4507
G1 X154.129 Y110.554 E2.46398
G1 X154.256 Y110.646 E2.46919
G1 X154.431 Y110.776 E2.47644
G1 X154.944 Y111.206 E2.49871
G1 X155.385 Y111.675 E2.52012
G1 X155.819 Y112.193 E2.5426
G1 X156.217 Y112.73 E2.56483
G1 X156.577 Y113.371 E2.58928
G1 X156.656 Y113.536 E2.59536
G1 X156.751 Y113.745 E2.603
G1 X156.93 Y114.162 E2.61809
G1 X157.157 Y114.792 E2.64037
G1 X157.313 Y115.484 E2.66396
G1 X157.352 Y115.727 E2.67215
G1 X157.374 Y115.875 E2.67712
G1 X157.425 Y116.258 E2.68997
G1 X157.468 Y116.741 E2.7061
G1 X157.49 Y117.227 E2.72228
G1 X157.538 Y118.869 E2.77692
G1 X157.691 Y121.546 E2.8661
G1 X157.917 Y124.161 E2.9534
G1 X158.23 Y126.896 E3.04496
G1 X158.408 Y128.271 E3.09108
G1 X158.453 Y128.908 E3.11232
G1 X158.461 Y129.464 E3.13081
G1 X158.461 Y129.623 E3.1361
G1 X158.455 Y130.055 E3.15047
G1 X158.438 Y130.42 E3.16262
G1 X158.433 Y130.483 E3.16472
G1 X158.407 Y130.738 E3.17325
G1 X158.379 Y130.961 E3.18072
G1 X158.355 Y131.135 E3.18657
G1 X158.3 Y131.484 E3.19832
G1 X158.156 Y132.137 E3.22056
G1 X157.906 Y132.84 E3.24537
G1 X157.762 Y133.172 E3.25741
G1 X157.7 Y133.309 E3.26241
G1 X157.577 Y133.573 E3.2721
G1 X157.259 Y134.161 E3.29433
G1 X156.887 Y134.689 E3.31581
G1 X156.675 Y134.953 E3.32708
G1 X156.371 Y135.312 E3.34272
G1 X155.909 Y135.796 E3.36498
G1 X155.526 Y136.12 E3.38166
G1 X155.424 Y136.199 E3.38595
G1 X155.188 Y136.372 E3.39569
G1 X154.74 Y136.683 E3.41382
G1 X154.169 Y137.031 E3.43607
G1 X153.588 Y137.298 E3.45733
G1 X153.188 Y137.454 E3.47161
G1 X152.87 Y137.573 E3.48291
G1 X152.23 Y137.769 E3.50517
G1 X151.672 Y137.876 E3.52406
G1 X151.389 Y137.915 E3.53357
G1 X151.216 Y137.936 E3.53936
G1 X150.868 Y137.973 E3.551
G1 X150.371 Y138.003 E3.56756
G1 X149.391 Y138.019 E3.60016
G1 X85.404 Y138.017 E5.72838
G1 X84.736 Y138.008 E5.7506
G1 X84.241 Y137.98 E5.76709
G1 X83.772 Y137.932 E5.78277
G1 X83.608 Y137.913 E5.78826
G1 X83.381 Y137.883 E5.79588
G1 X82.406 Y137.664 E5.82911
G1 X82.25 Y137.614 E5.83456
G1 X81.929 Y137.5 E5.84589
G1 X81.438 Y137.309 E5.86341
G1 X80.83 Y137.03 E5.88566
G1 X80.31 Y136.714 E5.9059
G1 X79.9 Y136.433 E5.92243
G1 X79.646 Y136.251 E5.93283
G1 X79.127 Y135.83 E5.95505
G1 X78.701 Y135.395 E5.9753
G1 X78.571 Y135.247 E5.98186
G1 X78.425 Y135.073 E5.98941
G1 X78.141 Y134.722 E6.00443
G1 X77.752 Y134.178 E6.02667
G1 X77.463 Y133.66 E6.0464
G1 X77.374 Y133.478 E6.05314
G1 X77.268 Y133.248 E6.06156
G1 X77.097 Y132.854 E6.07585
G1 X76.868 Y132.225 E6.09811
G1 X76.703 Y131.503 E6.12274
G1 X76.652 Y131.182 E6.13355
G1 X76.628 Y131.011 E6.1393
G1 X76.59 Y130.713 E6.14929
G1 X76.545 Y130.075 E6.17056
G1 X76.538 Y129.519 E6.18906
G1 X76.539 Y129.362 E6.19428
G1 X76.546 Y128.914 E6.20918
G1 X76.575 Y128.419 E6.22567
G1 X76.597 Y128.223 E6.23223
G1 X76.748 Y127.046 E6.2717
G1 X76.755 Y126.936 E6.27537
G1 X76.96 Y125.311 E6.32984
G1 X77.217 Y122.693 E6.41734
G1 X77.404 Y119.991 E6.50742
G1 X77.467 Y118.222 E6.56629
G1 X77.531 Y116.777 E6.6144
G1 X77.559 Y116.412 E6.62658
G1 X77.587 Y116.156 E6.63514
G1 X77.621 Y115.904 E6.6436
G1 X77.682 Y115.512 E6.6568
G1 X77.824 Y114.858 E6.67905
G1 X78.041 Y114.23 E6.70115
G1 X78.099 Y114.09 E6.70619
G1 X78.161 Y113.948 E6.71135
G1 X78.355 Y113.514 E6.72716
G1 X78.664 Y112.92 E6.74943
G1 X79.048 Y112.359 E6.77204
G1 X79.178 Y112.192 E6.77908
G1 X79.287 Y112.057 E6.78485
G1 X79.564 Y111.723 E6.79928
G1 X80.021 Y111.235 E6.82152
G1 X80.471 Y110.851 E6.84119
G1 X80.586 Y110.763 E6.84601
G1 X80.737 Y110.651 E6.85226
G0 F6000 X80.97 Y110.976
G1 F1200 X81.364 Y110.695 E6.86836
G1 X81.911 Y110.354 E6.8898
G1 X82.409 Y110.118 E6.90813
G1 X82.916 Y109.91 E6.92636
G1 X83.087 Y109.844 E6.93245
G1 X83.206 Y109.8 E6.93667
G1 X83.823 Y109.614 E6.95811
G1 X84.279 Y109.528 E6.97354
G1 X84.681 Y109.471 E6.98704
G1 X84.862 Y109.449 E6.99311
G1 X85.041 Y109.43 E6.99909
G1 X85.491 Y109.402 E7.01409
G1 X86.639 Y109.381 E7.05228
G1 X148.687 Y109.383 E9.116
G1 X149.313 Y109.392 E9.13683
G1 X149.767 Y109.418 E9.15195
G1 X150.344 Y109.477 E9.17124
G1 X150.502 Y109.496 E9.17654
G1 X150.667 Y109.518 E9.18207
G1 X151.3 Y109.642 E9.20353
G1 X151.839 Y109.816 E9.22237
G1 X152.172 Y109.944 E9.23423
G1 X152.526 Y110.086 E9.24692
G1 X153.108 Y110.362 E9.26834
G1 X153.573 Y110.653 E9.28659
G1 X153.9 Y110.882 E9.29986
G1 X154.018 Y110.967 E9.3047
G1 X154.193 Y111.097 E9.31195
G1 X154.686 Y111.513 E9.33341
G1 X155.078 Y111.931 E9.35247
G1 X155.512 Y112.449 E9.37494
G1 X155.894 Y112.968 E9.39638
G1 X156.216 Y113.543 E9.4183
G1 X156.295 Y113.708 E9.42438
G1 X156.383 Y113.903 E9.4315
G1 X156.562 Y114.32 E9.44659
G1 X156.779 Y114.927 E9.46803
G1 X156.918 Y115.547 E9.48916
G1 X156.978 Y115.928 E9.50199
G1 X157.029 Y116.311 E9.51484
G1 X157.069 Y116.759 E9.5298
G1 X157.09 Y117.238 E9.54575
G1 X157.139 Y118.904 E9.60118
G1 X157.289 Y121.532 E9.68873
G1 X157.523 Y124.243 E9.77924
G1 X157.831 Y126.927 E9.86909
G1 X158.011 Y128.323 E9.91591
G1 X158.053 Y128.914 E9.93561
G1 X158.061 Y129.47 E9.95411
G1 X158.061 Y129.617 E9.959
G1 X158.055 Y130.049 E9.97337
G1 X158.04 Y130.388 E9.98465
G1 X158.035 Y130.451 E9.98676
G1 X158.01 Y130.688 E9.99468
G1 X157.982 Y130.911 E10.00216
G1 X157.96 Y131.072 E10.00756
G1 X157.905 Y131.421 E10.01931
G1 X157.765 Y132.051 E10.04078
G1 X157.539 Y132.681 E10.06304
G1 X157.395 Y133.013 E10.07508
G1 X157.338 Y133.14 E10.07971
G1 X157.215 Y133.404 E10.08939
G1 X156.907 Y133.97 E10.11083
G1 X156.574 Y134.441 E10.13001
G1 X156.474 Y134.567 E10.13536
G1 X156.369 Y134.694 E10.14084
G1 X156.065 Y135.053 E10.15649
G1 X155.619 Y135.519 E10.17794
G1 X155.281 Y135.804 E10.19265
G1 X155.179 Y135.883 E10.19694
G1 X154.96 Y136.044 E10.20598
G1 X154.512 Y136.355 E10.22412
G1 X153.961 Y136.689 E10.24555
G1 X153.442 Y136.925 E10.26451
G1 X153.047 Y137.079 E10.27861
G1 X152.729 Y137.198 E10.2899
G1 X152.113 Y137.386 E10.31133
G1 X151.617 Y137.479 E10.32811
G1 X151.334 Y137.518 E10.33761
G1 X151.174 Y137.538 E10.34297
G1 X150.826 Y137.575 E10.35461
G1 X150.364 Y137.603 E10.37001
G1 X149.391 Y137.619 E10.40238
G1 X85.409 Y137.618 E12.53043
G1 X84.741 Y137.609 E12.55265
G1 X84.282 Y137.582 E12.56794
G1 X83.813 Y137.534 E12.58362
G1 X83.661 Y137.516 E12.58871
G1 X83.434 Y137.486 E12.59633
G1 X82.528 Y137.283 E12.62721
G1 X82.372 Y137.233 E12.63265
G1 X82.074 Y137.127 E12.64317
G1 X81.583 Y136.936 E12.6607
G1 X80.998 Y136.666 E12.68213
G1 X80.535 Y136.384 E12.70016
G1 X80.133 Y136.108 E12.71638
G1 X79.879 Y135.926 E12.72677
G1 X79.38 Y135.519 E12.74819
G1 X79.001 Y135.131 E12.76623
G1 X78.871 Y134.983 E12.77278
G1 X78.736 Y134.822 E12.77977
G1 X78.452 Y134.471 E12.79478
G1 X78.078 Y133.945 E12.81625
G1 X77.823 Y133.484 E12.83377
G1 X77.734 Y133.302 E12.84051
G1 X77.635 Y133.088 E12.84835
G1 X77.464 Y132.694 E12.86264
G1 X77.244 Y132.088 E12.88408
G1 X77.098 Y131.44 E12.90617
G1 X77.047 Y131.119 E12.91698
G1 X77.025 Y130.961 E12.92229
G1 X76.987 Y130.663 E12.93228
G1 X76.945 Y130.07 E12.95205
G1 X76.938 Y129.514 E12.97055
G1 X76.946 Y128.92 E12.99031
G1 X76.973 Y128.461 E13.0056
G1 X76.994 Y128.273 E13.01189
G1 X77.133 Y127.188 E13.04827
G1 X77.152 Y126.986 E13.05502
G1 X77.357 Y125.364 E13.1094
G1 X77.619 Y122.689 E13.1988
G1 X77.801 Y120.063 E13.28635
G1 X77.866 Y118.236 E13.34715
G1 X77.87 Y118.193 E13.34859
G1 X77.931 Y116.794 E13.39516
G1 X77.957 Y116.456 E13.40644
G1 X77.985 Y116.2 E13.415
G1 X78.016 Y115.965 E13.42289
G1 X78.077 Y115.573 E13.43608
G1 X78.215 Y114.944 E13.4575
G1 X78.411 Y114.383 E13.47727
G1 X78.469 Y114.243 E13.48231
G1 X78.526 Y114.111 E13.48709
G1 X78.72 Y113.677 E13.5029
G1 X79.019 Y113.106 E13.52434
G1 X79.364 Y112.605 E13.54457
G1 X79.594 Y112.312 E13.55696
G1 X79.871 Y111.978 E13.57139
G1 X80.313 Y111.509 E13.59282
G1 X80.714 Y111.168 E13.61033
G1 X80.829 Y111.08 E13.61515
G1 X80.97 Y110.976 E13.62098
G1 F2700 E8.62098
;MESH:Toothpaste_Squeezer_v2.stl
G0 F6000 X85.574 Y113.926
G0 X85.707 Y115
G0 X150.041 Y115.669
G0 X150.356 Y115.807
G0 X150.801 Y116.072
;TYPE:WALL-INNER
G1 F2700 E13.62098
G1 F1200 X150.708 Y115.892 E13.62771
G1 X150.63 Y115.809 E13.6315
G1 X150.621 Y115.798 E13.63198
G1 X150.592 Y115.759 E13.63359
G1 X150.547 Y115.726 E13.63545
G1 X150.5 Y115.666 E13.63798
G1 X150.342 Y115.597 E13.64372
G1 X150.29 Y115.564 E13.64577
G1 X150.28 Y115.562 E13.64611
G1 X150.065 Y115.509 E13.65347
G1 X149.868 Y115.5 E13.66003
G1 X149.838 Y115.5 E13.66103
G1 X149.28 Y115.5 E13.67959
G1 X85.715 Y115.5 E15.79377
G1 X85.17 Y115.5 E15.81189
G1 X85.065 Y115.501 E15.81539
G1 X84.905 Y115.515 E15.82073
G1 X84.725 Y115.564 E15.82693
G1 X84.631 Y115.61 E15.83041
G1 X84.557 Y115.646 E15.83315
G1 X84.409 Y115.763 E15.83943
G1 X84.374 Y115.803 E15.84119
G1 X84.355 Y115.817 E15.84198
G1 X84.307 Y115.854 E15.84399
G1 X84.237 Y115.997 E15.84929
G1 X84.197 Y116.057 E15.85169
G1 X84.172 Y116.157 E15.85512
G1 X84.168 Y116.172 E15.85563
G1 X84.163 Y116.185 E15.8561
G1 X84.143 Y116.232 E15.85779
G1 X84.13 Y116.412 E15.8638
G1 X84.127 Y116.484 E15.86619
G1 X84.127 Y116.539 E15.86802
G1 X84.127 Y116.961 E15.88206
G1 X84.127 Y118.043 E15.91805
G1 X84.127 Y118.46 E15.93192
G1 X84.127 Y118.568 E15.93551
G1 X84.128 Y118.591 E15.93627
G1 X84.147 Y118.753 E15.9417
G1 X84.17 Y118.832 E15.94444
G1 X84.199 Y118.928 E15.94777
G1 X84.292 Y119.108 E15.95451
G1 X84.37 Y119.191 E15.9583
G1 X84.379 Y119.202 E15.95877
G1 X84.408 Y119.241 E15.96039
G1 X84.453 Y119.274 E15.96224
G1 X84.5 Y119.334 E15.96478
G1 X84.658 Y119.403 E15.97051
G1 X84.71 Y119.436 E15.97256
G1 X84.72 Y119.438 E15.9729
G1 X84.934 Y119.491 E15.98023
G1 X85.133 Y119.5 E15.98686
G1 X85.162 Y119.5 E15.98782
G1 X85.721 Y119.5 E16.00642
G1 X149.285 Y119.5 E18.12056
G1 X149.83 Y119.5 E18.13869
G1 X149.935 Y119.499 E18.14218
G1 X150.095 Y119.485 E18.14752
G1 X150.275 Y119.436 E18.15373
G1 X150.369 Y119.39 E18.15721
G1 X150.443 Y119.354 E18.15995
G1 X150.591 Y119.237 E18.16622
G1 X150.626 Y119.196 E18.16801
G1 X150.645 Y119.182 E18.1688
G1 X150.694 Y119.145 E18.17084
G1 X150.762 Y119.004 E18.17605
G1 X150.801 Y118.95 E18.17826
G1 X150.828 Y118.843 E18.18193
G1 X150.833 Y118.824 E18.18259
G1 X150.837 Y118.814 E18.18295
G1 X150.857 Y118.767 E18.18464
G1 X150.87 Y118.588 E18.19061
G1 X150.873 Y118.516 E18.19301
G1 X150.873 Y118.461 E18.19484
G1 X150.873 Y118.039 E18.20888
G1 X150.873 Y116.957 E18.24486
G1 X150.873 Y116.54 E18.25873
G1 X150.873 Y116.432 E18.26232
G1 X150.872 Y116.409 E18.26309
G1 X150.853 Y116.247 E18.26851
G1 X150.83 Y116.168 E18.27125
G1 X150.801 Y116.072 E18.27459
G0 F6000 X150.429 Y116.223
;TYPE:WALL-OUTER
G1 F1200 X150.378 Y116.125 E18.27826
G1 X150.326 Y116.069 E18.2808
G1 X150.31 Y116.048 E18.28168
G1 X150.263 Y116.014 E18.28361
G1 X150.246 Y115.992 E18.28454
G1 X150.159 Y115.954 E18.28769
G1 X150.132 Y115.937 E18.28875
G1 X150.008 Y115.907 E18.293
G1 X149.859 Y115.9 E18.29796
G1 X85.082 Y115.901 E20.45245
G1 X84.976 Y115.91 E20.45599
G1 X84.867 Y115.94 E20.45975
G1 X84.771 Y115.987 E20.4633
G1 X84.687 Y116.053 E20.46686
G1 X84.65 Y116.096 E20.46874
G1 X84.625 Y116.115 E20.46979
G1 X84.585 Y116.197 E20.47282
G1 X84.568 Y116.222 E20.47383
G1 X84.549 Y116.3 E20.4765
G1 X84.537 Y116.328 E20.47751
G1 X84.529 Y116.434 E20.48105
G1 X84.527 Y116.491 E20.48294
G1 X84.528 Y118.568 E20.55203
G1 X84.54 Y118.673 E20.55554
G1 X84.571 Y118.777 E20.55915
G1 X84.622 Y118.875 E20.56282
G1 X84.674 Y118.931 E20.56537
G1 X84.69 Y118.952 E20.56624
G1 X84.737 Y118.986 E20.56817
G1 X84.754 Y119.008 E20.5691
G1 X84.841 Y119.046 E20.57226
G1 X84.868 Y119.063 E20.57332
G1 X84.991 Y119.093 E20.57753
G1 X85.142 Y119.1 E20.58256
G1 X149.918 Y119.099 E22.73701
G1 X150.024 Y119.09 E22.74055
G1 X150.133 Y119.06 E22.74431
G1 X150.229 Y119.013 E22.74787
G1 X150.313 Y118.947 E22.75142
G1 X150.35 Y118.904 E22.75331
G1 X150.375 Y118.885 E22.75435
G1 X150.416 Y118.8 E22.75749
G1 X150.432 Y118.778 E22.7584
G1 X150.452 Y118.698 E22.76114
G1 X150.463 Y118.672 E22.76208
G1 X150.471 Y118.566 E22.76561
G1 X150.473 Y118.509 E22.76751
G1 X150.472 Y116.432 E22.83659
G1 X150.46 Y116.327 E22.84011
G1 X150.429 Y116.223 E22.84372
G0 F6000 X150.836 Y116.058
G0 X151.025 Y116.109
;TYPE:WALL-INNER
G1 F1200 X151.048 Y116.162 E22.84447
G1 X151.11 Y116.305 E22.84799
G1 X151.165 Y116.431 E22.85146
G1 X151.214 Y116.54 E22.85467
G1 X151.271 Y116.953 E22.86753
G1 X151.284 Y117.041 E22.87049
G1 X151.283 Y117.961 E22.90109
G1 X151.271 Y118.043 E22.90384
G1 X151.214 Y118.461 E22.91685
G1 X151.139 Y118.632 E22.9221
G1 X151.112 Y118.694 E22.92301
G1 X151.043 Y118.849 E22.92628
G1 X151.023 Y118.892 E22.92654
G1 X150.981 Y118.943 E22.92725
G1 X150.907 Y119.035 E22.92894
G1 X150.865 Y119.087 E22.92896
G1 X150.769 Y119.205 E22.93038
G1 X150.714 Y119.273 E22.93092
G1 X150.693 Y119.288
G1 X150.65 Y119.319
G1 X150.497 Y119.428 E22.93239
G1 X150.417 Y119.486 E22.93295
G1 X150.349 Y119.536 E22.93353
G1 X150.31 Y119.565
G1 X150.151 Y119.627 E22.93538
G1 X150.007 Y119.683 E22.93809
G1 X149.831 Y119.752 E22.94215
G1 X149.285 Y119.819 E22.95528
G1 X85.721 Y119.818 E24.64289
G1 X85.162 Y119.75 E24.65625
G1 X85.052 Y119.707 E24.6588
G1 X84.877 Y119.638 E24.66172
G1 X84.69 Y119.564 E24.66393
G1 X84.643 Y119.531 E24.66507
G1 X84.593 Y119.495
G1 X84.456 Y119.396 E24.66638
G1 X84.397 Y119.353
G1 X84.352 Y119.32 E24.66683
G1 X84.303 Y119.285 E24.66751
G1 X84.287 Y119.273
G1 X84.28 Y119.264
G1 X84.209 Y119.176 E24.66856
G1 X84.084 Y119.022 E24.67096
G1 X84.055 Y118.987
G1 X83.975 Y118.891 E24.67308
G1 X83.952 Y118.838 E24.67384
G1 X83.89 Y118.695 E24.67735
G1 X83.835 Y118.569 E24.68083
G1 X83.786 Y118.46 E24.68404
G1 X83.729 Y118.047 E24.6969
G1 X83.716 Y117.959 E24.69986
G1 X83.717 Y117.039 E24.73045
G1 X83.729 Y116.957 E24.73321
G1 X83.786 Y116.539 E24.74622
G1 X83.862 Y116.367 E24.75151
G1 X83.889 Y116.306 E24.75237
G1 X83.958 Y116.151 E24.75561
G1 X83.977 Y116.108 E24.75587
G1 X84.021 Y116.054 E24.7567
G1 X84.089 Y115.97 E24.75824
G1 X84.134 Y115.914 E24.75901
G1 X84.232 Y115.794 E24.76043
G1 X84.286 Y115.727 E24.76093
G1 X84.308 Y115.712
G1 X84.35 Y115.681
G1 X84.503 Y115.572 E24.76241
G1 X84.583 Y115.514 E24.76297
G1 X84.651 Y115.464 E24.76354
G1 X84.69 Y115.435
G1 X84.849 Y115.373 E24.76539
G1 X84.993 Y115.317 E24.7681
G1 X85.169 Y115.248 E24.77216
G1 X85.715 Y115.181 E24.78528
G1 X149.279 Y115.182 E26.47289
G1 X149.838 Y115.25 E26.48643
G1 X149.949 Y115.293 E26.48903
G1 X150.122 Y115.362 E26.49192
G1 X150.31 Y115.436 E26.49414
G1 X150.357 Y115.469 E26.49528
G1 X150.407 Y115.505
G1 X150.544 Y115.604 E26.4966
G1 X150.603 Y115.647
G1 X150.648 Y115.68 E26.49704
G1 X150.697 Y115.715 E26.49772
