;FLAVOR:Marlin
;TIME:8744
;Filament used: 5.07982m
;Layer height: 0.2
;MINX:41.842
;MINY:60.816
;MINZ:0.2
;MAXX:190.416
;MAXY:152.01
;MAXZ:7
;Generated with Cura_SteamEngine 4.7.0
M140 S65
M105
M190 S65
M104 S225
M105
M109 S225
M82 ;absolute extrusion mode
; Ender 3 Custom Start G-code
G92 E0 ; Reset Extruder
G28 ; Home all axes
G1 Z2.0 F3000 ; Move Z Axis up little to prevent scratching of Heat Bed
G1 X0.1 Y20 Z0.3 F5000.0 ; Move to start position
G1 X0.1 Y200.0 Z0.3 F1500.0 E15 ; Draw the first line
G1 X0.4 Y200.0 Z0.3 F5000.0 ; Move to side a little
G1 X0.4 Y20 Z0.3 F1500.0 E30 ; Draw the second line
G92 E0 ; Reset Extruder
G1 Z2.0 F3000 ; Move Z Axis up little to prevent scratching of Heat Bed
G1 X5 Y20 Z0.3 F5000.0 ; Move over to prevent blob squish
G92 E0
G92 E0
G1 F2700 E-5
;LAYER_COUNT:35
;LAYER:0
M107
G0 F6000 X52.53 Y65.352 Z0.2
;TYPE:SKIRT
G1 F2700 E0
G1 F1200 X53.532 Y64.707 E0.03963
G1 X54.361 Y64.237 E0.07133
G1 X54.536 Y64.14 E0.07799
G1 X55.399 Y63.672 E0.11064
G1 X56.165 Y63.269 E0.13943
G1 X56.998 Y62.877 E0.17005
G1 X58.122 Y62.478 E0.20972
G1 X58.869 Y62.26 E0.2356
G1 X60.491 Y61.811 E0.29157
G1 X61.348 Y61.586 E0.32104
G1 X62.248 Y61.392 E0.35167
G1 X62.859 Y61.307 E0.37218
G1 X63.247 Y61.264 E0.38517
G1 X63.509 Y61.238 E0.39392
G1 X65.79 Y61.043 E0.47007
G1 X66.5 Y60.992 E0.49374
G1 X67.42 Y60.966 E0.52435
G1 X68.002 Y60.991 E0.54373
G1 X68.924 Y61.057 E0.57447
G1 X70.663 Y61.207 E0.63253
G1 X71.578 Y61.298 E0.66311
G1 X72.489 Y61.43 E0.69373
G1 X73.066 Y61.556 E0.71337
G1 X73.381 Y61.634 E0.72416
G1 X73.651 Y61.705 E0.73345
G1 X75.648 Y62.256 E0.80235
G1 X76.392 Y62.472 E0.82812
G1 X77.265 Y62.767 E0.85877
G1 X77.815 Y62.998 E0.87861
G1 X78.653 Y63.378 E0.90921
G1 X79.484 Y63.768 E0.93975
G1 X81.778 Y64.769 E1.02299
G1 X84.089 Y65.702 E1.10588
G1 X86.522 Y66.604 E1.19219
G1 X88.877 Y67.402 E1.27489
G1 X91.326 Y68.155 E1.36011
G1 X93.756 Y68.828 E1.44397
G1 X96.235 Y69.439 E1.52889
G1 X98.616 Y69.957 E1.60994
G1 X101.155 Y70.433 E1.69585
G1 X103.665 Y70.83 E1.78038
G1 X106.199 Y71.157 E1.86536
G1 X108.663 Y71.406 E1.94773
G1 X111.217 Y71.59 E2.03289
G1 X113.737 Y71.7 E2.11679
G1 X116.283 Y71.74 E2.20148
G1 X118.793 Y71.708 E2.28497
G1 X121.328 Y71.604 E2.36935
G1 X123.828 Y71.429 E2.45271
G1 X126.358 Y71.182 E2.53726
G1 X128.893 Y70.861 E2.62224
G1 X131.366 Y70.477 E2.70548
G1 X133.85 Y70.018 E2.7895
G1 X136.332 Y69.487 E2.87392
G1 X138.759 Y68.896 E2.957
G1 X141.222 Y68.221 E3.04194
G1 X143.635 Y67.487 E3.12583
G1 X146.043 Y66.678 E3.21032
G1 X148.403 Y65.811 E3.29394
G1 X150.757 Y64.869 E3.37827
G1 X153.058 Y63.872 E3.46168
G1 X154.394 Y63.246 E3.51075
G1 X155.24 Y62.86 E3.54168
G1 X156.093 Y62.515 E3.57228
G1 X156.679 Y62.326 E3.59276
G1 X157.554 Y62.072 E3.62306
G1 X159.189 Y61.621 E3.67948
G1 X159.897 Y61.436 E3.70381
G1 X160.797 Y61.242 E3.73444
G1 X161.409 Y61.157 E3.75499
G1 X161.797 Y61.114 E3.76797
G1 X162.059 Y61.088 E3.77673
G1 X164.34 Y60.893 E3.85287
G1 X165.05 Y60.842 E3.87655
G1 X165.97 Y60.816 E3.90716
G1 X166.552 Y60.841 E3.92653
G1 X167.474 Y60.907 E3.95728
G1 X169.213 Y61.057 E4.01533
G1 X170.128 Y61.148 E4.04591
G1 X171.039 Y61.28 E4.07653
G1 X171.616 Y61.406 E4.09617
G1 X171.931 Y61.484 E4.10697
G1 X172.202 Y61.555 E4.11628
G1 X174.219 Y62.112 E4.18588
G1 X174.944 Y62.323 E4.211
G1 X175.816 Y62.619 E4.24162
G1 X176.901 Y63.111 E4.28125
G1 X177.683 Y63.522 E4.31063
G1 X178.751 Y64.101 E4.35104
G1 X179.474 Y64.506 E4.3786
G1 X180.256 Y64.991 E4.40921
G1 X180.993 Y65.543 E4.43983
G1 X181.874 Y66.349 E4.47955
G1 X182.53 Y67.022 E4.5108
G1 X183.036 Y67.559 E4.53535
G1 X183.621 Y68.198 E4.56416
G1 X184.212 Y68.904 E4.59478
G1 X184.739 Y69.659 E4.62541
G1 X185.198 Y70.456 E4.656
G1 X185.587 Y71.291 E4.68664
G1 X185.868 Y72.051 E4.71359
G1 X185.954 Y72.314 E4.72279
G1 X186.061 Y72.658 E4.73477
G1 X186.435 Y73.934 E4.779
G1 X186.489 Y74.091 E4.78452
G1 X186.982 Y75.757 E4.8423
G1 X187.77 Y78.164 E4.92654
G1 X188.601 Y80.486 E5.00857
G1 X188.983 Y81.506 E5.0448
G1 X189.101 Y81.84 E5.05658
G1 X189.254 Y82.295 E5.07254
G1 X189.429 Y82.87 E5.09253
G1 X189.615 Y83.548 E5.11592
G1 X189.697 Y83.863 E5.12674
G1 X189.811 Y84.335 E5.14289
G1 X189.938 Y84.939 E5.16342
G1 X190.077 Y85.708 E5.18941
G1 X190.132 Y86.041 E5.20064
G1 X190.198 Y86.487 E5.21564
G1 X190.272 Y87.114 E5.23663
G1 X190.334 Y87.822 E5.26027
G1 X190.356 Y88.129 E5.27051
G1 X190.388 Y88.677 E5.28877
G1 X190.402 Y89.004 E5.29965
G1 X190.412 Y89.368 E5.31176
G1 X190.416 Y89.665 E5.32164
G1 X190.407 Y104.056 E5.80029
G1 X190.398 Y104.697 E5.82161
G1 X190.389 Y105.019 E5.83233
G1 X190.381 Y105.199 E5.83832
G1 X190.367 Y105.443 E5.84645
G1 X190.309 Y106.293 E5.87478
G1 X190.213 Y107.506 E5.91526
G1 X190.085 Y109.997 E5.99822
G1 X190.022 Y113.407 E6.11165
G1 X190.022 Y127.555 E6.58222
G1 X190.015 Y128.309 E6.6073
G1 X190.01 Y128.543 E6.61508
G1 X189.995 Y129.022 E6.63102
G1 X189.956 Y129.653 E6.65205
G1 X189.885 Y130.431 E6.67803
G1 X189.848 Y130.774 E6.68951
G1 X189.792 Y131.225 E6.70462
G1 X189.701 Y131.822 E6.72471
G1 X189.57 Y132.54 E6.74898
G1 X189.508 Y132.853 E6.75959
G1 X189.412 Y133.302 E6.77487
G1 X189.258 Y133.927 E6.79628
G1 X189.051 Y134.671 E6.82196
G1 X188.963 Y134.97 E6.83233
G1 X188.834 Y135.386 E6.84681
G1 X188.628 Y135.986 E6.86791
G1 X188.349 Y136.726 E6.89422
G1 X188.227 Y137.035 E6.90527
G1 X188.06 Y137.439 E6.91981
G1 X187.808 Y138.002 E6.94032
G1 X187.49 Y138.66 E6.96463
G1 X187.352 Y138.935 E6.97486
G1 X187.126 Y139.37 E6.99117
G1 X186.809 Y139.937 E7.01277
G1 X186.437 Y140.557 E7.03682
G1 X186.264 Y140.836 E7.04774
G1 X186.01 Y141.231 E7.06336
G1 X185.662 Y141.739 E7.08384
G1 X185.225 Y142.339 E7.10853
G1 X185.021 Y142.61 E7.11981
G1 X184.729 Y142.985 E7.13562
G1 X184.339 Y143.457 E7.15598
G1 X183.852 Y144.013 E7.18056
G1 X183.64 Y144.248 E7.19109
G1 X183.321 Y144.591 E7.20667
G1 X182.869 Y145.048 E7.22805
G1 X182.324 Y145.567 E7.25308
G1 X182.09 Y145.783 E7.26367
G1 X181.742 Y146.095 E7.27922
G1 X181.27 Y146.494 E7.29977
G1 X180.695 Y146.952 E7.32422
G1 X180.421 Y147.163 E7.33573
G1 X180.057 Y147.434 E7.35082
G1 X179.556 Y147.786 E7.37118
G1 X178.915 Y148.208 E7.39671
G1 X178.63 Y148.389 E7.40794
G1 X178.247 Y148.624 E7.42288
G1 X177.72 Y148.926 E7.44309
G1 X177.05 Y149.286 E7.46838
G1 X176.745 Y149.444 E7.47981
G1 X176.346 Y149.642 E7.49462
G1 X175.795 Y149.896 E7.5148
G1 X175.085 Y150.199 E7.54048
G1 X174.789 Y150.32 E7.55111
G1 X174.383 Y150.479 E7.56562
G1 X173.771 Y150.697 E7.58722
G1 X173.033 Y150.935 E7.61302
G1 X172.704 Y151.036 E7.62446
G1 X172.258 Y151.164 E7.6399
G1 X171.698 Y151.308 E7.65913
G1 X171.003 Y151.467 E7.68284
G1 X170.641 Y151.543 E7.69514
G1 X170.173 Y151.633 E7.71099
G1 X169.569 Y151.731 E7.73135
G1 X168.795 Y151.834 E7.75732
G1 X168.476 Y151.872 E7.768
G1 X168.046 Y151.916 E7.78238
G1 X167.444 Y151.96 E7.80245
G1 X166.69 Y151.994 E7.82756
G1 X166.352 Y152.004 E7.8388
G1 X165.895 Y152.01 E7.854
G1 X165.266 Y152 E7.87493
G1 X164.661 Y151.972 E7.89507
G1 X164.298 Y151.949 E7.90717
G1 X163.542 Y151.888 E7.9324
G1 X162.941 Y151.822 E7.95251
G1 X162.414 Y151.749 E7.9702
G1 X162.125 Y151.705 E7.97992
G1 X161.609 Y151.619 E7.99732
G1 X160.964 Y151.491 E8.01919
G1 X160.233 Y151.322 E8.04415
G1 X159.941 Y151.25 E8.05415
G1 X159.543 Y151.146 E8.06783
G1 X158.949 Y150.972 E8.08842
G1 X158.173 Y150.72 E8.11556
G1 X157.866 Y150.615 E8.12635
G1 X157.437 Y150.461 E8.14151
G1 X156.829 Y150.221 E8.16325
G1 X156.062 Y149.891 E8.19102
G1 X155.82 Y149.783 E8.19983
G1 X154.926 Y149.372 E8.23256
G1 X154.362 Y149.106 E8.2533
G1 X152.013 Y148.04 E8.3391
G1 X149.621 Y147.034 E8.42541
G1 X149.457 Y146.967 E8.4313
G1 X147.104 Y146.054 E8.51524
G1 X144.659 Y145.186 E8.60154
G1 X142.275 Y144.414 E8.68488
G1 X139.853 Y143.704 E8.76883
G1 X137.401 Y143.061 E8.85314
G1 X134.945 Y142.491 E8.937
G1 X132.502 Y141.994 E9.01992
G1 X129.944 Y141.55 E9.10627
G1 X127.485 Y141.195 E9.1889
G1 X124.942 Y140.901 E9.27405
G1 X122.451 Y140.684 E9.35721
G1 X119.897 Y140.534 E9.44231
G1 X117.387 Y140.458 E9.52583
G1 X114.846 Y140.452 E9.61034
G1 X112.329 Y140.519 E9.69409
G1 X109.824 Y140.656 E9.77753
G1 X107.274 Y140.867 E9.86263
G1 X104.76 Y141.147 E9.94676
G1 X102.26 Y141.498 E10.03073
G1 X99.786 Y141.917 E10.11419
G1 X97.314 Y142.407 E10.19801
G1 X94.829 Y142.974 E10.28278
G1 X92.377 Y143.606 E10.367
G1 X89.966 Y144.302 E10.45047
G1 X87.526 Y145.082 E10.53567
G1 X85.159 Y145.912 E10.61909
G1 X82.77 Y146.826 E10.70417
G1 X80.437 Y147.797 E10.78822
G1 X78.376 Y148.719 E10.86331
G1 X76.244 Y149.705 E10.94144
G1 X75.454 Y150.058 E10.97022
G1 X75.164 Y150.183 E10.98072
G1 X74.962 Y150.266 E10.98798
G1 X74.553 Y150.424 E11.00257
G1 X74.242 Y150.537 E11.01357
G1 X73.889 Y150.658 E11.02598
G1 X73.034 Y150.935 E11.05588
G1 X72.707 Y151.035 E11.06725
G1 X72.281 Y151.158 E11.082
G1 X71.703 Y151.307 E11.10185
G1 X70.99 Y151.47 E11.12618
G1 X70.623 Y151.548 E11.13866
G1 X70.169 Y151.635 E11.15403
G1 X69.568 Y151.732 E11.17428
G1 X68.852 Y151.827 E11.1983
G1 X68.529 Y151.865 E11.20912
G1 X67.968 Y151.922 E11.22787
G1 X67.361 Y151.966 E11.24812
G1 X66.699 Y151.995 E11.27016
G1 X66.372 Y152.004 E11.28104
G1 X65.909 Y152.01 E11.29644
G1 X65.273 Y151.999 E11.31759
G1 X64.637 Y151.969 E11.33877
G1 X64.291 Y151.947 E11.3503
G1 X63.553 Y151.888 E11.37493
G1 X62.944 Y151.822 E11.3953
G1 X62.417 Y151.749 E11.41299
G1 X62.128 Y151.705 E11.42272
G1 X61.612 Y151.619 E11.44012
G1 X60.973 Y151.492 E11.46179
G1 X60.262 Y151.328 E11.48605
G1 X59.953 Y151.252 E11.49664
G1 X59.511 Y151.136 E11.51184
G1 X58.918 Y150.961 E11.5324
G1 X58.16 Y150.714 E11.55892
G1 X57.846 Y150.607 E11.56995
G1 X57.422 Y150.454 E11.58494
G1 X56.839 Y150.224 E11.60579
G1 X56.175 Y149.939 E11.62982
G1 X55.867 Y149.801 E11.64105
G1 X55.437 Y149.6 E11.65683
G1 X54.893 Y149.326 E11.67709
G1 X54.222 Y148.964 E11.70245
G1 X53.926 Y148.798 E11.71374
G1 X53.546 Y148.577 E11.72836
G1 X53.024 Y148.253 E11.74879
G1 X52.379 Y147.826 E11.77452
G1 X52.097 Y147.633 E11.78589
G1 X51.722 Y147.367 E11.80118
G1 X51.235 Y147 E11.82146
G1 X50.671 Y146.549 E11.84548
G1 X50.425 Y146.346 E11.85609
G1 X50.058 Y146.034 E11.87211
G1 X49.58 Y145.602 E11.89354
G1 X49.044 Y145.087 E11.91826
G1 X48.825 Y144.87 E11.92852
G1 X48.498 Y144.537 E11.94404
G1 X48.066 Y144.07 E11.9652
G1 X47.582 Y143.514 E11.98971
G1 X47.368 Y143.26 E12.00076
G1 X47.06 Y142.883 E12.01695
G1 X46.683 Y142.393 E12.03752
G1 X46.274 Y141.828 E12.06072
G1 X46.095 Y141.574 E12.07105
G1 X45.81 Y141.155 E12.0879
G1 X45.46 Y140.604 E12.10962
G1 X45.089 Y139.979 E12.13379
G1 X44.945 Y139.728 E12.14341
G1 X44.726 Y139.335 E12.15838
G1 X44.424 Y138.751 E12.18025
G1 X44.088 Y138.049 E12.20613
G1 X43.956 Y137.763 E12.21661
G1 X43.767 Y137.336 E12.23214
G1 X43.531 Y136.757 E12.25293
G1 X43.278 Y136.08 E12.27697
G1 X43.166 Y135.767 E12.28803
G1 X43.01 Y135.306 E12.30422
G1 X42.829 Y134.712 E12.32487
G1 X42.643 Y134.034 E12.34825
G1 X42.561 Y133.719 E12.35908
G1 X42.447 Y133.247 E12.37523
G1 X42.32 Y132.643 E12.39576
G1 X42.181 Y131.874 E12.42175
G1 X42.125 Y131.534 E12.43321
G1 X42.059 Y131.086 E12.44827
G1 X41.987 Y130.468 E12.46897
G1 X41.925 Y129.762 E12.49254
G1 X41.902 Y129.448 E12.50301
G1 X41.87 Y128.896 E12.5214
G1 X41.856 Y128.577 E12.53202
G1 X41.846 Y128.217 E12.544
G1 X41.842 Y127.917 E12.55398
G1 X41.851 Y113.52 E13.03282
G1 X41.86 Y112.879 E13.05415
G1 X41.87 Y112.553 E13.06499
G1 X41.877 Y112.397 E13.07019
G1 X41.891 Y112.151 E13.07838
G1 X41.96 Y111.151 E13.11172
G1 X42.038 Y110.188 E13.14386
G1 X42.168 Y107.705 E13.22655
G1 X42.236 Y104.152 E13.34475
G1 X42.236 Y90.006 E13.81525
G1 X42.243 Y89.27 E13.83973
G1 X42.248 Y89.039 E13.84741
G1 X42.263 Y88.56 E13.86335
G1 X42.302 Y87.929 E13.88438
G1 X42.373 Y87.151 E13.91036
G1 X42.41 Y86.808 E13.92184
G1 X42.466 Y86.357 E13.93695
G1 X42.557 Y85.76 E13.95704
G1 X42.688 Y85.042 E13.98131
G1 X42.749 Y84.735 E13.99172
G1 X42.846 Y84.28 E14.0072
G1 X43.003 Y83.64 E14.02911
G1 X43.209 Y82.902 E14.0546
G1 X43.295 Y82.612 E14.06466
G1 X43.424 Y82.196 E14.07915
G1 X43.632 Y81.59 E14.10046
G1 X43.918 Y80.833 E14.12737
G1 X44.036 Y80.534 E14.13806
G1 X44.714 Y78.894 E14.19709
G1 X44.882 Y78.501 E14.2113
G1 X45.797 Y76.189 E14.294
G1 X46.948 Y72.984 E14.40727
G1 X47.248 Y72.098 E14.43838
G1 X47.581 Y71.24 E14.46899
G1 X47.987 Y70.413 E14.49963
G1 X48.463 Y69.625 E14.53025
G1 X49.006 Y68.882 E14.56086
G1 X49.311 Y68.518 E14.57665
G1 X49.507 Y68.294 E14.58655
G1 X49.749 Y68.027 E14.59854
G1 X50.667 Y67.048 E14.64318
G1 X51.141 Y66.558 E14.66585
G1 X51.81 Y65.925 E14.69648
G1 X52.53 Y65.352 E14.72709
G0 F6000 X52.793 Y65.655
G1 F1200 X53.729 Y65.055 E14.76407
G1 X54.558 Y64.585 E14.79576
G1 X55.59 Y64.024 E14.83483
G1 X55.711 Y63.959 E14.8394
G1 X56.351 Y63.623 E14.86344
G1 X57.168 Y63.239 E14.89347
G1 X58.234 Y62.862 E14.93107
G1 X58.981 Y62.644 E14.95696
G1 X60.737 Y62.159 E15.01755
G1 X61.449 Y61.973 E15.04202
G1 X62.332 Y61.784 E15.07206
G1 X62.903 Y61.704 E15.09124
G1 X63.291 Y61.661 E15.10422
G1 X63.544 Y61.636 E15.11267
G1 X65.818 Y61.442 E15.18858
G1 X66.528 Y61.391 E15.21226
G1 X67.431 Y61.366 E15.2423
G1 X67.974 Y61.39 E15.26038
G1 X68.728 Y61.443 E15.28552
G1 X70.629 Y61.606 E15.34898
G1 X70.772 Y61.619 E15.35376
G1 X71.538 Y61.696 E15.37936
G1 X72.432 Y61.826 E15.40941
G1 X72.97 Y61.944 E15.42773
G1 X73.285 Y62.022 E15.43852
G1 X73.545 Y62.09 E15.44746
G1 X75.537 Y62.64 E15.51619
G1 X76.281 Y62.856 E15.54196
G1 X77.136 Y63.146 E15.57199
G1 X77.649 Y63.362 E15.5905
G1 X78.487 Y63.742 E15.62111
G1 X79.303 Y64.125 E15.65109
G1 X81.648 Y65.148 E15.73618
G1 X83.936 Y66.072 E15.81825
G1 X86.36 Y66.971 E15.90424
G1 X88.81 Y67.801 E15.99028
G1 X91.198 Y68.535 E16.07337
G1 X93.668 Y69.219 E16.15861
G1 X96.126 Y69.825 E16.24282
G1 X98.522 Y70.346 E16.32437
G1 X101.091 Y70.828 E16.41131
G1 X103.623 Y71.228 E16.49656
G1 X106.144 Y71.554 E16.58111
G1 X108.631 Y71.805 E16.66425
G1 X111.207 Y71.99 E16.75015
G1 X113.712 Y72.1 E16.83355
G1 X116.282 Y72.14 E16.91903
G1 X118.815 Y72.108 E17.00329
G1 X121.334 Y72.004 E17.08714
G1 X123.861 Y71.828 E17.17139
G1 X126.41 Y71.579 E17.25658
G1 X128.932 Y71.259 E17.34113
G1 X131.428 Y70.871 E17.42515
G1 X133.941 Y70.408 E17.51014
G1 X136.405 Y69.88 E17.59395
G1 X138.887 Y69.276 E17.67891
G1 X141.307 Y68.613 E17.76237
G1 X143.764 Y67.865 E17.84779
G1 X146.171 Y67.057 E17.93224
G1 X148.553 Y66.181 E18.01665
G1 X150.916 Y65.236 E18.1013
G1 X153.249 Y64.224 E18.18588
G1 X154.56 Y63.61 E18.23403
G1 X155.406 Y63.224 E18.26496
G1 X156.243 Y62.886 E18.29498
G1 X156.791 Y62.71 E18.31412
G1 X157.661 Y62.458 E18.34425
G1 X159.29 Y62.008 E18.40046
G1 X159.998 Y61.823 E18.4248
G1 X160.881 Y61.634 E18.45483
G1 X161.453 Y61.554 E18.47404
G1 X161.841 Y61.511 E18.48702
G1 X162.094 Y61.486 E18.49548
G1 X164.368 Y61.292 E18.57139
G1 X165.078 Y61.241 E18.59506
G1 X165.981 Y61.216 E18.62511
G1 X166.524 Y61.24 E18.64319
G1 X167.278 Y61.293 E18.66833
G1 X169.179 Y61.456 E18.73179
G1 X169.322 Y61.469 E18.73656
G1 X170.088 Y61.546 E18.76217
G1 X170.982 Y61.676 E18.79222
G1 X171.52 Y61.794 E18.81054
G1 X171.835 Y61.872 E18.82133
G1 X172.096 Y61.94 E18.8303
G1 X173.97 Y62.457 E18.89496
G1 X174.832 Y62.707 E18.92481
G1 X175.687 Y62.998 E18.95485
G1 X176.715 Y63.466 E18.99242
G1 X177.492 Y63.874 E19.02161
G1 X178.56 Y64.453 E19.06201
G1 X179.278 Y64.855 E19.08938
G1 X180.045 Y65.331 E19.1194
G1 X180.767 Y65.874 E19.14945
G1 X181.587 Y66.628 E19.1865
G1 X182.243 Y67.301 E19.21776
G1 X182.374 Y67.438 E19.22407
G1 X182.843 Y67.938 E19.24687
G1 X183.326 Y68.467 E19.27069
G1 X183.904 Y69.161 E19.30073
G1 X184.42 Y69.902 E19.33076
G1 X184.867 Y70.687 E19.36081
G1 X185.244 Y71.508 E19.39086
G1 X185.488 Y72.175 E19.41448
G1 X185.574 Y72.438 E19.42368
G1 X185.678 Y72.773 E19.43535
G1 X186.033 Y73.983 E19.47729
G1 X186.105 Y74.205 E19.48505
G1 X186.6 Y75.88 E19.54315
G1 X187.384 Y78.274 E19.62693
G1 X188.23 Y80.635 E19.71035
G1 X188.608 Y81.646 E19.74625
G1 X188.722 Y81.968 E19.75761
G1 X188.875 Y82.423 E19.77357
G1 X189.044 Y82.975 E19.79278
G1 X189.23 Y83.653 E19.81616
G1 X189.308 Y83.957 E19.8266
G1 X189.422 Y84.429 E19.84275
G1 X189.544 Y85.01 E19.86249
