;FLAVOR:Marlin
;TIME:3594
;Filament used: 2.27905m
;Layer height: 0.2
;MINX:63.514
;MINY:102.637
;MINZ:0.2
;MAXX:168.598
;MAXY:129.9
;MAXZ:19
;Generated with Cura_SteamEngine 4.7.0
M140 S55
M105
M190 S55
M104 S210
M105
M109 S210
M82 ;absolute extrusion mode
; Ender 3 Custom Start G-code
G92 E0 ; Reset Extruder
G28 ; Home all axes
G1 Z2.0 F3000 ; Move Z Axis up little to prevent scratching of Heat Bed
G1 X0.1 Y20 Z0.3 F5000.0 ; Move to start position
G1 X0.1 Y200.0 Z0.3 F1500.0 E15 ; Draw the first line
G1 X0.4 Y200.0 Z0.3 F5000.0 ; Move to side a little
G1 X0.4 Y20 Z0.3 F1500.0 E30 ; Draw the second line
G92 E0 ; Reset Extruder
G1 Z2.0 F3000 ; Move Z Axis up little to prevent scratching of Heat Bed
G1 X5 Y20 Z0.3 F5000.0 ; Move over to prevent blob squish
G92 E0
G92 E0
G1 F2700 E-5
;LAYER_COUNT:95
;LAYER:0
M107
G0 F6000 X69.218 Y104.545 Z0.2
;TYPE:SKIRT
G1 F2700 E0
G1 F1200 X70.168 Y104.001 E0.03641
G1 X70.872 Y103.644 E0.06266
G1 X71.922 Y103.264 E0.0998
G1 X72.99 Y102.962 E0.13672
G1 X73.647 Y102.807 E0.15917
G1 X73.715 Y102.794 E0.16147
G1 X74.497 Y102.685 E0.18773
G1 X75.036 Y102.656 E0.20569
G1 X76.066 Y102.637 E0.23995
G1 X77.177 Y102.696 E0.27696
G1 X77.209 Y102.7 E0.27803
G1 X77.962 Y102.832 E0.30345
G1 X79.059 Y103.08 E0.34086
G1 X79.819 Y103.293 E0.36711
G1 X80.554 Y103.582 E0.39338
G1 X80.923 Y103.76 E0.40701
G1 X81.905 Y104.268 E0.44378
G1 X82.587 Y104.666 E0.47004
G1 X83.483 Y105.349 E0.50752
G1 X84.32 Y106.088 E0.54465
G1 X84.349 Y106.116 E0.54599
G1 X99.659 Y106.116 E1.05521
G1 X100.448 Y106.156 E1.08148
G1 X101.228 Y106.275 E1.10773
G1 X101.403 Y106.32 E1.11374
G1 X135.381 Y109.294 E2.24817
G1 X136.163 Y109.402 E2.27443
G1 X136.93 Y109.589 E2.30068
G1 X137.675 Y109.853 E2.32697
G1 X138.389 Y110.191 E2.35325
G1 X139.065 Y110.599 E2.37951
G1 X139.249 Y110.737 E2.38716
G1 X139.817 Y110.468 E2.40806
G1 X140.561 Y110.204 E2.43432
G1 X141.328 Y110.016 E2.46058
G1 X142.11 Y109.907 E2.48684
G1 X142.899 Y109.878 E2.5131
G1 X143.475 Y109.907 E2.53229
G1 X161.374 Y111.475 E3.12989
G1 X162.156 Y111.583 E3.15615
G1 X162.923 Y111.771 E3.18241
G1 X163.667 Y112.034 E3.20866
G1 X164.381 Y112.372 E3.23493
G1 X165.057 Y112.78 E3.26119
G1 X165.689 Y113.255 E3.28749
G1 X166.269 Y113.79 E3.31373
G1 X166.681 Y114.247 E3.3342
G1 X166.787 Y114.374 E3.3397
G1 X167.262 Y115.005 E3.36597
G1 X167.67 Y115.681 E3.39223
G1 X168.008 Y116.395 E3.41851
G1 X168.272 Y117.139 E3.44476
G1 X168.46 Y117.906 E3.47103
G1 X168.569 Y118.688 E3.49729
G1 X168.598 Y119.477 E3.52355
G1 X168.569 Y120.054 E3.54276
G1 X168.406 Y121.912 E3.6048
G1 X168.297 Y122.694 E3.63106
G1 X168.11 Y123.461 E3.65732
G1 X167.846 Y124.205 E3.68357
G1 X167.508 Y124.919 E3.70985
G1 X167.1 Y125.595 E3.73611
G1 X166.626 Y126.226 E3.76236
G1 X166.09 Y126.806 E3.78863
G1 X165.634 Y127.218 E3.80907
G1 X165.507 Y127.324 E3.81457
G1 X164.876 Y127.799 E3.84084
G1 X164.2 Y128.207 E3.8671
G1 X163.486 Y128.545 E3.89337
G1 X162.742 Y128.809 E3.91963
G1 X161.975 Y128.997 E3.9459
G1 X161.193 Y129.106 E3.97216
G1 X160.404 Y129.135 E3.99842
G1 X159.83 Y129.106 E4.01753
G1 X141.933 Y127.542 E4.61506
G1 X141.151 Y127.434 E4.64131
G1 X140.682 Y127.32 E4.65737
G1 X140.478 Y127.551 E4.66762
G1 X139.898 Y128.087 E4.69388
G1 X139.268 Y128.562 E4.72013
G1 X138.592 Y128.971 E4.74641
G1 X137.878 Y129.309 E4.77268
G1 X137.134 Y129.574 E4.79895
G1 X136.367 Y129.761 E4.82521
G1 X135.585 Y129.871 E4.85147
G1 X134.796 Y129.9 E4.87773
G1 X134.216 Y129.871 E4.89705
G1 X98.297 Y126.716 E6.09632
G1 X79.235 Y126.716 E6.73032
G1 X78.991 Y126.783 E6.73874
G1 X78.305 Y126.946 E6.76219
G1 X77.529 Y127.089 E6.78843
G1 X77.125 Y127.132 E6.80195
G1 X76.414 Y127.189 E6.82567
G1 X75.625 Y127.212 E6.85192
G1 X74.83 Y127.155 E6.87843
G1 X73.719 Y127.017 E6.91567
G1 X72.941 Y126.88 E6.94194
G1 X72.265 Y126.693 E6.96527
G1 X72.222 Y126.679 E6.96678
G1 X71.794 Y126.525 E6.98191
G1 X70.808 Y126.139 E7.01712
G1 X70.088 Y125.815 E7.04338
G1 X69.092 Y125.205 E7.08223
G1 X68.173 Y124.543 E7.1199
G1 X67.397 Y123.904 E7.15334
G1 X67.365 Y123.874 E7.15479
G1 X66.726 Y123.199 E7.18571
G1 X66.057 Y122.402 E7.22032
G1 X65.482 Y121.624 E7.25249
G1 X65.46 Y121.59 E7.25384
G1 X64.992 Y120.76 E7.28553
G1 X64.506 Y119.759 E7.32254
G1 X64.198 Y119.032 E7.3488
G1 X63.964 Y118.277 E7.37509
G1 X63.876 Y117.887 E7.38839
G1 X63.657 Y116.796 E7.4254
G1 X63.541 Y116.015 E7.45166
G1 X63.514 Y114.874 E7.48962
G1 X63.57 Y113.747 E7.52715
G1 X63.649 Y112.961 E7.55343
G1 X63.907 Y111.832 E7.59195
G1 X64.24 Y110.754 E7.62947
G1 X64.511 Y110.012 E7.65575
G1 X65.043 Y108.98 E7.69436
G1 X65.624 Y108.032 E7.73134
G1 X66.07 Y107.381 E7.75759
G1 X66.809 Y106.542 E7.79478
G1 X67.579 Y105.786 E7.83067
G1 X68.324 Y105.142 E7.86342
G1 X68.374 Y105.104 E7.86551
G1 X69.218 Y104.545 E7.89918
G0 F6000 X69.417 Y104.892
G1 F1200 X70.367 Y104.348 E7.93559
G1 X71.053 Y104.001 E7.96116
G1 X72.03 Y103.649 E7.9957
G1 X73.098 Y103.347 E8.03262
G1 X73.722 Y103.2 E8.05394
G1 X73.79 Y103.187 E8.05624
G1 X74.552 Y103.082 E8.08182
G1 X75.044 Y103.056 E8.09821
G1 X76.074 Y103.037 E8.13248
G1 X77.128 Y103.093 E8.16758
G1 X77.16 Y103.097 E8.16865
G1 X77.874 Y103.222 E8.19276
G1 X78.971 Y103.47 E8.23017
G1 X79.711 Y103.679 E8.25574
G1 X80.739 Y104.115 E8.29288
G1 X81.721 Y104.623 E8.32966
G1 X82.385 Y105.012 E8.35525
G1 X83.219 Y105.649 E8.39016
G1 X84.056 Y106.388 E8.42729
G1 X84.187 Y106.516 E8.43339
G1 X99.659 Y106.516 E8.94799
G1 X100.427 Y106.556 E8.97356
G1 X101.187 Y106.675 E8.99915
G1 X101.341 Y106.716 E9.00445
G1 X135.346 Y109.692 E10.13978
G1 X136.108 Y109.799 E10.16538
G1 X136.854 Y109.984 E10.19094
G1 X137.578 Y110.246 E10.21655
G1 X138.27 Y110.581 E10.24212
G1 X138.923 Y110.987 E10.2677
G1 X139.21 Y111.209 E10.27976
G1 X139.327 Y111.139 E10.2843
G1 X140.025 Y110.815 E10.30989
G1 X140.752 Y110.564 E10.33547
G1 X141.501 Y110.391 E10.36104
G1 X142.265 Y110.296 E10.38665
G1 X143.034 Y110.281 E10.41223
G1 X143.44 Y110.305 E10.42576
G1 X161.339 Y111.873 E11.02336
G1 X162.1 Y111.98 E11.04892
G1 X162.847 Y112.165 E11.07452
G1 X163.57 Y112.427 E11.10009
G1 X164.262 Y112.763 E11.12568
G1 X164.916 Y113.168 E11.15126
G1 X165.524 Y113.639 E11.17684
G1 X166.08 Y114.171 E11.20244
G1 X166.374 Y114.503 E11.21719
G1 X166.48 Y114.63 E11.22269
G1 X166.942 Y115.246 E11.2483
G1 X167.337 Y115.905 E11.27386
G1 X167.661 Y116.603 E11.29945
G1 X167.912 Y117.33 E11.32503
G1 X168.085 Y118.079 E11.3506
G1 X168.18 Y118.843 E11.3762
G1 X168.195 Y119.612 E11.40179
G1 X168.171 Y120.019 E11.41535
G1 X168.008 Y121.877 E11.47738
G1 X167.901 Y122.638 E11.50294
G1 X167.715 Y123.385 E11.52855
G1 X167.453 Y124.108 E11.55412
G1 X167.118 Y124.8 E11.57969
G1 X166.712 Y125.454 E11.6053
G1 X166.241 Y126.062 E11.63088
G1 X165.709 Y126.617 E11.65645
G1 X165.378 Y126.911 E11.67117
G1 X165.251 Y127.017 E11.67667
G1 X164.635 Y127.479 E11.70228
G1 X163.976 Y127.874 E11.72784
G1 X163.278 Y128.198 E11.75343
G1 X162.551 Y128.449 E11.77901
G1 X161.802 Y128.622 E11.80458
G1 X161.038 Y128.717 E11.83019
G1 X160.269 Y128.732 E11.85577
G1 X159.865 Y128.708 E11.86923
G1 X141.968 Y127.144 E12.46676
G1 X141.206 Y127.037 E12.49235
G1 X140.551 Y126.875 E12.51479
G1 X140.036 Y127.427 E12.5399
G1 X139.455 Y127.931 E12.56548
G1 X138.826 Y128.373 E12.59105
G1 X138.153 Y128.746 E12.61664
G1 X137.446 Y129.048 E12.64221
G1 X136.711 Y129.275 E12.6678
G1 X135.957 Y129.425 E12.69337
G1 X135.191 Y129.495 E12.71895
G1 X134.251 Y129.473 E12.75023
G1 X98.309 Y126.316 E13.95026
G1 X79.184 Y126.316 E14.58636
G1 X78.899 Y126.394 E14.59619
G1 X78.213 Y126.557 E14.61964
G1 X77.093 Y126.733 E14.65735
G1 X76.382 Y126.79 E14.68108
G1 X75.613 Y126.812 E14.70666
G1 X74.879 Y126.758 E14.73114
G1 X73.768 Y126.62 E14.76838
G1 X73.011 Y126.485 E14.79395
G1 X72.389 Y126.312 E14.81543
G1 X72.346 Y126.298 E14.81693
G1 X71.939 Y126.153 E14.8313
G1 X70.953 Y125.767 E14.86652
G1 X70.253 Y125.45 E14.89208
G1 X69.326 Y124.88 E14.92827
G1 X68.407 Y124.218 E14.96594
G1 X67.671 Y123.613 E14.99763
G1 X67.639 Y123.583 E14.99909
G1 X67.032 Y122.942 E15.02845
G1 X66.363 Y122.145 E15.06306
G1 X65.818 Y121.407 E15.09357
G1 X65.796 Y121.373 E15.09492
G1 X65.352 Y120.585 E15.125
G1 X64.866 Y119.584 E15.16201
G1 X64.567 Y118.876 E15.18758
G1 X64.268 Y117.808 E15.22446
G1 X64.049 Y116.717 E15.26147
G1 X63.937 Y115.956 E15.28706
G1 X63.913 Y114.894 E15.32239
G1 X63.969 Y113.767 E15.35992
G1 X64.047 Y113.002 E15.3855
G1 X64.29 Y111.95 E15.42141
G1 X64.623 Y110.872 E15.45893
G1 X64.888 Y110.15 E15.48451
G1 X65.384 Y109.189 E15.52048
G1 X65.965 Y108.241 E15.55746
G1 X66.4 Y107.607 E15.58304
G1 X67.09 Y106.828 E15.61765
G1 X67.86 Y106.072 E15.65354
G1 X68.566 Y105.46 E15.68462
G1 X68.616 Y105.422 E15.6867
G1 X69.417 Y104.892 E15.71865
G0 F6000 X69.616 Y105.239
G1 F1200 X70.566 Y104.695 E15.75506
G1 X71.234 Y104.359 E15.77993
G1 X72.139 Y104.034 E15.81191
G1 X73.207 Y103.732 E15.84883
G1 X73.798 Y103.593 E15.86902
G1 X73.866 Y103.58 E15.87132
G1 X74.607 Y103.479 E15.8962
G1 X75.051 Y103.456 E15.91098
G1 X76.081 Y103.437 E15.94525
G1 X77.078 Y103.49 E15.97845
G1 X77.11 Y103.494 E15.97953
G1 X77.786 Y103.612 E16.00235
G1 X78.883 Y103.86 E16.03976
G1 X79.602 Y104.064 E16.06462
G1 X80.555 Y104.471 E16.09908
G1 X81.537 Y104.979 E16.13586
G1 X82.182 Y105.357 E16.16072
G1 X82.954 Y105.949 E16.19308
G1 X83.791 Y106.688 E16.23022
G1 X84.023 Y106.916 E16.24103
G1 X99.659 Y106.916 E16.76109
G1 X100.406 Y106.956 E16.78597
G1 X101.144 Y107.075 E16.81083
G1 X101.282 Y107.113 E16.81559
G1 X135.311 Y110.091 E17.95173
G1 X136.052 Y110.196 E17.97662
G1 X136.777 Y110.379 E18.00149
G1 X137.479 Y110.639 E18.02639
G1 X138.149 Y110.972 E18.05127
G1 X138.779 Y111.375 E18.07615
G1 X139.178 Y111.694 E18.09314
G1 X139.551 Y111.473 E18.10756
G1 X140.232 Y111.163 E18.13245
G1 X140.941 Y110.927 E18.1573
G1 X141.672 Y110.767 E18.18219
G1 X142.416 Y110.687 E18.20708
G1 X143.405 Y110.704 E18.23998
G1 X161.304 Y112.272 E18.83758
G1 X162.045 Y112.377 E18.86247
G1 X162.77 Y112.56 E18.88734
G1 X163.471 Y112.82 E18.91221
G1 X164.141 Y113.153 E18.93709
G1 X164.771 Y113.556 E18.96197
G1 X165.355 Y114.024 E18.98686
G1 X166.067 Y114.76 E19.02092
G1 X166.173 Y114.887 E19.02642
G1 X166.621 Y115.486 E19.0513
G1 X167.003 Y116.129 E19.07617
G1 X167.313 Y116.81 E19.10106
G1 X167.549 Y117.519 E19.12591
G1 X167.709 Y118.25 E19.1508
G1 X167.789 Y118.994 E19.17569
G1 X167.772 Y119.984 E19.20862
G1 X167.609 Y121.842 E19.27066
G1 X167.504 Y122.582 E19.29552
G1 X167.321 Y123.308 E19.32042
G1 X167.061 Y124.009 E19.34529
G1 X166.727 Y124.679 E19.37019
G1 X166.325 Y125.309 E19.39504
G1 X165.857 Y125.893 E19.41993
G1 X165.121 Y126.604 E19.45397
G1 X164.994 Y126.71 E19.45947
G1 X164.395 Y127.158 E19.48435
G1 X163.752 Y127.54 E19.50923
G1 X163.071 Y127.85 E19.53411
G1 X162.362 Y128.086 E19.55897
G1 X161.631 Y128.246 E19.58386
G1 X160.887 Y128.326 E19.60874
G1 X159.9 Y128.309 E19.64158
G1 X142.003 Y126.745 E20.2391
G1 X141.262 Y126.641 E20.26399
G1 X140.537 Y126.457 E20.28887
G1 X140.404 Y126.408 E20.29358
G1 X140.121 Y126.762 E20.30866
G1 X139.593 Y127.293 E20.33356
G1 X139.012 Y127.764 E20.35844
G1 X138.385 Y128.171 E20.3833
G1 X137.717 Y128.508 E20.40819
G1 X137.017 Y128.773 E20.43308
G1 X136.293 Y128.961 E20.45796
G1 X135.553 Y129.07 E20.48284
G1 X134.806 Y129.1 E20.5077
G1 X134.286 Y129.074 E20.52502
G1 X98.332 Y125.916 E21.72546
G1 X79.134 Y125.916 E22.36399
G1 X78.806 Y126.004 E22.37528
G1 X78.12 Y126.167 E22.39873
G1 X77.061 Y126.335 E22.4344
G1 X76.35 Y126.392 E22.45812
G1 X75.603 Y126.411 E22.48297
G1 X74.928 Y126.361 E22.50549
G1 X73.817 Y126.223 E22.54272
G1 X73.081 Y126.091 E22.56759
G1 X72.513 Y125.932 E22.58721
G1 X72.47 Y125.918 E22.58871
G1 X72.085 Y125.78 E22.60232
G1 X71.099 Y125.394 E22.63753
G1 X70.418 Y125.085 E22.66241
G1 X69.56 Y124.556 E22.69593
G1 X68.641 Y123.894 E22.7336
G1 X67.944 Y123.321 E22.76361
G1 X67.912 Y123.291 E22.76507
G1 X67.338 Y122.684 E22.79286
G1 X66.669 Y121.887 E22.82747
G1 X66.154 Y121.19 E22.85629
G1 X66.132 Y121.156 E22.85764
G1 X65.712 Y120.41 E22.88611
G1 X65.226 Y119.409 E22.92312
G1 X64.936 Y118.72 E22.94799
G1 X64.66 Y117.73 E22.98217
G1 X64.441 Y116.639 E23.01918
G1 X64.333 Y115.898 E23.04409
G1 X64.313 Y114.914 E23.07682
G1 X64.369 Y113.787 E23.11435
G1 X64.446 Y113.043 E23.13923
G1 X64.672 Y112.068 E23.17252
G1 X65.005 Y110.99 E23.21004
G1 X65.263 Y110.288 E23.23492
G1 X65.725 Y109.398 E23.26827
G1 X66.306 Y108.45 E23.30525
G1 X66.73 Y107.834 E23.33013
G1 X67.37 Y107.113 E23.36219
G1 X68.14 Y106.357 E23.39808
G1 X68.808 Y105.779 E23.42746
G1 X68.858 Y105.741 E23.42955
G1 X69.616 Y105.239 E23.45979
G0 F6000 X69.814 Y105.587
G1 F1200 X70.764 Y105.043 E23.4962
G1 X71.414 Y104.717 E23.52039
G1 X72.248 Y104.419 E23.54984
G1 X73.316 Y104.117 E23.58676
G1 X73.873 Y103.985 E23.6058
G1 X73.941 Y103.972 E23.6081
G1 X74.661 Y103.875 E23.63226
G1 X75.058 Y103.856 E23.64548
G1 X76.088 Y103.837 E23.67975
G1 X77.029 Y103.887 E23.71109
G1 X77.061 Y103.891 E23.71216
G1 X77.697 Y104.002 E23.73363
G1 X78.794 Y104.25 E23.77104
G1 X79.493 Y104.449 E23.79521
G1 X80.372 Y104.826 E23.82702
G1 X81.354 Y105.334 E23.8638
G1 X81.979 Y105.703 E23.88794
G1 X82.689 Y106.248 E23.91771
G1 X83.526 Y106.987 E23.95484
G1 X83.86 Y107.316 E23.97044
G1 X99.659 Y107.316 E24.49591
G1 X100.384 Y107.356 E24.52006
G1 X101.101 Y107.475 E24.54424
G1 X101.219 Y107.508 E24.54831
G1 X135.276 Y110.489 E25.68538
G1 X135.995 Y110.592 E25.70954
G1 X136.699 Y110.774 E25.73373
G1 X137.378 Y111.031 E25.75787
G1 X138.025 Y111.362 E25.78205
G1 X138.631 Y111.762 E25.8062
G1 X139.138 Y112.183 E25.82812
G1 X139.147 Y112.176 E25.82849
G1 X139.774 Y111.809 E25.85266
G1 X140.437 Y111.512 E25.87682
G1 X141.129 Y111.291 E25.90098
G1 X141.841 Y111.146 E25.92515
G1 X142.564 Y111.081 E25.94929
G1 X143.37 Y111.102 E25.97611
G1 X161.269 Y112.67 E26.57371
G1 X161.988 Y112.773 E26.59787
G1 X162.691 Y112.955 E26.62202
G1 X163.37 Y113.212 E26.64617
G1 X164.017 Y113.543 E26.67034
G1 X164.624 Y113.943 E26.69452
G1 X165.182 Y114.407 E26.71866
G1 X165.76 Y115.016 E26.74659
G1 X165.866 Y115.143 E26.75209
G1 X166.3 Y115.725 E26.77623
G1 X166.667 Y116.352 E26.8004
G1 X166.964 Y117.015 E26.82456
G1 X167.185 Y117.707 E26.84872
G1 X167.33 Y118.419 E26.87289
G1 X167.395 Y119.142 E26.89703
G1 X167.374 Y119.949 E26.92388
G1 X167.211 Y121.807 E26.98592
G1 X167.108 Y122.526 E27.01008
G1 X166.926 Y123.229 E27.03423
G1 X166.668 Y123.908 E27.05839
G1 X166.337 Y124.555 E27.08256
G1 X165.937 Y125.161 E27.10671
G1 X165.473 Y125.72 E27.13087
G1 X164.865 Y126.297 E27.15875
G1 X164.738 Y126.403 E27.16425
G1 X164.156 Y126.837 E27.1884
G1 X163.529 Y127.204 E27.21257
G1 X162.866 Y127.501 E27.23673
G1 X162.174 Y127.722 E27.26089
G1 X161.462 Y127.867 E27.28506
G1 X160.739 Y127.932 E27.3092
G1 X159.934 Y127.911 E27.33598
G1 X142.037 Y126.347 E27.93351
G1 X141.318 Y126.244 E27.95767
G1 X140.615 Y126.063 E27.98181
G1 X140.264 Y125.93 E27.9943
G1 X140.15 Y126.098 E28.00105
G1 X139.679 Y126.651 E28.02521
G1 X139.15 Y127.148 E28.04935
G1 X138.57 Y127.585 E28.0735
G1 X137.945 Y127.956 E28.09768
G1 X137.283 Y128.255 E28.12184
G1 X136.593 Y128.48 E28.14598
G1 X135.881 Y128.627 E28.17016
G1 X135.158 Y128.696 E28.19431
G1 X134.321 Y128.676 E28.22216
G1 X98.345 Y125.516 E29.42333
G1 X79.083 Y125.516 E30.06399
G1 X78.714 Y125.615 E30.0767
G1 X78.028 Y125.778 E30.10015
G1 X77.029 Y125.936 E30.13379
G1 X76.318 Y125.993 E30.15751
G1 X75.592 Y126.011 E30.18167
G1 X74.977 Y125.964 E30.20218
G1 X73.866 Y125.826 E30.23942
G1 X73.152 Y125.697 E30.26355
G1 X72.637 Y125.552 E30.28135
G1 X72.594 Y125.538 E30.28285
G1 X72.231 Y125.408 E30.29567
G1 X71.245 Y125.022 E30.33089
G1 X70.584 Y124.72 E30.35506
G1 X69.793 Y124.231 E30.38599
G1 X68.874 Y123.569 E30.42366
G1 X68.218 Y123.029 E30.45192
G1 X68.186 Y122.999 E30.45338
G1 X67.645 Y122.427 E30.47957
G1 X66.976 Y121.63 E30.51418
G1 X66.49 Y120.972 E30.54139
G1 X66.468 Y120.938 E30.54273
G1 X66.072 Y120.236 E30.56954
G1 X65.586 Y119.235 E30.60655
G1 X65.305 Y118.565 E30.63072
G1 X65.052 Y117.651 E30.66226
G1 X64.833 Y116.56 E30.69927
G1 X64.73 Y115.841 E30.72343
G1 X64.712 Y114.933 E30.75363
G1 X64.768 Y113.806 E30.79116
