;FLAVOR:Marlin
;TIME:2627
;Filament used: 2.36212m
;Layer height: 0.28
;MINX:100.768
;MINY:92.25
;MINZ:0.28
;MAXX:142.768
;MAXY:142.75
;MAXZ:34.72
;Generated with Cura_SteamEngine 4.6.1
M140 S60
M105
M190 S60
M104 S210
M105
M109 S210
M82 ;absolute extrusion mode
; Ender 3 Custom Start G-code
G92 E0 ; Reset Extruder
G28 ; Home all axes
G1 Z2.0 F3000 ; Move Z Axis up little to prevent scratching of Heat Bed
G1 X0.1 Y20 Z0.3 F5000.0 ; Move to start position
G1 X0.1 Y200.0 Z0.3 F1500.0 E15 ; Draw the first line
G1 X0.4 Y200.0 Z0.3 F5000.0 ; Move to side a little
G1 X0.4 Y20 Z0.3 F1500.0 E30 ; Draw the second line
G92 E0 ; Reset Extruder
G1 Z2.0 F3000 ; Move Z Axis up little to prevent scratching of Heat Bed
G1 X5 Y20 Z0.3 F5000.0 ; Move over to prevent blob squish
G92 E0
G92 E0
G1 F2700 E-5
;LAYER_COUNT:125
;LAYER:0
M107
G0 F6000 X120.371 Y93.067 Z0.28
;TYPE:SKIRT
G1 F2700 E0
G1 F1200 X123.058 Y93.067 E0.12512
G1 X124.081 Y93.05 E0.17276
G1 X131.207 Y93.051 E0.50458
G1 X131.905 Y93.061 E0.53708
G1 X132.807 Y93.114 E0.57915
G1 X133.7 Y93.246 E0.62119
G1 X134.578 Y93.457 E0.66324
G1 X135.434 Y93.745 E0.70529
G1 X136.261 Y94.107 E0.74733
G1 X137.053 Y94.542 E0.7894
G1 X137.804 Y95.044 E0.83146
G1 X138.507 Y95.611 E0.87352
G1 X139.157 Y96.238 E0.91557
G1 X139.749 Y96.92 E0.95762
G1 X140.279 Y97.651 E0.99967
G1 X140.741 Y98.427 E1.04172
G1 X141.134 Y99.24 E1.08377
G1 X141.452 Y100.085 E1.12581
G1 X141.695 Y100.955 E1.16787
G1 X141.86 Y101.843 E1.20993
G1 X141.955 Y102.973 E1.26273
G1 X141.968 Y103.58 E1.291
G1 X141.967 Y111.659 E1.66719
G1 X141.96 Y112.134 E1.68931
G1 X141.968 Y115.54 E1.84791
G1 X141.967 Y123.666 E2.22629
G1 X141.957 Y124.383 E2.25968
G1 X141.904 Y125.285 E2.30176
G1 X141.772 Y126.178 E2.34379
G1 X141.562 Y127.056 E2.38583
G1 X141.274 Y127.913 E2.42792
G1 X140.912 Y128.74 E2.46996
G1 X140.478 Y129.532 E2.51201
G1 X139.976 Y130.283 E2.55408
G1 X139.41 Y130.986 E2.5961
G1 X138.683 Y131.73 E2.64454
G1 X138.417 Y131.976 E2.66141
G1 X136.479 Y133.784 E2.78482
G1 X134.698 Y135.542 E2.90135
G1 X132.921 Y137.398 E3.021
G1 X132.49 Y137.872 E3.05083
G1 X131.731 Y138.688 E3.10272
G1 X131.087 Y139.321 E3.14477
G1 X130.39 Y139.895 E3.18682
G1 X129.644 Y140.405 E3.22889
G1 X128.857 Y140.847 E3.27092
G1 X128.033 Y141.218 E3.313
G1 X127.18 Y141.515 E3.35506
G1 X126.304 Y141.734 E3.39711
G1 X125.412 Y141.876 E3.43916
G1 X124.545 Y141.937 E3.47964
G1 X123.938 Y141.95 E3.50791
G1 X115.153 Y141.949 E3.91697
G1 X114.455 Y141.939 E3.94948
G1 X113.553 Y141.886 E3.99155
G1 X112.66 Y141.754 E4.03359
G1 X111.782 Y141.543 E4.07563
G1 X110.926 Y141.255 E4.11769
G1 X110.099 Y140.893 E4.15972
G1 X109.307 Y140.458 E4.2018
G1 X108.556 Y139.956 E4.24386
G1 X107.853 Y139.389 E4.28592
G1 X107.203 Y138.762 E4.32797
G1 X106.611 Y138.08 E4.37002
G1 X106.081 Y137.349 E4.41207
G1 X105.619 Y136.573 E4.45412
G1 X105.226 Y135.76 E4.49617
G1 X104.995 Y135.169 E4.52571
G1 X104.7 Y134.339 E4.56673
G1 X104.331 Y133.247 E4.6204
G1 X103.451 Y130.867 E4.73856
G1 X102.321 Y128.069 E4.87907
G1 X102.021 Y127.218 E4.92108
G1 X101.796 Y126.343 E4.96315
G1 X101.65 Y125.452 E5.0052
G1 X101.585 Y124.59 E5.04545
G1 X101.574 Y124.261 E5.06078
G1 X101.568 Y123.92 E5.07666
G1 X101.569 Y115.827 E5.4535
G1 X101.576 Y115.362 E5.47516
G1 X101.568 Y111.96 E5.63357
G1 X101.569 Y103.786 E6.01418
G1 X101.578 Y103.121 E6.04515
G1 X101.63 Y102.219 E6.08722
G1 X101.762 Y101.326 E6.12926
G1 X101.972 Y100.448 E6.17129
G1 X102.259 Y99.591 E6.21338
G1 X102.621 Y98.764 E6.25541
G1 X103.054 Y97.972 E6.29744
G1 X103.556 Y97.221 E6.33951
G1 X104.123 Y96.517 E6.3816
G1 X104.749 Y95.867 E6.42362
G1 X105.43 Y95.274 E6.46566
G1 X106.162 Y94.744 E6.50775
G1 X106.937 Y94.281 E6.54978
G1 X107.75 Y93.888 E6.59183
G1 X108.595 Y93.568 E6.6339
G1 X109.464 Y93.325 E6.67592
G1 X110.352 Y93.159 E6.71799
G1 X111.491 Y93.063 E6.77121
G1 X112.098 Y93.05 E6.79948
G1 X119.227 Y93.051 E7.13144
G1 X120.371 Y93.067 E7.18471
G0 F6000 X120.376 Y92.667
G1 F1200 X123.051 Y92.667 E7.30927
G1 X124.081 Y92.65 E7.35724
G1 X131.213 Y92.651 E7.68934
G1 X131.911 Y92.661 E7.72184
G1 X132.83 Y92.714 E7.7647
G1 X133.741 Y92.847 E7.80757
G1 X134.637 Y93.058 E7.85044
G1 X135.511 Y93.346 E7.89329
G1 X136.358 Y93.709 E7.9362
G1 X137.169 Y94.144 E7.97905
G1 X137.939 Y94.648 E8.0219
G1 X138.663 Y95.217 E8.06478
G1 X139.335 Y95.847 E8.10767
G1 X139.95 Y96.532 E8.15054
G1 X140.503 Y97.268 E8.1934
G1 X140.99 Y98.049 E8.23626
G1 X141.407 Y98.87 E8.27914
G1 X141.752 Y99.724 E8.32203
G1 X142.021 Y100.604 E8.36487
G1 X142.213 Y101.505 E8.40777
G1 X142.326 Y102.418 E8.45061
G1 X142.355 Y102.962 E8.47597
G1 X142.368 Y103.58 E8.50476
G1 X142.367 Y111.665 E8.88123
G1 X142.36 Y112.139 E8.9033
G1 X142.368 Y115.539 E9.06162
G1 X142.367 Y123.672 E9.44033
G1 X142.357 Y124.389 E9.47372
G1 X142.304 Y125.308 E9.51658
G1 X142.172 Y126.219 E9.55944
G1 X141.961 Y127.115 E9.60231
G1 X141.673 Y127.99 E9.6452
G1 X141.31 Y128.836 E9.68807
G1 X140.876 Y129.647 E9.7309
G1 X140.372 Y130.418 E9.77379
G1 X139.804 Y131.142 E9.81664
G1 X138.955 Y132.023 E9.87361
G1 X138.689 Y132.269 E9.89048
G1 X136.768 Y134.06 E10.01278
G1 X134.967 Y135.838 E10.13062
G1 X133.205 Y137.678 E10.24925
G1 X132.783 Y138.144 E10.27852
G1 X132.024 Y138.96 E10.33041
G1 X131.368 Y139.607 E10.37332
G1 X130.658 Y140.194 E10.41621
G1 X129.901 Y140.717 E10.45906
G1 X129.101 Y141.172 E10.50191
G1 X128.264 Y141.556 E10.54479
G1 X127.397 Y141.867 E10.58768
G1 X126.507 Y142.101 E10.63053
G1 X125.6 Y142.256 E10.67338
G1 X124.556 Y142.337 E10.72214
G1 X123.938 Y142.35 E10.75092
G1 X115.147 Y142.349 E11.16027
G1 X114.449 Y142.339 E11.19277
G1 X113.53 Y142.286 E11.23564
G1 X112.619 Y142.153 E11.27851
G1 X111.723 Y141.942 E11.32137
G1 X110.849 Y141.654 E11.36422
G1 X110.002 Y141.291 E11.40713
G1 X109.191 Y140.856 E11.44998
G1 X108.421 Y140.352 E11.49283
G1 X107.697 Y139.783 E11.53571
G1 X107.025 Y139.153 E11.5786
G1 X106.41 Y138.468 E11.62147
G1 X105.857 Y137.732 E11.66433
G1 X105.37 Y136.951 E11.70719
G1 X104.953 Y136.13 E11.75007
G1 X104.618 Y135.303 E11.79162
G1 X104.321 Y134.467 E11.83293
G1 X103.949 Y133.365 E11.88709
G1 X103.075 Y131 E12.00449
G1 X101.951 Y128.219 E12.14416
G1 X101.643 Y127.351 E12.18705
G1 X101.412 Y126.46 E12.22991
G1 X101.259 Y125.552 E12.27279
G1 X101.185 Y124.603 E12.31711
G1 X101.174 Y124.274 E12.33244
G1 X101.168 Y123.92 E12.34892
G1 X101.169 Y115.821 E12.72605
G1 X101.176 Y115.357 E12.74766
G1 X101.168 Y111.961 E12.90579
G1 X101.169 Y103.781 E13.28668
G1 X101.178 Y103.116 E13.31765
G1 X101.23 Y102.196 E13.36056
G1 X101.362 Y101.285 E13.40342
G1 X101.573 Y100.389 E13.44628
G1 X101.86 Y99.514 E13.48916
G1 X102.223 Y98.668 E13.53203
G1 X102.657 Y97.856 E13.5749
G1 X103.16 Y97.085 E13.61777
G1 X103.729 Y96.361 E13.66065
G1 X104.357 Y95.689 E13.70347
G1 X105.042 Y95.073 E13.74637
G1 X105.778 Y94.52 E13.78924
G1 X106.559 Y94.032 E13.83212
G1 X107.379 Y93.614 E13.87498
G1 X108.233 Y93.269 E13.91787
G1 X109.113 Y92.999 E13.96073
G1 X110.013 Y92.807 E14.00358
G1 X110.927 Y92.693 E14.04647
G1 X111.48 Y92.663 E14.07226
G1 X112.098 Y92.65 E14.10104
G1 X119.232 Y92.651 E14.43323
G1 X120.376 Y92.667 E14.4865
G0 F6000 X120.382 Y92.267
G1 F1200 X123.044 Y92.267 E14.61046
G1 X124.081 Y92.25 E14.65875
G1 X131.219 Y92.251 E14.99112
G1 X131.917 Y92.261 E15.02363
G1 X132.853 Y92.315 E15.06729
G1 X133.781 Y92.447 E15.11093
G1 X134.695 Y92.659 E15.15462
G1 X135.587 Y92.948 E15.19828
G1 X136.452 Y93.311 E15.24196
G1 X137.282 Y93.747 E15.28562
G1 X138.073 Y94.252 E15.32932
G1 X138.817 Y94.823 E15.37299
G1 X139.51 Y95.455 E15.41666
G1 X140.147 Y96.143 E15.46032
G1 X140.722 Y96.884 E15.504
G1 X141.233 Y97.67 E15.54765
G1 X141.675 Y98.498 E15.59135
G1 X142.044 Y99.36 E15.63502
G1 X142.339 Y100.25 E15.67867
G1 X142.557 Y101.162 E15.72234
G1 X142.697 Y102.09 E15.76604
G1 X142.755 Y102.951 E15.80622
G1 X142.768 Y103.58 E15.83552
G1 X142.767 Y111.671 E16.21227
G1 X142.76 Y112.144 E16.23429
G1 X142.768 Y115.538 E16.39233
G1 X142.767 Y123.677 E16.77132
G1 X142.757 Y124.394 E16.80471
G1 X142.704 Y125.331 E16.84841
G1 X142.571 Y126.259 E16.89206
G1 X142.36 Y127.173 E16.93574
G1 X142.072 Y128.065 E16.97939
G1 X141.708 Y128.93 E17.02309
G1 X141.273 Y129.761 E17.06676
G1 X140.768 Y130.551 E17.11042
G1 X140.198 Y131.296 E17.1541
G1 X139.566 Y131.989 E17.19777
G1 X139.227 Y132.317 E17.21974
G1 X138.961 Y132.563 E17.23661
G1 X137.039 Y134.355 E17.35897
G1 X135.254 Y136.117 E17.47576
G1 X133.508 Y137.941 E17.59334
G1 X133.075 Y138.417 E17.6233
G1 X132.316 Y139.233 E17.67519
G1 X131.649 Y139.892 E17.71885
G1 X130.928 Y140.491 E17.7625
G1 X130.158 Y141.027 E17.80618
G1 X129.346 Y141.496 E17.84985
G1 X128.496 Y141.893 E17.89353
G1 X127.616 Y142.217 E17.9372
G1 X126.712 Y142.465 E17.98085
G1 X125.789 Y142.634 E18.02454
G1 X124.567 Y142.737 E18.08164
G1 X123.938 Y142.75 E18.11094
G1 X115.141 Y142.749 E18.52056
G1 X114.443 Y142.739 E18.55307
G1 X113.507 Y142.685 E18.59673
G1 X112.579 Y142.553 E18.64037
G1 X111.665 Y142.341 E18.68406
G1 X110.773 Y142.052 E18.72772
G1 X109.908 Y141.689 E18.7714
G1 X109.078 Y141.253 E18.81506
G1 X108.287 Y140.748 E18.85876
G1 X107.543 Y140.177 E18.90243
G1 X106.85 Y139.545 E18.9461
G1 X106.213 Y138.857 E18.98976
G1 X105.638 Y138.116 E19.03343
G1 X105.127 Y137.33 E19.07709
G1 X104.685 Y136.502 E19.12079
G1 X104.241 Y135.438 E19.17448
G1 X103.942 Y134.595 E19.21613
G1 X103.571 Y133.496 E19.27014
G1 X102.704 Y131.152 E19.38651
G1 X101.58 Y128.369 E19.52627
G1 X101.266 Y127.485 E19.56995
G1 X101.028 Y126.578 E19.61362
G1 X100.869 Y125.654 E19.65727
G1 X100.785 Y124.617 E19.70572
G1 X100.774 Y124.288 E19.72105
G1 X100.768 Y123.92 E19.73819
G1 X100.769 Y115.815 E20.11559
G1 X100.776 Y115.352 E20.13715
G1 X100.768 Y111.962 E20.295
G1 X100.769 Y103.775 E20.67622
G1 X100.778 Y103.11 E20.70719
G1 X100.831 Y102.174 E20.75085
G1 X100.963 Y101.245 E20.79454
G1 X101.174 Y100.331 E20.83822
G1 X101.462 Y99.439 E20.88186
G1 X101.825 Y98.574 E20.92555
G1 X102.26 Y97.743 E20.96922
G1 X102.764 Y96.953 E21.01286
G1 X103.334 Y96.208 E21.05653
G1 X103.966 Y95.514 E21.10024
G1 X104.654 Y94.877 E21.1439
G1 X105.394 Y94.301 E21.18757
G1 X106.18 Y93.789 E21.23125
G1 X107.007 Y93.347 E21.27491
G1 X107.869 Y92.977 E21.31859
G1 X108.759 Y92.681 E21.36226
G1 X109.671 Y92.463 E21.40593
G1 X110.598 Y92.322 E21.44959
G1 X111.469 Y92.263 E21.49024
G1 X112.098 Y92.25 E21.51953
G1 X119.238 Y92.251 E21.852
G1 X120.382 Y92.267 E21.90528
G1 F2700 E16.90528
;MESH:calicat.stl
G0 F6000 X120.421 Y112.903
G0 X119.354 Y114.585
G0 X119.354 Y115.664
G0 X112.55 Y116.032
G0 X112.55 Y123.468
G0 X119.696 Y123.822
G0 X119.696 Y127.178
G0 X115.373 Y127.532
G0 X115.192 Y131.15
;TYPE:WALL-INNER
G1 F2700 E21.90528
G1 F1200 X115.191 Y127.549 E22.07295
G1 X115.191 Y127.35 E22.08222
G1 X115.39 Y127.35 E22.08822
G1 X119.868 Y127.35 E22.29673
G1 X119.868 Y123.65 E22.46902
G1 X112.368 Y123.65 E22.81825
G1 X112.368 Y115.85 E23.18145
G1 X119.168 Y115.85 E23.49809
G1 X119.168 Y120.85 E23.73091
G1 X124.368 Y120.85 E23.97304
G1 X124.368 Y115.85 E24.20586
G1 X131.168 Y115.85 E24.5225
G1 X131.168 Y123.65 E24.8857
G1 X123.668 Y123.65 E25.23493
G1 X123.668 Y131.15 E25.58416
G1 X115.192 Y131.15 E25.97884
G0 F6000 X114.792 Y131.55
;TYPE:WALL-OUTER
G1 F1200 X114.791 Y126.95 E26.19303
G1 X119.468 Y126.95 E26.41082
G1 X119.468 Y124.05 E26.54585
G1 X111.968 Y124.05 E26.89508
G1 X111.968 Y115.45 E27.29553
G1 X119.568 Y115.45 E27.64942
G1 X119.568 Y120.45 E27.88224
G1 X123.968 Y120.45 E28.08713
G1 X123.968 Y115.45 E28.31995
G1 X131.568 Y115.45 E28.67383
G1 X131.568 Y124.05 E29.07429
G1 X124.068 Y124.05 E29.42352
G1 X124.068 Y131.55 E29.77275
G1 X114.792 Y131.55 E30.20468
G0 F6000 X115.062 Y131.28
G0 X115.582 Y131.04
G0 X115.582 Y130.76
;TYPE:SKIN
G1 F1200 X115.581 Y127.74 E30.3453
G1 X120.258 Y127.74 E30.56308
G1 X120.258 Y123.26 E30.77169
G1 X112.758 Y123.26 E31.12092
G1 X112.758 Y116.24 E31.4478
G1 X118.778 Y116.24 E31.72812
G1 X118.778 Y121.24 E31.96094
G1 X124.758 Y121.24 E32.23939
G1 X124.758 Y116.24 E32.47222
G1 X130.778 Y116.24 E32.75253
G1 X130.778 Y123.26 E33.07941
G1 X123.278 Y123.26 E33.42864
G1 X123.278 Y130.76 E33.77788
G1 X115.582 Y130.76 E34.13623
G0 F6000 X115.891 Y130.599
G1 F1200 X115.741 Y130.449 E34.14611
G0 F6000 X115.741 Y129.883
G1 F1200 X116.456 Y130.599 E34.19323
G0 F6000 X117.022 Y130.599
G1 F1200 X115.741 Y129.317 E34.27762
G0 F6000 X115.741 Y128.752
G1 F1200 X117.588 Y130.599 E34.39925
G0 F6000 X118.154 Y130.599
G1 F1200 X115.741 Y128.186 E34.55815
G0 F6000 X116.019 Y127.899
G1 F1200 X118.719 Y130.599 E34.73594
G0 F6000 X119.285 Y130.599
G1 F1200 X116.585 Y127.899 E34.91374
G0 F6000 X117.151 Y127.899
G1 F1200 X119.851 Y130.599 E35.09154
G0 F6000 X120.416 Y130.599
G1 F1200 X117.717 Y127.899 E35.26931
G0 F6000 X118.282 Y127.899
G1 F1200 X120.982 Y130.599 E35.44711
G0 F6000 X121.548 Y130.599
G1 F1200 X118.848 Y127.899 E35.62491
G0 F6000 X119.414 Y127.899
G1 F1200 X122.113 Y130.599 E35.80268
G0 F6000 X122.679 Y130.599
G1 F1200 X119.979 Y127.899 E35.98048
G0 F6000 X120.418 Y127.772
G1 F1200 X123.117 Y130.471 E36.15821
G0 F6000 X123.117 Y129.906
G1 F1200 X120.418 Y127.206 E36.33598
G0 F6000 X120.418 Y126.64
G1 F1200 X123.117 Y129.34 E36.51374
G0 F6000 X123.117 Y128.774
G1 F1200 X120.418 Y126.075 E36.69148
G0 F6000 X120.418 Y125.509
G1 F1200 X123.117 Y128.209 E36.86924
G0 F6000 X123.117 Y127.643
G1 F1200 X120.418 Y124.943 E37.04701
G0 F6000 X120.418 Y124.377
G1 F1200 X123.117 Y127.077 E37.22478
G0 F6000 X123.117 Y126.512
G1 F1200 X120.418 Y123.812 E37.40254
G0 F6000 X120.418 Y123.246
G1 F1200 X123.117 Y125.946 E37.58031
G0 F6000 X123.117 Y125.38
G1 F1200 X119.137 Y121.4 E37.8424
G0 F6000 X119.703 Y121.4
G1 F1200 X123.117 Y124.814 E38.06722
G0 F6000 X123.117 Y124.249
G1 F1200 X120.268 Y121.4 E38.25483
G0 F6000 X120.834 Y121.4
G1 F1200 X123.117 Y123.683 E38.40517
G0 F6000 X123.117 Y123.117
G1 F1200 X121.4 Y121.4 E38.51824
G0 F6000 X121.966 Y121.4
G1 F1200 X123.665 Y123.099 E38.63012
G0 F6000 X124.23 Y123.099
G1 F1200 X122.531 Y121.4 E38.742
G0 F6000 X123.097 Y121.4
G1 F1200 X124.796 Y123.099 E38.85388
G0 F6000 X125.362 Y123.099
G1 F1200 X123.663 Y121.4 E38.96576
G0 F6000 X124.228 Y121.4
G1 F1200 X125.927 Y123.099 E39.07765
G0 F6000 X126.493 Y123.099
G1 F1200 X124.794 Y121.4 E39.18953
G0 F6000 X124.917 Y120.957
G1 F1200 X127.059 Y123.099 E39.33058
G0 F6000 X127.624 Y123.099
G1 F1200 X124.917 Y120.392 E39.50884
G0 F6000 X124.917 Y119.826
G1 F1200 X128.19 Y123.099 E39.72438
G0 F6000 X128.756 Y123.099
G1 F1200 X124.917 Y119.26 E39.97718
G0 F6000 X124.917 Y118.694
G1 F1200 X129.322 Y123.099 E40.26726
G0 F6000 X129.887 Y123.099
G1 F1200 X124.917 Y118.129 E40.59454
G0 F6000 X124.917 Y117.563
G1 F1200 X130.453 Y123.099 E40.9591
G0 F6000 X130.617 Y122.697
G1 F1200 X124.917 Y116.997 E41.33445
G0 F6000 X124.917 Y116.432
G1 F1200 X130.617 Y122.132 E41.70981
G0 F6000 X130.617 Y121.566
G1 F1200 X125.451 Y116.4 E42.05
G0 F6000 X126.017 Y116.4
G1 F1200 X130.617 Y121 E42.35291
G0 F6000 X130.617 Y120.435
G1 F1200 X126.582 Y116.4 E42.61862
G0 F6000 X127.148 Y116.4
G1 F1200 X130.617 Y119.869 E42.84706
G0 F6000 X130.617 Y119.303
G1 F1200 X127.714 Y116.4 E43.03823
G0 F6000 X128.279 Y116.4
G1 F1200 X130.617 Y118.738 E43.19219
G0 F6000 X130.617 Y118.172
G1 F1200 X128.845 Y116.4 E43.30888
G0 F6000 X129.411 Y116.4
G1 F1200 X130.617 Y117.606 E43.3883
G0 F6000 X130.617 Y117.041
G1 F1200 X129.976 Y116.4 E43.43051
G0 F6000 X130.542 Y116.4
G1 F1200 X130.617 Y116.475 E43.43545
G0 F6000 X131.058 Y116.475
G0 X130.986 Y116.032
G0 X124.55 Y116.032
G0 X124.196 Y120.678
G0 X119.34 Y120.678
G0 X119.058 Y116.92
G0 X118.617 Y116.92
G1 F1200 X118.096 Y116.399 E43.46976
G0 F6000 X117.531 Y116.399
G1 F1200 X118.617 Y117.486 E43.54131
G0 F6000 X118.617 Y118.052
G1 F1200 X116.965 Y116.399 E43.65013
G0 F6000 X116.399 Y116.399
G1 F1200 X118.617 Y118.617 E43.79619
G0 F6000 X118.617 Y119.183
G1 F1200 X115.833 Y116.399 E43.97952
G0 F6000 X115.268 Y116.399
G1 F1200 X118.617 Y119.749 E44.20009
G0 F6000 X118.617 Y120.314
G1 F1200 X114.702 Y116.399 E44.4579
G0 F6000 X114.136 Y116.399
G1 F1200 X118.617 Y120.88 E44.75298
G0 F6000 X119.058 Y120.88
G0 X118.986 Y116.032
