;FLAVOR:Marlin
;TIME:17110
;Filament used: 16.4632m
;Layer height: 0.28
;MINX:59.528
;MINY:53.001
;MINZ:0.28
;MAXX:165.999
;MAXY:182
;MAXZ:56.84
;Generated with Cura_SteamEngine 4.6.1
M140 S70
M105
M190 S70
M104 S240
M105
M109 S240
M82 ;absolute extrusion mode
; Ender 3 Custom Start G-code
G92 E0 ; Reset Extruder
G28 ; Home all axes
G1 Z2.0 F3000 ; Move Z Axis up little to prevent scratching of Heat Bed
G1 X0.1 Y20 Z0.3 F5000.0 ; Move to start position
G1 X0.1 Y200.0 Z0.3 F1500.0 E15 ; Draw the first line
G1 X0.4 Y200.0 Z0.3 F5000.0 ; Move to side a little
G1 X0.4 Y20 Z0.3 F1500.0 E30 ; Draw the second line
G92 E0 ; Reset Extruder
G1 Z2.0 F3000 ; Move Z Axis up little to prevent scratching of Heat Bed
G1 X5 Y20 Z0.3 F5000.0 ; Move over to prevent blob squish
G92 E0
G92 E0
G1 F2700 E-5
;LAYER_COUNT:203
;LAYER:0
M107
G0 F6000 X136.637 Y53.811 Z0.28
;TYPE:SKIRT
G1 F2700 E0
G1 F900 X137.426 Y53.853 E0.03679
G1 X137.665 Y53.875 E0.04797
G1 X138.235 Y53.944 E0.0747
G1 X138.751 Y54.021 E0.099
G1 X139.638 Y54.193 E0.14107
G1 X140.506 Y54.444 E0.18314
G1 X140.959 Y54.609 E0.20559
G1 X141.481 Y54.813 E0.23169
G1 X142.012 Y55.035 E0.25849
G1 X142.825 Y55.429 E0.30055
G1 X143.599 Y55.894 E0.3426
G1 X144.041 Y56.203 E0.36771
G1 X144.712 Y56.705 E0.40673
G1 X144.904 Y56.856 E0.41811
G1 X145.589 Y57.446 E0.4602
G1 X146.219 Y58.093 E0.50225
G1 X146.585 Y58.529 E0.52876
G1 X147.108 Y59.195 E0.56819
G1 X147.264 Y59.405 E0.58037
G1 X147.77 Y60.154 E0.62246
G1 X148.208 Y60.943 E0.66448
G1 X148.424 Y61.408 E0.68836
G1 X148.731 Y62.121 E0.7245
G1 X148.841 Y62.395 E0.73825
G1 X149.14 Y63.247 E0.7803
G1 X149.362 Y64.122 E0.82233
G1 X149.458 Y64.657 E0.84764
G1 X149.539 Y65.188 E0.87265
G1 X149.616 Y65.784 E0.90064
G1 X149.681 Y66.646 E0.94089
G1 X149.69 Y66.915 E0.95342
G1 X149.696 Y67.254 E0.96921
G1 X149.699 Y84.615 E1.77761
G1 X149.736 Y87.222 E1.89901
G1 X149.845 Y89.787 E2.01856
G1 X150.021 Y92.278 E2.13484
G1 X150.274 Y94.816 E2.25361
G1 X150.601 Y97.373 E2.37364
G1 X150.99 Y99.848 E2.4903
G1 X151.452 Y102.335 E2.60809
G1 X151.993 Y104.848 E2.72778
G1 X152.593 Y107.292 E2.84497
G1 X153.269 Y109.749 E2.96363
G1 X154.008 Y112.164 E3.08123
G1 X154.828 Y114.596 E3.20073
G1 X155.704 Y116.968 E3.31847
G1 X156.638 Y119.295 E3.43523
G1 X157.67 Y121.666 E3.55564
G1 X158.744 Y123.956 E3.67342
G1 X159.879 Y126.208 E3.79084
G1 X161.101 Y128.474 E3.91072
G1 X162.374 Y130.68 E4.02932
G1 X163.275 Y132.157 E4.10988
G1 X163.711 Y132.949 E4.15198
G1 X163.921 Y133.4 E4.17515
G1 X164.237 Y134.136 E4.21244
G1 X164.33 Y134.366 E4.22399
G1 X164.631 Y135.218 E4.26607
G1 X164.856 Y136.093 E4.30814
G1 X164.958 Y136.653 E4.33464
G1 X165.081 Y137.492 E4.37413
G1 X165.112 Y137.746 E4.38604
G1 X165.18 Y138.592 E4.42556
G1 X165.194 Y139.087 E4.44862
G1 X165.198 Y139.485 E4.46716
G1 X165.199 Y167.434 E5.76858
G1 X165.189 Y168.137 E5.80132
G1 X165.143 Y168.967 E5.84002
G1 X165.119 Y169.217 E5.85172
G1 X165.062 Y169.696 E5.87418
G1 X164.99 Y170.196 E5.8977
G1 X164.822 Y171.083 E5.93974
G1 X164.576 Y171.952 E5.98179
G1 X164.389 Y172.469 E6.00739
G1 X164.094 Y173.211 E6.04458
G1 X163.993 Y173.449 E6.05661
G1 X163.603 Y174.264 E6.09869
G1 X163.143 Y175.041 E6.14073
G1 X162.816 Y175.513 E6.16747
G1 X162.323 Y176.176 E6.20594
G1 X162.182 Y176.357 E6.21662
G1 X161.596 Y177.045 E6.25871
G1 X160.951 Y177.677 E6.30075
G1 X160.493 Y178.065 E6.3287
G1 X160.084 Y178.391 E6.35306
G1 X159.62 Y178.744 E6.38021
G1 X158.872 Y179.251 E6.42228
G1 X158.083 Y179.689 E6.4643
G1 X157.628 Y179.903 E6.48772
G1 X156.613 Y180.339 E6.53916
G1 X155.761 Y180.639 E6.58122
G1 X154.886 Y180.862 E6.62326
G1 X154.312 Y180.965 E6.65042
G1 X153.455 Y181.089 E6.69074
G1 X153.219 Y181.117 E6.7018
G1 X152.415 Y181.18 E6.73936
G1 X152.133 Y181.191 E6.7525
G1 X151.735 Y181.199 E6.77103
G1 X83.707 Y181.2 E9.9387
G1 X83.561 Y181.199 E9.9455
G1 X82.863 Y181.189 E9.97801
G1 X82.074 Y181.147 E10.0148
G1 X81.835 Y181.125 E10.02597
G1 X81.265 Y181.056 E10.05271
G1 X80.749 Y180.979 E10.077
G1 X79.862 Y180.807 E10.11907
G1 X78.994 Y180.556 E10.16115
G1 X78.541 Y180.391 E10.1836
G1 X78.019 Y180.187 E10.20969
G1 X77.488 Y179.965 E10.23649
G1 X76.675 Y179.571 E10.27856
G1 X75.901 Y179.106 E10.32061
G1 X75.459 Y178.797 E10.34572
G1 X74.793 Y178.299 E10.38444
G1 X74.602 Y178.149 E10.39575
G1 X73.917 Y177.56 E10.43782
G1 X73.287 Y176.913 E10.47987
G1 X72.918 Y176.475 E10.50653
G1 X72.596 Y176.07 E10.53063
G1 X72.228 Y175.583 E10.55905
G1 X71.724 Y174.835 E10.60105
G1 X71.287 Y174.044 E10.64313
G1 X71.078 Y173.596 E10.66615
G1 X70.763 Y172.864 E10.70325
G1 X70.67 Y172.634 E10.71481
G1 X70.369 Y171.782 E10.75688
G1 X70.144 Y170.907 E10.79895
G1 X70.044 Y170.36 E10.82484
G1 X69.961 Y169.82 E10.85028
G1 X69.883 Y169.207 E10.87906
G1 X69.821 Y168.411 E10.91623
G1 X69.805 Y167.9 E10.94004
G1 X69.802 Y167.563 E10.95573
G1 X69.802 Y164.038 E11.11987
G1 X69.765 Y161.432 E11.24123
G1 X69.656 Y158.864 E11.36091
G1 X69.479 Y156.362 E11.47771
G1 X69.23 Y153.849 E11.5953
G1 X68.902 Y151.286 E11.71562
G1 X68.511 Y148.801 E11.83275
G1 X68.051 Y146.325 E11.95002
G1 X67.506 Y143.791 E12.07071
G1 X66.912 Y141.373 E12.18665
G1 X66.232 Y138.897 E12.30621
G1 X65.498 Y136.5 E12.42294
G1 X64.673 Y134.055 E12.5431
G1 X63.8 Y131.687 E12.66061
G1 X62.86 Y129.346 E12.77808
G1 X61.816 Y126.948 E12.89987
G1 X61.397 Y126.042 E12.94635
G1 X61.161 Y125.49 E12.9743
G1 X61.031 Y125.159 E12.99086
G1 X60.738 Y124.304 E13.03294
G1 X60.522 Y123.427 E13.075
G1 X60.385 Y122.535 E13.11702
G1 X60.328 Y121.186 E13.17989
G1 X60.354 Y120.175 E13.22699
G1 X60.693 Y112.677 E13.57648
G1 X60.733 Y111.995 E13.60829
G1 X60.826 Y111.096 E13.65038
G1 X60.998 Y110.21 E13.6924
G1 X61.248 Y109.342 E13.73446
G1 X61.573 Y108.499 E13.77653
G1 X61.972 Y107.689 E13.81858
G1 X62.44 Y106.917 E13.86062
G1 X63.103 Y106.035 E13.91199
G1 X63.557 Y105.494 E13.94488
G1 X63.894 Y105.112 E13.9686
G1 X64.753 Y104.186 E14.02741
G1 X66.455 Y102.246 E14.14759
G1 X68.074 Y100.293 E14.26571
G1 X69.629 Y98.305 E14.38323
G1 X71.125 Y96.276 E14.50062
G1 X72.59 Y94.166 E14.62023
G1 X73.96 Y92.07 E14.73683
G1 X75.315 Y89.862 E14.85746
G1 X76.558 Y87.703 E14.97346
G1 X77.785 Y85.424 E15.09398
G1 X78.914 Y83.178 E15.21103
G1 X79.983 Y80.889 E15.32867
G1 X81 Y78.547 E15.44756
G1 X81.955 Y76.163 E15.56715
G1 X82.82 Y73.807 E15.68401
G1 X83.628 Y71.401 E15.80219
G1 X84.374 Y68.956 E15.92123
G1 X85.041 Y66.521 E16.03879
G1 X85.681 Y63.895 E16.16464
G1 X86.083 Y62.617 E16.22703
G1 X86.335 Y61.968 E16.25944
G1 X86.698 Y61.141 E16.3015
G1 X87.377 Y59.971 E16.36449
G1 X87.762 Y59.398 E16.39663
G1 X88.228 Y58.759 E16.43346
G1 X88.368 Y58.582 E16.44397
G1 X88.959 Y57.899 E16.48603
G1 X89.608 Y57.272 E16.52804
G1 X89.987 Y56.953 E16.55111
G1 X90.406 Y56.617 E16.57612
G1 X90.923 Y56.225 E16.60633
G1 X91.672 Y55.721 E16.64837
G1 X92.463 Y55.285 E16.69043
G1 X92.887 Y55.088 E16.7122
G1 X93.43 Y54.85 E16.7398
G1 X93.912 Y54.652 E16.76407
G1 X94.764 Y54.354 E16.8061
G1 X95.64 Y54.132 E16.84818
G1 X96.188 Y54.035 E16.87409
G1 X97.045 Y53.911 E16.91441
G1 X97.281 Y53.883 E16.92548
G1 X98.085 Y53.82 E16.96303
G1 X98.367 Y53.809 E16.97617
G1 X98.765 Y53.801 E16.99471
G1 X135.939 Y53.801 E18.72568
G1 X136.637 Y53.811 E18.75819
G0 F6000 X136.643 Y53.411
G1 F900 X137.463 Y53.455 E18.79643
G1 X137.702 Y53.477 E18.8076
G1 X138.294 Y53.548 E18.83537
G1 X138.81 Y53.625 E18.85966
G1 X139.714 Y53.8 E18.90253
G1 X140.599 Y54.053 E18.94539
G1 X141.104 Y54.236 E18.97041
G1 X141.626 Y54.44 E18.9965
G1 X142.171 Y54.668 E19.02401
G1 X142.999 Y55.069 E19.06685
G1 X143.79 Y55.54 E19.10972
G1 X144.279 Y55.881 E19.13748
G1 X144.96 Y56.391 E19.17709
G1 X145.152 Y56.542 E19.18847
G1 X145.85 Y57.142 E19.23133
G1 X146.494 Y57.8 E19.2742
G1 X146.898 Y58.28 E19.30341
G1 X147.219 Y58.684 E19.32744
G1 X147.585 Y59.167 E19.35566
G1 X148.101 Y59.929 E19.39851
G1 X148.55 Y60.733 E19.44139
G1 X148.791 Y61.248 E19.46787
G1 X149.102 Y61.972 E19.50456
G1 X149.212 Y62.246 E19.51831
G1 X149.517 Y63.114 E19.56115
G1 X149.747 Y64.006 E19.60404
G1 X149.854 Y64.597 E19.63201
G1 X149.935 Y65.128 E19.65702
G1 X150.013 Y65.737 E19.68561
G1 X150.081 Y66.633 E19.72745
G1 X150.09 Y66.902 E19.73998
G1 X150.096 Y67.254 E19.75637
G1 X150.099 Y84.609 E20.5645
G1 X150.136 Y87.235 E20.68679
G1 X150.243 Y89.743 E20.80368
G1 X150.42 Y92.247 E20.92056
G1 X150.673 Y94.793 E21.0397
G1 X150.989 Y97.263 E21.15565
G1 X151.391 Y99.819 E21.27613
G1 X151.843 Y102.25 E21.39127
G1 X152.379 Y104.74 E21.50987
G1 X152.981 Y107.196 E21.62762
G1 X153.649 Y109.621 E21.74474
G1 X154.397 Y112.067 E21.86384
G1 X155.196 Y114.434 E21.98017
G1 X156.08 Y116.829 E22.09905
G1 X157.03 Y119.195 E22.21777
G1 X158.021 Y121.472 E22.3334
G1 X159.105 Y123.785 E22.45234
G1 X160.23 Y126.017 E22.56873
G1 X161.442 Y128.263 E22.68757
G1 X162.723 Y130.483 E22.80692
G1 X163.617 Y131.949 E22.88687
G1 X164.062 Y132.755 E22.92974
G1 X164.287 Y133.24 E22.95464
G1 X164.608 Y133.986 E22.99245
G1 X164.701 Y134.216 E23.00401
G1 X165.009 Y135.084 E23.04689
G1 X165.24 Y135.975 E23.08975
G1 X165.353 Y136.593 E23.11901
G1 X165.478 Y137.444 E23.15906
G1 X165.509 Y137.698 E23.17097
G1 X165.579 Y138.577 E23.21203
G1 X165.594 Y139.083 E23.2356
G1 X165.598 Y139.485 E23.25432
G1 X165.599 Y167.44 E24.55603
G1 X165.589 Y168.143 E24.58876
G1 X165.541 Y169.005 E24.62896
G1 X165.517 Y169.255 E24.64066
G1 X165.458 Y169.753 E24.66401
G1 X165.386 Y170.253 E24.68753
G1 X165.215 Y171.158 E24.73042
G1 X164.967 Y172.044 E24.77326
G1 X164.761 Y172.615 E24.80153
G1 X164.462 Y173.367 E24.83921
G1 X164.361 Y173.605 E24.85125
G1 X163.965 Y174.436 E24.89411
G1 X163.498 Y175.23 E24.937
G1 X163.138 Y175.75 E24.96645
G1 X162.638 Y176.422 E25.00546
G1 X162.497 Y176.603 E25.01614
G1 X161.9 Y177.304 E25.05901
G1 X161.245 Y177.951 E25.10189
G1 X160.742 Y178.378 E25.13261
G1 X160.333 Y178.704 E25.15696
G1 X159.859 Y179.064 E25.18468
G1 X159.097 Y179.582 E25.22758
G1 X158.294 Y180.031 E25.27042
G1 X157.788 Y180.269 E25.29646
G1 X156.762 Y180.71 E25.34846
G1 X155.894 Y181.016 E25.39132
G1 X155.003 Y181.247 E25.43418
G1 X154.371 Y181.361 E25.46408
G1 X153.824 Y181.443 E25.48983
G1 X153.266 Y181.514 E25.51603
G1 X152.43 Y181.58 E25.55508
G1 X152.148 Y181.591 E25.56822
G1 X151.735 Y181.599 E25.58745
G1 X83.707 Y181.6 E28.75512
G1 X83.555 Y181.599 E28.7622
G1 X82.857 Y181.589 E28.7947
G1 X82.037 Y181.545 E28.83294
G1 X81.798 Y181.523 E28.84412
G1 X81.206 Y181.452 E28.87188
G1 X80.69 Y181.375 E28.89617
G1 X79.786 Y181.2 E28.93905
G1 X78.901 Y180.947 E28.98191
G1 X78.396 Y180.764 E29.00692
G1 X77.874 Y180.56 E29.03302
G1 X77.329 Y180.332 E29.06053
G1 X76.501 Y179.931 E29.10336
G1 X75.71 Y179.46 E29.14623
G1 X75.221 Y179.119 E29.17399
G1 X74.786 Y178.797 E29.19919
G1 X74.355 Y178.463 E29.22458
G1 X73.656 Y177.864 E29.26745
G1 X73.012 Y177.206 E29.31032
G1 X72.605 Y176.724 E29.33969
G1 X72.283 Y176.319 E29.36379
G1 X71.907 Y175.821 E29.39284
G1 X71.392 Y175.058 E29.43571
G1 X70.945 Y174.254 E29.47854
G1 X70.712 Y173.756 E29.50414
G1 X70.392 Y173.014 E29.54177
G1 X70.299 Y172.784 E29.55332
G1 X69.991 Y171.916 E29.59621
G1 X69.76 Y171.025 E29.63907
G1 X69.649 Y170.42 E29.66771
G1 X69.566 Y169.88 E29.69315
G1 X69.486 Y169.254 E29.72254
G1 X69.421 Y168.426 E29.76121
G1 X69.405 Y167.903 E29.78558
G1 X69.402 Y167.566 E29.80127
G1 X69.402 Y164.044 E29.96527
G1 X69.365 Y161.419 E30.08751
G1 X69.258 Y158.911 E30.2044
G1 X69.08 Y156.39 E30.32208
G1 X68.83 Y153.872 E30.43991
G1 X68.509 Y151.361 E30.55778
G1 X68.122 Y148.899 E30.67383
G1 X67.653 Y146.377 E30.79328
G1 X67.12 Y143.898 E30.91135
G1 X66.524 Y141.469 E31.02781
G1 X65.852 Y139.025 E31.14583
G1 X65.109 Y136.598 E31.26402
G1 X64.291 Y134.173 E31.38319
G1 X63.43 Y131.838 E31.49907
G1 X62.481 Y129.476 E31.6176
G1 X61.468 Y127.149 E31.73578
G1 X61.034 Y126.21 E31.78395
G1 X60.789 Y125.636 E31.81301
G1 X60.659 Y125.305 E31.82957
G1 X60.36 Y124.434 E31.87245
G1 X60.137 Y123.541 E31.91531
G1 X59.993 Y122.632 E31.95816
G1 X59.929 Y121.713 E32.00106
G1 X59.928 Y121.177 E32.02602
G1 X59.955 Y120.157 E32.07353
G1 X60.294 Y112.653 E32.4233
G1 X60.334 Y111.971 E32.45511
G1 X60.428 Y111.056 E32.49794
G1 X60.601 Y110.151 E32.54085
G1 X60.852 Y109.265 E32.58373
G1 X61.178 Y108.405 E32.62655
G1 X61.578 Y107.575 E32.66946
G1 X62.049 Y106.784 E32.71232
G1 X62.796 Y105.778 E32.77067
G1 X63.25 Y105.237 E32.80356
G1 X63.601 Y104.84 E32.82823
G1 X64.477 Y103.897 E32.88816
G1 X66.131 Y102.011 E33.00497
G1 X67.753 Y100.054 E33.12333
G1 X69.308 Y98.066 E33.24085
G1 X70.819 Y96.016 E33.35944
G1 X72.244 Y93.965 E33.47573
G1 X73.628 Y91.847 E33.59354
G1 X74.97 Y89.659 E33.71306
G1 X76.217 Y87.493 E33.82944
G1 X77.419 Y85.262 E33.94744
G1 X78.544 Y83.022 E34.06416
G1 X79.625 Y80.71 E34.183
G1 X80.638 Y78.374 E34.30156
G1 X81.577 Y76.031 E34.4191
G1 X82.444 Y73.669 E34.53626
G1 X83.245 Y71.284 E34.65341
G1 X83.988 Y68.849 E34.77196
G1 X84.652 Y66.426 E34.88894
G1 X85.292 Y63.8 E35.0148
G1 X85.549 Y62.916 E35.05766
G1 X85.71 Y62.472 E35.07966
G1 X85.962 Y61.823 E35.11207
G1 X86.332 Y60.98 E35.15494
G1 X86.774 Y60.173 E35.19779
G1 X87.045 Y59.748 E35.22126
G1 X87.43 Y59.175 E35.2534
G1 X87.914 Y58.511 E35.29166
G1 X88.054 Y58.334 E35.30217
G1 X88.656 Y57.638 E35.34502
G1 X89.316 Y56.996 E35.38789
G1 X89.737 Y56.64 E35.41357
G1 X90.156 Y56.304 E35.43858
G1 X90.685 Y55.903 E35.46949
G1 X91.449 Y55.389 E35.51236
G1 X92.254 Y54.943 E35.55521
G1 X92.727 Y54.722 E35.57952
G1 X93.588 Y54.35 E35.6232
G1 X93.763 Y54.28 E35.63198
G1 X94.632 Y53.976 E35.67484
G1 X95.524 Y53.748 E35.71771
G1 X96.129 Y53.639 E35.74634
G1 X96.676 Y53.557 E35.77209
G1 X97.234 Y53.486 E35.79829
G1 X98.07 Y53.42 E35.83734
G1 X98.352 Y53.409 E35.85048
G1 X98.765 Y53.401 E35.86971
G1 X135.945 Y53.401 E37.60097
G1 X136.643 Y53.411 E37.63347
G0 F6000 X136.649 Y53.011
G1 F900 X137.499 Y53.056 E37.67311
G1 X137.738 Y53.078 E37.68428
G1 X138.353 Y53.152 E37.71313
G1 X138.869 Y53.229 E37.73742
G1 X139.79 Y53.407 E37.7811
G1 X140.693 Y53.663 E37.8248
G1 X141.25 Y53.864 E37.85238
G1 X141.772 Y54.068 E37.87847
G1 X142.329 Y54.301 E37.90659
G1 X143.174 Y54.709 E37.95028
G1 X143.98 Y55.187 E37.99392
G1 X144.517 Y55.56 E38.02436
G1 X144.952 Y55.882 E38.04956
G1 X145.399 Y56.228 E38.07588
G1 X146.111 Y56.838 E38.11954
G1 X146.768 Y57.507 E38.1632
G1 X147.211 Y58.031 E38.19515
G1 X147.532 Y58.435 E38.21918
G1 X147.906 Y58.928 E38.24799
G1 X148.433 Y59.704 E38.29167
G1 X148.892 Y60.523 E38.33539
G1 X149.157 Y61.088 E38.36445
G1 X149.473 Y61.823 E38.4017
G1 X149.583 Y62.097 E38.41545
G1 X149.895 Y62.981 E38.4591
G1 X150.131 Y63.889 E38.50279
G1 X150.249 Y64.536 E38.53341
G1 X150.33 Y65.067 E38.55842
G1 X150.41 Y65.69 E38.58767
G1 X150.481 Y66.619 E38.63106
G1 X150.49 Y66.888 E38.64359
G1 X150.496 Y67.254 E38.66063
G1 X150.499 Y84.603 E39.46847
G1 X150.536 Y87.212 E39.58997
G1 X150.643 Y89.733 E39.70747
G1 X150.819 Y92.212 E39.82319
G1 X151.07 Y94.739 E39.94144
G1 X151.388 Y97.221 E40.05795
G1 X151.779 Y99.714 E40.17546
G1 X152.241 Y102.199 E40.29315
G1 X152.77 Y104.658 E40.41027
G1 X153.363 Y107.074 E40.52611
G1 X154.04 Y109.535 E40.64496
G1 X154.772 Y111.927 E40.76144
G1 X155.578 Y114.316 E40.87885
G1 X156.45 Y116.678 E40.99609
G1 X157.392 Y119.023 E41.11376
G1 X158.392 Y121.321 E41.23046
G1 X159.467 Y123.614 E41.34838
G1 X160.589 Y125.841 E41.4645
G1 X161.789 Y128.065 E41.58217
G1 X163.054 Y130.256 E41.69997
G1 X163.959 Y131.741 E41.78095
G1 X164.412 Y132.562 E41.82461
G1 X164.654 Y133.081 E41.85128
G1 X164.979 Y133.837 E41.88959
G1 X165.072 Y134.067 E41.90115
G1 X165.386 Y134.95 E41.94479
G1 X165.624 Y135.857 E41.98845
G1 X165.748 Y136.533 E42.02045
G1 X165.875 Y137.395 E42.06102
G1 X165.906 Y137.649 E42.07294
G1 X165.979 Y138.561 E42.11554
G1 X165.994 Y139.079 E42.13967
G1 X165.998 Y139.485 E42.15858
G1 X165.999 Y167.445 E43.46051
G1 X165.989 Y168.148 E43.49325
G1 X165.94 Y169.043 E43.53499
G1 X165.916 Y169.293 E43.54668
G1 X165.854 Y169.81 E43.57093
G1 X165.782 Y170.31 E43.59445
G1 X165.609 Y171.232 E43.63813
G1 X165.358 Y172.135 E43.68177
G1 X165.133 Y172.762 E43.71279
G1 X164.83 Y173.523 E43.75093
G1 X164.729 Y173.761 E43.76297
G1 X164.326 Y174.608 E43.80665
