;FLAVOR:Marlin
;TIME:1088
;Filament used: 0.599589m
;Layer height: 0.2
;MINX:93.361
;MINY:67.213
;MINZ:0.2
;MAXX:140.212
;MAXY:168.059
;MAXZ:7.6
;Generated with Cura_SteamEngine 4.7.0
M140 S55
M105
M190 S55
M104 S210
M105
M109 S210
M82 ;absolute extrusion mode
; Ender 3 Custom Start G-code
G92 E0 ; Reset Extruder
G28 ; Home all axes
G1 Z2.0 F3000 ; Move Z Axis up little to prevent scratching of Heat Bed
G1 X0.1 Y20 Z0.3 F5000.0 ; Move to start position
G1 X0.1 Y200.0 Z0.3 F1500.0 E15 ; Draw the first line
G1 X0.4 Y200.0 Z0.3 F5000.0 ; Move to side a little
G1 X0.4 Y20 Z0.3 F1500.0 E30 ; Draw the second line
G92 E0 ; Reset Extruder
G1 Z2.0 F3000 ; Move Z Axis up little to prevent scratching of Heat Bed
G1 X5 Y20 Z0.3 F5000.0 ; Move over to prevent blob squish
G92 E0
G92 E0
G1 F2700 E-5
;LAYER_COUNT:38
;LAYER:0
M107
G0 F6000 X98.195 Y87.74 Z0.2
;TYPE:SKIRT
G1 F2700 E0
G1 F1200 X98.424 Y87.486 E0.01137
G1 X98.879 Y87.011 E0.03325
G1 X99.127 Y86.767 E0.04482
G1 X99.334 Y86.568 E0.05437
G1 X99.586 Y86.333 E0.06583
G1 X101.405 Y84.584 E0.14976
G1 X103.178 Y82.779 E0.23392
G1 X104.897 Y80.928 E0.31793
G1 X106.556 Y79.035 E0.40165
G1 X108.149 Y77.112 E0.48471
G1 X109.711 Y75.114 E0.56906
G1 X111.204 Y73.088 E0.65276
G1 X111.304 Y72.946 E0.65854
G1 X112.108 Y71.82 E0.70456
G1 X112.685 Y71.081 E0.73574
G1 X113.323 Y70.393 E0.76695
G1 X114.017 Y69.762 E0.79815
G1 X114.762 Y69.193 E0.82933
G1 X115.554 Y68.689 E0.86055
G1 X116.385 Y68.255 E0.89173
G1 X117.25 Y67.893 E0.92292
G1 X118.143 Y67.606 E0.95412
G1 X119.057 Y67.396 E0.98531
G1 X119.985 Y67.265 E1.01648
G1 X120.922 Y67.213 E1.04769
G1 X121.859 Y67.241 E1.07887
G1 X122.791 Y67.349 E1.11008
G1 X123.71 Y67.536 E1.14127
G1 X124.61 Y67.801 E1.17248
G1 X125.409 Y68.108 E1.20094
G1 X125.725 Y68.244 E1.21239
G1 X126.023 Y68.378 E1.22325
G1 X126.595 Y68.646 E1.24426
G1 X127.252 Y68.964 E1.26854
G1 X128.078 Y69.408 E1.29973
G1 X128.864 Y69.921 E1.33095
G1 X129.602 Y70.499 E1.36213
G1 X130.289 Y71.138 E1.39333
G1 X130.919 Y71.833 E1.42453
G1 X131.487 Y72.579 E1.45572
G1 X131.99 Y73.371 E1.48692
G1 X132.423 Y74.202 E1.51809
G1 X132.784 Y75.068 E1.5493
G1 X133.07 Y75.961 E1.58048
G1 X133.279 Y76.876 E1.6117
G1 X133.409 Y77.804 E1.64287
G1 X133.459 Y78.741 E1.67408
G1 X133.43 Y79.678 E1.70526
G1 X133.321 Y80.61 E1.73646
G1 X133.133 Y81.529 E1.76766
G1 X132.988 Y82.051 E1.78568
G1 X132.666 Y83.112 E1.82256
G1 X132.488 Y83.671 E1.84207
G1 X131.797 Y86.074 E1.92524
G1 X131.162 Y88.541 E2.00996
G1 X130.615 Y90.942 E2.09187
G1 X130.121 Y93.437 E2.17646
G1 X129.694 Y95.965 E2.26174
G1 X129.355 Y98.395 E2.34334
G1 X129.073 Y100.93 E2.42817
G1 X128.867 Y103.441 E2.51197
G1 X128.73 Y105.972 E2.59628
G1 X128.666 Y108.453 E2.67882
G1 X128.673 Y110.983 E2.76297
G1 X128.75 Y113.493 E2.84649
G1 X128.901 Y116.03 E2.93102
G1 X129.118 Y118.508 E3.01376
G1 X129.413 Y121.046 E3.09874
G1 X129.769 Y123.504 E3.18135
G1 X130.204 Y126.001 E3.26565
G1 X130.705 Y128.464 E3.34924
G1 X131.267 Y130.88 E3.43175
G1 X131.92 Y133.362 E3.51711
G1 X132.623 Y135.757 E3.60013
G1 X133.402 Y138.159 E3.68411
G1 X134.241 Y140.517 E3.76736
G1 X135.158 Y142.878 E3.8516
G1 X136.132 Y145.189 E3.93501
G1 X137.177 Y147.487 E4.01897
G1 X138.289 Y149.76 E4.10314
G1 X138.904 Y150.951 E4.14772
G1 X139.089 Y151.324 E4.16157
G1 X139.466 Y152.182 E4.19274
G1 X139.769 Y153.07 E4.22395
G1 X139.996 Y153.98 E4.25514
G1 X140.143 Y154.906 E4.28632
G1 X140.212 Y155.842 E4.31754
G1 X140.2 Y156.779 E4.34871
G1 X140.109 Y157.713 E4.37992
G1 X139.939 Y158.635 E4.4111
G1 X139.69 Y159.539 E4.44229
G1 X139.366 Y160.419 E4.47348
G1 X138.967 Y161.268 E4.50468
G1 X138.498 Y162.08 E4.53587
G1 X137.961 Y162.85 E4.56709
G1 X137.361 Y163.57 E4.59826
G1 X136.702 Y164.237 E4.62945
G1 X135.823 Y164.972 E4.66756
G1 X135.582 Y165.153 E4.67758
G1 X135.295 Y165.361 E4.68937
G1 X134.723 Y165.761 E4.71259
G1 X134.152 Y166.15 E4.73557
G1 X133.355 Y166.644 E4.76676
G1 X132.519 Y167.069 E4.79795
G1 X131.65 Y167.421 E4.82913
G1 X130.754 Y167.698 E4.86032
G1 X129.837 Y167.897 E4.89153
G1 X128.907 Y168.018 E4.92273
G1 X127.97 Y168.059 E4.95392
G1 X127.033 Y168.02 E4.98511
G1 X126.103 Y167.901 E5.0163
G1 X125.186 Y167.704 E5.04749
G1 X124.289 Y167.429 E5.0787
G1 X123.419 Y167.079 E5.10989
G1 X122.582 Y166.655 E5.14109
G1 X121.785 Y166.163 E5.17225
G1 X121.031 Y165.604 E5.20347
G1 X120.263 Y164.918 E5.23772
G1 X118.258 Y162.955 E5.33104
G1 X116.394 Y161.229 E5.41554
G1 X114.514 Y159.586 E5.49858
G1 X112.55 Y157.966 E5.58326
G1 X110.575 Y156.428 E5.66651
G1 X108.576 Y154.959 E5.74902
G1 X105.63 Y152.945 E5.86772
G1 X105.063 Y152.573 E5.89027
G1 X104.668 Y152.301 E5.90622
G1 X104.47 Y152.16 E5.91431
G1 X104.173 Y151.945 E5.9265
G1 X104.108 Y151.896 E5.92921
G1 X103.807 Y151.66 E5.94193
G1 X103.481 Y151.396 E5.95588
G1 X103.001 Y150.984 E5.97692
G1 X102.794 Y150.795 E5.98624
G1 X102.545 Y150.563 E5.99756
G1 X102.126 Y150.15 E6.01713
G1 X101.876 Y149.89 E6.02913
G1 X101.673 Y149.673 E6.03901
G1 X101.383 Y149.35 E6.05345
G1 X101.294 Y149.247 E6.05798
G1 X101.058 Y148.965 E6.07021
G1 X100.836 Y148.69 E6.08196
G1 X100.614 Y148.405 E6.09398
G1 X100.528 Y148.291 E6.09873
G1 X100.335 Y148.028 E6.10958
G1 X100.128 Y147.736 E6.12148
G1 X99.755 Y147.173 E6.14394
G1 X99.457 Y146.689 E6.16285
G1 X99.273 Y146.378 E6.17487
G1 X99.042 Y145.955 E6.1909
G1 X98.849 Y145.583 E6.20484
G1 X98.7 Y145.284 E6.21595
G1 X98.637 Y145.153 E6.22078
G1 X98.429 Y144.695 E6.23751
G1 X98.297 Y144.385 E6.24872
G1 X98.173 Y144.082 E6.25961
G1 X98.112 Y143.926 E6.26518
G1 X97.977 Y143.562 E6.27809
G1 X97.817 Y143.106 E6.29417
G1 X97.653 Y142.6 E6.31186
G1 X97.515 Y142.136 E6.32796
G1 X97.445 Y141.887 E6.33656
G1 X97.117 Y140.681 E6.37813
G1 X97.035 Y140.362 E6.38908
G1 X96.72 Y139.05 E6.43396
G1 X96.647 Y138.725 E6.44504
G1 X96.392 Y137.501 E6.48663
G1 X96.341 Y137.238 E6.49554
G1 X96.218 Y136.566 E6.51826
G1 X96.186 Y136.384 E6.5244
G1 X96.026 Y135.418 E6.55697
G1 X95.889 Y134.552 E6.58613
G1 X95.38 Y131.41 E6.692
G1 X95.174 Y130.154 E6.73433
G1 X94.858 Y128.171 E6.80112
G1 X94.684 Y127.019 E6.83987
G1 X94.536 Y125.98 E6.87477
G1 X94.399 Y124.955 E6.90917
G1 X94.259 Y123.845 E6.94638
G1 X94.152 Y122.91 E6.97768
G1 X94.038 Y121.836 E7.0136
G1 X93.929 Y120.699 E7.05159
G1 X93.845 Y119.734 E7.08381
G1 X93.762 Y118.659 E7.11967
G1 X93.693 Y117.646 E7.15344
G1 X93.63 Y116.574 E7.18916
G1 X93.576 Y115.47 E7.22592
G1 X93.538 Y114.52 E7.25754
G1 X93.504 Y113.456 E7.29295
G1 X93.472 Y112.038 E7.34013
G1 X93.454 Y110.634 E7.38683
G1 X93.407 Y107.514 E7.49061
G1 X93.383 Y105.993 E7.54121
G1 X93.365 Y104.56 E7.58887
G1 X93.361 Y103.91 E7.61049
G1 X93.362 Y103.7 E7.61748
G1 X93.375 Y102.693 E7.65097
G1 X93.383 Y102.395 E7.66089
G1 X93.431 Y101.197 E7.70076
G1 X93.449 Y100.872 E7.71159
G1 X93.537 Y99.61 E7.75367
G1 X93.562 Y99.31 E7.76368
G1 X93.651 Y98.395 E7.79426
G1 X93.692 Y98.036 E7.80627
G1 X93.797 Y97.232 E7.83324
G1 X93.898 Y96.598 E7.85459
G1 X93.971 Y96.221 E7.86737
G1 X94.028 Y95.945 E7.87674
G1 X94.111 Y95.576 E7.88932
G1 X94.144 Y95.44 E7.89397
G1 X94.258 Y95.008 E7.90883
G1 X94.355 Y94.669 E7.92056
G1 X94.526 Y94.125 E7.93953
G1 X94.631 Y93.819 E7.95029
G1 X94.713 Y93.59 E7.95838
G1 X94.805 Y93.34 E7.96724
G1 X95.042 Y92.748 E7.98845
G1 X95.197 Y92.392 E8.00136
G1 X95.351 Y92.056 E8.01366
G1 X95.44 Y91.869 E8.02054
G1 X95.82 Y91.14 E8.04789
G1 X96.213 Y90.452 E8.07424
G1 X96.694 Y89.686 E8.10432
G1 X96.849 Y89.46 E8.11344
G1 X97.094 Y89.113 E8.12757
G1 X97.392 Y88.713 E8.14416
G1 X97.517 Y88.553 E8.15091
G1 X97.687 Y88.34 E8.15997
G1 X97.867 Y88.121 E8.1694
G1 X98.195 Y87.74 E8.18612
G0 F6000 X98.492 Y88.008
G1 F1200 X98.721 Y87.754 E8.1975
G1 X99.16 Y87.296 E8.2186
G1 X99.408 Y87.052 E8.23017
G1 X99.607 Y86.861 E8.23935
G1 X99.817 Y86.665 E8.2489
G1 X101.703 Y84.852 E8.33591
G1 X103.475 Y83.048 E8.42002
G1 X105.192 Y81.199 E8.50394
G1 X106.849 Y79.309 E8.58754
G1 X108.47 Y77.351 E8.67209
G1 X110.035 Y75.349 E8.7566
G1 X111.521 Y73.333 E8.8399
G1 X111.629 Y73.178 E8.84619
G1 X112.433 Y72.052 E8.8922
G1 X113 Y71.327 E8.92282
G1 X113.628 Y70.654 E8.95343
G1 X114.312 Y70.037 E8.98407
G1 X115.047 Y69.483 E9.01468
G1 X115.827 Y68.994 E9.0453
G1 X116.647 Y68.574 E9.07595
G1 X117.5 Y68.228 E9.10656
G1 X118.379 Y67.957 E9.13715
G1 X119.279 Y67.763 E9.16778
G1 X120.193 Y67.648 E9.19842
G1 X121.113 Y67.612 E9.22904
G1 X122.032 Y67.657 E9.25964
G1 X122.945 Y67.781 E9.29029
G1 X123.843 Y67.984 E9.32091
G1 X124.72 Y68.264 E9.35153
G1 X125.25 Y68.475 E9.3705
G1 X125.566 Y68.611 E9.38194
G1 X125.854 Y68.74 E9.39244
G1 X126.281 Y68.939 E9.40811
G1 X127.078 Y69.324 E9.43755
G1 X127.889 Y69.761 E9.46819
G1 X128.658 Y70.266 E9.49879
G1 X129.381 Y70.836 E9.52941
G1 X130.051 Y71.467 E9.56002
G1 X130.665 Y72.154 E9.59067
G1 X131.216 Y72.891 E9.62127
G1 X131.702 Y73.673 E9.65189
G1 X132.117 Y74.495 E9.68252
G1 X132.46 Y75.349 E9.71313
G1 X132.727 Y76.23 E9.74375
G1 X132.917 Y77.131 E9.77438
G1 X133.028 Y78.045 E9.805
G1 X133.06 Y78.965 E9.83562
G1 X133.011 Y79.884 E9.86623
G1 X132.883 Y80.796 E9.89686
G1 X132.606 Y81.935 E9.93584
G1 X132.33 Y82.847 E9.96754
G1 X132.109 Y83.545 E9.99189
G1 X131.399 Y86.011 E10.07724
G1 X130.778 Y88.424 E10.16011
G1 X130.226 Y90.847 E10.24276
G1 X129.721 Y93.399 E10.32929
G1 X129.303 Y95.875 E10.41281
G1 X128.953 Y98.386 E10.49713
G1 X128.675 Y100.889 E10.58089
G1 X128.466 Y103.422 E10.66543
G1 X128.332 Y105.905 E10.74813
G1 X128.266 Y108.479 E10.83377
G1 X128.273 Y110.996 E10.91749
G1 X128.351 Y113.529 E11.00178
G1 X128.499 Y116.017 E11.08467
G1 X128.724 Y118.592 E11.17064
G1 X129.013 Y121.074 E11.25375
G1 X129.374 Y123.564 E11.33744
G1 X129.811 Y126.078 E11.42231
G1 X130.308 Y128.521 E11.50523
G1 X130.886 Y131.008 E11.59015
G1 X131.523 Y133.429 E11.67341
G1 X132.246 Y135.888 E11.75866
G1 X133.021 Y138.279 E11.84226
G1 X133.879 Y140.69 E11.92738
G1 X134.776 Y143 E12.0098
G1 X135.777 Y145.374 E12.09549
G1 X136.812 Y147.65 E12.17865
G1 X137.95 Y149.977 E12.2648
G1 X138.548 Y151.135 E12.30815
G1 X138.643 Y151.323 E12.31516
G1 X138.73 Y151.5 E12.32172
G1 X139.1 Y152.343 E12.35234
G1 X139.395 Y153.215 E12.38295
G1 X139.614 Y154.11 E12.4136
G1 X139.754 Y155.02 E12.44422
G1 X139.814 Y155.938 E12.47482
G1 X139.795 Y156.859 E12.50546
G1 X139.696 Y157.774 E12.53607
G1 X139.518 Y158.677 E12.56668
G1 X139.262 Y159.562 E12.59732
G1 X138.93 Y160.42 E12.62792
G1 X138.525 Y161.247 E12.65855
G1 X138.05 Y162.036 E12.68918
G1 X137.508 Y162.78 E12.7198
G1 X136.904 Y163.475 E12.75042
G1 X136.242 Y164.114 E12.78103
G1 X135.583 Y164.652 E12.80932
G1 X135.342 Y164.833 E12.81934
G1 X135.065 Y165.034 E12.83073
G1 X134.619 Y165.347 E12.84885
G1 X133.927 Y165.819 E12.87671
G1 X133.144 Y166.304 E12.90734
G1 X132.323 Y166.719 E12.93794
G1 X131.468 Y167.061 E12.96857
G1 X130.587 Y167.328 E12.99919
G1 X129.686 Y167.517 E13.02981
G1 X128.772 Y167.628 E13.06043
G1 X127.852 Y167.658 E13.09105
G1 X126.932 Y167.609 E13.12169
G1 X126.021 Y167.48 E13.15229
G1 X125.124 Y167.273 E13.18291
G1 X124.248 Y166.988 E13.21355
G1 X123.401 Y166.629 E13.24415
G1 X122.587 Y166.197 E13.2748
G1 X121.815 Y165.697 E13.30539
G1 X121.088 Y165.131 E13.33603
G1 X120.542 Y164.632 E13.36063
G1 X118.509 Y162.641 E13.45528
G1 X116.664 Y160.933 E13.5389
G1 X114.769 Y159.277 E13.6226
G1 X112.827 Y157.674 E13.70636
G1 X110.812 Y156.106 E13.79128
G1 X108.804 Y154.63 E13.87416
G1 X105.818 Y152.589 E13.99446
G1 X105.283 Y152.238 E14.01574
G1 X104.901 Y151.976 E14.03115
G1 X104.7 Y151.833 E14.03936
G1 X104.414 Y151.625 E14.05112
G1 X104.349 Y151.576 E14.05383
G1 X104.059 Y151.35 E14.06605
G1 X103.733 Y151.086 E14.08001
G1 X103.27 Y150.688 E14.10031
G1 X103.067 Y150.502 E14.10947
G1 X102.818 Y150.27 E14.12079
G1 X102.414 Y149.873 E14.13963
G1 X102.168 Y149.616 E14.15146
G1 X101.965 Y149.399 E14.16134
G1 X101.685 Y149.088 E14.17526
G1 X101.596 Y148.985 E14.17979
G1 X101.369 Y148.713 E14.19157
G1 X101.147 Y148.438 E14.20333
G1 X100.933 Y148.164 E14.21489
G1 X100.847 Y148.05 E14.21964
G1 X100.661 Y147.796 E14.23011
G1 X100.454 Y147.504 E14.24202
G1 X100.095 Y146.962 E14.26364
G1 X99.922 Y146.684 E14.27453
G1 X99.798 Y146.481 E14.28244
G1 X99.62 Y146.178 E14.29413
G1 X99.397 Y145.771 E14.30957
G1 X99.204 Y145.399 E14.32351
G1 X99.06 Y145.111 E14.33422
G1 X98.997 Y144.98 E14.33905
G1 X98.797 Y144.539 E14.35516
G1 X98.665 Y144.229 E14.36636
G1 X98.546 Y143.936 E14.37688
G1 X98.485 Y143.78 E14.38245
G1 X98.355 Y143.43 E14.39487
G1 X98.195 Y142.974 E14.41094
G1 X98.037 Y142.486 E14.428
G1 X97.899 Y142.022 E14.4441
G1 X97.831 Y141.782 E14.4524
G1 X97.503 Y140.576 E14.49397
G1 X97.424 Y140.269 E14.50451
G1 X97.109 Y138.957 E14.54939
G1 X97.039 Y138.644 E14.56006
G1 X96.784 Y137.42 E14.60164
G1 X96.734 Y137.166 E14.61025
G1 X96.611 Y136.494 E14.63297
G1 X96.421 Y135.355 E14.67138
G1 X96.284 Y134.489 E14.70054
G1 X95.775 Y131.346 E14.80644
G1 X95.569 Y130.091 E14.84874
G1 X95.254 Y128.111 E14.91542
G1 X95.08 Y126.962 E14.95408
G1 X94.932 Y125.927 E14.98885
G1 X94.796 Y124.905 E15.02314
G1 X94.657 Y123.799 E15.06022
G1 X94.55 Y122.868 E15.09139
G1 X94.436 Y121.797 E15.12721
G1 X94.327 Y120.664 E15.16507
G1 X94.244 Y119.703 E15.19715
G1 X94.161 Y118.631 E15.23291
G1 X94.092 Y117.623 E15.26652
G1 X94.03 Y116.554 E15.30213
G1 X93.976 Y115.454 E15.33876
G1 X93.937 Y114.507 E15.37028
G1 X93.906 Y113.544 E15.40233
G1 X93.872 Y112.033 E15.4526
G1 X93.854 Y110.629 E15.4993
G1 X93.807 Y107.508 E15.60312
G1 X93.783 Y105.988 E15.65368
G1 X93.765 Y104.557 E15.70128
G1 X93.761 Y103.907 E15.7229
G1 X93.762 Y103.705 E15.72962
G1 X93.775 Y102.698 E15.76311
G1 X93.782 Y102.411 E15.77266
G1 X93.83 Y101.213 E15.81254
G1 X93.848 Y100.9 E15.82297
G1 X93.936 Y99.638 E15.86504
G1 X93.96 Y99.349 E15.87469
G1 X94.049 Y98.434 E15.90526
G1 X94.088 Y98.087 E15.91688
G1 X94.193 Y97.283 E15.94385
G1 X94.291 Y96.673 E15.96439
G1 X94.363 Y96.302 E15.97696
G1 X94.42 Y96.026 E15.98634
G1 X94.5 Y95.67 E15.99847
G1 X94.533 Y95.534 E16.00313
G1 X94.643 Y95.118 E16.01744
G1 X94.74 Y94.779 E16.02917
G1 X94.905 Y94.255 E16.04744
G1 X95.01 Y93.949 E16.0582
G1 X95.088 Y93.728 E16.06599
G1 X95.18 Y93.478 E16.07485
G1 X95.409 Y92.908 E16.09529
G1 X95.564 Y92.552 E16.1082
G1 X95.712 Y92.228 E16.12005
G1 X95.801 Y92.041 E16.12694
G1 X96.168 Y91.338 E16.15331
G1 X96.561 Y90.65 E16.17966
G1 X97.023 Y89.913 E16.2086
G1 X97.178 Y89.687 E16.21771
G1 X97.42 Y89.345 E16.23165
G1 X97.707 Y88.959 E16.24764
G1 X97.832 Y88.799 E16.2544
G1 X97.996 Y88.594 E16.26313
G1 X98.176 Y88.375 E16.27256
G1 X98.492 Y88.008 E16.28866
G0 F6000 X98.789 Y88.276
G1 F1200 X99.018 Y88.022 E16.30004
G1 X99.44 Y87.581 E16.32034
G1 X99.688 Y87.337 E16.33191
G1 X99.88 Y87.153 E16.34076
G1 X100.084 Y86.962 E16.35005
G1 X102 Y85.121 E16.43843
G1 X103.753 Y83.336 E16.52164
G1 X105.483 Y81.473 E16.6062
G1 X107.174 Y79.544 E16.69152
G1 X108.764 Y77.625 E16.77441
G1 X110.354 Y75.59 E16.8603
G1 X111.851 Y73.559 E16.94422
G1 X111.955 Y73.411 E16.95024
G1 X112.759 Y72.285 E16.99626
G1 X113.316 Y71.574 E17.0263
G1 X113.933 Y70.915 E17.05632
G1 X114.607 Y70.313 E17.08638
G1 X115.331 Y69.773 E17.11642
G1 X116.1 Y69.299 E17.14647
G1 X116.907 Y68.896 E17.17647
G1 X117.748 Y68.565 E17.20653
G1 X118.614 Y68.31 E17.23655
G1 X119.499 Y68.132 E17.26658
G1 X120.397 Y68.034 E17.29662
G1 X121.3 Y68.015 E17.32666
G1 X122.201 Y68.076 E17.3567
G1 X123.093 Y68.217 E17.38674
G1 X123.969 Y68.436 E17.41677
G1 X125.092 Y68.843 E17.4565
G1 X125.408 Y68.979 E17.46794
G1 X125.685 Y69.103 E17.47803
G1 X126.247 Y69.366 E17.49867
G1 X126.904 Y69.684 E17.52295
G1 X127.698 Y70.113 E17.55297
G1 X128.452 Y70.611 E17.58302
G1 X129.159 Y71.173 E17.61306
G1 X129.813 Y71.796 E17.6431
G1 X130.409 Y72.474 E17.67312
G1 X130.944 Y73.202 E17.70317
G1 X131.411 Y73.975 E17.73321
G1 X131.809 Y74.785 E17.76323
G1 X132.133 Y75.628 E17.79327
G1 X132.381 Y76.497 E17.82332
G1 X132.552 Y77.384 E17.85337
G1 X132.643 Y78.282 E17.88339
G1 X132.655 Y79.185 E17.91343
G1 X132.587 Y80.086 E17.94348
G1 X132.439 Y80.976 E17.97349
G1 X132.223 Y81.82 E18.00246
G1 X131.947 Y82.732 E18.03415
G1 X131.716 Y83.461 E18.05959
G1 X131.025 Y85.864 E18.14275
G1 X130.385 Y88.35 E18.22813
G1 X129.831 Y90.779 E18.311
