; generated by PrusaSlicer 2.3.0+ on 2021-03-26 at 00:08:59 UTC

; 

; external perimeters extrusion width = 0.45mm
; perimeters extrusion width = 0.45mm
; infill extrusion width = 0.45mm
; solid infill extrusion width = 0.45mm
; top infill extrusion width = 0.45mm
; first layer extrusion width = 0.42mm

M201 X500 Y500 Z100 E5000 ; sets maximum accelerations, mm/sec^2
M203 X500 Y500 Z10 E60 ; sets maximum feedrates, mm/sec
M204 P500 R1000 T500 ; sets acceleration (P, T) and retract acceleration (R), mm/sec^2
M205 X8.00 Y8.00 Z0.40 E5.00 ; sets the jerk limits, mm/sec
M205 S0 T0 ; sets the minimum extruding and travel feed rate, mm/sec
M107
;TYPE:Custom
G90 ; use absolute coordinates
M83 ; extruder relative mode
M104 S225 ; set extruder temp
M140 S65 ; set bed temp
M190 S65 ; wait for bed temp
M109 S225 ; wait for extruder temp
G28 ; home all
G1 Z2 F240
G1 X2 Y10 F3000
G1 Z0.28 F240
G92 E0
G1 Y190 E15 F1500 ; intro line
G1 X2.3 F5000
G92 E0
G1 Y10 E15 F1200 ; intro line
G92 E0
G21 ; set units to millimeters
G90 ; use absolute coordinates
M83 ; use relative distances for extrusion
; Filament gcode
;LAYER_CHANGE
;Z:0.2
;HEIGHT:0.2
;BEFORE_LAYER_CHANGE
G92 E0
;0.2


G1 E-5.00000 F3600.000
G1 Z0.200 F9000.000
;AFTER_LAYER_CHANGE
;0.2
G1 X38.805 Y38.833
G1 E5.00000 F2400.000
;TYPE:Skirt
;WIDTH:0.42
G1 F1200.000
G1 X39.576 Y38.310 E0.02919
G1 X40.487 Y38.123 E0.02919
G1 X190.504 Y38.123 E4.70366
G1 X191.406 Y38.302 E0.02884
G1 X192.175 Y38.813 E0.02896
G1 X192.690 Y39.576 E0.02884
G1 X192.877 Y40.476 E0.02884
G1 X192.877 Y190.511 E4.70425
G1 X192.698 Y191.406 E0.02860
G1 X192.195 Y192.167 E0.02860
G1 X191.417 Y192.693 E0.02942
G1 X190.500 Y192.877 E0.02934
G1 X40.489 Y192.877 E4.70350
G1 X39.594 Y192.698 E0.02860
G1 X38.833 Y192.195 E0.02860
G1 X38.307 Y191.417 E0.02942
G1 X38.123 Y190.500 E0.02934
G1 X38.123 Y40.489 E4.70350
G1 X38.302 Y39.594 E0.02860
G1 X38.772 Y38.883 E0.02672
G1 E-3.50000 F3600.000
;WIPE_START
G1 F7200.000
G1 X39.576 Y38.310 E-0.46869
G1 X40.487 Y38.123 E-0.44221
G1 X41.570 Y38.123 E-0.51410
;WIPE_END
G1 E-0.07500 F3600.000
G1 X40.790 Y40.790 F9000.000
G1 E5.00000 F2400.000
;TYPE:External perimeter
G1 F1200.000
G1 X190.210 Y40.790 E4.68496
G1 X190.210 Y190.210 E4.68496
G1 X40.790 Y190.210 E4.68496
G1 X40.790 Y40.850 E4.68308
G1 X40.686 Y40.404 F9000.000
G1 X40.710 Y40.850
G1 F1200.000
G1 X40.710 Y40.710 E0.00439
G1 X190.290 Y40.710 E4.68998
G1 X190.290 Y190.290 E4.68998
G1 X40.710 Y190.290 E4.68998
G1 X40.710 Y40.910 E4.68371
G1 X40.809 Y40.751 F9000.000
G1 E-3.50000 F3600.000
;WIPE_START
G1 F7200.000
G1 X40.710 Y40.710 E-0.09500
G1 X43.510 Y40.710 E-1.33000
;WIPE_END
G1 E-0.07500 F3600.000
G1 X50.790 Y50.790 F9000.000
G1 E5.00000 F2400.000
G1 F1200.000
G1 X180.210 Y50.790 E4.05787
G1 X180.210 Y180.210 E4.05787
G1 X50.790 Y180.210 E4.05787
G1 X50.790 Y50.850 E4.05599
G1 X50.686 Y50.404 F9000.000
G1 X50.710 Y50.850
G1 F1200.000
G1 X50.710 Y50.710 E0.00439
G1 X180.290 Y50.710 E4.06289
G1 X180.290 Y180.290 E4.06289
G1 X50.710 Y180.290 E4.06289
G1 X50.710 Y50.910 E4.05662
G1 X50.809 Y50.751 F9000.000
G1 E-3.50000 F3600.000
;WIPE_START
G1 F7200.000
G1 X50.710 Y50.710 E-0.09500
G1 X53.510 Y50.710 E-1.33000
;WIPE_END
G1 E-0.07500 F3600.000
G1 X60.790 Y60.790 F9000.000
G1 E5.00000 F2400.000
G1 F1200.000
G1 X170.210 Y60.790 E3.43079
G1 X170.210 Y170.210 E3.43079
G1 X60.790 Y170.210 E3.43079
G1 X60.790 Y60.850 E3.42891
G1 X60.686 Y60.404 F9000.000
G1 X60.710 Y60.850
G1 F1200.000
G1 X60.710 Y60.710 E0.00439
G1 X170.290 Y60.710 E3.43580
G1 X170.290 Y170.290 E3.43580
G1 X60.710 Y170.290 E3.43580
G1 X60.710 Y60.910 E3.42953
G1 X60.809 Y60.751 F9000.000
G1 E-3.50000 F3600.000
;WIPE_START
G1 F7200.000
G1 X60.710 Y60.710 E-0.09500
G1 X63.510 Y60.710 E-1.33000
;WIPE_END
G1 E-0.07500 F3600.000
G1 X70.790 Y70.790 F9000.000
G1 E5.00000 F2400.000
G1 F1200.000
G1 X160.210 Y70.790 E2.80370
G1 X160.210 Y160.210 E2.80370
G1 X70.790 Y160.210 E2.80370
G1 X70.790 Y70.850 E2.80182
G1 X70.686 Y70.404 F9000.000
G1 X70.710 Y70.850
G1 F1200.000
G1 X70.710 Y70.710 E0.00439
G1 X160.290 Y70.710 E2.80872
G1 X160.290 Y160.290 E2.80872
G1 X70.710 Y160.290 E2.80872
G1 X70.710 Y70.910 E2.80245
G1 X70.809 Y70.751 F9000.000
G1 E-3.50000 F3600.000
;WIPE_START
G1 F7200.000
G1 X70.710 Y70.710 E-0.09500
G1 X73.510 Y70.710 E-1.33000
;WIPE_END
G1 E-0.07500 F3600.000
G1 X80.790 Y80.790 F9000.000
G1 E5.00000 F2400.000
G1 F1200.000
G1 X150.210 Y80.790 E2.17662
G1 X150.210 Y150.210 E2.17662
G1 X80.790 Y150.210 E2.17662
G1 X80.790 Y80.850 E2.17473
G1 X80.686 Y80.404 F9000.000
G1 X80.710 Y80.850
G1 F1200.000
G1 X80.710 Y80.710 E0.00439
G1 X150.290 Y80.710 E2.18163
G1 X150.290 Y150.290 E2.18163
G1 X80.710 Y150.290 E2.18163
G1 X80.710 Y80.910 E2.17536
G1 X80.809 Y80.751 F9000.000
G1 E-3.50000 F3600.000
;WIPE_START
G1 F7200.000
G1 X80.710 Y80.710 E-0.09500
G1 X83.510 Y80.710 E-1.33000
;WIPE_END
G1 E-0.07500 F3600.000
G1 X90.790 Y90.790 F9000.000
G1 E5.00000 F2400.000
G1 F1200.000
G1 X140.210 Y90.790 E1.54953
G1 X140.210 Y140.210 E1.54953
G1 X90.790 Y140.210 E1.54953
G1 X90.790 Y90.850 E1.54765
G1 X90.686 Y90.404 F9000.000
G1 X90.710 Y90.850
G1 F1200.000
G1 X90.710 Y90.710 E0.00439
G1 X140.290 Y90.710 E1.55455
G1 X140.290 Y140.290 E1.55455
G1 X90.710 Y140.290 E1.55455
G1 X90.710 Y90.910 E1.54828
G1 X90.809 Y90.751 F9000.000
G1 E-3.50000 F3600.000
;WIPE_START
G1 F7200.000
G1 X90.710 Y90.710 E-0.09500
G1 X93.510 Y90.710 E-1.33000
;WIPE_END
G1 E-0.07500 F3600.000
G1 X100.790 Y100.790 F9000.000
G1 E5.00000 F2400.000
G1 F1200.000
G1 X130.210 Y100.790 E0.92244
G1 X130.210 Y130.210 E0.92244
G1 X100.790 Y130.210 E0.92244
G1 X100.790 Y100.850 E0.92056
G1 X100.686 Y100.404 F9000.000
G1 X100.710 Y100.850
G1 F1200.000
G1 X100.710 Y100.710 E0.00439
G1 X130.290 Y100.710 E0.92746
G1 X130.290 Y130.290 E0.92746
G1 X100.710 Y130.290 E0.92746
G1 X100.710 Y100.910 E0.92119
G1 X100.809 Y100.751 F9000.000
M106 S255
;LAYER_CHANGE
;Z:0.48
;HEIGHT:0.28
;BEFORE_LAYER_CHANGE
G92 E0
;0.48


G1 E-3.50000 F3600.000
;WIPE_START
G1 F7200.000
G1 X100.710 Y100.710 E-0.09500
G1 X103.510 Y100.710 E-1.33000
;WIPE_END
G1 E-0.07500 F3600.000
G1 Z0.480 F9000.000
;AFTER_LAYER_CHANGE
;0.48
G1 X39.576 Y38.310
G1 E5.00000 F2400.000
;TYPE:Skirt
G1 X40.487 Y38.123 E0.03900
G1 X190.504 Y38.123 E6.28530
G1 X191.406 Y38.302 E0.03854
G1 X192.175 Y38.813 E0.03869
G1 X192.690 Y39.576 E0.03854
G1 X192.877 Y40.476 E0.03854
G1 X192.877 Y190.511 E6.28610
G1 X192.698 Y191.406 E0.03822
G1 X192.195 Y192.167 E0.03822
G1 X191.417 Y192.693 E0.03932
G1 X190.500 Y192.877 E0.03921
G1 X40.489 Y192.877 E6.28510
G1 X39.594 Y192.698 E0.03822
G1 X38.833 Y192.195 E0.03822
G1 X38.307 Y191.417 E0.03932
G1 X38.123 Y190.500 E0.03921
G1 X38.123 Y40.489 E6.28510
G1 X38.302 Y39.594 E0.03822
G1 X38.805 Y38.833 E0.03822
G1 X39.526 Y38.344 E0.03649
G1 E-3.50000 F3600.000
;WIPE_START
G1 F7200.000
G1 X40.487 Y38.123 E-0.46865
G1 X42.501 Y38.123 E-0.95635
;WIPE_END
G1 E-0.07500 F3600.000
G1 X100.775 Y100.775 F9000.000
G1 E5.00000 F2400.000
;TYPE:External perimeter
;WIDTH:0.45
G1 F1500.000
G1 X130.225 Y100.775 E1.33673
G1 X130.225 Y130.225 E1.33673
G1 X100.775 Y130.225 E1.33673
G1 X100.775 Y100.835 E1.33401
G1 X100.671 Y100.389 F9000.000
G1 X100.725 Y100.835
G1 F1500.000
G1 X100.725 Y100.725 E0.00499
G1 X130.275 Y100.725 E1.34127
G1 X130.275 Y130.275 E1.34127
G1 X100.725 Y130.275 E1.34127
G1 X100.725 Y100.895 E1.33355
G1 X100.803 Y100.757 F9000.000
G1 E-3.50000 F3600.000
;WIPE_START
G1 F7200.000
G1 X100.725 Y100.725 E-0.08075
G1 X103.555 Y100.725 E-1.34425
;WIPE_END
G1 E-0.07500 F3600.000
G1 X90.775 Y90.775 F9000.000
G1 E5.00000 F2400.000
G1 F1500.000
G1 X140.225 Y90.775 E2.24452
G1 X140.225 Y140.225 E2.24452
G1 X90.775 Y140.225 E2.24452
G1 X90.775 Y90.835 E2.24180
G1 X90.671 Y90.389 F9000.000
G1 X90.725 Y90.835
G1 F1500.000
G1 X90.725 Y90.725 E0.00499
G1 X140.275 Y90.725 E2.24906
G1 X140.275 Y140.275 E2.24906
G1 X90.725 Y140.275 E2.24906
G1 X90.725 Y90.895 E2.24135
G1 X90.803 Y90.757 F9000.000
G1 E-3.50000 F3600.000
;WIPE_START
G1 F7200.000
G1 X90.725 Y90.725 E-0.08075
G1 X93.555 Y90.725 E-1.34425
;WIPE_END
G1 E-0.07500 F3600.000
G1 X80.775 Y80.775 F9000.000
G1 E5.00000 F2400.000
G1 F1500.000
G1 X150.225 Y80.775 E3.15232
G1 X150.225 Y150.225 E3.15232
G1 X80.775 Y150.225 E3.15232
G1 X80.775 Y80.835 E3.14960
G1 X80.671 Y80.389 F9000.000
G1 X80.725 Y80.835
G1 F1500.000
G1 X80.725 Y80.725 E0.00499
G1 X150.275 Y80.725 E3.15686
G1 X150.275 Y150.275 E3.15686
G1 X80.725 Y150.275 E3.15686
G1 X80.725 Y80.895 E3.14914
G1 X80.803 Y80.757 F9000.000
G1 E-3.50000 F3600.000
;WIPE_START
G1 F7200.000
G1 X80.725 Y80.725 E-0.08075
G1 X83.555 Y80.725 E-1.34425
;WIPE_END
G1 E-0.07500 F3600.000
G1 X70.775 Y70.775 F9000.000
G1 E5.00000 F2400.000
G1 F1500.000
G1 X160.225 Y70.775 E4.06012
G1 X160.225 Y160.225 E4.06012
G1 X70.775 Y160.225 E4.06012
G1 X70.775 Y70.835 E4.05739
G1 X70.671 Y70.389 F9000.000
G1 X70.725 Y70.835
G1 F1500.000
G1 X70.725 Y70.725 E0.00499
G1 X160.275 Y70.725 E4.06466
G1 X160.275 Y160.275 E4.06466
G1 X70.725 Y160.275 E4.06466
G1 X70.725 Y70.895 E4.05694
G1 X70.803 Y70.757 F9000.000
G1 E-3.50000 F3600.000
;WIPE_START
G1 F7200.000
G1 X70.725 Y70.725 E-0.08075
G1 X73.555 Y70.725 E-1.34425
;WIPE_END
G1 E-0.07500 F3600.000
G1 X60.775 Y60.775 F9000.000
G1 E5.00000 F2400.000
G1 F1500.000
G1 X170.225 Y60.775 E4.96791
G1 X170.225 Y170.225 E4.96791
G1 X60.775 Y170.225 E4.96791
G1 X60.775 Y60.835 E4.96519
G1 X60.671 Y60.389 F9000.000
G1 X60.725 Y60.835
G1 F1500.000
G1 X60.725 Y60.725 E0.00499
G1 X170.275 Y60.725 E4.97245
G1 X170.275 Y170.275 E4.97245
G1 X60.725 Y170.275 E4.97245
G1 X60.725 Y60.895 E4.96473
G1 X60.803 Y60.757 F9000.000
G1 E-3.50000 F3600.000
;WIPE_START
G1 F7200.000
G1 X60.725 Y60.725 E-0.08075
G1 X63.555 Y60.725 E-1.34425
;WIPE_END
G1 E-0.07500 F3600.000
G1 X50.775 Y50.775 F9000.000
G1 E5.00000 F2400.000
G1 F1500.000
G1 X180.225 Y50.775 E5.87571
G1 X180.225 Y180.225 E5.87571
G1 X50.775 Y180.225 E5.87571
G1 X50.775 Y50.835 E5.87298
G1 X50.671 Y50.389 F9000.000
G1 X50.725 Y50.835
G1 F1500.000
G1 X50.725 Y50.725 E0.00499
G1 X180.275 Y50.725 E5.88025
G1 X180.275 Y180.275 E5.88025
G1 X50.725 Y180.275 E5.88025
G1 X50.725 Y50.895 E5.87253
G1 X50.803 Y50.757 F9000.000
G1 E-3.50000 F3600.000
;WIPE_START
G1 F7200.000
G1 X50.725 Y50.725 E-0.08075
G1 X53.555 Y50.725 E-1.34425
;WIPE_END
G1 E-0.07500 F3600.000
G1 X40.775 Y40.775 F9000.000
G1 E5.00000 F2400.000
G1 F1500.000
G1 X190.225 Y40.775 E6.78350
G1 X190.225 Y190.225 E6.78350
G1 X40.775 Y190.225 E6.78350
G1 X40.775 Y40.835 E6.78078
G1 X40.671 Y40.389 F9000.000
G1 X40.725 Y40.835
G1 F1500.000
G1 X40.725 Y40.725 E0.00499
G1 X190.275 Y40.725 E6.78804
G1 X190.275 Y190.275 E6.78804
G1 X40.725 Y190.275 E6.78804
G1 X40.725 Y40.895 E6.78033
G1 X40.803 Y40.757 F9000.000
;LAYER_CHANGE
;Z:0.76
;HEIGHT:0.28
;BEFORE_LAYER_CHANGE
G92 E0
;0.76


G1 E-3.50000 F3600.000
;WIPE_START
G1 F7200.000
G1 X40.725 Y40.725 E-0.08075
G1 X43.555 Y40.725 E-1.34425
;WIPE_END
G1 E-0.07500 F3600.000
G1 Z0.760 F9000.000
;AFTER_LAYER_CHANGE
;0.76
G1 X100.775 Y100.775
G1 E5.00000 F2400.000
G1 F1500.000
G1 X130.225 Y100.775 E1.33673
G1 X130.225 Y130.225 E1.33673
G1 X100.775 Y130.225 E1.33673
G1 X100.775 Y100.835 E1.33401
G1 X100.671 Y100.389 F9000.000
G1 X100.725 Y100.835
G1 F1500.000
G1 X100.725 Y100.725 E0.00499
G1 X130.275 Y100.725 E1.34127
G1 X130.275 Y130.275 E1.34127
G1 X100.725 Y130.275 E1.34127
G1 X100.725 Y100.895 E1.33355
G1 X100.803 Y100.757 F9000.000
G1 E-3.50000 F3600.000
;WIPE_START
G1 F7200.000
G1 X100.725 Y100.725 E-0.08075
G1 X103.555 Y100.725 E-1.34425
;WIPE_END
G1 E-0.07500 F3600.000
G1 X90.775 Y90.775 F9000.000
G1 E5.00000 F2400.000
G1 F1500.000
G1 X140.225 Y90.775 E2.24452
G1 X140.225 Y140.225 E2.24452
G1 X90.775 Y140.225 E2.24452
G1 X90.775 Y90.835 E2.24180
G1 X90.671 Y90.389 F9000.000
G1 X90.725 Y90.835
G1 F1500.000
G1 X90.725 Y90.725 E0.00499
G1 X140.275 Y90.725 E2.24906
G1 X140.275 Y140.275 E2.24906
G1 X90.725 Y140.275 E2.24906
G1 X90.725 Y90.895 E2.24135
G1 X90.803 Y90.757 F9000.000
G1 E-3.50000 F3600.000
;WIPE_START
G1 F7200.000
G1 X90.725 Y90.725 E-0.08075
G1 X93.555 Y90.725 E-1.34425
;WIPE_END
G1 E-0.07500 F3600.000
G1 X80.775 Y80.775 F9000.000
G1 E5.00000 F2400.000
G1 F1500.000
G1 X150.225 Y80.775 E3.15232
G1 X150.225 Y150.225 E3.15232
G1 X80.775 Y150.225 E3.15232
G1 X80.775 Y80.835 E3.14960
G1 X80.671 Y80.389 F9000.000
G1 X80.725 Y80.835
G1 F1500.000
G1 X80.725 Y80.725 E0.00499
G1 X150.275 Y80.725 E3.15686
G1 X150.275 Y150.275 E3.15686
G1 X80.725 Y150.275 E3.15686
G1 X80.725 Y80.895 E3.14914
G1 X80.803 Y80.757 F9000.000
G1 E-3.50000 F3600.000
;WIPE_START
G1 F7200.000
G1 X80.725 Y80.725 E-0.08075
G1 X83.555 Y80.725 E-1.34425
;WIPE_END
G1 E-0.07500 F3600.000
G1 X70.775 Y70.775 F9000.000
G1 E5.00000 F2400.000
G1 F1500.000
G1 X160.225 Y70.775 E4.06012
G1 X160.225 Y160.225 E4.06012
G1 X70.775 Y160.225 E4.06012
G1 X70.775 Y70.835 E4.05739
G1 X70.671 Y70.389 F9000.000
G1 X70.725 Y70.835
G1 F1500.000
G1 X70.725 Y70.725 E0.00499
G1 X160.275 Y70.725 E4.06466
G1 X160.275 Y160.275 E4.06466
G1 X70.725 Y160.275 E4.06466
G1 X70.725 Y70.895 E4.05694
G1 X70.803 Y70.757 F9000.000
G1 E-3.50000 F3600.000
;WIPE_START
G1 F7200.000
G1 X70.725 Y70.725 E-0.08075
G1 X73.555 Y70.725 E-1.34425
;WIPE_END
G1 E-0.07500 F3600.000
G1 X60.775 Y60.775 F9000.000
G1 E5.00000 F2400.000
G1 F1500.000
G1 X170.225 Y60.775 E4.96791
G1 X170.225 Y170.225 E4.96791
G1 X60.775 Y170.225 E4.96791
G1 X60.775 Y60.835 E4.96519
G1 X60.671 Y60.389 F9000.000
G1 X60.725 Y60.835
G1 F1500.000
G1 X60.725 Y60.725 E0.00499
G1 X170.275 Y60.725 E4.97245
G1 X170.275 Y170.275 E4.97245
G1 X60.725 Y170.275 E4.97245
G1 X60.725 Y60.895 E4.96473
G1 X60.803 Y60.757 F9000.000
G1 E-3.50000 F3600.000
;WIPE_START
G1 F7200.000
G1 X60.725 Y60.725 E-0.08075
G1 X63.555 Y60.725 E-1.34425
;WIPE_END
G1 E-0.07500 F3600.000
G1 X50.775 Y50.775 F9000.000
G1 E5.00000 F2400.000
G1 F1500.000
G1 X180.225 Y50.775 E5.87571
G1 X180.225 Y180.225 E5.87571
G1 X50.775 Y180.225 E5.87571
G1 X50.775 Y50.835 E5.87298
G1 X50.671 Y50.389 F9000.000
G1 X50.725 Y50.835
G1 F1500.000
G1 X50.725 Y50.725 E0.00499
G1 X180.275 Y50.725 E5.88025
G1 X180.275 Y180.275 E5.88025
G1 X50.725 Y180.275 E5.88025
G1 X50.725 Y50.895 E5.87253
G1 X50.803 Y50.757 F9000.000
G1 E-3.50000 F3600.000
;WIPE_START
G1 F7200.000
G1 X50.725 Y50.725 E-0.08075
G1 X53.555 Y50.725 E-1.34425
;WIPE_END
G1 E-0.07500 F3600.000
G1 X40.775 Y40.775 F9000.000
G1 E5.00000 F2400.000
G1 F1500.000
G1 X190.225 Y40.775 E6.78350
G1 X190.225 Y190.225 E6.78350
G1 X40.775 Y190.225 E6.78350
G1 X40.775 Y40.835 E6.78078
G1 X40.671 Y40.389 F9000.000
G1 X40.725 Y40.835
G1 F1500.000
G1 X40.725 Y40.725 E0.00499
G1 X190.275 Y40.725 E6.78804
G1 X190.275 Y190.275 E6.78804
G1 X40.725 Y190.275 E6.78804
G1 X40.725 Y40.895 E6.78033
G1 X40.803 Y40.757 F9000.000
;LAYER_CHANGE
;Z:1.04
;HEIGHT:0.28
;BEFORE_LAYER_CHANGE
G92 E0
;1.04


G1 E-3.50000 F3600.000
;WIPE_START
G1 F7200.000
G1 X40.725 Y40.725 E-0.08075
G1 X43.555 Y40.725 E-1.34425
;WIPE_END
G1 E-0.07500 F3600.000
G1 Z1.040 F9000.000
;AFTER_LAYER_CHANGE
;1.04
G1 X100.775 Y100.775
G1 E5.00000 F2400.000
G1 F1500.000
G1 X130.225 Y100.775 E1.33673
G1 X130.225 Y130.225 E1.33673
G1 X100.775 Y130.225 E1.33673
G1 X100.775 Y100.835 E1.33401
G1 X100.671 Y100.389 F9000.000
G1 X100.725 Y100.835
G1 F1500.000
G1 X100.725 Y100.725 E0.00499
G1 X130.275 Y100.725 E1.34127
G1 X130.275 Y130.275 E1.34127
G1 X100.725 Y130.275 E1.34127
G1 X100.725 Y100.895 E1.33355
G1 X100.803 Y100.757 F9000.000
G1 E-3.50000 F3600.000
;WIPE_START
G1 F7200.000
G1 X100.725 Y100.725 E-0.08075
G1 X103.555 Y100.725 E-1.34425
;WIPE_END
G1 E-0.07500 F3600.000
G1 X90.775 Y90.775 F9000.000
G1 E5.00000 F2400.000
G1 F1500.000
G1 X140.225 Y90.775 E2.24452
G1 X140.225 Y140.225 E2.24452
G1 X90.775 Y140.225 E2.24452
G1 X90.775 Y90.835 E2.24180
G1 X90.671 Y90.389 F9000.000
G1 X90.725 Y90.835
G1 F1500.000
G1 X90.725 Y90.725 E0.00499
G1 X140.275 Y90.725 E2.24906
G1 X140.275 Y140.275 E2.24906
G1 X90.725 Y140.275 E2.24906
G1 X90.725 Y90.895 E2.24135
G1 X90.803 Y90.757 F9000.000
G1 E-3.50000 F3600.000
;WIPE_START
G1 F7200.000
G1 X90.725 Y90.725 E-0.08075
