; generated by PrusaSlicer 2.3.0+ on 2021-03-22 at 14:38:48 UTC

; 

; external perimeters extrusion width = 0.45mm
; perimeters extrusion width = 0.45mm
; infill extrusion width = 0.45mm
; solid infill extrusion width = 0.45mm
; top infill extrusion width = 0.45mm
; first layer extrusion width = 0.42mm

M201 X500 Y500 Z100 E5000 ; sets maximum accelerations, mm/sec^2
M203 X500 Y500 Z10 E60 ; sets maximum feedrates, mm/sec
M204 P500 R1000 T500 ; sets acceleration (P, T) and retract acceleration (R), mm/sec^2
M205 X8.00 Y8.00 Z0.40 E5.00 ; sets the jerk limits, mm/sec
M205 S0 T0 ; sets the minimum extruding and travel feed rate, mm/sec
M107
;TYPE:Custom
G90 ; use absolute coordinates
M83 ; extruder relative mode
M104 S228 ; set extruder temp
M140 S65 ; set bed temp
M190 S65 ; wait for bed temp
M109 S228 ; wait for extruder temp
G28 ; home all
G1 Z2 F240
G1 X2 Y10 F3000
G1 Z0.28 F240
G92 E0
G1 Y190 E15 F1500 ; intro line
G1 X2.3 F5000
G92 E0
G1 Y10 E15 F1200 ; intro line
G92 E0
G21 ; set units to millimeters
G90 ; use absolute coordinates
M83 ; use relative distances for extrusion
; Filament gcode
;LAYER_CHANGE
;Z:0.2
;HEIGHT:0.2
;BEFORE_LAYER_CHANGE
G92 E0
;0.2


G1 E-5.00000 F3600.000
G1 Z0.200 F9000.000
;AFTER_LAYER_CHANGE
;0.2
G1 X76.177 Y96.085
G1 E5.00000 F2400.000
;TYPE:Skirt
;WIDTH:0.42
G1 F1200.000
G1 X77.051 Y95.457 E0.03373
G1 X77.987 Y95.111 E0.03127
G1 X78.850 Y95.010 E0.02727
G1 X152.140 Y95.010 E2.29794
G1 X152.891 Y95.084 E0.02367
G1 X153.605 Y95.297 E0.02338
G1 X154.268 Y95.645 E0.02345
G1 X154.827 Y96.088 E0.02236
G1 X155.338 Y96.683 E0.02460
G1 X155.687 Y97.300 E0.02223
G1 X155.893 Y97.867 E0.01891
G1 X156.024 Y98.603 E0.02346
G1 X156.036 Y133.693 E1.10021
G1 X155.932 Y134.311 E0.01965
G1 X155.669 Y134.884 E0.01977
G1 X155.264 Y135.367 E0.01977
G1 X154.750 Y135.725 E0.01965
G1 X154.223 Y135.922 E0.01763
G1 X153.669 Y135.990 E0.01752
G1 X77.310 Y135.990 E2.39419
G1 X76.675 Y135.895 E0.02012
G1 X76.092 Y135.636 E0.02000
G1 X75.596 Y135.228 E0.02012
G1 X75.228 Y134.703 E0.02012
G1 X75.032 Y134.184 E0.01740
G1 X74.963 Y133.629 E0.01752
G1 X74.965 Y98.801 E1.09203
G1 X75.132 Y97.776 E0.03254
G1 X75.580 Y96.806 E0.03350
G1 X76.139 Y96.131 E0.02750
G1 E-3.50000 F3600.000
;WIPE_START
G1 F7200.000
G1 X77.051 Y95.457 E-0.53858
G1 X77.987 Y95.111 E-0.47379
G1 X78.849 Y95.010 E-0.41263
;WIPE_END
G1 E-0.07500 F3600.000
G1 X104.266 Y101.327 F9000.000
G1 E5.00000 F2400.000
;TYPE:Perimeter
G1 F1200.000
G1 X104.493 Y100.830 E0.01714
G1 X104.787 Y100.393 E0.01652
G1 X104.992 Y100.156 E0.00981
G1 X105.368 Y99.816 E0.01590
G1 X105.624 Y99.637 E0.00981
G1 X106.089 Y99.389 E0.01652
G1 X106.609 Y99.213 E0.01720
G1 X107.161 Y99.124 E0.01754
G1 X107.674 Y99.125 E0.01608
G1 X107.984 Y99.163 E0.00979
G1 X108.497 Y99.291 E0.01658
G1 X109.010 Y99.515 E0.01754
G1 X109.441 Y99.793 E0.01608
G1 X109.682 Y99.994 E0.00984
G1 X110.051 Y100.388 E0.01692
G1 X110.336 Y100.814 E0.01608
G1 X110.579 Y101.346 E0.01834
G1 X110.717 Y101.855 E0.01652
G1 X110.773 Y102.400 E0.01720
G1 X110.737 Y102.959 E0.01754
G1 X110.622 Y103.459 E0.01608
G1 X110.516 Y103.752 E0.00979
G1 X110.278 Y104.222 E0.01652
G1 X109.954 Y104.663 E0.01714
G1 X109.564 Y105.046 E0.01714
G1 X109.133 Y105.348 E0.01652
G1 X108.605 Y105.602 E0.01836
G1 X108.099 Y105.751 E0.01652
G1 X107.555 Y105.818 E0.01720
G1 X106.996 Y105.793 E0.01754
G1 X106.494 Y105.688 E0.01608
G1 X105.948 Y105.478 E0.01834
G1 X105.493 Y105.212 E0.01652
G1 X105.073 Y104.862 E0.01714
G1 X104.715 Y104.449 E0.01714
G1 X104.438 Y103.998 E0.01659
G1 X104.304 Y103.701 E0.01021
G1 X104.151 Y103.213 E0.01606
G1 X104.073 Y102.672 E0.01712
G1 X104.084 Y102.145 E0.01652
G1 X104.128 Y101.836 E0.00981
G1 X104.250 Y101.385 E0.01464
G1 X104.614 Y101.484 F9000.000
G1 F1200.000
G1 X104.823 Y101.015 E0.01611
G1 X105.087 Y100.622 E0.01483
G1 X105.262 Y100.421 E0.00836
G1 X105.604 Y100.112 E0.01445
G1 X105.822 Y99.959 E0.00836
G1 X106.240 Y99.736 E0.01483
G1 X106.700 Y99.580 E0.01524
G1 X107.191 Y99.501 E0.01560
G1 X107.651 Y99.502 E0.01441
G1 X107.915 Y99.534 E0.00835
G1 X108.375 Y99.649 E0.01486
G1 X108.831 Y99.848 E0.01560
G1 X109.217 Y100.097 E0.01441
G1 X109.423 Y100.268 E0.00838
G1 X109.754 Y100.623 E0.01522
G1 X110.010 Y101.005 E0.01441
G1 X110.221 Y101.467 E0.01594
G1 X110.345 Y101.924 E0.01483
G1 X110.395 Y102.407 E0.01524
G1 X110.362 Y102.904 E0.01560
G1 X110.259 Y103.352 E0.01441
G1 X110.169 Y103.602 E0.00835
G1 X109.955 Y104.024 E0.01483
G1 X109.668 Y104.415 E0.01521
G1 X109.322 Y104.755 E0.01521
G1 X108.935 Y105.026 E0.01483
G1 X108.477 Y105.247 E0.01595
G1 X108.023 Y105.380 E0.01483
G1 X107.540 Y105.440 E0.01524
G1 X107.043 Y105.418 E0.01560
G1 X106.593 Y105.324 E0.01441
G1 X106.119 Y105.141 E0.01594
G1 X105.711 Y104.902 E0.01483
G1 X105.338 Y104.592 E0.01521
G1 X105.020 Y104.226 E0.01521
G1 X104.772 Y103.821 E0.01487
G1 X104.657 Y103.567 E0.00875
G1 X104.519 Y103.129 E0.01440
G1 X104.450 Y102.649 E0.01519
G1 X104.460 Y102.176 E0.01483
G1 X104.498 Y101.912 E0.00836
G1 X104.599 Y101.542 E0.01203
G1 X104.963 Y101.641 F9000.000
;TYPE:External perimeter
G1 F1200.000
G1 X105.154 Y101.199 E0.01508
G1 X105.387 Y100.852 E0.01314
G1 X105.532 Y100.685 E0.00691
G1 X105.839 Y100.407 E0.01300
G1 X106.020 Y100.280 E0.00691
G1 X106.390 Y100.083 E0.01314
G1 X106.791 Y99.948 E0.01329
G1 X107.221 Y99.878 E0.01366
G1 X107.627 Y99.879 E0.01274
G1 X107.846 Y99.906 E0.00691
G1 X108.253 Y100.007 E0.01315
G1 X108.652 Y100.182 E0.01366
G1 X108.994 Y100.402 E0.01274
G1 X109.163 Y100.543 E0.00692
G1 X109.458 Y100.858 E0.01352
G1 X109.684 Y101.196 E0.01274
G1 X109.863 Y101.589 E0.01354
G1 X109.973 Y101.993 E0.01314
G1 X110.016 Y102.414 E0.01329
G1 X109.988 Y102.849 E0.01366
G1 X109.897 Y103.245 E0.01274
G1 X109.822 Y103.452 E0.00691
G1 X109.633 Y103.826 E0.01314
G1 X109.383 Y104.168 E0.01327
G1 X109.080 Y104.464 E0.01327
G1 X108.737 Y104.705 E0.01314
G1 X108.348 Y104.892 E0.01354
G1 X107.946 Y105.010 E0.01314
G1 X107.526 Y105.062 E0.01329
G1 X107.090 Y105.042 E0.01366
G1 X106.692 Y104.959 E0.01274
G1 X106.290 Y104.804 E0.01354
G1 X105.928 Y104.592 E0.01314
G1 X105.603 Y104.322 E0.01327
G1 X105.325 Y104.002 E0.01327
G1 X105.106 Y103.644 E0.01315
G1 X105.010 Y103.432 E0.00730
G1 X104.888 Y103.045 E0.01274
G1 X104.828 Y102.626 E0.01327
G1 X104.837 Y102.207 E0.01314
G1 X104.868 Y101.989 E0.00691
G1 X104.947 Y101.699 E0.00943
G1 X104.704 Y101.335 F9000.000
G1 E-3.50000 F3600.000
;WIPE_START
G1 F7200.000
G1 X105.154 Y101.199 E-0.25670
G1 X105.387 Y100.852 E-0.19903
G1 X105.532 Y100.685 E-0.10468
G1 X105.839 Y100.407 E-0.19699
G1 X106.020 Y100.280 E-0.10468
G1 X106.390 Y100.083 E-0.19903
G1 X106.791 Y99.948 E-0.20127
G1 X107.129 Y99.893 E-0.16261
;WIPE_END
G1 E-0.07500 F3600.000
G1 X106.518 Y98.846 F9000.000
G1 E5.00000 F2400.000
;TYPE:Perimeter
G1 F1200.000
G1 X105.939 Y99.042 E0.01915
G1 X105.427 Y99.315 E0.01821
G1 X105.133 Y99.521 E0.01126
G1 X104.722 Y99.892 E0.01735
G1 X104.487 Y100.163 E0.01126
G1 X104.163 Y100.645 E0.01821
G1 X103.910 Y101.199 E0.01907
G1 X103.758 Y101.759 E0.01821
G1 X103.707 Y102.115 E0.01126
G1 X103.695 Y102.695 E0.01821
G1 X103.782 Y103.297 E0.01905
G1 X103.951 Y103.836 E0.01773
G1 X104.104 Y104.175 E0.01167
G1 X104.410 Y104.673 E0.01831
G1 X104.808 Y105.133 E0.01907
G1 X105.276 Y105.521 E0.01907
G1 X105.777 Y105.815 E0.01821
G1 X106.081 Y105.947 E0.01040
G1 X106.395 Y106.053 E0.01037
G1 X106.949 Y106.168 E0.01775
G1 X107.570 Y106.196 E0.01948
G1 X108.176 Y106.121 E0.01915
G1 X108.733 Y105.958 E0.01821
G1 X109.038 Y105.826 E0.01040
G1 X109.330 Y105.670 E0.01040
G1 X109.806 Y105.337 E0.01821
G1 X110.240 Y104.911 E0.01907
G1 X110.600 Y104.420 E0.01907
G1 X110.863 Y103.902 E0.01821
G1 X110.984 Y103.565 E0.01123
G1 X111.054 Y103.261 E0.00978
G1 X111.058 Y111.059 E0.24449
G1 X78.782 Y111.059 E1.01200
G1 X78.786 Y103.310 E0.24294
G1 X78.965 Y103.877 E0.01865
G1 X79.240 Y104.420 E0.01907
G1 X79.583 Y104.889 E0.01821
G1 X79.811 Y105.130 E0.01040
G1 X80.056 Y105.352 E0.01037
G1 X80.519 Y105.678 E0.01775
G1 X81.053 Y105.937 E0.01862
G1 X81.395 Y106.053 E0.01131
G1 X81.949 Y106.168 E0.01775
G1 X82.570 Y106.196 E0.01948
G1 X83.176 Y106.121 E0.01915
G1 X83.733 Y105.958 E0.01821
G1 X84.063 Y105.815 E0.01126
G1 X84.540 Y105.535 E0.01735
G1 X84.825 Y105.318 E0.01123
G1 X85.230 Y104.922 E0.01775
G1 X85.599 Y104.422 E0.01948
G1 X85.863 Y103.902 E0.01829
G1 X85.984 Y103.565 E0.01123
G1 X86.111 Y103.013 E0.01775
G1 X86.151 Y102.393 E0.01948
G1 X86.089 Y101.786 E0.01915
G1 X85.937 Y101.225 E0.01821
G1 X85.812 Y100.918 E0.01040
G1 X85.662 Y100.623 E0.01037
G1 X85.347 Y100.153 E0.01775
G1 X84.942 Y99.719 E0.01862
G1 X84.664 Y99.488 E0.01131
G1 X84.188 Y99.182 E0.01775
G1 X83.619 Y98.933 E0.01948
G1 X83.204 Y98.829 E0.01341
G1 X106.577 Y98.836 E0.73285
G1 X108.225 Y98.835 F9000.000
G1 F1200.000
G1 X110.987 Y98.835 E0.08658
G1 X111.030 Y98.857 E0.00151
G1 X111.052 Y98.904 E0.00162
G1 X111.053 Y101.654 E0.08622
G1 X110.937 Y101.225 E0.01393
G1 X110.812 Y100.918 E0.01040
G1 X110.662 Y100.623 E0.01037
G1 X110.347 Y100.153 E0.01775
G1 X109.942 Y99.719 E0.01862
G1 X109.664 Y99.488 E0.01131
G1 X109.188 Y99.182 E0.01775
G1 X108.619 Y98.933 E0.01948
G1 X108.284 Y98.849 E0.01084
G1 E-3.50000 F3600.000
;WIPE_START
G1 F7200.000
G1 X110.987 Y98.835 E-1.28408
G1 X111.030 Y98.857 E-0.02294
G1 X111.052 Y98.904 E-0.02453
G1 X111.052 Y99.101 E-0.09345
;WIPE_END
G1 E-0.07500 F3600.000
G1 X81.623 Y98.829 F9000.000
G1 E5.00000 F2400.000
G1 F1200.000
G1 X81.518 Y98.846 E0.00332
G1 X80.939 Y99.042 E0.01915
G1 X80.427 Y99.315 E0.01821
G1 X80.133 Y99.521 E0.01126
G1 X79.722 Y99.892 E0.01735
G1 X79.487 Y100.163 E0.01126
G1 X79.163 Y100.645 E0.01821
G1 X78.910 Y101.199 E0.01907
G1 X78.787 Y101.654 E0.01479
G1 X78.788 Y98.904 E0.08622
G1 X78.802 Y98.865 E0.00129
G1 X78.849 Y98.836 E0.00172
G1 X78.932 Y98.828 E0.00262
G1 X81.563 Y98.829 E0.08248
G1 X81.609 Y99.213 F9000.000
G1 F1200.000
G1 X82.161 Y99.124 E0.01754
G1 X82.674 Y99.125 E0.01608
G1 X82.984 Y99.163 E0.00979
G1 X83.497 Y99.291 E0.01658
G1 X84.010 Y99.515 E0.01754
G1 X84.441 Y99.793 E0.01608
G1 X84.682 Y99.994 E0.00984
G1 X85.051 Y100.388 E0.01692
G1 X85.336 Y100.814 E0.01608
G1 X85.468 Y101.075 E0.00917
G1 X85.579 Y101.346 E0.00919
G1 X85.717 Y101.855 E0.01652
G1 X85.773 Y102.400 E0.01720
G1 X85.737 Y102.959 E0.01754
G1 X85.622 Y103.459 E0.01608
G1 X85.516 Y103.752 E0.00979
G1 X85.277 Y104.224 E0.01658
G1 X84.944 Y104.674 E0.01754
G1 X84.578 Y105.032 E0.01608
G1 X84.330 Y105.222 E0.00979
G1 X83.892 Y105.478 E0.01590
G1 X83.605 Y105.602 E0.00981
G1 X83.099 Y105.751 E0.01652
G1 X82.555 Y105.818 E0.01720
G1 X81.996 Y105.793 E0.01754
G1 X81.494 Y105.688 E0.01608
G1 X81.197 Y105.588 E0.00984
G1 X80.711 Y105.352 E0.01692
G1 X80.292 Y105.057 E0.01608
G1 X80.075 Y104.861 E0.00917
G1 X79.874 Y104.647 E0.00919
G1 X79.562 Y104.222 E0.01652
G1 X79.315 Y103.734 E0.01714
G1 X79.151 Y103.213 E0.01714
G1 X79.073 Y102.672 E0.01714
G1 X79.084 Y102.145 E0.01652
G1 X79.128 Y101.836 E0.00981
G1 X79.266 Y101.327 E0.01652
G1 X79.493 Y100.830 E0.01714
G1 X79.787 Y100.393 E0.01652
G1 X79.992 Y100.156 E0.00981
G1 X80.368 Y99.816 E0.01590
G1 X80.624 Y99.637 E0.00981
G1 X81.089 Y99.389 E0.01652
G1 X81.552 Y99.232 E0.01532
G1 X81.673 Y99.589 F9000.000
G1 F1200.000
G1 X82.191 Y99.501 E0.01648
G1 X82.651 Y99.502 E0.01441
G1 X82.915 Y99.534 E0.00835
G1 X83.375 Y99.649 E0.01486
G1 X83.831 Y99.848 E0.01560
G1 X84.217 Y100.097 E0.01441
G1 X84.423 Y100.268 E0.00838
G1 X84.754 Y100.623 E0.01522
G1 X85.010 Y101.005 E0.01441
G1 X85.125 Y101.232 E0.00797
G1 X85.221 Y101.467 E0.00798
G1 X85.345 Y101.924 E0.01483
G1 X85.395 Y102.407 E0.01524
G1 X85.362 Y102.904 E0.01560
G1 X85.259 Y103.352 E0.01441
G1 X85.169 Y103.602 E0.00835
G1 X84.955 Y104.025 E0.01486
G1 X84.659 Y104.425 E0.01560
G1 X84.330 Y104.747 E0.01441
G1 X84.119 Y104.908 E0.00835
G1 X83.721 Y105.141 E0.01445
G1 X83.477 Y105.247 E0.00836
G1 X83.023 Y105.380 E0.01483
G1 X82.540 Y105.440 E0.01524
G1 X82.043 Y105.418 E0.01560
G1 X81.593 Y105.324 E0.01441
G1 X81.340 Y105.238 E0.00838
G1 X80.903 Y105.026 E0.01522
G1 X80.528 Y104.761 E0.01441
G1 X80.339 Y104.591 E0.00797
G1 X80.164 Y104.406 E0.00798
G1 X79.885 Y104.024 E0.01483
G1 X79.666 Y103.591 E0.01521
G1 X79.519 Y103.129 E0.01521
G1 X79.450 Y102.649 E0.01521
G1 X79.460 Y102.176 E0.01483
G1 X79.498 Y101.912 E0.00836
G1 X79.622 Y101.456 E0.01483
G1 X79.823 Y101.015 E0.01521
G1 X80.087 Y100.622 E0.01483
G1 X80.262 Y100.421 E0.00836
G1 X80.604 Y100.112 E0.01445
G1 X80.822 Y99.959 E0.00836
G1 X81.240 Y99.736 E0.01483
G1 X81.616 Y99.609 E0.01247
G1 X81.737 Y99.966 F9000.000
;TYPE:External perimeter
G1 F1200.000
G1 X82.221 Y99.878 E0.01542
G1 X82.627 Y99.879 E0.01274
G1 X82.846 Y99.906 E0.00691
G1 X83.253 Y100.007 E0.01315
G1 X83.652 Y100.182 E0.01366
G1 X83.994 Y100.402 E0.01274
G1 X84.163 Y100.543 E0.00692
G1 X84.458 Y100.858 E0.01352
G1 X84.684 Y101.196 E0.01274
G1 X84.863 Y101.589 E0.01354
G1 X84.973 Y101.993 E0.01314
G1 X85.016 Y102.414 E0.01329
G1 X84.988 Y102.849 E0.01366
G1 X84.897 Y103.245 E0.01274
G1 X84.822 Y103.452 E0.00691
G1 X84.633 Y103.826 E0.01315
G1 X84.374 Y104.177 E0.01366
G1 X84.083 Y104.461 E0.01274
G1 X83.908 Y104.595 E0.00691
G1 X83.550 Y104.804 E0.01300
G1 X83.348 Y104.892 E0.00691
G1 X82.946 Y105.010 E0.01314
G1 X82.526 Y105.062 E0.01329
G1 X82.090 Y105.042 E0.01366
G1 X81.692 Y104.959 E0.01274
G1 X81.483 Y104.889 E0.00692
G1 X81.096 Y104.700 E0.01352
G1 X80.763 Y104.466 E0.01274
G1 X80.603 Y104.321 E0.00677
G1 X80.455 Y104.164 E0.00678
G1 X80.207 Y103.826 E0.01314
G1 X80.016 Y103.449 E0.01327
G1 X79.888 Y103.045 E0.01327
G1 X79.828 Y102.626 E0.01327
G1 X79.837 Y102.207 E0.01314
G1 X79.868 Y101.989 E0.00691
G1 X79.978 Y101.584 E0.01314
G1 X80.154 Y101.199 E0.01327
G1 X80.387 Y100.852 E0.01314
G1 X80.532 Y100.685 E0.00691
G1 X80.839 Y100.407 E0.01300
G1 X81.020 Y100.280 E0.00691
G1 X81.390 Y100.083 E0.01314
G1 X81.680 Y99.985 E0.00962
G1 X81.843 Y99.580 F9000.000
G1 E-3.50000 F3600.000
;WIPE_START
G1 F7200.000
G1 X82.221 Y99.878 E-0.26184
G1 X82.627 Y99.879 E-0.19304
G1 X82.846 Y99.906 E-0.10462
G1 X83.253 Y100.007 E-0.19922
G1 X83.652 Y100.182 E-0.20692
G1 X83.994 Y100.402 E-0.19304
G1 X84.163 Y100.543 E-0.10480
G1 X84.396 Y100.792 E-0.16153
;WIPE_END
G1 E-0.07500 F3600.000
G1 X78.433 Y98.757 F9000.000
G1 E5.00000 F2400.000
;TYPE:Perimeter
G1 F1200.000
G1 X78.496 Y98.638 E0.00421
G1 X78.668 Y98.497 E0.00698
G1 X78.914 Y98.451 E0.00782
G1 X111.043 Y98.458 E1.00739
G1 X111.150 Y98.491 E0.00352
G1 X111.298 Y98.589 E0.00557
G1 X111.354 Y98.658 E0.00280
G1 X111.407 Y98.757 E0.00349
G1 X111.429 Y98.867 E0.00352
G1 X111.435 Y111.436 E0.39410
G1 X78.405 Y111.436 E1.03565
G1 X78.421 Y98.816 E0.39570
G1 E-3.50000 F3600.000
;WIPE_START
G1 F7200.000
G1 X78.496 Y98.638 E-0.09146
G1 X78.668 Y98.497 E-0.10568
G1 X78.914 Y98.451 E-0.11853
G1 X81.249 Y98.452 E-1.10933
;WIPE_END
G1 E-0.07500 F3600.000
G1 X78.027 Y111.813 F9000.000
G1 E5.00000 F2400.000
G1 F1200.000
G1 X78.034 Y98.829 E0.40709
G1 X78.087 Y98.605 E0.00724
G1 X78.177 Y98.435 E0.00604
G1 X78.335 Y98.266 E0.00723
G1 X78.531 Y98.145 E0.00723
G1 X78.701 Y98.093 E0.00558
G1 X78.895 Y98.074 E0.00611
G1 X111.071 Y98.081 E1.00885
G1 X111.295 Y98.141 E0.00727
G1 X111.439 Y98.218 E0.00513
G1 X111.566 Y98.321 E0.00513
G1 X111.669 Y98.448 E0.00513
G1 X111.753 Y98.604 E0.00554
G1 X111.806 Y98.829 E0.00727
G1 X111.813 Y111.813 E0.40709
G1 X78.087 Y111.813 E1.05743
G1 X77.650 Y112.190 F9000.000
;TYPE:External perimeter
G1 F1200.000
G1 X77.657 Y98.792 E0.42008
G1 X77.741 Y98.451 E0.01100
G1 X77.858 Y98.233 E0.00778
G1 X78.095 Y97.973 E0.01100
G1 X78.395 Y97.792 E0.01100
G1 X78.627 Y97.721 E0.00762
G1 X78.877 Y97.697 E0.00786
G1 X111.099 Y97.704 E1.01029
G1 X111.440 Y97.790 E0.01105
G1 X111.650 Y97.903 E0.00745
G1 X111.834 Y98.053 E0.00745
G1 X111.984 Y98.237 E0.00746
G1 X112.098 Y98.450 E0.00757
G1 X112.183 Y98.792 E0.01105
G1 X112.190 Y112.190 E0.42008
G1 X77.710 Y112.190 E1.08109
G1 X77.806 Y111.822 F9000.000
G1 E-3.50000 F3600.000
;WIPE_START
G1 F7200.000
G1 X77.698 Y109.190 E-1.42500
;WIPE_END
G1 E-0.07500 F3600.000
G1 X79.095 Y104.775 F9000.000
