; generated by PrusaSlicer 2.3.0+ on 2021-03-16 at 15:15:03 UTC

; 

; external perimeters extrusion width = 0.45mm
; perimeters extrusion width = 0.45mm
; infill extrusion width = 0.45mm
; solid infill extrusion width = 0.45mm
; top infill extrusion width = 0.45mm
; first layer extrusion width = 0.42mm

M201 X500 Y500 Z100 E5000 ; sets maximum accelerations, mm/sec^2
M203 X500 Y500 Z10 E60 ; sets maximum feedrates, mm/sec
M204 P500 R1000 T500 ; sets acceleration (P, T) and retract acceleration (R), mm/sec^2
M205 X8.00 Y8.00 Z0.40 E5.00 ; sets the jerk limits, mm/sec
M205 S0 T0 ; sets the minimum extruding and travel feed rate, mm/sec
M107
;TYPE:Custom
G90 ; use absolute coordinates
M83 ; extruder relative mode
M104 S228 ; set extruder temp
M140 S65 ; set bed temp
M190 S65 ; wait for bed temp
M109 S228 ; wait for extruder temp
G28 ; home all
G1 Z2 F240
G1 X2 Y10 F3000
G1 Z0.28 F240
G92 E0
G1 Y190 E15 F1500 ; intro line
G1 X2.3 F5000
G92 E0
G1 Y10 E15 F1200 ; intro line
G92 E0
G21 ; set units to millimeters
G90 ; use absolute coordinates
M83 ; use relative distances for extrusion
; Filament gcode
;LAYER_CHANGE
;Z:0.2
;HEIGHT:0.2
;BEFORE_LAYER_CHANGE
G92 E0
;0.2


G1 E-5.00000 F3600.000
G1 Z0.200 F9000.000
;AFTER_LAYER_CHANGE
;0.2
G1 X88.263 Y102.469
G1 E5.00000 F2400.000
;TYPE:Skirt
;WIDTH:0.42
G1 F1200.000
G1 X88.795 Y102.116 E0.02000
G1 X89.293 Y101.940 E0.01657
G1 X89.818 Y101.879 E0.01657
G1 X141.174 Y101.879 E1.61022
G1 X142.061 Y102.052 E0.02837
G1 X142.818 Y102.543 E0.02825
G1 X143.338 Y103.282 E0.02837
G1 X143.545 Y104.163 E0.02837
G1 X143.543 Y126.874 E0.71207
G1 X143.426 Y127.493 E0.01977
G1 X143.150 Y128.060 E0.01977
G1 X142.734 Y128.534 E0.01977
G1 X142.205 Y128.884 E0.01989
G1 X141.707 Y129.060 E0.01657
G1 X141.182 Y129.121 E0.01657
G1 X89.781 Y129.121 E1.61166
G1 X89.140 Y129.019 E0.02036
G1 X88.547 Y128.745 E0.02048
G1 X88.053 Y128.323 E0.02036
G1 X87.691 Y127.780 E0.02048
G1 X87.516 Y127.285 E0.01645
G1 X87.453 Y126.768 E0.01633
G1 X87.455 Y104.153 E0.70908
G1 X87.568 Y103.525 E0.02000
G1 X87.844 Y102.950 E0.02000
G1 X88.224 Y102.514 E0.01812
G1 E-3.50000 F3600.000
;WIPE_START
G1 F7200.000
G1 X88.795 Y102.116 E-0.33060
G1 X89.293 Y101.940 E-0.25097
G1 X89.818 Y101.879 E-0.25097
G1 X91.065 Y101.879 E-0.59246
;WIPE_END
G1 E-0.07500 F3600.000
G1 X120.880 Y120.648 F9000.000
G1 E5.00000 F2400.000
;TYPE:Perimeter
G1 F1200.000
G1 X121.098 Y120.325 E0.01220
G1 X121.365 Y120.046 E0.01211
G1 X121.676 Y119.817 E0.01211
G1 X122.021 Y119.643 E0.01211
G1 X122.390 Y119.530 E0.01211
G1 X122.752 Y119.483 E0.01146
G1 X123.156 Y119.497 E0.01266
G1 X123.536 Y119.579 E0.01220
G1 X123.895 Y119.723 E0.01211
G1 X124.224 Y119.925 E0.01211
G1 X124.514 Y120.180 E0.01211
G1 X124.756 Y120.481 E0.01211
G1 X124.945 Y120.818 E0.01211
G1 X125.073 Y121.182 E0.01211
G1 X125.138 Y121.561 E0.01204
G1 X125.138 Y121.950 E0.01221
G1 X125.073 Y122.329 E0.01207
G1 X124.945 Y122.694 E0.01211
G1 X124.756 Y123.031 E0.01211
G1 X124.514 Y123.331 E0.01211
G1 X124.224 Y123.587 E0.01211
G1 X123.895 Y123.789 E0.01211
G1 X123.536 Y123.933 E0.01211
G1 X123.159 Y124.014 E0.01211
G1 X122.773 Y124.031 E0.01211
G1 X122.390 Y123.982 E0.01211
G1 X122.021 Y123.869 E0.01211
G1 X121.676 Y123.695 E0.01211
G1 X121.382 Y123.478 E0.01145
G1 X121.100 Y123.189 E0.01266
G1 X120.882 Y122.866 E0.01220
G1 X120.723 Y122.514 E0.01211
G1 X120.625 Y122.141 E0.01211
G1 X120.593 Y121.756 E0.01211
G1 X120.625 Y121.371 E0.01211
G1 X120.717 Y121.017 E0.01145
G1 X120.856 Y120.703 E0.01078
G1 X121.201 Y120.855 F9000.000
;TYPE:External perimeter
G1 F1200.000
G1 X121.393 Y120.563 E0.01093
G1 X121.615 Y120.331 E0.01010
G1 X121.874 Y120.139 E0.01010
G1 X122.162 Y119.994 E0.01010
G1 X122.470 Y119.900 E0.01010
G1 X122.770 Y119.861 E0.00950
G1 X123.110 Y119.872 E0.01065
G1 X123.426 Y119.940 E0.01013
G1 X123.724 Y120.060 E0.01010
G1 X123.999 Y120.229 E0.01010
G1 X124.240 Y120.442 E0.01010
G1 X124.443 Y120.693 E0.01010
G1 X124.600 Y120.974 E0.01010
G1 X124.707 Y121.277 E0.01010
G1 X124.761 Y121.593 E0.01003
G1 X124.761 Y121.918 E0.01020
G1 X124.707 Y122.234 E0.01006
G1 X124.600 Y122.538 E0.01010
G1 X124.443 Y122.819 E0.01010
G1 X124.240 Y123.070 E0.01010
G1 X123.999 Y123.282 E0.01010
G1 X123.724 Y123.451 E0.01010
G1 X123.426 Y123.571 E0.01010
G1 X123.111 Y123.639 E0.01010
G1 X122.789 Y123.653 E0.01010
G1 X122.470 Y123.612 E0.01010
G1 X122.162 Y123.518 E0.01010
G1 X121.874 Y123.373 E0.01010
G1 X121.631 Y123.192 E0.00950
G1 X121.393 Y122.949 E0.01065
G1 X121.212 Y122.682 E0.01013
G1 X121.080 Y122.388 E0.01010
G1 X120.998 Y122.077 E0.01010
G1 X120.971 Y121.756 E0.01010
G1 X120.998 Y121.435 E0.01010
G1 X121.075 Y121.142 E0.00950
G1 X121.177 Y120.909 E0.00795
G1 X121.019 Y120.557 F9000.000
G1 E-3.50000 F3600.000
;WIPE_START
G1 F7200.000
G1 X121.393 Y120.563 E-0.19380
G1 X121.615 Y120.331 E-0.15296
G1 X121.874 Y120.139 E-0.15297
G1 X122.162 Y119.994 E-0.15296
G1 X122.470 Y119.900 E-0.15296
G1 X122.770 Y119.861 E-0.14395
G1 X123.110 Y119.872 E-0.16136
G1 X123.426 Y119.940 E-0.15346
G1 X123.724 Y120.060 E-0.15297
G1 X123.738 Y120.069 E-0.00761
;WIPE_END
G1 E-0.07500 F3600.000
G1 X140.483 Y126.057 F9000.000
G1 E5.00000 F2400.000
;TYPE:Perimeter
G1 F1200.000
G1 X90.517 Y126.057 E1.56663
G1 X90.517 Y104.943 E0.66202
G1 X140.483 Y104.943 E1.56663
G1 X140.483 Y125.997 E0.66014
G1 X140.860 Y126.434 F9000.000
;TYPE:External perimeter
G1 F1200.000
G1 X90.140 Y126.434 E1.59027
G1 X90.140 Y104.566 E0.68567
G1 X140.860 Y104.566 E1.59027
G1 X140.860 Y126.374 E0.68379
G1 X140.463 Y126.380 F9000.000
G1 E-3.50000 F3600.000
;WIPE_START
G1 F7200.000
G1 X137.860 Y126.378 E-1.42500
;WIPE_END
G1 E-0.07500 F3600.000
G1 X139.604 Y105.056 F9000.000
G1 E5.00000 F2400.000
;TYPE:Solid infill
;WIDTH:0.421663
G1 F1200.000
G1 X140.200 Y105.652 E0.02655
G1 X140.200 Y106.188 E0.01687
G1 X139.238 Y105.226 E0.04285
G1 X138.702 Y105.226 E0.01687
G1 X140.200 Y106.723 E0.06670
G1 X140.200 Y107.259 E0.01687
G1 X138.167 Y105.226 E0.09056
G1 X137.631 Y105.226 E0.01687
G1 X140.200 Y107.795 E0.11441
G1 X140.200 Y108.330 E0.01687
G1 X137.095 Y105.226 E0.13827
G1 X136.560 Y105.226 E0.01687
G1 X140.200 Y108.866 E0.16212
G1 X140.200 Y109.401 E0.01687
G1 X136.024 Y105.226 E0.18598
G1 X135.488 Y105.226 E0.01687
G1 X140.200 Y109.937 E0.20983
G1 X140.200 Y110.473 E0.01687
G1 X134.953 Y105.226 E0.23369
G1 X134.417 Y105.226 E0.01687
G1 X140.200 Y111.008 E0.25754
G1 X140.200 Y111.544 E0.01687
G1 X133.882 Y105.226 E0.28140
G1 X133.346 Y105.226 E0.01687
G1 X140.200 Y112.080 E0.30525
G1 X140.200 Y112.615 E0.01687
G1 X132.810 Y105.226 E0.32911
G1 X132.275 Y105.226 E0.01687
G1 X140.200 Y113.151 E0.35296
G1 X140.200 Y113.686 E0.01687
G1 X131.739 Y105.226 E0.37682
G1 X131.203 Y105.226 E0.01687
G1 X140.200 Y114.222 E0.40068
G1 X140.200 Y114.758 E0.01687
G1 X130.668 Y105.226 E0.42453
G1 X130.132 Y105.226 E0.01687
G1 X140.200 Y115.293 E0.44839
G1 X140.200 Y115.829 E0.01687
G1 X129.597 Y105.226 E0.47224
G1 X129.061 Y105.226 E0.01687
G1 X140.200 Y116.365 E0.49610
G1 X140.200 Y116.900 E0.01687
G1 X128.525 Y105.226 E0.51995
G1 X127.990 Y105.226 E0.01687
G1 X140.200 Y117.436 E0.54381
G1 X140.200 Y117.971 E0.01687
G1 X127.454 Y105.226 E0.56766
G1 X126.918 Y105.226 E0.01687
G1 X140.200 Y118.507 E0.59152
G1 X140.200 Y119.043 E0.01687
G1 X126.383 Y105.226 E0.61537
G1 X125.847 Y105.226 E0.01687
G1 X140.200 Y119.578 E0.63923
G1 X140.200 Y120.114 E0.01687
G1 X125.312 Y105.226 E0.66308
G1 X124.776 Y105.226 E0.01687
G1 X140.200 Y120.650 E0.68694
G1 X140.200 Y121.185 E0.01687
G1 X124.240 Y105.226 E0.71079
G1 X123.705 Y105.226 E0.01687
G1 X140.200 Y121.721 E0.73465
G1 X140.200 Y122.256 E0.01687
G1 X123.169 Y105.226 E0.75850
G1 X122.633 Y105.226 E0.01687
G1 X140.200 Y122.792 E0.78236
G1 X140.200 Y123.328 E0.01687
G1 X122.098 Y105.226 E0.80621
G1 X121.562 Y105.226 E0.01687
G1 X140.200 Y123.863 E0.83007
G1 X140.200 Y124.399 E0.01687
G1 X121.027 Y105.226 E0.85392
G1 X120.491 Y105.226 E0.01687
G1 X140.200 Y124.935 E0.87778
G1 X140.200 Y125.470 E0.01687
G1 X119.955 Y105.226 E0.90163
G1 X119.420 Y105.226 E0.01687
G1 X139.968 Y125.774 E0.91518
G1 X139.433 Y125.774 E0.01687
G1 X118.884 Y105.226 E0.91518
G1 X118.348 Y105.226 E0.01687
G1 X138.897 Y125.774 E0.91518
G1 X138.361 Y125.774 E0.01687
G1 X117.813 Y105.226 E0.91518
G1 X117.277 Y105.226 E0.01687
G1 X137.826 Y125.774 E0.91518
G1 X137.290 Y125.774 E0.01687
G1 X116.742 Y105.226 E0.91518
G1 X116.206 Y105.226 E0.01687
G1 X136.755 Y125.774 E0.91518
G1 X136.219 Y125.774 E0.01687
G1 X115.670 Y105.226 E0.91518
G1 X115.135 Y105.226 E0.01687
G1 X135.683 Y125.774 E0.91518
G1 X135.148 Y125.774 E0.01687
G1 X114.599 Y105.226 E0.91518
G1 X114.063 Y105.226 E0.01687
G1 X134.612 Y125.774 E0.91518
G1 X134.076 Y125.774 E0.01687
G1 X113.528 Y105.226 E0.91518
G1 X112.992 Y105.226 E0.01687
G1 X133.541 Y125.774 E0.91518
G1 X133.005 Y125.774 E0.01687
G1 X112.457 Y105.226 E0.91518
G1 X111.921 Y105.226 E0.01687
G1 X132.470 Y125.774 E0.91518
G1 X131.934 Y125.774 E0.01687
G1 X111.385 Y105.226 E0.91518
G1 X110.850 Y105.226 E0.01687
G1 X131.398 Y125.774 E0.91518
G1 X130.863 Y125.774 E0.01687
G1 X110.314 Y105.226 E0.91518
G1 X109.778 Y105.226 E0.01687
G1 X130.327 Y125.774 E0.91518
G1 X129.791 Y125.774 E0.01687
G1 X125.394 Y121.376 E0.19587
G1 X125.421 Y121.536 E0.00511
G1 X125.421 Y121.940 E0.01269
G1 X129.256 Y125.774 E0.17079
G1 X128.720 Y125.774 E0.01687
G1 X125.348 Y122.402 E0.15020
G1 X125.208 Y122.798 E0.01322
G1 X128.185 Y125.774 E0.13258
G1 X127.649 Y125.774 E0.01687
G1 X125.018 Y123.143 E0.11719
G1 X124.785 Y123.446 E0.01203
G1 X127.113 Y125.774 E0.10371
G1 X126.578 Y125.774 E0.01687
G1 X124.513 Y123.709 E0.09198
G1 X124.393 Y123.815 E0.00504
G1 X124.201 Y123.933 E0.00709
G1 X126.042 Y125.774 E0.08201
G1 X125.506 Y125.774 E0.01687
G1 X123.846 Y124.114 E0.07396
G1 X123.620 Y124.204 E0.00768
G1 X123.440 Y124.243 E0.00579
G1 X124.971 Y125.774 E0.06819
G1 X124.435 Y125.774 E0.01687
G1 X122.967 Y124.306 E0.06541
G1 X122.761 Y124.314 E0.00648
G1 X122.393 Y124.267 E0.01170
G1 X124.069 Y125.944 E0.07468
G1 E-3.50000 F3600.000
;WIPE_START
G1 F7200.000
G1 X122.393 Y124.267 E-1.12639
G1 X122.761 Y124.314 E-0.17648
G1 X122.967 Y124.306 E-0.09773
G1 X123.003 Y124.342 E-0.02440
;WIPE_END
G1 E-0.07500 F3600.000
G1 X123.465 Y119.447 F9000.000
G1 E5.00000 F2400.000
G1 F1200.000
G1 X109.243 Y105.226 E0.63339
G1 X108.707 Y105.226 E0.01687
G1 X122.688 Y119.207 E0.62267
G1 X122.330 Y119.252 E0.01136
G1 X122.229 Y119.283 E0.00332
G1 X108.172 Y105.226 E0.62609
G1 X107.636 Y105.226 E0.01687
G1 X121.832 Y119.421 E0.63224
G1 X121.483 Y119.608 E0.01247
G1 X107.100 Y105.226 E0.64055
G1 X106.565 Y105.226 E0.01687
G1 X121.175 Y119.836 E0.65071
G1 X120.913 Y120.110 E0.01193
G1 X106.029 Y105.226 E0.66289
G1 X105.493 Y105.226 E0.01687
G1 X120.691 Y120.423 E0.67684
G1 X120.632 Y120.510 E0.00333
G1 X120.513 Y120.781 E0.00929
G1 X104.958 Y105.226 E0.69277
G1 X104.422 Y105.226 E0.01687
G1 X120.382 Y121.185 E0.71079
G1 X120.346 Y121.323 E0.00449
G1 X120.317 Y121.656 E0.01054
G1 X103.887 Y105.226 E0.73178
G1 X103.351 Y105.226 E0.01687
G1 X120.594 Y122.469 E0.76795
G1 E-3.50000 F3600.000
;WIPE_START
G1 F7200.000
G1 X118.473 Y120.347 E-1.42500
;WIPE_END
G1 E-0.07500 F3600.000
G1 X123.534 Y125.944 F9000.000
G1 E5.00000 F2400.000
G1 F1200.000
G1 X102.815 Y105.226 E0.92274
G1 X102.280 Y105.226 E0.01687
G1 X122.828 Y125.774 E0.91518
G1 X122.293 Y125.774 E0.01687
G1 X101.744 Y105.226 E0.91518
G1 X101.209 Y105.226 E0.01687
G1 X121.757 Y125.774 E0.91518
G1 X121.222 Y125.774 E0.01687
G1 X100.673 Y105.226 E0.91518
G1 X100.137 Y105.226 E0.01687
G1 X120.686 Y125.774 E0.91518
G1 X120.150 Y125.774 E0.01687
G1 X99.602 Y105.226 E0.91518
G1 X99.066 Y105.226 E0.01687
G1 X119.615 Y125.774 E0.91518
G1 X119.079 Y125.774 E0.01687
G1 X98.530 Y105.226 E0.91518
G1 X97.995 Y105.226 E0.01687
G1 X118.543 Y125.774 E0.91518
G1 X118.008 Y125.774 E0.01687
G1 X97.459 Y105.226 E0.91518
G1 X96.924 Y105.226 E0.01687
G1 X117.472 Y125.774 E0.91518
G1 X116.937 Y125.774 E0.01687
G1 X96.388 Y105.226 E0.91518
G1 X95.852 Y105.226 E0.01687
G1 X116.401 Y125.774 E0.91518
G1 X115.865 Y125.774 E0.01687
G1 X95.317 Y105.226 E0.91518
G1 X94.781 Y105.226 E0.01687
G1 X115.330 Y125.774 E0.91518
G1 X114.794 Y125.774 E0.01687
G1 X94.245 Y105.226 E0.91518
G1 X93.710 Y105.226 E0.01687
G1 X114.258 Y125.774 E0.91518
G1 X113.723 Y125.774 E0.01687
G1 X93.174 Y105.226 E0.91518
G1 X92.639 Y105.226 E0.01687
G1 X113.187 Y125.774 E0.91518
G1 X112.652 Y125.774 E0.01687
G1 X92.103 Y105.226 E0.91518
G1 X91.567 Y105.226 E0.01687
G1 X112.116 Y125.774 E0.91518
G1 X111.580 Y125.774 E0.01687
G1 X91.032 Y105.226 E0.91518
G1 X90.800 Y105.226 E0.00729
G1 X90.800 Y105.530 E0.00958
G1 X111.045 Y125.774 E0.90163
G1 X110.509 Y125.774 E0.01687
G1 X90.800 Y106.065 E0.87778
G1 X90.800 Y106.601 E0.01687
G1 X109.973 Y125.774 E0.85392
G1 X109.438 Y125.774 E0.01687
G1 X90.800 Y107.137 E0.83007
G1 X90.800 Y107.672 E0.01687
G1 X108.902 Y125.774 E0.80621
G1 X108.367 Y125.774 E0.01687
G1 X90.800 Y108.208 E0.78236
G1 X90.800 Y108.744 E0.01687
G1 X107.831 Y125.774 E0.75850
G1 X107.295 Y125.774 E0.01687
G1 X90.800 Y109.279 E0.73465
G1 X90.800 Y109.815 E0.01687
G1 X106.760 Y125.774 E0.71079
G1 X106.224 Y125.774 E0.01687
G1 X90.800 Y110.350 E0.68694
G1 X90.800 Y110.886 E0.01687
G1 X105.688 Y125.774 E0.66308
G1 X105.153 Y125.774 E0.01687
G1 X90.800 Y111.422 E0.63923
G1 X90.800 Y111.957 E0.01687
G1 X104.617 Y125.774 E0.61537
G1 X104.082 Y125.774 E0.01687
G1 X90.800 Y112.493 E0.59152
G1 X90.800 Y113.029 E0.01687
G1 X103.546 Y125.774 E0.56766
G1 X103.010 Y125.774 E0.01687
G1 X90.800 Y113.564 E0.54381
G1 X90.800 Y114.100 E0.01687
G1 X102.475 Y125.774 E0.51995
G1 X101.939 Y125.774 E0.01687
G1 X90.800 Y114.635 E0.49610
G1 X90.800 Y115.171 E0.01687
G1 X101.403 Y125.774 E0.47224
G1 X100.868 Y125.774 E0.01687
G1 X90.800 Y115.707 E0.44839
G1 X90.800 Y116.242 E0.01687
G1 X100.332 Y125.774 E0.42453
G1 X99.797 Y125.774 E0.01687
G1 X90.800 Y116.778 E0.40067
G1 X90.800 Y117.314 E0.01687
G1 X99.261 Y125.774 E0.37682
G1 X98.725 Y125.774 E0.01687
G1 X90.800 Y117.849 E0.35296
G1 X90.800 Y118.385 E0.01687
G1 X98.190 Y125.774 E0.32911
G1 X97.654 Y125.774 E0.01687
G1 X90.800 Y118.920 E0.30525
G1 X90.800 Y119.456 E0.01687
G1 X97.118 Y125.774 E0.28140
G1 X96.583 Y125.774 E0.01687
G1 X90.800 Y119.992 E0.25754
G1 X90.800 Y120.527 E0.01687
G1 X96.047 Y125.774 E0.23369
G1 X95.512 Y125.774 E0.01687
G1 X90.800 Y121.063 E0.20983
G1 X90.800 Y121.599 E0.01687
G1 X94.976 Y125.774 E0.18598
G1 X94.440 Y125.774 E0.01687
G1 X90.800 Y122.134 E0.16212
G1 X90.800 Y122.670 E0.01687
G1 X93.905 Y125.774 E0.13827
G1 X93.369 Y125.774 E0.01687
G1 X90.800 Y123.205 E0.11441
G1 X90.800 Y123.741 E0.01687
G1 X92.833 Y125.774 E0.09056
G1 X92.298 Y125.774 E0.01687
G1 X90.800 Y124.277 E0.06670
G1 X90.800 Y124.812 E0.01687
G1 X91.762 Y125.774 E0.04285
G1 X91.227 Y125.774 E0.01687
G1 X90.630 Y125.178 E0.02655
M106 S255
;LAYER_CHANGE
;Z:0.48
;HEIGHT:0.28
;BEFORE_LAYER_CHANGE
G92 E0
;0.48


G1 E-3.50000 F3600.000
;WIPE_START
G1 F7200.000
G1 X91.227 Y125.774 E-0.40043
G1 X91.762 Y125.774 E-0.25442
G1 X90.800 Y124.812 E-0.64625
G1 X90.800 Y124.551 E-0.12390
;WIPE_END
G1 E-0.07500 F3600.000
G1 Z0.480 F9000.000
;AFTER_LAYER_CHANGE
;0.48
G1 X88.053 Y128.323
G1 E5.00000 F2400.000
;TYPE:Skirt
;WIDTH:0.42
G1 X87.691 Y127.780 E0.02736
G1 X87.516 Y127.285 E0.02198
G1 X87.453 Y126.768 E0.02182
G1 X87.455 Y104.153 E0.94752
G1 X87.568 Y103.525 E0.02673
G1 X87.844 Y102.950 E0.02673
G1 X88.263 Y102.469 E0.02673
G1 X88.795 Y102.116 E0.02673
G1 X89.293 Y101.940 E0.02214
G1 X89.818 Y101.879 E0.02214
G1 X141.174 Y101.879 E2.15167
G1 X142.061 Y102.052 E0.03791
G1 X142.818 Y102.543 E0.03775
G1 X143.338 Y103.282 E0.03791
G1 X143.545 Y104.163 E0.03791
G1 X143.543 Y126.874 E0.95150
G1 X143.426 Y127.493 E0.02641
G1 X143.150 Y128.060 E0.02641
G1 X142.734 Y128.534 E0.02641
G1 X142.205 Y128.884 E0.02657
G1 X141.707 Y129.060 E0.02214
G1 X141.182 Y129.121 E0.02214
G1 X89.781 Y129.121 E2.15359
G1 X89.140 Y129.019 E0.02720
G1 X88.547 Y128.745 E0.02736
G1 X88.099 Y128.362 E0.02469
G1 E-3.50000 F3600.000
;WIPE_START
G1 F7200.000
