; generated by PrusaSlicer 2.3.0+ on 2021-03-16 at 18:58:00 UTC

; 

; external perimeters extrusion width = 0.45mm
; perimeters extrusion width = 0.45mm
; infill extrusion width = 0.45mm
; solid infill extrusion width = 0.45mm
; top infill extrusion width = 0.45mm
; first layer extrusion width = 0.42mm

M201 X500 Y500 Z100 E5000 ; sets maximum accelerations, mm/sec^2
M203 X500 Y500 Z10 E60 ; sets maximum feedrates, mm/sec
M204 P500 R1000 T500 ; sets acceleration (P, T) and retract acceleration (R), mm/sec^2
M205 X8.00 Y8.00 Z0.40 E5.00 ; sets the jerk limits, mm/sec
M205 S0 T0 ; sets the minimum extruding and travel feed rate, mm/sec
M107
;TYPE:Custom
G90 ; use absolute coordinates
M83 ; extruder relative mode
M104 S228 ; set extruder temp
M140 S65 ; set bed temp
M190 S65 ; wait for bed temp
M109 S228 ; wait for extruder temp
G28 ; home all
G1 Z2 F240
G1 X2 Y10 F3000
G1 Z0.28 F240
G92 E0
G1 Y190 E15 F1500 ; intro line
G1 X2.3 F5000
G92 E0
G1 Y10 E15 F1200 ; intro line
G92 E0
G21 ; set units to millimeters
G90 ; use absolute coordinates
M83 ; use relative distances for extrusion
; Filament gcode
;LAYER_CHANGE
;Z:0.2
;HEIGHT:0.2
;BEFORE_LAYER_CHANGE
G92 E0
;0.2


G1 E-5.00000 F3600.000
G1 Z0.200 F9000.000
;AFTER_LAYER_CHANGE
;0.2
G1 X58.966 Y103.343
G1 E5.00000 F2400.000
;TYPE:Skirt
;WIDTH:0.42
G1 F1200.000
G1 X59.461 Y102.594 E0.02813
G1 X88.163 Y74.073 E1.26870
G1 X88.569 Y73.753 E0.01621
G1 X89.030 Y73.529 E0.01609
G1 X89.822 Y73.390 E0.02520
G1 X141.174 Y73.390 E1.61009
G1 X142.065 Y73.565 E0.02849
G1 X142.828 Y74.065 E0.02860
G1 X171.523 Y102.578 E1.26834
G1 X171.844 Y102.978 E0.01609
G1 X172.073 Y103.442 E0.01621
G1 X172.216 Y104.248 E0.02567
G1 X172.216 Y155.255 E1.59931
G1 X172.037 Y156.138 E0.02825
G1 X171.539 Y156.894 E0.02837
G1 X170.760 Y157.424 E0.02954
G1 X169.839 Y157.610 E0.02946
G1 X61.145 Y157.610 E3.40803
G1 X60.255 Y157.430 E0.02849
G1 X59.499 Y156.933 E0.02837
G1 X58.969 Y156.154 E0.02954
G1 X58.784 Y155.233 E0.02946
G1 X58.784 Y104.225 E1.59930
G1 X58.954 Y103.402 E0.02637
G1 E-3.50000 F3600.000
;WIPE_START
G1 F7200.000
G1 X59.461 Y102.594 E-0.45281
G1 X60.912 Y101.152 E-0.97219
;WIPE_END
G1 E-0.07500 F3600.000
G1 X92.696 Y148.535 F9000.000
G1 E5.00000 F2400.000
;TYPE:Perimeter
G1 F1200.000
G1 X93.006 Y148.305 E0.01211
G1 X93.351 Y148.131 E0.01211
G1 X93.720 Y148.018 E0.01211
G1 X94.083 Y147.972 E0.01146
G1 X94.486 Y147.985 E0.01266
G1 X94.867 Y148.067 E0.01220
G1 X95.225 Y148.211 E0.01211
G1 X95.554 Y148.413 E0.01211
G1 X95.844 Y148.669 E0.01211
G1 X96.087 Y148.969 E0.01211
G1 X96.275 Y149.306 E0.01211
G1 X96.404 Y149.670 E0.01211
G1 X96.468 Y150.049 E0.01204
G1 X96.469 Y150.438 E0.01221
G1 X96.404 Y150.818 E0.01207
G1 X96.275 Y151.182 E0.01211
G1 X96.087 Y151.519 E0.01211
G1 X95.844 Y151.820 E0.01211
G1 X95.554 Y152.075 E0.01211
G1 X95.225 Y152.277 E0.01211
G1 X94.867 Y152.421 E0.01211
G1 X94.489 Y152.503 E0.01211
G1 X94.103 Y152.519 E0.01211
G1 X93.720 Y152.470 E0.01211
G1 X93.351 Y152.357 E0.01211
G1 X93.006 Y152.183 E0.01211
G1 X92.712 Y151.966 E0.01145
G1 X92.430 Y151.677 E0.01266
G1 X92.212 Y151.355 E0.01220
G1 X92.053 Y151.003 E0.01211
G1 X91.956 Y150.629 E0.01211
G1 X91.923 Y150.244 E0.01211
G1 X91.956 Y149.859 E0.01211
G1 X92.048 Y149.506 E0.01145
G1 X92.210 Y149.136 E0.01266
G1 X92.428 Y148.814 E0.01220
G1 X92.654 Y148.578 E0.01023
G1 X92.926 Y148.839 F9000.000
;TYPE:External perimeter
G1 F1200.000
G1 X93.205 Y148.627 E0.01096
G1 X93.492 Y148.482 E0.01010
G1 X93.800 Y148.388 E0.01010
G1 X94.101 Y148.350 E0.00950
G1 X94.440 Y148.361 E0.01065
G1 X94.756 Y148.429 E0.01013
G1 X95.055 Y148.549 E0.01010
G1 X95.329 Y148.718 E0.01010
G1 X95.571 Y148.930 E0.01010
G1 X95.773 Y149.181 E0.01010
G1 X95.930 Y149.462 E0.01010
G1 X96.037 Y149.766 E0.01010
G1 X96.091 Y150.081 E0.01003
G1 X96.091 Y150.406 E0.01020
G1 X96.037 Y150.723 E0.01006
G1 X95.930 Y151.026 E0.01010
G1 X95.773 Y151.307 E0.01010
G1 X95.571 Y151.558 E0.01010
G1 X95.329 Y151.771 E0.01010
G1 X95.055 Y151.940 E0.01010
G1 X94.756 Y152.060 E0.01010
G1 X94.441 Y152.127 E0.01010
G1 X94.119 Y152.141 E0.01010
G1 X93.800 Y152.100 E0.01010
G1 X93.492 Y152.006 E0.01010
G1 X93.205 Y151.861 E0.01010
G1 X92.961 Y151.681 E0.00950
G1 X92.723 Y151.438 E0.01065
G1 X92.542 Y151.170 E0.01013
G1 X92.410 Y150.877 E0.01010
G1 X92.329 Y150.565 E0.01010
G1 X92.301 Y150.244 E0.01010
G1 X92.329 Y149.923 E0.01010
G1 X92.405 Y149.630 E0.00950
G1 X92.542 Y149.319 E0.01065
G1 X92.723 Y149.051 E0.01013
G1 X92.885 Y148.882 E0.00734
G1 X92.854 Y148.497 F9000.000
G1 E-3.50000 F3600.000
;WIPE_START
G1 F7200.000
G1 X93.205 Y148.627 E-0.19425
G1 X93.492 Y148.482 E-0.15296
G1 X93.800 Y148.388 E-0.15296
G1 X94.101 Y148.350 E-0.14395
G1 X94.440 Y148.361 E-0.16136
G1 X94.756 Y148.429 E-0.15346
G1 X95.055 Y148.549 E-0.15297
G1 X95.329 Y148.718 E-0.15296
G1 X95.571 Y148.930 E-0.15297
G1 X95.580 Y148.942 E-0.00715
;WIPE_END
G1 E-0.07500 F3600.000
G1 X111.813 Y154.545 F9000.000
G1 E5.00000 F2400.000
;TYPE:Perimeter
G1 F1200.000
G1 X61.848 Y154.545 E1.56663
G1 X61.848 Y133.431 E0.66202
G1 X111.813 Y133.431 E1.56663
G1 X111.813 Y154.485 E0.66014
G1 X112.190 Y154.923 F9000.000
;TYPE:External perimeter
G1 F1200.000
G1 X61.471 Y154.923 E1.59027
G1 X61.471 Y133.054 E0.68567
G1 X112.190 Y133.054 E1.59027
G1 X112.190 Y154.863 E0.68379
G1 X111.794 Y154.868 F9000.000
G1 E-3.50000 F3600.000
;WIPE_START
G1 F7200.000
G1 X109.190 Y154.866 E-1.42500
;WIPE_END
G1 E-0.07500 F3600.000
G1 X110.934 Y133.544 F9000.000
G1 E5.00000 F2400.000
;TYPE:Solid infill
;WIDTH:0.421663
G1 F1200.000
G1 X111.530 Y134.140 E0.02655
G1 X111.530 Y134.676 E0.01687
G1 X110.568 Y133.714 E0.04285
G1 X110.032 Y133.714 E0.01687
G1 X111.530 Y135.212 E0.06670
G1 X111.530 Y135.747 E0.01687
G1 X109.497 Y133.714 E0.09056
G1 X108.961 Y133.714 E0.01687
G1 X111.530 Y136.283 E0.11441
G1 X111.530 Y136.819 E0.01687
G1 X108.426 Y133.714 E0.13827
G1 X107.890 Y133.714 E0.01687
G1 X111.530 Y137.354 E0.16212
G1 X111.530 Y137.890 E0.01687
G1 X107.354 Y133.714 E0.18598
G1 X106.819 Y133.714 E0.01687
G1 X111.530 Y138.425 E0.20983
G1 X111.530 Y138.961 E0.01687
G1 X106.283 Y133.714 E0.23369
G1 X105.747 Y133.714 E0.01687
G1 X111.530 Y139.497 E0.25754
G1 X111.530 Y140.032 E0.01687
G1 X105.212 Y133.714 E0.28140
G1 X104.676 Y133.714 E0.01687
G1 X111.530 Y140.568 E0.30525
G1 X111.530 Y141.104 E0.01687
G1 X104.141 Y133.714 E0.32911
G1 X103.605 Y133.714 E0.01687
G1 X111.530 Y141.639 E0.35296
G1 X111.530 Y142.175 E0.01687
G1 X103.069 Y133.714 E0.37682
G1 X102.534 Y133.714 E0.01687
G1 X111.530 Y142.710 E0.40068
G1 X111.530 Y143.246 E0.01687
G1 X101.998 Y133.714 E0.42453
G1 X101.462 Y133.714 E0.01687
G1 X111.530 Y143.782 E0.44839
G1 X111.530 Y144.317 E0.01687
G1 X100.927 Y133.714 E0.47224
G1 X100.391 Y133.714 E0.01687
G1 X111.530 Y144.853 E0.49610
G1 X111.530 Y145.389 E0.01687
G1 X99.856 Y133.714 E0.51995
G1 X99.320 Y133.714 E0.01687
G1 X111.530 Y145.924 E0.54381
G1 X111.530 Y146.460 E0.01687
G1 X98.784 Y133.714 E0.56766
G1 X98.249 Y133.714 E0.01687
G1 X111.530 Y146.995 E0.59152
G1 X111.530 Y147.531 E0.01687
G1 X97.713 Y133.714 E0.61537
G1 X97.177 Y133.714 E0.01687
G1 X111.530 Y148.067 E0.63923
G1 X111.530 Y148.602 E0.01687
G1 X96.642 Y133.714 E0.66308
G1 X96.106 Y133.714 E0.01687
G1 X111.530 Y149.138 E0.68694
G1 X111.530 Y149.674 E0.01687
G1 X95.571 Y133.714 E0.71079
G1 X95.035 Y133.714 E0.01687
G1 X111.530 Y150.209 E0.73465
G1 X111.530 Y150.745 E0.01687
G1 X94.499 Y133.714 E0.75850
G1 X93.964 Y133.714 E0.01687
G1 X111.530 Y151.280 E0.78236
G1 X111.530 Y151.816 E0.01687
G1 X93.428 Y133.714 E0.80621
G1 X92.892 Y133.714 E0.01687
G1 X111.530 Y152.352 E0.83007
G1 X111.530 Y152.887 E0.01687
G1 X92.357 Y133.714 E0.85392
G1 X91.821 Y133.714 E0.01687
G1 X111.530 Y153.423 E0.87778
G1 X111.530 Y153.959 E0.01687
G1 X91.286 Y133.714 E0.90163
G1 X90.750 Y133.714 E0.01687
G1 X111.299 Y154.263 E0.91518
G1 X110.763 Y154.263 E0.01687
G1 X90.214 Y133.714 E0.91518
G1 X89.679 Y133.714 E0.01687
G1 X110.227 Y154.263 E0.91518
G1 X109.692 Y154.263 E0.01687
G1 X89.143 Y133.714 E0.91518
G1 X88.608 Y133.714 E0.01687
G1 X109.156 Y154.263 E0.91518
G1 X108.621 Y154.263 E0.01687
G1 X88.072 Y133.714 E0.91518
G1 X87.536 Y133.714 E0.01687
G1 X108.085 Y154.263 E0.91518
G1 X107.549 Y154.263 E0.01687
G1 X87.001 Y133.714 E0.91518
G1 X86.465 Y133.714 E0.01687
G1 X107.014 Y154.263 E0.91518
G1 X106.478 Y154.263 E0.01687
G1 X85.929 Y133.714 E0.91518
G1 X85.394 Y133.714 E0.01687
G1 X105.942 Y154.263 E0.91518
G1 X105.407 Y154.263 E0.01687
G1 X84.858 Y133.714 E0.91518
G1 X84.323 Y133.714 E0.01687
G1 X104.871 Y154.263 E0.91518
G1 X104.336 Y154.263 E0.01687
G1 X83.787 Y133.714 E0.91518
G1 X83.251 Y133.714 E0.01687
G1 X103.800 Y154.263 E0.91518
G1 X103.264 Y154.263 E0.01687
G1 X82.716 Y133.714 E0.91518
G1 X82.180 Y133.714 E0.01687
G1 X102.729 Y154.263 E0.91518
G1 X102.193 Y154.263 E0.01687
G1 X81.644 Y133.714 E0.91518
G1 X81.109 Y133.714 E0.01687
G1 X101.657 Y154.263 E0.91518
G1 X101.122 Y154.263 E0.01687
G1 X96.724 Y149.865 E0.19587
G1 X96.751 Y150.025 E0.00511
G1 X96.751 Y150.428 E0.01269
G1 X100.586 Y154.263 E0.17079
G1 X100.051 Y154.263 E0.01687
G1 X96.678 Y150.890 E0.15020
G1 X96.538 Y151.286 E0.01322
G1 X99.515 Y154.263 E0.13258
G1 X98.979 Y154.263 E0.01687
G1 X96.348 Y151.631 E0.11719
G1 X96.115 Y151.934 E0.01203
G1 X98.444 Y154.263 E0.10371
G1 X97.908 Y154.263 E0.01687
G1 X95.843 Y152.197 E0.09198
G1 X95.723 Y152.303 E0.00504
G1 X95.531 Y152.421 E0.00709
G1 X97.372 Y154.263 E0.08201
G1 X96.837 Y154.263 E0.01687
G1 X95.176 Y152.602 E0.07396
G1 X94.950 Y152.693 E0.00768
G1 X94.770 Y152.732 E0.00579
G1 X96.301 Y154.263 E0.06819
G1 X95.766 Y154.263 E0.01687
G1 X94.297 Y152.794 E0.06541
G1 X94.091 Y152.803 E0.00648
G1 X93.723 Y152.756 E0.01170
G1 X95.400 Y154.432 E0.07468
G1 E-3.50000 F3600.000
;WIPE_START
G1 F7200.000
G1 X93.723 Y152.756 E-1.12639
G1 X94.091 Y152.803 E-0.17648
G1 X94.297 Y152.794 E-0.09773
G1 X94.333 Y152.830 E-0.02440
;WIPE_END
G1 E-0.07500 F3600.000
G1 X94.795 Y147.936 F9000.000
G1 E5.00000 F2400.000
G1 F1200.000
G1 X80.573 Y133.714 E0.63339
G1 X80.038 Y133.714 E0.01687
G1 X94.018 Y147.695 E0.62267
G1 X93.660 Y147.741 E0.01136
G1 X93.560 Y147.772 E0.00332
G1 X79.502 Y133.714 E0.62609
G1 X78.966 Y133.714 E0.01687
G1 X93.162 Y147.910 E0.63224
G1 X92.813 Y148.096 E0.01247
G1 X78.431 Y133.714 E0.64055
G1 X77.895 Y133.714 E0.01687
G1 X92.505 Y148.325 E0.65071
G1 X92.243 Y148.598 E0.01193
G1 X77.359 Y133.714 E0.66289
G1 X76.824 Y133.714 E0.01687
G1 X92.021 Y148.911 E0.67684
G1 X91.962 Y148.999 E0.00333
G1 X91.843 Y149.269 E0.00929
G1 X76.288 Y133.714 E0.69277
G1 X75.753 Y133.714 E0.01687
G1 X91.712 Y149.673 E0.71079
G1 X91.676 Y149.811 E0.00449
G1 X91.648 Y150.145 E0.01054
G1 X75.217 Y133.714 E0.73178
G1 X74.681 Y133.714 E0.01687
G1 X91.924 Y150.957 E0.76795
G1 E-3.50000 F3600.000
;WIPE_START
G1 F7200.000
G1 X89.803 Y148.836 E-1.42500
;WIPE_END
G1 E-0.07500 F3600.000
G1 X94.864 Y154.432 F9000.000
G1 E5.00000 F2400.000
G1 F1200.000
G1 X74.146 Y133.714 E0.92274
G1 X73.610 Y133.714 E0.01687
G1 X94.159 Y154.263 E0.91518
G1 X93.623 Y154.263 E0.01687
G1 X73.074 Y133.714 E0.91518
G1 X72.539 Y133.714 E0.01687
G1 X93.087 Y154.263 E0.91518
G1 X92.552 Y154.263 E0.01687
G1 X72.003 Y133.714 E0.91518
G1 X71.468 Y133.714 E0.01687
G1 X92.016 Y154.263 E0.91518
G1 X91.481 Y154.263 E0.01687
G1 X70.932 Y133.714 E0.91518
G1 X70.396 Y133.714 E0.01687
G1 X90.945 Y154.263 E0.91518
G1 X90.409 Y154.263 E0.01687
G1 X69.861 Y133.714 E0.91518
G1 X69.325 Y133.714 E0.01687
G1 X89.874 Y154.263 E0.91518
G1 X89.338 Y154.263 E0.01687
G1 X68.789 Y133.714 E0.91518
G1 X68.254 Y133.714 E0.01687
G1 X88.802 Y154.263 E0.91518
G1 X88.267 Y154.263 E0.01687
G1 X67.718 Y133.714 E0.91518
G1 X67.183 Y133.714 E0.01687
G1 X87.731 Y154.263 E0.91518
G1 X87.196 Y154.263 E0.01687
G1 X66.647 Y133.714 E0.91518
G1 X66.111 Y133.714 E0.01687
G1 X86.660 Y154.263 E0.91518
G1 X86.124 Y154.263 E0.01687
G1 X65.576 Y133.714 E0.91518
G1 X65.040 Y133.714 E0.01687
G1 X85.589 Y154.263 E0.91518
G1 X85.053 Y154.263 E0.01687
G1 X64.504 Y133.714 E0.91518
G1 X63.969 Y133.714 E0.01687
G1 X84.517 Y154.263 E0.91518
G1 X83.982 Y154.263 E0.01687
G1 X63.433 Y133.714 E0.91518
G1 X62.898 Y133.714 E0.01687
G1 X83.446 Y154.263 E0.91518
G1 X82.911 Y154.263 E0.01687
G1 X62.362 Y133.714 E0.91518
G1 X62.130 Y133.714 E0.00729
G1 X62.130 Y134.018 E0.00958
G1 X82.375 Y154.263 E0.90163
G1 X81.839 Y154.263 E0.01687
G1 X62.130 Y134.554 E0.87778
G1 X62.130 Y135.089 E0.01687
G1 X81.304 Y154.263 E0.85392
G1 X80.768 Y154.263 E0.01687
G1 X62.130 Y135.625 E0.83007
G1 X62.130 Y136.161 E0.01687
G1 X80.232 Y154.263 E0.80621
G1 X79.697 Y154.263 E0.01687
G1 X62.130 Y136.696 E0.78236
G1 X62.130 Y137.232 E0.01687
G1 X79.161 Y154.263 E0.75850
G1 X78.626 Y154.263 E0.01687
G1 X62.130 Y137.768 E0.73465
G1 X62.130 Y138.303 E0.01687
G1 X78.090 Y154.263 E0.71079
G1 X77.554 Y154.263 E0.01687
G1 X62.130 Y138.839 E0.68694
G1 X62.130 Y139.374 E0.01687
G1 X77.019 Y154.263 E0.66308
G1 X76.483 Y154.263 E0.01687
G1 X62.130 Y139.910 E0.63923
G1 X62.130 Y140.446 E0.01687
G1 X75.947 Y154.263 E0.61537
G1 X75.412 Y154.263 E0.01687
G1 X62.130 Y140.981 E0.59152
G1 X62.130 Y141.517 E0.01687
G1 X74.876 Y154.263 E0.56766
G1 X74.341 Y154.263 E0.01687
G1 X62.130 Y142.053 E0.54381
G1 X62.130 Y142.588 E0.01687
G1 X73.805 Y154.263 E0.51995
G1 X73.269 Y154.263 E0.01687
G1 X62.130 Y143.124 E0.49610
G1 X62.130 Y143.659 E0.01687
G1 X72.734 Y154.263 E0.47224
G1 X72.198 Y154.263 E0.01687
G1 X62.130 Y144.195 E0.44839
G1 X62.130 Y144.731 E0.01687
G1 X71.662 Y154.263 E0.42453
G1 X71.127 Y154.263 E0.01687
G1 X62.130 Y145.266 E0.40067
G1 X62.130 Y145.802 E0.01687
G1 X70.591 Y154.263 E0.37682
G1 X70.056 Y154.263 E0.01687
G1 X62.130 Y146.338 E0.35296
G1 X62.130 Y146.873 E0.01687
G1 X69.520 Y154.263 E0.32911
G1 X68.984 Y154.263 E0.01687
G1 X62.130 Y147.409 E0.30525
G1 X62.130 Y147.944 E0.01687
G1 X68.449 Y154.263 E0.28140
G1 X67.913 Y154.263 E0.01687
G1 X62.130 Y148.480 E0.25754
G1 X62.130 Y149.016 E0.01687
G1 X67.377 Y154.263 E0.23369
G1 X66.842 Y154.263 E0.01687
G1 X62.130 Y149.551 E0.20983
G1 X62.130 Y150.087 E0.01687
G1 X66.306 Y154.263 E0.18598
G1 X65.771 Y154.263 E0.01687
G1 X62.130 Y150.623 E0.16212
G1 X62.130 Y151.158 E0.01687
G1 X65.235 Y154.263 E0.13827
G1 X64.699 Y154.263 E0.01687
G1 X62.130 Y151.694 E0.11441
G1 X62.130 Y152.229 E0.01687
G1 X64.164 Y154.263 E0.09056
G1 X63.628 Y154.263 E0.01687
G1 X62.130 Y152.765 E0.06670
G1 X62.130 Y153.301 E0.01687
G1 X63.093 Y154.263 E0.04285
G1 X62.557 Y154.263 E0.01687
G1 X61.961 Y153.667 E0.02655
G1 E-3.50000 F3600.000
;WIPE_START
G1 F7200.000
G1 X62.557 Y154.263 E-0.40043
G1 X63.093 Y154.263 E-0.25442
G1 X62.130 Y153.301 E-0.64625
G1 X62.130 Y153.040 E-0.12390
;WIPE_END
G1 E-0.07500 F3600.000
G1 X92.712 Y123.478 F9000.000
G1 E5.00000 F2400.000
;TYPE:Perimeter
;WIDTH:0.42
G1 F1200.000
G1 X92.430 Y123.189 E0.01266
G1 X92.212 Y122.866 E0.01220
G1 X92.053 Y122.514 E0.01211
G1 X91.956 Y122.141 E0.01211
G1 X91.923 Y121.756 E0.01211
G1 X91.956 Y121.371 E0.01211
G1 X92.048 Y121.017 E0.01145
G1 X92.210 Y120.648 E0.01266
G1 X92.428 Y120.325 E0.01220
G1 X92.696 Y120.046 E0.01211
G1 X93.006 Y119.817 E0.01211
G1 X93.351 Y119.643 E0.01211
G1 X93.720 Y119.530 E0.01211
G1 X94.083 Y119.483 E0.01146
G1 X94.486 Y119.497 E0.01266
G1 X94.867 Y119.579 E0.01220
G1 X95.225 Y119.723 E0.01211
G1 X95.554 Y119.925 E0.01211
G1 X95.844 Y120.180 E0.01211
G1 X96.087 Y120.481 E0.01211
G1 X96.275 Y120.818 E0.01211
G1 X96.404 Y121.182 E0.01211
G1 X96.468 Y121.561 E0.01204
G1 X96.469 Y121.950 E0.01221
G1 X96.404 Y122.329 E0.01207
G1 X96.275 Y122.694 E0.01211
G1 X96.087 Y123.031 E0.01211
G1 X95.844 Y123.331 E0.01211
G1 X95.554 Y123.587 E0.01211
G1 X95.225 Y123.789 E0.01211
G1 X94.867 Y123.933 E0.01211
G1 X94.489 Y124.014 E0.01211
G1 X94.103 Y124.031 E0.01211
G1 X93.720 Y123.982 E0.01211
G1 X93.351 Y123.869 E0.01211
G1 X93.006 Y123.695 E0.01211
G1 X92.761 Y123.513 E0.00957
G1 X92.985 Y123.210 F9000.000
;TYPE:External perimeter
G1 F1200.000
G1 X92.723 Y122.949 E0.01157
G1 X92.542 Y122.682 E0.01013
G1 X92.410 Y122.388 E0.01010
G1 X92.329 Y122.077 E0.01010
G1 X92.301 Y121.756 E0.01010
