; generated by PrusaSlicer 2.3.0+ on 2021-03-11 at 03:36:07 UTC

; 

; external perimeters extrusion width = 0.45mm
; perimeters extrusion width = 0.45mm
; infill extrusion width = 0.45mm
; solid infill extrusion width = 0.45mm
; top infill extrusion width = 0.45mm
; first layer extrusion width = 0.42mm

M201 X500 Y500 Z100 E5000 ; sets maximum accelerations, mm/sec^2
M203 X500 Y500 Z10 E60 ; sets maximum feedrates, mm/sec
M204 P500 R1000 T500 ; sets acceleration (P, T) and retract acceleration (R), mm/sec^2
M205 X8.00 Y8.00 Z0.40 E5.00 ; sets the jerk limits, mm/sec
M205 S0 T0 ; sets the minimum extruding and travel feed rate, mm/sec
M107
;TYPE:Custom
G90 ; use absolute coordinates
M83 ; extruder relative mode
M104 S228 ; set extruder temp
M140 S65 ; set bed temp
M190 S65 ; wait for bed temp
M109 S228 ; wait for extruder temp
G28 ; home all
G1 Z2 F240
G1 X2 Y10 F3000
G1 Z0.28 F240
G92 E0
G1 Y190 E15 F1500 ; intro line
G1 X2.3 F5000
G92 E0
G1 Y10 E15 F1200 ; intro line
G92 E0
G21 ; set units to millimeters
G90 ; use absolute coordinates
M83 ; use relative distances for extrusion
; Filament gcode
;LAYER_CHANGE
;Z:0.2
;HEIGHT:0.2
;BEFORE_LAYER_CHANGE
G92 E0
;0.2


G1 E-5.00000 F3600.000
G1 Z0.200 F9000.000
;AFTER_LAYER_CHANGE
;0.2
G1 X97.917 Y95.385
G1 E5.00000 F2400.000
;TYPE:Skirt
;WIDTH:0.42
G1 F1200.000
G1 X98.266 Y94.724 E0.02343
G1 X98.631 Y94.337 E0.01668
G1 X99.076 Y94.039 E0.01680
G1 X99.573 Y93.848 E0.01668
G1 X100.100 Y93.774 E0.01669
G1 X130.928 Y93.771 E0.96658
G1 X131.812 Y93.943 E0.02825
G1 X132.569 Y94.432 E0.02825
G1 X133.088 Y95.164 E0.02813
G1 X133.298 Y96.040 E0.02825
G1 X133.301 Y134.876 E1.21768
G1 X133.175 Y135.613 E0.02343
G1 X132.827 Y136.274 E0.02343
G1 X132.454 Y136.669 E0.01704
G1 X132.004 Y136.967 E0.01692
G1 X131.495 Y137.157 E0.01704
G1 X130.956 Y137.227 E0.01704
G1 X100.130 Y137.229 E0.96652
G1 X99.397 Y137.102 E0.02331
G1 X98.740 Y136.755 E0.02331
G1 X98.345 Y136.381 E0.01704
G1 X98.045 Y135.928 E0.01704
G1 X97.856 Y135.419 E0.01704
G1 X97.787 Y134.879 E0.01704
G1 X97.791 Y96.122 E1.21522
G1 X97.907 Y95.444 E0.02155
G1 E-3.50000 F3600.000
;WIPE_START
G1 F7200.000
G1 X98.266 Y94.724 E-0.38214
G1 X98.631 Y94.337 E-0.25277
G1 X99.076 Y94.039 E-0.25457
G1 X99.573 Y93.848 E-0.25277
G1 X100.100 Y93.774 E-0.25277
G1 X100.163 Y93.774 E-0.02999
;WIPE_END
G1 E-0.07500 F3600.000
G1 X105.056 Y101.427 F9000.000
G1 E5.00000 F2400.000
;TYPE:Perimeter
G1 F1200.000
G1 X126.043 Y101.427 E0.65803
G1 X126.043 Y129.572 E0.88250
G1 X105.056 Y129.573 E0.65803
G1 X105.056 Y101.487 E0.88062
G1 X105.433 Y101.804 F9000.000
;TYPE:External perimeter
G1 F1200.000
G1 X125.666 Y101.804 E0.63439
G1 X125.666 Y129.195 E0.85885
G1 X105.433 Y129.196 E0.63439
G1 X105.433 Y101.864 E0.85697
G1 X105.349 Y101.413 F9000.000
G1 E-3.50000 F3600.000
;WIPE_START
G1 F7200.000
G1 X108.433 Y101.855 E-1.42500
;WIPE_END
G1 E-0.07500 F3600.000
G1 X100.855 Y96.837 F9000.000
G1 E5.00000 F2400.000
;TYPE:Perimeter
G1 F1200.000
G1 X130.237 Y96.835 E0.92124
G1 X130.237 Y134.163 E1.17038
G1 X100.851 Y134.165 E0.92136
G1 X100.855 Y96.897 E1.16851
G1 X100.478 Y96.460 F9000.000
;TYPE:External perimeter
G1 F1200.000
G1 X130.614 Y96.458 E0.94488
G1 X130.614 Y134.540 E1.19402
G1 X100.474 Y134.542 E0.94501
G1 X100.478 Y96.520 E1.19215
G1 X100.860 Y96.578 F9000.000
G1 E-3.50000 F3600.000
;WIPE_START
G1 F7200.000
G1 X103.478 Y96.514 E-1.42500
;WIPE_END
G1 E-0.07500 F3600.000
G1 X129.359 Y96.948 F9000.000
G1 E5.00000 F2400.000
;TYPE:Solid infill
;WIDTH:0.421209
G1 F1200.000
G1 X129.954 Y97.543 E0.02647
G1 X129.954 Y98.078 E0.01683
G1 X128.994 Y97.118 E0.04272
G1 X128.459 Y97.118 E0.01683
G1 X129.954 Y98.613 E0.06652
G1 X129.954 Y99.148 E0.01683
G1 X127.924 Y97.118 E0.09032
G1 X127.389 Y97.118 E0.01683
G1 X129.954 Y99.683 E0.11411
G1 X129.954 Y100.218 E0.01683
G1 X126.854 Y97.118 E0.13791
G1 X126.319 Y97.118 E0.01683
G1 X129.954 Y100.753 E0.16171
G1 X129.954 Y101.288 E0.01683
G1 X125.784 Y97.118 E0.18550
G1 X125.249 Y97.118 E0.01683
G1 X129.954 Y101.823 E0.20930
G1 X129.954 Y102.358 E0.01683
G1 X124.714 Y97.118 E0.23310
G1 X124.179 Y97.118 E0.01683
G1 X129.954 Y102.893 E0.25689
G1 X129.954 Y103.428 E0.01683
G1 X123.644 Y97.118 E0.28069
G1 X123.109 Y97.118 E0.01683
G1 X129.954 Y103.963 E0.30449
G1 X129.954 Y104.498 E0.01683
G1 X122.574 Y97.118 E0.32828
G1 X122.039 Y97.118 E0.01683
G1 X129.954 Y105.033 E0.35208
G1 X129.954 Y105.568 E0.01683
G1 X126.326 Y101.940 E0.16140
G1 X126.326 Y102.475 E0.01683
G1 X129.954 Y106.103 E0.16140
G1 X129.954 Y106.638 E0.01683
G1 X126.326 Y103.010 E0.16140
G1 X126.326 Y103.545 E0.01683
G1 X129.954 Y107.173 E0.16140
G1 X129.954 Y107.708 E0.01683
G1 X126.326 Y104.080 E0.16140
G1 X126.326 Y104.615 E0.01683
G1 X129.954 Y108.243 E0.16140
G1 X129.954 Y108.778 E0.01683
G1 X126.326 Y105.150 E0.16140
G1 X126.326 Y105.685 E0.01683
G1 X129.954 Y109.313 E0.16140
G1 X129.954 Y109.848 E0.01683
G1 X126.326 Y106.220 E0.16140
G1 X126.326 Y106.755 E0.01683
G1 X129.954 Y110.383 E0.16140
G1 X129.954 Y110.918 E0.01683
G1 X126.326 Y107.290 E0.16140
G1 X126.326 Y107.825 E0.01683
G1 X129.954 Y111.453 E0.16140
G1 X129.954 Y111.988 E0.01683
G1 X126.326 Y108.360 E0.16140
G1 X126.326 Y108.895 E0.01683
G1 X129.954 Y112.523 E0.16140
G1 X129.954 Y113.058 E0.01683
G1 X126.326 Y109.430 E0.16140
G1 X126.326 Y109.965 E0.01683
G1 X129.954 Y113.593 E0.16140
G1 X129.954 Y114.128 E0.01683
G1 X126.326 Y110.500 E0.16140
G1 X126.326 Y111.035 E0.01683
G1 X129.954 Y114.663 E0.16140
G1 X129.954 Y115.198 E0.01683
G1 X126.326 Y111.570 E0.16140
G1 X126.326 Y112.105 E0.01683
G1 X129.954 Y115.733 E0.16140
G1 X129.954 Y116.268 E0.01683
G1 X126.326 Y112.640 E0.16140
G1 X126.326 Y113.175 E0.01683
G1 X129.954 Y116.803 E0.16140
G1 X129.954 Y117.338 E0.01683
G1 X126.326 Y113.710 E0.16140
G1 X126.326 Y114.245 E0.01683
G1 X129.954 Y117.873 E0.16140
G1 X129.954 Y118.408 E0.01683
G1 X126.326 Y114.780 E0.16140
G1 X126.326 Y115.314 E0.01683
G1 X129.954 Y118.943 E0.16140
G1 X129.954 Y119.478 E0.01683
G1 X126.326 Y115.849 E0.16140
G1 X126.326 Y116.384 E0.01683
G1 X129.954 Y120.013 E0.16140
G1 X129.954 Y120.548 E0.01683
G1 X126.326 Y116.919 E0.16140
G1 X126.326 Y117.454 E0.01683
G1 X129.954 Y121.083 E0.16140
G1 X129.954 Y121.618 E0.01683
G1 X126.326 Y117.989 E0.16140
G1 X126.326 Y118.524 E0.01683
G1 X129.954 Y122.153 E0.16140
G1 X129.954 Y122.688 E0.01683
G1 X126.326 Y119.059 E0.16140
G1 X126.326 Y119.594 E0.01683
G1 X129.954 Y123.223 E0.16140
G1 X129.954 Y123.758 E0.01683
G1 X126.326 Y120.129 E0.16140
G1 X126.326 Y120.664 E0.01683
G1 X129.954 Y124.293 E0.16140
G1 X129.954 Y124.828 E0.01683
G1 X126.326 Y121.199 E0.16140
G1 X126.326 Y121.734 E0.01683
G1 X129.954 Y125.363 E0.16140
G1 X129.954 Y125.898 E0.01683
G1 X126.326 Y122.269 E0.16140
G1 X126.326 Y122.804 E0.01683
G1 X129.954 Y126.433 E0.16140
G1 X129.954 Y126.968 E0.01683
G1 X126.326 Y123.339 E0.16140
G1 X126.326 Y123.874 E0.01683
G1 X129.954 Y127.502 E0.16140
G1 X129.954 Y128.037 E0.01683
G1 X126.326 Y124.409 E0.16140
G1 X126.326 Y124.944 E0.01683
G1 X129.954 Y128.572 E0.16140
G1 X129.954 Y129.107 E0.01683
G1 X126.326 Y125.479 E0.16140
G1 X126.326 Y126.014 E0.01683
G1 X129.954 Y129.642 E0.16140
G1 X129.954 Y130.177 E0.01683
G1 X126.326 Y126.549 E0.16140
G1 X126.326 Y127.084 E0.01683
G1 X129.954 Y130.712 E0.16140
G1 X129.954 Y131.247 E0.01683
G1 X126.326 Y127.619 E0.16140
G1 X126.326 Y128.154 E0.01683
G1 X129.954 Y131.782 E0.16140
G1 X129.954 Y132.317 E0.01683
G1 X126.326 Y128.689 E0.16140
G1 X126.326 Y129.224 E0.01683
G1 X129.954 Y132.852 E0.16140
G1 X129.954 Y133.387 E0.01683
G1 X126.326 Y129.759 E0.16140
G1 X126.326 Y129.855 E0.00303
G1 X125.887 Y129.855 E0.01380
G1 X129.912 Y133.880 E0.17903
G1 X129.377 Y133.880 E0.01683
G1 X125.352 Y129.855 E0.17903
G1 X124.817 Y129.855 E0.01683
G1 X128.842 Y133.880 E0.17903
G1 X128.307 Y133.880 E0.01683
G1 X124.282 Y129.855 E0.17903
G1 X123.747 Y129.855 E0.01683
G1 X127.772 Y133.880 E0.17903
G1 X127.237 Y133.880 E0.01683
G1 X123.212 Y129.855 E0.17903
G1 X122.677 Y129.855 E0.01683
G1 X126.702 Y133.880 E0.17904
G1 X126.167 Y133.880 E0.01683
G1 X122.142 Y129.855 E0.17904
G1 X121.607 Y129.855 E0.01683
G1 X125.632 Y133.880 E0.17904
G1 X125.097 Y133.880 E0.01683
G1 X121.072 Y129.855 E0.17904
G1 X120.537 Y129.855 E0.01683
G1 X124.562 Y133.880 E0.17904
G1 X124.027 Y133.880 E0.01683
G1 X120.002 Y129.855 E0.17904
G1 X119.467 Y129.855 E0.01683
G1 X123.492 Y133.880 E0.17905
G1 X122.957 Y133.880 E0.01683
G1 X118.932 Y129.855 E0.17905
G1 X118.397 Y129.855 E0.01683
G1 X122.422 Y133.880 E0.17905
G1 X121.888 Y133.880 E0.01683
G1 X117.862 Y129.855 E0.17905
G1 X117.327 Y129.855 E0.01683
G1 X121.353 Y133.880 E0.17905
G1 X120.818 Y133.880 E0.01683
G1 X116.793 Y129.855 E0.17905
G1 X116.258 Y129.855 E0.01683
G1 X120.283 Y133.881 E0.17905
G1 X119.748 Y133.881 E0.01683
G1 X115.723 Y129.855 E0.17906
G1 X115.188 Y129.855 E0.01683
G1 X119.213 Y133.881 E0.17906
G1 X118.678 Y133.881 E0.01683
G1 X114.653 Y129.855 E0.17906
G1 X114.118 Y129.855 E0.01683
G1 X118.143 Y133.881 E0.17906
G1 X117.608 Y133.881 E0.01683
G1 X113.583 Y129.855 E0.17906
G1 X113.048 Y129.855 E0.01683
G1 X117.073 Y133.881 E0.17906
G1 X116.538 Y133.881 E0.01683
G1 X112.513 Y129.855 E0.17907
G1 X111.978 Y129.855 E0.01683
G1 X116.003 Y133.881 E0.17907
G1 X115.468 Y133.881 E0.01683
G1 X111.443 Y129.855 E0.17907
G1 X110.908 Y129.855 E0.01683
G1 X114.933 Y133.881 E0.17907
G1 X114.398 Y133.881 E0.01683
G1 X110.373 Y129.855 E0.17907
G1 X109.838 Y129.855 E0.01683
G1 X113.863 Y133.881 E0.17907
G1 X113.328 Y133.881 E0.01683
G1 X109.303 Y129.855 E0.17907
G1 X108.768 Y129.855 E0.01683
G1 X112.793 Y133.881 E0.17908
G1 X112.259 Y133.881 E0.01683
G1 X108.233 Y129.855 E0.17908
G1 X107.698 Y129.855 E0.01683
G1 X111.724 Y133.881 E0.17908
G1 X111.189 Y133.881 E0.01683
G1 X107.163 Y129.855 E0.17908
G1 X106.628 Y129.855 E0.01683
G1 X110.654 Y133.881 E0.17908
G1 X110.119 Y133.881 E0.01683
G1 X106.093 Y129.855 E0.17908
G1 X105.558 Y129.855 E0.01683
G1 X109.753 Y134.051 E0.18663
G1 E-3.50000 F3600.000
;WIPE_START
G1 F7200.000
G1 X107.632 Y131.930 E-1.42500
;WIPE_END
G1 E-0.07500 F3600.000
G1 X121.335 Y96.949 F9000.000
G1 E5.00000 F2400.000
G1 F1200.000
G1 X125.530 Y101.144 E0.18661
G1 X124.995 Y101.144 E0.01683
G1 X120.969 Y97.118 E0.17906
G1 X120.434 Y97.118 E0.01683
G1 X124.460 Y101.144 E0.17906
G1 X123.925 Y101.144 E0.01683
G1 X119.899 Y97.118 E0.17906
G1 X119.364 Y97.119 E0.01683
G1 X123.390 Y101.144 E0.17906
G1 X122.855 Y101.144 E0.01683
G1 X118.830 Y97.119 E0.17906
G1 X118.295 Y97.119 E0.01683
G1 X122.320 Y101.144 E0.17905
G1 X121.785 Y101.144 E0.01683
G1 X117.760 Y97.119 E0.17905
G1 X117.225 Y97.119 E0.01683
G1 X121.250 Y101.144 E0.17905
G1 X120.715 Y101.144 E0.01683
G1 X116.690 Y97.119 E0.17905
G1 X116.155 Y97.119 E0.01683
G1 X120.180 Y101.144 E0.17905
G1 X119.645 Y101.144 E0.01683
G1 X115.620 Y97.119 E0.17905
G1 X115.085 Y97.119 E0.01683
G1 X119.110 Y101.144 E0.17905
G1 X118.575 Y101.144 E0.01683
G1 X114.550 Y97.119 E0.17904
G1 X114.015 Y97.119 E0.01683
G1 X118.040 Y101.144 E0.17904
G1 X117.505 Y101.144 E0.01683
G1 X113.480 Y97.119 E0.17904
G1 X112.945 Y97.119 E0.01683
G1 X116.970 Y101.144 E0.17904
G1 X116.435 Y101.144 E0.01683
G1 X112.410 Y97.119 E0.17904
G1 X111.875 Y97.119 E0.01683
G1 X115.900 Y101.144 E0.17904
G1 X115.365 Y101.144 E0.01683
G1 X111.340 Y97.119 E0.17904
G1 X110.805 Y97.119 E0.01683
G1 X114.830 Y101.144 E0.17904
G1 X114.295 Y101.144 E0.01683
G1 X110.270 Y97.119 E0.17903
G1 X109.735 Y97.119 E0.01683
G1 X113.760 Y101.144 E0.17903
G1 X113.225 Y101.144 E0.01683
G1 X109.200 Y97.119 E0.17903
G1 X108.665 Y97.119 E0.01683
G1 X112.690 Y101.144 E0.17903
G1 X112.155 Y101.144 E0.01683
G1 X108.131 Y97.119 E0.17903
G1 X107.596 Y97.119 E0.01683
G1 X111.620 Y101.144 E0.17903
G1 X111.085 Y101.144 E0.01683
G1 X107.061 Y97.119 E0.17903
G1 X106.526 Y97.119 E0.01683
G1 X110.550 Y101.144 E0.17902
G1 X110.015 Y101.144 E0.01683
G1 X105.991 Y97.119 E0.17902
G1 X105.456 Y97.119 E0.01683
G1 X109.480 Y101.144 E0.17902
G1 X108.945 Y101.144 E0.01683
G1 X104.921 Y97.119 E0.17902
G1 X104.386 Y97.119 E0.01683
G1 X108.410 Y101.144 E0.17902
G1 X107.875 Y101.144 E0.01683
G1 X103.851 Y97.119 E0.17902
G1 X103.316 Y97.120 E0.01683
G1 X107.340 Y101.144 E0.17902
G1 X106.805 Y101.144 E0.01683
G1 X102.781 Y97.120 E0.17902
G1 X102.246 Y97.120 E0.01683
G1 X106.270 Y101.144 E0.17901
G1 X105.735 Y101.144 E0.01683
G1 X101.711 Y97.120 E0.17901
G1 X101.176 Y97.120 E0.01683
G1 X105.200 Y101.144 E0.17901
G1 X104.773 Y101.144 E0.01344
G1 X104.773 Y101.252 E0.00339
G1 X101.138 Y97.616 E0.16171
G1 X101.138 Y98.151 E0.01683
G1 X104.773 Y101.787 E0.16172
G1 X104.773 Y102.322 E0.01683
G1 X101.138 Y98.686 E0.16172
G1 X101.138 Y99.221 E0.01683
G1 X104.773 Y102.857 E0.16172
G1 X104.773 Y103.392 E0.01683
G1 X101.138 Y99.756 E0.16172
G1 X101.138 Y100.291 E0.01683
G1 X104.773 Y103.926 E0.16173
G1 X104.773 Y104.461 E0.01683
G1 X101.137 Y100.826 E0.16173
G1 X101.137 Y101.361 E0.01683
G1 X104.773 Y104.996 E0.16173
G1 X104.773 Y105.531 E0.01683
G1 X101.137 Y101.896 E0.16173
G1 X101.137 Y102.431 E0.01683
G1 X104.773 Y106.066 E0.16174
G1 X104.773 Y106.601 E0.01683
G1 X101.137 Y102.966 E0.16174
G1 X101.137 Y103.500 E0.01683
G1 X104.773 Y107.136 E0.16174
G1 X104.773 Y107.671 E0.01683
G1 X101.137 Y104.035 E0.16174
G1 X101.137 Y104.570 E0.01683
G1 X104.773 Y108.206 E0.16175
G1 X104.773 Y108.741 E0.01683
G1 X101.137 Y105.105 E0.16175
G1 X101.137 Y105.640 E0.01683
G1 X104.773 Y109.276 E0.16175
G1 X104.773 Y109.811 E0.01683
G1 X101.137 Y106.175 E0.16175
G1 X101.137 Y106.710 E0.01683
G1 X104.773 Y110.346 E0.16176
G1 X104.773 Y110.881 E0.01683
G1 X101.137 Y107.245 E0.16176
G1 X101.137 Y107.780 E0.01683
G1 X104.773 Y111.416 E0.16176
G1 X104.773 Y111.951 E0.01683
G1 X101.137 Y108.315 E0.16176
G1 X101.137 Y108.850 E0.01683
G1 X104.773 Y112.486 E0.16177
G1 X104.773 Y113.021 E0.01683
G1 X101.137 Y109.385 E0.16177
G1 X101.137 Y109.920 E0.01683
G1 X104.773 Y113.556 E0.16177
G1 X104.773 Y114.091 E0.01683
G1 X101.137 Y110.455 E0.16177
G1 X101.136 Y110.989 E0.01683
G1 X104.773 Y114.626 E0.16178
G1 X104.773 Y115.161 E0.01683
G1 X101.136 Y111.524 E0.16178
G1 X101.136 Y112.059 E0.01683
G1 X104.773 Y115.696 E0.16178
G1 X104.773 Y116.231 E0.01683
G1 X101.136 Y112.594 E0.16178
G1 X101.136 Y113.129 E0.01683
G1 X104.773 Y116.766 E0.16179
G1 X104.773 Y117.301 E0.01683
G1 X101.136 Y113.664 E0.16179
G1 X101.136 Y114.199 E0.01683
G1 X104.773 Y117.836 E0.16179
G1 X104.773 Y118.371 E0.01683
G1 X101.136 Y114.734 E0.16179
G1 X101.136 Y115.269 E0.01683
G1 X104.773 Y118.906 E0.16180
G1 X104.773 Y119.441 E0.01683
G1 X101.136 Y115.804 E0.16180
G1 X101.136 Y116.339 E0.01683
G1 X104.773 Y119.976 E0.16180
G1 X104.773 Y120.511 E0.01683
G1 X101.136 Y116.874 E0.16180
G1 X101.136 Y117.409 E0.01683
G1 X104.773 Y121.046 E0.16181
G1 X104.773 Y121.581 E0.01683
G1 X101.136 Y117.944 E0.16181
G1 X101.136 Y118.478 E0.01683
G1 X104.773 Y122.116 E0.16181
G1 X104.773 Y122.651 E0.01683
G1 X101.136 Y119.013 E0.16181
G1 X101.136 Y119.548 E0.01683
G1 X104.773 Y123.186 E0.16182
G1 X104.773 Y123.721 E0.01683
G1 X101.136 Y120.083 E0.16182
G1 X101.136 Y120.618 E0.01683
G1 X104.773 Y124.256 E0.16182
G1 X104.773 Y124.791 E0.01683
G1 X101.136 Y121.153 E0.16182
G1 X101.135 Y121.688 E0.01683
G1 X104.773 Y125.326 E0.16183
G1 X104.773 Y125.861 E0.01683
G1 X101.135 Y122.223 E0.16183
G1 X101.135 Y122.758 E0.01683
G1 X104.773 Y126.396 E0.16183
G1 X104.773 Y126.931 E0.01683
G1 X101.135 Y123.293 E0.16183
G1 X101.135 Y123.828 E0.01683
G1 X104.773 Y127.466 E0.16184
G1 X104.773 Y128.001 E0.01683
G1 X101.135 Y124.363 E0.16184
G1 X101.135 Y124.898 E0.01683
G1 X104.773 Y128.536 E0.16184
G1 X104.773 Y129.071 E0.01683
G1 X101.135 Y125.433 E0.16184
G1 X101.135 Y125.967 E0.01683
G1 X109.049 Y133.881 E0.35204
G1 X108.514 Y133.881 E0.01683
G1 X101.135 Y126.502 E0.32824
G1 X101.135 Y127.037 E0.01683
G1 X107.979 Y133.881 E0.30445
G1 X107.444 Y133.881 E0.01683
G1 X101.135 Y127.572 E0.28066
G1 X101.135 Y128.107 E0.01683
G1 X106.909 Y133.881 E0.25686
G1 X106.374 Y133.882 E0.01683
G1 X101.135 Y128.642 E0.23307
G1 X101.135 Y129.177 E0.01683
G1 X105.839 Y133.882 E0.20927
