;FLAVOR:Marlin
;TIME:1971
;Filament used: 1.10358m
;Layer height: 0.2
;MINX:73.857
;MINY:79.3
;MINZ:0.2
;MAXX:160.692
;MAXY:107.138
;MAXZ:10
;Generated with Cura_SteamEngine 4.7.0
M140 S55
M105
M190 S55
M104 S210
M105
M109 S210
M82 ;absolute extrusion mode
; Ender 3 Custom Start G-code
G92 E0 ; Reset Extruder
G28 ; Home all axes
G1 Z2.0 F3000 ; Move Z Axis up little to prevent scratching of Heat Bed
G1 X0.1 Y20 Z0.3 F5000.0 ; Move to start position
G1 X0.1 Y200.0 Z0.3 F1500.0 E15 ; Draw the first line
G1 X0.4 Y200.0 Z0.3 F5000.0 ; Move to side a little
G1 X0.4 Y20 Z0.3 F1500.0 E30 ; Draw the second line
G92 E0 ; Reset Extruder
G1 Z2.0 F3000 ; Move Z Axis up little to prevent scratching of Heat Bed
G1 X5 Y20 Z0.3 F5000.0 ; Move over to prevent blob squish
G92 E0
G92 E0
G1 F2700 E-5
;LAYER_COUNT:50
;LAYER:0
M107
G0 F6000 X77.983 Y83.051 Z0.2
;TYPE:SKIRT
G1 F2700 E0
G1 F1200 X78.69 Y82.432 E0.03125
G1 X78.786 Y82.355 E0.03535
G1 X79.041 Y82.157 E0.04609
G1 X79.437 Y81.858 E0.06259
G1 X80.209 Y81.326 E0.09377
G1 X81.023 Y80.861 E0.12495
G1 X81.497 Y80.63 E0.14249
G1 X81.635 Y80.567 E0.14754
G1 X82.047 Y80.389 E0.16246
G1 X82.493 Y80.207 E0.17848
G1 X83.376 Y79.89 E0.20969
G1 X84.282 Y79.65 E0.24086
G1 X84.899 Y79.532 E0.26175
G1 X85.11 Y79.498 E0.26886
G1 X85.592 Y79.431 E0.28505
G1 X85.997 Y79.384 E0.29861
G1 X86.921 Y79.316 E0.32942
G1 X87.209 Y79.307 E0.33901
G1 X87.739 Y79.3 E0.35664
G1 X146.726 Y79.302 E2.31855
G1 X147.423 Y79.312 E2.34174
G1 X148.346 Y79.364 E2.37249
G1 X148.579 Y79.387 E2.38027
G1 X149.023 Y79.44 E2.39515
G1 X149.373 Y79.489 E2.4069
G1 X150.296 Y79.659 E2.43812
G1 X151.2 Y79.906 E2.46928
G1 X151.891 Y80.153 E2.49369
G1 X152.521 Y80.402 E2.51622
G1 X153.378 Y80.784 E2.54743
G1 X154.199 Y81.237 E2.57862
G1 X154.89 Y81.694 E2.60617
G1 X154.982 Y81.76 E2.60994
G1 X155.325 Y82.016 E2.62417
G1 X155.735 Y82.335 E2.64145
G1 X156.45 Y82.942 E2.67265
G1 X157.11 Y83.608 E2.70383
G1 X157.57 Y84.145 E2.72735
G1 X157.642 Y84.235 E2.73118
G1 X157.831 Y84.479 E2.74145
G1 X158.139 Y84.887 E2.75845
G1 X158.672 Y85.659 E2.78965
G1 X159.137 Y86.474 E2.82086
G1 X159.415 Y87.054 E2.84225
G1 X159.474 Y87.187 E2.84709
G1 X159.612 Y87.512 E2.85884
G1 X159.793 Y87.958 E2.87485
G1 X160.108 Y88.841 E2.90603
G1 X160.347 Y89.748 E2.93722
G1 X160.452 Y90.294 E2.95572
G1 X160.486 Y90.499 E2.96263
G1 X160.558 Y91.008 E2.97973
G1 X160.606 Y91.414 E2.99332
G1 X160.676 Y92.332 E3.02395
G1 X160.685 Y92.597 E3.03277
G1 X160.692 Y92.97 E3.04517
G1 X160.691 Y93.246 E3.05435
G1 X160.681 Y93.89 E3.07578
G1 X160.627 Y94.814 E3.10656
G1 X160.606 Y95.024 E3.11358
G1 X160.55 Y95.489 E3.12916
G1 X160.498 Y95.852 E3.14135
G1 X160.325 Y96.774 E3.17255
G1 X160.075 Y97.678 E3.20375
G1 X159.841 Y98.33 E3.22679
G1 X159.59 Y98.966 E3.24953
G1 X159.209 Y99.823 E3.28073
G1 X158.756 Y100.644 E3.31191
G1 X158.266 Y101.382 E3.34138
G1 X158.195 Y101.48 E3.3454
G1 X157.957 Y101.796 E3.35856
G1 X157.647 Y102.193 E3.37531
G1 X157.039 Y102.907 E3.4065
G1 X156.372 Y103.566 E3.43769
G1 X155.917 Y103.957 E3.45764
G1 X155.826 Y104.031 E3.46154
G1 X155.53 Y104.263 E3.47405
G1 X155.121 Y104.573 E3.49112
G1 X154.351 Y105.108 E3.52231
G1 X153.537 Y105.574 E3.5535
G1 X152.838 Y105.906 E3.57924
G1 X152.501 Y106.049 E3.59142
G1 X152.055 Y106.231 E3.60744
G1 X151.172 Y106.548 E3.63864
G1 X150.266 Y106.788 E3.66982
G1 X149.649 Y106.906 E3.69071
G1 X149.438 Y106.94 E3.69782
G1 X148.956 Y107.007 E3.714
G1 X148.551 Y107.054 E3.72756
G1 X147.627 Y107.122 E3.75838
G1 X147.339 Y107.131 E3.76796
G1 X146.809 Y107.138 E3.78559
G1 X87.822 Y107.136 E5.74751
G1 X87.125 Y107.126 E5.77069
G1 X86.202 Y107.074 E5.80144
G1 X85.969 Y107.051 E5.80923
G1 X85.525 Y106.998 E5.8241
G1 X85.175 Y106.949 E5.83586
G1 X84.252 Y106.779 E5.86707
G1 X83.348 Y106.532 E5.89824
G1 X82.657 Y106.285 E5.92265
G1 X82.027 Y106.036 E5.94518
G1 X81.17 Y105.654 E5.97639
G1 X80.349 Y105.201 E6.00757
G1 X79.63 Y104.723 E6.03629
G1 X79.522 Y104.645 E6.04072
G1 X79.193 Y104.399 E6.05438
G1 X78.801 Y104.093 E6.07092
G1 X78.087 Y103.485 E6.10212
G1 X77.428 Y102.818 E6.1333
G1 X77.013 Y102.334 E6.15451
G1 X76.929 Y102.23 E6.15895
G1 X76.718 Y101.96 E6.17035
G1 X76.418 Y101.564 E6.18687
G1 X75.884 Y100.793 E6.21807
G1 X75.418 Y99.98 E6.24924
G1 X75.023 Y99.131 E6.28038
G1 X74.856 Y98.728 E6.29489
G1 X74.758 Y98.487 E6.30354
G1 X74.442 Y97.603 E6.33477
G1 X74.203 Y96.697 E6.36593
G1 X74.087 Y96.085 E6.38665
G1 X74.053 Y95.873 E6.39379
G1 X73.992 Y95.441 E6.4083
G1 X73.942 Y95.024 E6.42227
G1 X73.868 Y94.019 E6.45579
G1 X73.859 Y93.635 E6.46856
G1 X73.857 Y93.475 E6.47388
G1 X73.857 Y93.16 E6.48436
G1 X73.867 Y92.542 E6.50492
G1 X73.922 Y91.607 E6.53607
G1 X73.934 Y91.489 E6.54001
G1 X73.982 Y91.093 E6.55328
G1 X74.046 Y90.631 E6.56879
G1 X74.214 Y89.708 E6.6
G1 X74.46 Y88.803 E6.63119
G1 X74.692 Y88.149 E6.65427
G1 X74.919 Y87.566 E6.67508
G1 X75.296 Y86.707 E6.70628
G1 X75.745 Y85.884 E6.73746
G1 X76.338 Y84.999 E6.77289
G1 X76.742 Y84.455 E6.79543
G1 X77.333 Y83.726 E6.82665
G1 X77.983 Y83.051 E6.85781
G0 F6000 X78.284 Y83.317
G1 F1200 X78.941 Y82.744 E6.88681
G1 X79.037 Y82.667 E6.8909
G1 X79.282 Y82.477 E6.90121
G1 X79.678 Y82.178 E6.91772
G1 X80.436 Y81.655 E6.94835
G1 X81.236 Y81.201 E6.97894
G1 X81.663 Y80.994 E6.99472
G1 X81.801 Y80.931 E6.99977
G1 X82.198 Y80.76 E7.01415
G1 X82.644 Y80.578 E7.03017
G1 X83.511 Y80.267 E7.0608
G1 X84.401 Y80.033 E7.09141
G1 X84.963 Y79.927 E7.11043
G1 X85.174 Y79.893 E7.11754
G1 X85.638 Y79.829 E7.13312
G1 X86.043 Y79.782 E7.14668
G1 X86.934 Y79.716 E7.1764
G1 X87.222 Y79.707 E7.18598
G1 X87.739 Y79.7 E7.20318
G1 X146.72 Y79.702 E9.16489
G1 X147.417 Y79.712 E9.18808
G1 X148.306 Y79.762 E9.21769
G1 X148.539 Y79.785 E9.22548
G1 X148.968 Y79.836 E9.23985
G1 X149.318 Y79.885 E9.2516
G1 X150.223 Y80.052 E9.28221
G1 X151.11 Y80.298 E9.31283
G1 X151.744 Y80.525 E9.33523
G1 X152.374 Y80.774 E9.35776
G1 X153.215 Y81.149 E9.38838
G1 X154.02 Y81.596 E9.41901
G1 X154.657 Y82.019 E9.44444
G1 X154.749 Y82.085 E9.44821
G1 X155.079 Y82.332 E9.46192
G1 X155.489 Y82.651 E9.4792
G1 X156.191 Y83.247 E9.50982
G1 X156.838 Y83.902 E9.54045
G1 X157.257 Y84.395 E9.56197
G1 X157.329 Y84.485 E9.5658
G1 X157.512 Y84.72 E9.57571
G1 X157.82 Y85.128 E9.59271
G1 X158.342 Y85.887 E9.62335
G1 X158.797 Y86.687 E9.65396
G1 X159.049 Y87.217 E9.67348
G1 X159.108 Y87.35 E9.67832
G1 X159.241 Y87.662 E9.6896
G1 X159.422 Y88.108 E9.7056
G1 X159.731 Y88.975 E9.73622
G1 X159.963 Y89.866 E9.76684
G1 X160.057 Y90.36 E9.78357
G1 X160.091 Y90.565 E9.79048
G1 X160.161 Y91.054 E9.80691
G1 X160.209 Y91.46 E9.82051
G1 X160.276 Y92.345 E9.85002
G1 X160.285 Y92.61 E9.85884
G1 X160.291 Y92.869 E9.86746
G1 X160.291 Y93.24 E9.8798
G1 X160.281 Y93.884 E9.90122
G1 X160.229 Y94.774 E9.93087
G1 X160.208 Y94.984 E9.93789
G1 X160.154 Y95.432 E9.9529
G1 X160.102 Y95.795 E9.9651
G1 X159.932 Y96.7 E9.99573
G1 X159.684 Y97.587 E10.02636
G1 X159.469 Y98.183 E10.04743
G1 X159.218 Y98.819 E10.07017
G1 X158.843 Y99.66 E10.1008
G1 X158.397 Y100.465 E10.13141
G1 X157.942 Y101.147 E10.15868
G1 X157.871 Y101.245 E10.1627
G1 X157.642 Y101.55 E10.17539
G1 X157.332 Y101.947 E10.19214
G1 X156.734 Y102.647 E10.22276
G1 X156.078 Y103.293 E10.25338
G1 X155.665 Y103.647 E10.27148
G1 X155.574 Y103.721 E10.27538
G1 X155.289 Y103.945 E10.28743
G1 X154.88 Y104.255 E10.3045
G1 X154.123 Y104.778 E10.33511
G1 X153.323 Y105.234 E10.36573
G1 X152.679 Y105.538 E10.38942
G1 X152.35 Y105.678 E10.40131
G1 X151.904 Y105.86 E10.41733
G1 X151.037 Y106.171 E10.44797
G1 X150.147 Y106.405 E10.47858
G1 X149.585 Y106.511 E10.4976
G1 X149.374 Y106.545 E10.50471
G1 X148.91 Y106.609 E10.52028
G1 X148.505 Y106.656 E10.53385
G1 X147.614 Y106.722 E10.56356
G1 X147.326 Y106.731 E10.57314
G1 X146.809 Y106.738 E10.59034
G1 X87.828 Y106.736 E12.55206
G1 X87.131 Y106.726 E12.57524
G1 X86.242 Y106.676 E12.60486
G1 X86.009 Y106.653 E12.61264
G1 X85.58 Y106.602 E12.62701
G1 X85.23 Y106.553 E12.63877
G1 X84.325 Y106.386 E12.66938
G1 X83.438 Y106.14 E12.69999
G1 X82.804 Y105.913 E12.72239
G1 X82.174 Y105.664 E12.74492
G1 X81.333 Y105.289 E12.77555
G1 X80.528 Y104.842 E12.80617
G1 X79.864 Y104.399 E12.83272
G1 X79.756 Y104.321 E12.83715
G1 X79.439 Y104.084 E12.85032
G1 X79.047 Y103.778 E12.86686
G1 X78.347 Y103.18 E12.89748
G1 X77.701 Y102.524 E12.9281
G1 X77.324 Y102.082 E12.94742
G1 X77.24 Y101.978 E12.95187
G1 X77.037 Y101.719 E12.96281
G1 X76.737 Y101.323 E12.97934
G1 X76.213 Y100.566 E13.00996
G1 X75.757 Y99.766 E13.04059
G1 X75.393 Y98.978 E13.06946
G1 X75.227 Y98.577 E13.08389
G1 X75.129 Y98.336 E13.09254
G1 X74.819 Y97.469 E13.12317
G1 X74.586 Y96.578 E13.1538
G1 X74.482 Y96.022 E13.17261
G1 X74.448 Y95.81 E13.17975
G1 X74.389 Y95.393 E13.19376
G1 X74.339 Y94.976 E13.20773
G1 X74.268 Y94.008 E13.24001
G1 X74.259 Y93.63 E13.25259
G1 X74.257 Y93.47 E13.25791
G1 X74.257 Y93.167 E13.26799
G1 X74.267 Y92.549 E13.28855
G1 X74.32 Y91.648 E13.31857
G1 X74.332 Y91.53 E13.32251
G1 X74.378 Y91.147 E13.33534
G1 X74.442 Y90.685 E13.35085
G1 X74.608 Y89.78 E13.38146
G1 X74.852 Y88.892 E13.41209
G1 X75.064 Y88.294 E13.43319
G1 X75.291 Y87.711 E13.454
G1 X75.662 Y86.868 E13.48463
G1 X76.105 Y86.061 E13.51525
G1 X76.659 Y85.237 E13.54827
G1 X77.063 Y84.693 E13.57081
G1 X77.644 Y83.979 E13.60143
G1 X78.284 Y83.317 E13.63205
G0 F6000 X78.584 Y83.584
G1 F1200 X79.191 Y83.056 E13.65881
G1 X79.287 Y82.979 E13.66291
G1 X79.523 Y82.796 E13.67284
G1 X79.919 Y82.497 E13.68934
G1 X80.663 Y81.985 E13.71938
G1 X81.829 Y81.358 E13.76341
G1 X81.967 Y81.295 E13.76846
G1 X82.349 Y81.13 E13.7823
G1 X82.795 Y80.948 E13.79832
G1 X83.646 Y80.644 E13.82838
G1 X84.52 Y80.417 E13.85841
G1 X85.026 Y80.322 E13.87553
G1 X85.237 Y80.288 E13.88264
G1 X85.684 Y80.226 E13.89765
G1 X86.089 Y80.179 E13.91121
G1 X86.946 Y80.116 E13.93979
G1 X87.234 Y80.107 E13.94938
G1 X87.739 Y80.1 E13.96618
G1 X146.714 Y80.102 E15.92769
G1 X147.411 Y80.112 E15.95088
G1 X148.267 Y80.16 E15.97939
G1 X148.5 Y80.183 E15.98718
G1 X148.912 Y80.233 E16.00098
G1 X149.262 Y80.282 E16.01274
G1 X150.15 Y80.446 E16.04277
G1 X151.02 Y80.689 E16.07282
G1 X151.597 Y80.897 E16.09322
G1 X152.227 Y81.146 E16.11575
G1 X153.052 Y81.515 E16.14581
G1 X153.84 Y81.955 E16.17582
G1 X154.424 Y82.344 E16.19916
G1 X154.516 Y82.41 E16.20293
G1 X154.834 Y82.648 E16.21614
G1 X155.244 Y82.967 E16.23342
G1 X155.931 Y83.552 E16.26343
G1 X156.564 Y84.196 E16.29346
G1 X156.945 Y84.645 E16.31305
G1 X157.017 Y84.735 E16.31688
G1 X157.193 Y84.961 E16.32641
G1 X157.501 Y85.369 E16.34341
G1 X158.012 Y86.114 E16.37346
G1 X158.456 Y86.9 E16.40348
G1 X158.684 Y87.379 E16.42113
G1 X158.743 Y87.512 E16.42597
G1 X158.87 Y87.812 E16.4368
G1 X159.051 Y88.258 E16.45281
G1 X159.354 Y89.109 E16.48286
G1 X159.663 Y90.425 E16.52782
G1 X159.697 Y90.63 E16.53473
G1 X159.763 Y91.101 E16.55055
G1 X159.811 Y91.507 E16.56415
G1 X159.876 Y92.359 E16.59257
G1 X159.885 Y92.624 E16.60139
G1 X159.891 Y92.873 E16.60967
G1 X159.891 Y93.233 E16.62164
G1 X159.881 Y93.877 E16.64307
G1 X159.831 Y94.734 E16.67162
G1 X159.81 Y94.944 E16.67864
G1 X159.758 Y95.375 E16.69308
G1 X159.706 Y95.738 E16.70527
G1 X159.538 Y96.626 E16.73533
G1 X159.293 Y97.495 E16.76536
G1 X159.097 Y98.036 E16.7845
G1 X158.846 Y98.672 E16.80724
G1 X158.477 Y99.497 E16.8373
G1 X158.038 Y100.286 E16.86733
G1 X157.618 Y100.912 E16.8924
G1 X157.547 Y101.01 E16.89643
G1 X157.326 Y101.304 E16.90866
G1 X157.016 Y101.701 E16.92541
G1 X156.43 Y102.387 E16.95542
G1 X155.784 Y103.019 E16.98548
G1 X155.412 Y103.337 E17.00176
G1 X155.321 Y103.411 E17.00566
G1 X155.047 Y103.626 E17.01724
G1 X154.638 Y103.936 E17.03431
G1 X153.895 Y104.449 E17.06434
G1 X153.109 Y104.894 E17.09438
G1 X152.521 Y105.171 E17.116
G1 X152.199 Y105.308 E17.12764
G1 X151.753 Y105.49 E17.14366
G1 X150.902 Y105.794 E17.17372
G1 X150.028 Y106.021 E17.20375
G1 X149.522 Y106.116 E17.22088
G1 X149.311 Y106.15 E17.22799
G1 X148.864 Y106.212 E17.243
G1 X148.459 Y106.259 E17.25656
G1 X147.602 Y106.322 E17.28514
G1 X147.314 Y106.331 E17.29472
G1 X146.809 Y106.338 E17.31152
G1 X87.834 Y106.336 E19.27303
G1 X87.137 Y106.326 E19.29622
G1 X86.281 Y106.278 E19.32473
G1 X86.048 Y106.255 E19.33252
G1 X85.636 Y106.205 E19.34633
G1 X85.286 Y106.156 E19.35808
G1 X84.398 Y105.992 E19.38811
G1 X83.528 Y105.749 E19.41816
G1 X82.951 Y105.541 E19.43856
G1 X82.321 Y105.292 E19.46109
G1 X81.496 Y104.923 E19.49115
G1 X80.708 Y104.483 E19.52117
G1 X80.098 Y104.075 E19.54558
G1 X79.99 Y103.997 E19.55001
G1 X79.686 Y103.768 E19.56267
G1 X79.294 Y103.462 E19.57921
G1 X78.607 Y102.876 E19.60924
G1 X77.975 Y102.231 E19.63927
G1 X77.635 Y101.831 E19.65673
G1 X77.551 Y101.727 E19.66118
G1 X77.356 Y101.477 E19.67173
G1 X77.056 Y101.081 E19.68825
G1 X76.543 Y100.338 E19.71828
G1 X76.098 Y99.552 E19.74832
G1 X75.762 Y98.825 E19.77496
G1 X75.499 Y98.185 E19.79797
G1 X75.197 Y97.334 E19.82801
G1 X74.97 Y96.46 E19.85804
G1 X74.877 Y95.958 E19.87502
G1 X74.843 Y95.746 E19.88216
G1 X74.787 Y95.345 E19.89563
G1 X74.737 Y94.928 E19.9096
G1 X74.668 Y93.997 E19.94065
G1 X74.659 Y93.625 E19.95302
G1 X74.657 Y93.465 E19.95835
G1 X74.657 Y93.173 E19.96806
G1 X74.667 Y92.555 E19.98862
G1 X74.718 Y91.688 E20.0175
G1 X74.73 Y91.57 E20.02145
G1 X74.774 Y91.202 E20.03377
G1 X74.838 Y90.74 E20.04929
G1 X75.002 Y89.852 E20.07932
G1 X75.243 Y88.982 E20.10935
G1 X75.437 Y88.439 E20.12853
G1 X75.664 Y87.856 E20.14933
G1 X76.029 Y87.03 E20.17937
G1 X76.465 Y86.239 E20.20941
G1 X76.98 Y85.476 E20.24003
G1 X77.384 Y84.932 E20.26257
G1 X77.954 Y84.231 E20.29262
G1 X78.584 Y83.584 E20.32265
G1 F2700 E15.32265
;MESH:Toothpaste_Squeezer_v2.stl
G0 F6000 X84.268 Y92.18
G0 X85.275 Y92.742
G0 X86.085 Y94.986
;TYPE:WALL-INNER
G1 F2700 E20.32265
G1 F1200 X86.13 Y95.047 E20.32517
G1 X86.27 Y95.11 E20.33028
G1 X86.319 Y95.146 E20.3323
G1 X86.397 Y95.166 E20.33498
G1 X86.515 Y95.198 E20.33905
G1 X86.559 Y95.21 E20.34056
G1 X86.755 Y95.219 E20.34709
G1 X86.805 Y95.219 E20.34875
G1 X87.313 Y95.219 E20.36565
G1 X147.234 Y95.219 E22.35863
G1 X147.739 Y95.219 E22.37542
G1 X147.859 Y95.218 E22.37942
G1 X148.023 Y95.203 E22.38489
G1 X148.144 Y95.167 E22.38909
G1 X148.199 Y95.15 E22.39101
G1 X148.365 Y95.066 E22.39719
G1 X148.442 Y95.001 E22.40055
G1 X148.511 Y94.95 E22.4034
G1 X148.547 Y94.902 E22.4054
G1 X148.601 Y94.861 E22.40765
G1 X148.667 Y94.719 E22.41286
G1 X148.702 Y94.671 E22.41483
G1 X148.721 Y94.597 E22.41738
G1 X148.753 Y94.479 E22.42144
G1 X148.765 Y94.434 E22.42299
G1 X148.774 Y94.238 E22.42952
G1 X148.774 Y94.188 E22.43118
G1 X148.774 Y93.68 E22.44808
G1 X148.774 Y92.759 E22.47871
G1 X148.774 Y92.254 E22.49551
G1 X148.773 Y92.135 E22.49946
G1 X148.758 Y91.973 E22.50487
G1 X148.722 Y91.847 E22.50923
G1 X148.707 Y91.796 E22.511
G1 X148.621 Y91.629 E22.51725
G1 X148.551 Y91.544 E22.52091
G1 X148.507 Y91.484 E22.52339
G1 X148.459 Y91.448 E22.52538
G1 X148.416 Y91.391 E22.52776
G1 X148.279 Y91.328 E22.53277
G1 X148.229 Y91.292 E22.53482
G1 X148.152 Y91.272 E22.53747
G1 X148.034 Y91.241 E22.54152
G1 X147.991 Y91.229 E22.54301
G1 X147.795 Y91.219 E22.54954
G1 X147.743 Y91.219 E22.55127
G1 X147.236 Y91.219 E22.56813
G1 X87.314 Y91.219 E24.56114
G1 X86.809 Y91.219 E24.57794
G1 X86.69 Y91.22 E24.5819
G1 X86.528 Y91.235 E24.58731
G1 X86.406 Y91.27 E24.59153
G1 X86.35 Y91.287 E24.59348
G1 X86.18 Y91.375 E24.59984
G1 X86.109 Y91.436 E24.60296
G1 X86.04 Y91.486 E24.60579
G1 X86.007 Y91.53 E24.60762
G1 X85.946 Y91.575 E24.61014
G1 X85.883 Y91.715 E24.61525
G1 X85.847 Y91.764 E24.61727
G1 X85.826 Y91.845 E24.62005
G1 X85.783 Y92.004 E24.62553
G1 X85.774 Y92.2 E24.63206
G1 X85.774 Y92.248 E24.63365
G1 X85.774 Y92.759 E24.65065
G1 X85.774 Y93.679 E24.68125
G1 X85.774 Y94.184 E24.69805
G1 X85.775 Y94.303 E24.702
G1 X85.79 Y94.465 E24.70741
G1 X85.826 Y94.589 E24.71171
G1 X85.842 Y94.643 E24.71358
G1 X85.93 Y94.813 E24.71995
G1 X85.991 Y94.884 E24.72306
G1 X86.041 Y94.953 E24.7259
G1 X86.085 Y94.986 E24.72773
G0 F6000 X86.373 Y94.702
;TYPE:WALL-OUTER
G1 F1200 X86.39 Y94.725 E24.72868
G1 X86.472 Y94.762 E24.73167
G1 X86.495 Y94.779 E24.73262
G1 X86.62 Y94.812 E24.73692
G1 X86.765 Y94.819 E24.74175
G1 X147.84 Y94.818 E26.77311
G1 X147.946 Y94.808 E26.77665
