; generated by PrusaSlicer 2.1.1+ on 2020-03-12 at 20:02:33 UTC

; 

; external perimeters extrusion width = 0.60mm
; perimeters extrusion width = 0.50mm
; infill extrusion width = 0.50mm
; solid infill extrusion width = 0.50mm
; top infill extrusion width = 0.45mm
; support material extrusion width = 0.38mm
; first layer extrusion width = 0.42mm

M73 P0 R104
M73 Q0 S104
M201 X1000 Y1000 Z1000 E5000 ; sets maximum accelerations, mm/sec^2
M203 X200 Y200 Z12 E120 ; sets maximum feedrates, mm/sec
M204 P1250 R1250 T1250 ; sets acceleration (P, T) and retract acceleration (R), mm/sec^2
M205 X8.00 Y8.00 Z0.40 E1.50 ; sets the jerk limits, mm/sec
M205 S0 T0 ; sets the minimum extruding and travel feed rate, mm/sec
M107
M862.3 P "MK3" ; printer model check
M862.1 P0.4 ; nozzle diameter check
M115 U3.8.1 ; tell printer latest fw version
G90 ; use absolute coordinates
M83 ; extruder relative mode
M104 S215 ; set extruder temp
M140 S60 ; set bed temp
M190 S60 ; wait for bed temp
M109 S215 ; wait for extruder temp
G28 W ; home all without mesh bed level
G80 ; mesh bed leveling
G1 Y-3.0 F1000.0 ; go outside print area
G92 E0.0
G1 X60.0 E9.0 F1000.0 ; intro line
M73 Q0 S104
M73 P0 R104
G1 X100.0 E12.5 F1000.0 ; intro line
G92 E0.0
M221 S95
G21 ; set units to millimeters
G90 ; use absolute coordinates
M83 ; use relative distances for extrusion
M900 K30 ; Filament gcode
;BEFORE_LAYER_CHANGE
G92 E0.0
;0.2


G1 E-0.80000 F2100.00000
G1 Z0.600 F10800.000
;AFTER_LAYER_CHANGE
;0.2
G1 X148.235 Y76.161
G1 Z0.200
G1 E0.80000 F2100.00000
M204 S1000
G1 F1200
G1 X153.225 Y78.653 E0.17489
G1 X153.711 Y78.996 E0.01862
G1 X154.125 Y79.522 E0.02100
G1 X163.332 Y96.078 E0.59399
G1 X163.457 Y96.799 E0.02293
G1 X163.456 Y133.065 E1.13708
G1 X163.382 Y133.584 E0.01646
G1 X163.186 Y134.071 E0.01646
G1 X162.880 Y134.498 E0.01646
G1 X162.481 Y134.839 E0.01646
G1 X161.908 Y135.110 E0.01987
G1 X161.278 Y135.206 E0.01998
G1 X121.237 Y135.033 E1.25545
G1 X92.808 Y131.349 E0.89884
G1 X90.002 Y130.788 E0.08971
G1 X87.858 Y130.095 E0.07065
G1 X75.554 Y124.531 E0.42339
G1 X74.732 Y124.086 E0.02931
G1 X73.942 Y123.511 E0.03064
G1 X73.252 Y122.851 E0.02995
G1 X72.499 Y121.869 E0.03878
G1 X71.823 Y120.519 E0.04733
G1 X71.453 Y119.107 E0.04580
G1 X71.370 Y118.218 E0.02798
G1 X71.397 Y117.353 E0.02713
G1 X71.667 Y116.012 E0.04290
G1 X89.535 Y79.724 E1.26825
G1 X89.851 Y79.255 E0.01771
G1 X90.280 Y78.882 E0.01783
G1 X90.800 Y78.627 E0.01817
G1 X91.366 Y78.519 E0.01805
G1 X141.664 Y75.923 E1.57917
G1 X148.175 Y76.158 E0.20429
G1 F8640
G1 X151.126 Y77.616 E-0.76000
G1 E-0.04000 F2100.00000
G1 Z0.800 F10800.000
G1 X99.953 Y90.369
G1 Z0.200
G1 E0.80000 F2100.00000
G1 F1200
G1 X99.953 Y86.593 E0.11839
G1 X99.725 Y86.108 E0.01682
G1 X99.572 Y85.848 E0.00945
G1 X99.199 Y85.346 E0.01960
G1 X99.199 Y91.205 E0.18370
G1 X98.795 Y91.621 E0.01818
G1 X98.445 Y91.905 E0.01413
G1 X98.445 Y84.647 E0.22757
G1 X98.068 Y84.394 E0.01422
G1 X97.691 Y84.197 E0.01336
G1 X97.691 Y92.354 E0.25578
G1 X97.249 Y92.537 E0.01499
G1 X96.936 Y92.632 E0.01024
G1 X96.936 Y83.919 E0.27321
G1 X96.668 Y83.855 E0.00866
G1 X96.182 Y83.786 E0.01537
G1 X96.182 Y92.766 E0.28156
G1 X95.769 Y92.787 E0.01297
G1 X95.428 Y92.773 E0.01070
G1 X95.428 Y83.778 E0.28201
G1 X95.168 Y83.805 E0.00820
G1 X94.674 Y83.902 E0.01578
G1 X94.674 Y92.650 E0.27429
G1 X94.289 Y92.537 E0.01256
G1 X93.920 Y92.388 E0.01250
G1 X93.920 Y83.976 E0.26375
G1 F8640
G1 X93.920 Y87.268 E-0.76000
G1 E-0.04000 F2100.00000
G1 Z0.800 F10800.000
G1 X95.519 Y106.701
G1 Z0.200
G1 E0.80000 F2100.00000
G1 F1200
G1 X96.519 Y106.725 E0.03135
G1 X97.512 Y106.843 E0.03135
G1 X98.482 Y107.052 E0.03113
G1 X98.976 Y107.196 E0.01611
G1 X99.892 Y107.535 E0.03063
G1 X100.808 Y107.974 E0.03185
G1 X101.664 Y108.491 E0.03136
G1 X102.467 Y109.087 E0.03135
G1 X103.211 Y109.755 E0.03135
G1 X103.888 Y110.491 E0.03135
G1 X104.493 Y111.287 E0.03135
G1 X105.020 Y112.137 E0.03135
G1 X105.465 Y113.033 E0.03135
G1 X105.823 Y113.966 E0.03135
G1 X106.091 Y114.930 E0.03135
G1 X106.263 Y115.891 E0.03063
G1 X106.320 Y116.418 E0.01661
G1 X106.356 Y117.411 E0.03115
G1 X106.297 Y118.409 E0.03135
G1 X106.144 Y119.397 E0.03135
G1 X105.898 Y120.366 E0.03135
G1 X105.562 Y121.308 E0.03135
G1 X105.139 Y122.214 E0.03135
G1 X104.632 Y123.076 E0.03135
G1 X104.046 Y123.887 E0.03135
G1 X103.387 Y124.638 E0.03135
G1 X102.659 Y125.324 E0.03135
G1 X101.870 Y125.938 E0.03135
G1 X101.032 Y126.471 E0.03114
G1 X100.580 Y126.716 E0.01611
G1 X99.691 Y127.119 E0.03063
G1 X98.730 Y127.450 E0.03185
G1 X97.758 Y127.684 E0.03136
G1 X96.768 Y127.826 E0.03135
G1 X95.769 Y127.873 E0.03135
G1 X94.770 Y127.826 E0.03135
G1 X93.780 Y127.684 E0.03135
G1 X92.808 Y127.450 E0.03135
G1 X91.869 Y127.128 E0.03114
G1 X91.396 Y126.927 E0.01611
G1 X90.526 Y126.483 E0.03063
G1 X89.668 Y125.938 E0.03185
G1 X88.879 Y125.324 E0.03136
G1 X88.151 Y124.638 E0.03135
G1 X87.492 Y123.887 E0.03135
G1 X86.906 Y123.076 E0.03135
G1 X86.399 Y122.214 E0.03135
G1 X85.976 Y121.308 E0.03135
G1 X85.640 Y120.366 E0.03135
G1 X85.394 Y119.397 E0.03135
G1 X85.242 Y118.409 E0.03135
G1 X85.183 Y117.411 E0.03135
G1 X85.218 Y116.411 E0.03135
G1 X85.348 Y115.420 E0.03135
G1 X85.570 Y114.445 E0.03135
G1 X85.884 Y113.495 E0.03135
G1 X86.282 Y112.586 E0.03114
G1 X86.522 Y112.131 E0.01611
G1 X87.036 Y111.301 E0.03063
G1 X87.650 Y110.491 E0.03185
G1 X88.327 Y109.755 E0.03136
G1 X89.071 Y109.087 E0.03135
G1 X89.874 Y108.491 E0.03135
G1 X90.730 Y107.974 E0.03135
G1 X91.631 Y107.541 E0.03135
G1 X92.569 Y107.194 E0.03135
G1 X93.535 Y106.937 E0.03135
G1 X94.522 Y106.772 E0.03135
G1 X95.459 Y106.706 E0.02947
G1 X95.486 Y107.082 F10800.000
G1 F1200
G1 X96.492 Y107.101 E0.03155
G1 X97.450 Y107.215 E0.03023
G1 X98.390 Y107.418 E0.03016
G1 X98.857 Y107.554 E0.01528
G1 X99.745 Y107.882 E0.02966
G1 X100.628 Y108.306 E0.03073
G1 X101.454 Y108.805 E0.03024
G1 X102.229 Y109.379 E0.03023
G1 X102.946 Y110.024 E0.03023
G1 X103.599 Y110.733 E0.03023
G1 X104.182 Y111.501 E0.03023
G1 X104.690 Y112.321 E0.03023
G1 X105.119 Y113.184 E0.03024
G1 X105.464 Y114.085 E0.03023
G1 X105.723 Y115.014 E0.03023
G1 X105.890 Y115.945 E0.02966
G1 X105.944 Y116.445 E0.01577
G1 X105.978 Y117.406 E0.03016
G1 X105.921 Y118.369 E0.03023
G1 X105.774 Y119.322 E0.03023
G1 X105.537 Y120.257 E0.03023
G1 X105.213 Y121.165 E0.03024
G1 X104.805 Y122.039 E0.03023
G1 X104.316 Y122.870 E0.03023
G1 X103.751 Y123.651 E0.03024
G1 X103.115 Y124.376 E0.03023
G1 X102.413 Y125.037 E0.03023
G1 X101.653 Y125.630 E0.03024
G1 X100.841 Y126.146 E0.03016
G1 X100.413 Y126.378 E0.01528
G1 X99.551 Y126.769 E0.02966
G1 X98.625 Y127.088 E0.03073
G1 X97.687 Y127.314 E0.03024
G1 X96.732 Y127.450 E0.03023
G1 X95.769 Y127.495 E0.03023
G1 X94.806 Y127.450 E0.03023
G1 X93.851 Y127.314 E0.03023
G1 X92.914 Y127.088 E0.03023
G1 X92.004 Y126.776 E0.03016
G1 X91.556 Y126.585 E0.01528
G1 X90.713 Y126.155 E0.02966
G1 X89.886 Y125.630 E0.03073
G1 X89.125 Y125.037 E0.03024
G1 X88.423 Y124.376 E0.03023
G1 X87.787 Y123.651 E0.03023
G1 X87.222 Y122.870 E0.03024
G1 X86.733 Y122.039 E0.03023
G1 X86.325 Y121.165 E0.03023
G1 X86.001 Y120.257 E0.03024
G1 X85.764 Y119.322 E0.03023
G1 X85.617 Y118.369 E0.03023
G1 X85.560 Y117.406 E0.03023
G1 X85.594 Y116.442 E0.03023
G1 X85.719 Y115.486 E0.03023
G1 X85.934 Y114.546 E0.03024
G1 X86.236 Y113.631 E0.03023
G1 X86.622 Y112.750 E0.03016
G1 X86.849 Y112.319 E0.01528
G1 X87.347 Y111.514 E0.02966
G1 X87.939 Y110.733 E0.03073
G1 X88.592 Y110.024 E0.03024
G1 X89.310 Y109.379 E0.03023
G1 X90.084 Y108.805 E0.03023
G1 X90.910 Y108.306 E0.03023
G1 X91.779 Y107.888 E0.03023
G1 X92.683 Y107.553 E0.03023
G1 X93.615 Y107.306 E0.03023
G1 X94.566 Y107.147 E0.03023
G1 X95.426 Y107.086 E0.02703
G1 X95.677 Y106.730 F10800.000
G1 F8640
G1 X96.492 Y107.101 E-0.24616
G1 X97.450 Y107.215 E-0.22266
G1 X98.390 Y107.418 E-0.22209
G1 X98.677 Y107.502 E-0.06910
G1 E-0.04000 F2100.00000
G1 Z0.800 F10800.000
G1 X80.991 Y115.825
G1 Z0.200
G1 E0.80000 F2100.00000
G1 F1200
G1 X81.216 Y116.359 E0.01816
G1 X81.338 Y116.933 E0.01839
G1 X81.350 Y117.489 E0.01744
G1 X81.313 Y117.804 E0.00993
G1 X81.169 Y118.350 E0.01771
G1 X80.920 Y118.872 E0.01814
G1 X80.578 Y119.338 E0.01814
G1 X80.154 Y119.733 E0.01814
G1 X79.665 Y120.041 E0.01814
G1 X79.127 Y120.253 E0.01814
G1 X78.558 Y120.361 E0.01816
G1 X77.971 Y120.360 E0.01839
G1 X77.425 Y120.256 E0.01744
G1 X77.125 Y120.154 E0.00993
G1 X76.621 Y119.899 E0.01771
G1 X76.163 Y119.545 E0.01814
G1 X75.778 Y119.113 E0.01814
G1 X75.481 Y118.617 E0.01814
G1 X75.282 Y118.073 E0.01814
G1 X75.188 Y117.503 E0.01814
G1 X75.201 Y116.924 E0.01814
G1 X75.322 Y116.359 E0.01814
G1 X75.547 Y115.825 E0.01814
G1 X75.867 Y115.343 E0.01814
G1 X76.261 Y114.939 E0.01771
G1 X76.513 Y114.746 E0.00994
G1 X77.004 Y114.467 E0.01771
G1 X77.551 Y114.281 E0.01814
G1 X78.124 Y114.200 E0.01814
G1 X78.702 Y114.227 E0.01814
G1 X79.265 Y114.361 E0.01814
G1 X79.793 Y114.598 E0.01814
G1 X80.267 Y114.930 E0.01814
G1 X80.671 Y115.343 E0.01814
G1 X80.958 Y115.775 E0.01626
G1 X80.644 Y115.984 F10800.000
G1 F1200
G1 X80.855 Y116.472 E0.01668
G1 X80.961 Y116.977 E0.01616
G1 X80.973 Y117.471 E0.01551
G1 X80.942 Y117.733 E0.00827
G1 X80.814 Y118.219 E0.01576
G1 X80.595 Y118.677 E0.01592
G1 X80.295 Y119.087 E0.01592
G1 X79.923 Y119.433 E0.01592
G1 X79.494 Y119.703 E0.01592
G1 X79.022 Y119.889 E0.01592
G1 X78.523 Y119.984 E0.01592
G1 X78.007 Y119.983 E0.01616
G1 X77.521 Y119.890 E0.01551
G1 X77.272 Y119.805 E0.00827
G1 X76.823 Y119.578 E0.01576
G1 X76.421 Y119.268 E0.01592
G1 X76.084 Y118.889 E0.01592
G1 X75.823 Y118.453 E0.01592
G1 X75.648 Y117.977 E0.01592
G1 X75.565 Y117.476 E0.01592
G1 X75.577 Y116.969 E0.01592
G1 X75.684 Y116.472 E0.01592
G1 X75.881 Y116.004 E0.01592
G1 X76.161 Y115.582 E0.01592
G1 X76.513 Y115.222 E0.01576
G1 X76.722 Y115.061 E0.00827
G1 X77.159 Y114.813 E0.01576
G1 X77.639 Y114.649 E0.01592
G1 X78.142 Y114.578 E0.01592
G1 X78.649 Y114.602 E0.01592
G1 X79.143 Y114.720 E0.01592
G1 X79.606 Y114.928 E0.01592
G1 X80.022 Y115.218 E0.01592
G1 X80.377 Y115.582 E0.01592
G1 X80.611 Y115.934 E0.01327
G1 X81.044 Y115.994 F10800.000
G1 F8640
G1 X80.855 Y116.472 E-0.13649
G1 X80.961 Y116.977 E-0.11901
G1 X80.973 Y117.471 E-0.11421
G1 X80.942 Y117.733 E-0.06091
G1 X80.814 Y118.219 E-0.11606
G1 X80.595 Y118.677 E-0.11721
G1 X80.349 Y119.013 E-0.09609
G1 E-0.04000 F2100.00000
G1 Z0.800 F10800.000
G1 X110.201 Y116.924
G1 Z0.200
G1 E0.80000 F2100.00000
G1 F1200
G1 X110.322 Y116.359 E0.01814
G1 X110.547 Y115.825 E0.01814
G1 X110.859 Y115.355 E0.01771
G1 X111.070 Y115.118 E0.00994
G1 X111.500 Y114.753 E0.01771
G1 X112.004 Y114.467 E0.01814
G1 X112.551 Y114.281 E0.01814
G1 X113.124 Y114.200 E0.01814
G1 X113.702 Y114.227 E0.01814
G1 X114.265 Y114.361 E0.01814
G1 X114.793 Y114.598 E0.01814
G1 X115.267 Y114.930 E0.01814
G1 X115.671 Y115.343 E0.01814
G1 X115.991 Y115.825 E0.01814
G1 X116.216 Y116.359 E0.01816
G1 X116.338 Y116.933 E0.01839
G1 X116.350 Y117.489 E0.01744
G1 X116.313 Y117.804 E0.00993
G1 X116.169 Y118.350 E0.01771
G1 X115.920 Y118.872 E0.01814
G1 X115.578 Y119.338 E0.01814
G1 X115.154 Y119.733 E0.01814
G1 X114.665 Y120.041 E0.01814
G1 X114.127 Y120.253 E0.01814
G1 X113.558 Y120.361 E0.01814
G1 X112.980 Y120.361 E0.01814
G1 X112.411 Y120.253 E0.01814
G1 X111.873 Y120.041 E0.01814
G1 X111.384 Y119.733 E0.01814
G1 X110.960 Y119.338 E0.01814
G1 X110.618 Y118.871 E0.01816
G1 X110.366 Y118.341 E0.01839
G1 X110.225 Y117.803 E0.01744
G1 X110.188 Y117.489 E0.00993
G1 X110.200 Y116.984 E0.01582
G1 X110.577 Y116.993 F10800.000
G1 F1200
G1 X110.684 Y116.472 E0.01667
G1 X110.881 Y116.004 E0.01592
G1 X111.159 Y115.586 E0.01576
G1 X111.334 Y115.388 E0.00827
G1 X111.717 Y115.063 E0.01576
G1 X112.159 Y114.813 E0.01592
G1 X112.639 Y114.649 E0.01592
G1 X113.142 Y114.578 E0.01592
G1 X113.649 Y114.602 E0.01592
G1 X114.143 Y114.720 E0.01592
G1 X114.606 Y114.928 E0.01592
G1 X115.022 Y115.218 E0.01592
G1 X115.377 Y115.582 E0.01592
G1 X115.658 Y116.004 E0.01592
G1 X115.855 Y116.472 E0.01592
G1 X115.961 Y116.977 E0.01616
G1 X115.973 Y117.471 E0.01551
G1 X115.942 Y117.733 E0.00827
G1 X115.814 Y118.219 E0.01576
G1 X115.595 Y118.677 E0.01592
G1 X115.295 Y119.087 E0.01592
G1 X114.923 Y119.433 E0.01592
G1 X114.494 Y119.703 E0.01592
G1 X114.022 Y119.889 E0.01592
G1 X113.523 Y119.984 E0.01592
G1 X113.015 Y119.984 E0.01592
G1 X112.517 Y119.889 E0.01592
G1 X112.044 Y119.703 E0.01592
G1 X111.615 Y119.433 E0.01592
G1 X111.244 Y119.087 E0.01592
G1 X110.943 Y118.677 E0.01592
G1 X110.722 Y118.211 E0.01616
G1 X110.596 Y117.733 E0.01551
G1 X110.565 Y117.471 E0.00827
G1 X110.575 Y117.053 E0.01311
G1 X110.258 Y116.751 F10800.000
G1 F8640
G1 X110.684 Y116.472 E-0.13643
G1 X110.881 Y116.004 E-0.11721
G1 X111.159 Y115.586 E-0.11607
G1 X111.334 Y115.388 E-0.06093
G1 X111.717 Y115.063 E-0.11607
G1 X112.159 Y114.813 E-0.11721
G1 X112.553 Y114.679 E-0.09608
G1 E-0.04000 F2100.00000
G1 Z0.800 F10800.000
G1 X98.494 Y93.146
G1 Z0.200
G1 E0.80000 F2100.00000
G1 F1200
G1 X97.963 Y93.414 E0.01866
G1 X97.589 Y93.559 E0.01259
G1 X96.896 Y93.749 E0.02253
G1 X96.500 Y93.815 E0.01259
G1 X95.773 Y93.864 E0.02284
G1 X95.020 Y93.814 E0.02367
G1 X94.306 Y93.668 E0.02284
G1 X93.923 Y93.549 E0.01259
G1 X93.261 Y93.269 E0.02253
G1 X92.909 Y93.076 E0.01259
G1 X92.317 Y92.669 E0.02253
G1 X92.011 Y92.410 E0.01259
G1 X91.511 Y91.894 E0.02253
G1 X91.262 Y91.579 E0.01259
G1 X90.876 Y90.973 E0.02253
G1 X90.695 Y90.615 E0.01259
G1 X90.436 Y89.944 E0.02253
G1 X90.330 Y89.557 E0.01259
G1 X90.211 Y88.849 E0.02253
G1 X90.184 Y88.448 E0.01259
G1 X90.208 Y87.730 E0.02253
G1 X90.262 Y87.332 E0.01259
G1 X90.428 Y86.633 E0.02253
G1 X90.560 Y86.254 E0.01259
G1 X90.862 Y85.603 E0.02253
G1 X91.067 Y85.257 E0.01259
G1 X91.493 Y84.679 E0.02252
G1 X91.750 Y84.394 E0.01202
G1 X92.031 Y84.122 E0.01229
G1 X92.595 Y83.677 E0.02253
G1 X92.934 Y83.461 E0.01259
G1 X93.575 Y83.137 E0.02253
G1 X93.949 Y82.993 E0.01259
G1 X94.642 Y82.803 E0.02253
G1 X95.038 Y82.736 E0.01259
G1 X95.755 Y82.688 E0.02253
G1 X96.156 Y82.701 E0.01259
G1 X96.868 Y82.797 E0.02253
G1 X97.259 Y82.890 E0.01259
G1 X97.938 Y83.126 E0.02253
G1 X98.302 Y83.295 E0.01259
G1 X98.920 Y83.661 E0.02253
G1 X99.243 Y83.899 E0.01259
G1 X99.776 Y84.381 E0.02253
G1 X100.045 Y84.679 E0.01259
G1 X100.471 Y85.257 E0.02253
G1 X100.676 Y85.603 E0.01259
G1 X100.978 Y86.254 E0.02253
G1 X101.110 Y86.633 E0.01259
G1 X101.279 Y87.342 E0.02284
G1 X101.354 Y88.093 E0.02367
G1 X101.330 Y88.821 E0.02284
G1 X101.277 Y89.219 E0.01259
G1 X101.110 Y89.918 E0.02253
G1 X100.978 Y90.297 E0.01259
G1 X100.676 Y90.948 E0.02252
G1 X100.481 Y91.278 E0.01202
G1 X100.259 Y91.601 E0.01229
G1 X99.795 Y92.150 E0.02253
G1 X99.507 Y92.429 E0.01259
G1 X98.943 Y92.874 E0.02253
G1 X98.548 Y93.119 E0.01457
G1 X98.378 Y92.782 F10800.000
G1 F1200
G1 X97.810 Y93.069 E0.01995
G1 X97.471 Y93.200 E0.01140
G1 X96.814 Y93.380 E0.02134
G1 X96.456 Y93.440 E0.01140
G1 X95.773 Y93.486 E0.02145
G1 X95.070 Y93.439 E0.02208
G1 X94.400 Y93.303 E0.02145
G1 X94.053 Y93.195 E0.01140
G1 X93.426 Y92.929 E0.02134
G1 X93.107 Y92.755 E0.01140
G1 X92.546 Y92.369 E0.02134
G1 X92.268 Y92.135 E0.01140
G1 X91.795 Y91.645 E0.02134
G1 X91.570 Y91.360 E0.01140
G1 X91.204 Y90.786 E0.02134
G1 X91.040 Y90.462 E0.01140
G1 X90.795 Y89.827 E0.02134
G1 X90.699 Y89.476 E0.01140
G1 X90.586 Y88.805 E0.02134
G1 X90.562 Y88.442 E0.01140
G1 X90.584 Y87.762 E0.02134
G1 X90.633 Y87.401 E0.01140
G1 X90.791 Y86.739 E0.02134
G1 X90.910 Y86.396 E0.01140
G1 X91.196 Y85.778 E0.02134
G1 X91.382 Y85.466 E0.01140
G1 X91.785 Y84.918 E0.02134
G1 X92.280 Y84.406 E0.02231
G1 X92.814 Y83.984 E0.02134
G1 X93.120 Y83.789 E0.01140
G1 X93.728 Y83.482 E0.02134
G1 X94.067 Y83.351 E0.01140
G1 X94.724 Y83.171 E0.02134
G1 X95.082 Y83.111 E0.01140
G1 X95.761 Y83.065 E0.02134
G1 X96.125 Y83.078 E0.01140
G1 X96.799 Y83.168 E0.02134
G1 X97.153 Y83.253 E0.01140
G1 X97.796 Y83.476 E0.02134
G1 X98.126 Y83.629 E0.01140
G1 X98.711 Y83.976 E0.02134
G1 X99.004 Y84.191 E0.01140
G1 X99.509 Y84.648 E0.02134
G1 X99.753 Y84.918 E0.01140
G1 X100.157 Y85.466 E0.02134
G1 X100.342 Y85.778 E0.01140
G1 X100.628 Y86.396 E0.02134
G1 X100.748 Y86.739 E0.01140
