;FLAVOR:Marlin
;TIME:2823
;Filament used: 1.75709m
;Layer height: 0.2
;MINX:71.5
;MINY:96.04
;MINZ:0.2
;MAXX:163.5
;MAXY:139
;MAXZ:8.4
;Generated with Cura_SteamEngine 4.5.0
M140 S60
M105
M190 S60
M104 S210
M105
M109 S210
M82 ;absolute extrusion mode
; Ender 3 Custom Start G-code
G92 E0 ; Reset Extruder
G28 ; Home all axes
G1 Z2.0 F3000 ; Move Z Axis up little to prevent scratching of Heat Bed
G1 X0.1 Y20 Z0.3 F5000.0 ; Move to start position
G1 X0.1 Y200.0 Z0.3 F1500.0 E15 ; Draw the first line
G1 X0.4 Y200.0 Z0.3 F5000.0 ; Move to side a little
G1 X0.4 Y20 Z0.3 F1500.0 E30 ; Draw the second line
G92 E0 ; Reset Extruder
G1 Z2.0 F3000 ; Move Z Axis up little to prevent scratching of Heat Bed
G1 X5 Y20 Z0.3 F5000.0 ; Move over to prevent blob squish
G92 E0
G92 E0
G1 F2700 E-5
;LAYER_COUNT:42
;LAYER:0
M107
G0 F6000 X76.126 Y99.051 Z0.2
;TYPE:SKIRT
G1 F2700 E0
G1 F1200 X76.912 Y98.539 E0.0312
G1 X77.739 Y98.097 E0.06239
G1 X78.601 Y97.727 E0.09359
G1 X79.491 Y97.431 E0.12478
G1 X80.403 Y97.213 E0.15597
G1 X81.33 Y97.072 E0.18716
G1 X82.201 Y97.013 E0.21619
G1 X82.83 Y97 E0.23712
G1 X129.893 Y97 E1.80244
G1 X132.501 Y96.963 E1.88919
G1 X135.022 Y96.856 E1.97312
G1 X137.517 Y96.679 E2.05631
G1 X140.032 Y96.43 E2.14037
G1 X142.48 Y96.119 E2.22244
G1 X143.414 Y96.04 E2.25362
G1 X144.352 Y96.042 E2.28482
G1 X145.32 Y96.128 E2.31714
G1 X146.602 Y96.299 E2.36016
G1 X147.132 Y96.379 E2.37798
G1 X149.608 Y96.695 E2.461
G1 X153.659 Y97.072 E2.59632
G1 X154.586 Y97.211 E2.6275
G1 X155.498 Y97.429 E2.65869
G1 X156.389 Y97.724 E2.6899
G1 X157.251 Y98.093 E2.72109
G1 X158.078 Y98.535 E2.75228
G1 X158.865 Y99.045 E2.78347
G1 X159.606 Y99.62 E2.81467
G1 X160.294 Y100.257 E2.84585
G1 X160.926 Y100.95 E2.87705
G1 X161.497 Y101.694 E2.90824
G1 X162.002 Y102.484 E2.93942
G1 X162.439 Y103.315 E2.97065
G1 X162.802 Y104.179 E3.00182
G1 X163.091 Y105.071 E3.03301
G1 X163.303 Y105.985 E3.06422
G1 X163.436 Y106.913 E3.0954
G1 X163.487 Y107.701 E3.12166
G1 X163.5 Y108.33 E3.14259
G1 X163.499 Y127.415 E3.77735
G1 X163.489 Y128.142 E3.80154
G1 X163.436 Y129.079 E3.83275
G1 X163.304 Y130.007 E3.86393
G1 X163.093 Y130.921 E3.89513
G1 X162.804 Y131.813 E3.92631
G1 X162.441 Y132.678 E3.95751
G1 X162.006 Y133.509 E3.98871
G1 X161.501 Y134.299 E4.0199
G1 X160.931 Y135.044 E4.0511
G1 X160.3 Y135.738 E4.08229
G1 X159.611 Y136.375 E4.1135
G1 X158.871 Y136.951 E4.14469
G1 X158.085 Y137.462 E4.17587
G1 X157.258 Y137.904 E4.20706
G1 X156.396 Y138.274 E4.23826
G1 X155.506 Y138.569 E4.26945
G1 X154.594 Y138.788 E4.30064
G1 X153.667 Y138.928 E4.33182
G1 X152.799 Y138.987 E4.36076
G1 X152.17 Y139 E4.38169
G1 X83.207 Y139 E6.6754
G1 X82.367 Y138.99 E6.70335
G1 X81.431 Y138.938 E6.73452
G1 X80.502 Y138.806 E6.76573
G1 X79.588 Y138.596 E6.79693
G1 X78.695 Y138.309 E6.82812
G1 X77.83 Y137.946 E6.85932
G1 X76.999 Y137.512 E6.89051
G1 X76.208 Y137.008 E6.9217
G1 X75.463 Y136.438 E6.9529
G1 X74.769 Y135.807 E6.9841
G1 X74.132 Y135.12 E7.01526
G1 X73.555 Y134.38 E7.04647
G1 X73.043 Y133.594 E7.07767
G1 X72.6 Y132.767 E7.10887
G1 X72.229 Y131.906 E7.14005
G1 X71.933 Y131.016 E7.17125
G1 X71.714 Y130.104 E7.20245
G1 X71.573 Y129.177 E7.23363
G1 X71.513 Y128.288 E7.26327
G1 X71.5 Y127.658 E7.28423
G1 X71.501 Y108.525 E7.92059
G1 X71.51 Y107.86 E7.94271
G1 X71.563 Y106.924 E7.97389
G1 X71.695 Y105.995 E8.0051
G1 X71.906 Y105.081 E8.0363
G1 X72.194 Y104.189 E8.06748
G1 X72.557 Y103.324 E8.09868
G1 X72.992 Y102.493 E8.12988
G1 X73.496 Y101.703 E8.16104
G1 X74.066 Y100.958 E8.19224
G1 X74.698 Y100.264 E8.22346
G1 X75.386 Y99.627 E8.25465
G1 X76.126 Y99.051 E8.28584
G0 F6000 X76.51 Y99.27
G1 F1200 X77.291 Y98.782 E8.31647
G1 X78.111 Y98.364 E8.34708
G1 X78.965 Y98.019 E8.37771
G1 X79.845 Y97.749 E8.40833
G1 X80.745 Y97.557 E8.43894
G1 X81.659 Y97.443 E8.46957
G1 X82.212 Y97.413 E8.48799
G1 X82.83 Y97.4 E8.50855
G1 X129.899 Y97.4 E10.07407
G1 X132.524 Y97.363 E10.16139
G1 X135.032 Y97.256 E10.24488
G1 X137.552 Y97.078 E10.32891
G1 X140.045 Y96.831 E10.41223
G1 X142.53 Y96.515 E10.49555
G1 X143.448 Y96.439 E10.52618
G1 X144.368 Y96.443 E10.55678
G1 X145.267 Y96.524 E10.58681
G1 X146.549 Y96.695 E10.62982
G1 X147.081 Y96.776 E10.64772
G1 X149.58 Y97.095 E10.73151
G1 X153.616 Y97.47 E10.86633
G1 X154.526 Y97.607 E10.89694
G1 X155.421 Y97.823 E10.92756
G1 X156.294 Y98.116 E10.95819
G1 X157.138 Y98.483 E10.9888
G1 X157.948 Y98.922 E11.01944
G1 X158.716 Y99.43 E11.05007
G1 X159.437 Y100.003 E11.0807
G1 X160.105 Y100.635 E11.11128
G1 X160.716 Y101.324 E11.14191
G1 X161.266 Y102.063 E11.17255
G1 X161.748 Y102.847 E11.20316
G1 X162.162 Y103.67 E11.2338
G1 X162.502 Y104.525 E11.26441
G1 X162.766 Y105.407 E11.29503
G1 X162.954 Y106.308 E11.32564
G1 X163.062 Y107.223 E11.35628
G1 X163.087 Y107.712 E11.37257
G1 X163.1 Y108.33 E11.39313
G1 X163.099 Y127.41 E12.02773
G1 X163.089 Y128.137 E12.05192
G1 X163.036 Y129.056 E12.08253
G1 X162.904 Y129.967 E12.11315
G1 X162.693 Y130.863 E12.14376
G1 X162.406 Y131.738 E12.17439
G1 X162.043 Y132.584 E12.20501
G1 X161.609 Y133.396 E12.23563
G1 X161.105 Y134.167 E12.26627
G1 X160.537 Y134.891 E12.29688
G1 X159.908 Y135.563 E12.32749
G1 X159.223 Y136.178 E12.35811
G1 X158.487 Y136.731 E12.38873
G1 X157.706 Y137.219 E12.41936
G1 X156.886 Y137.637 E12.44997
G1 X156.032 Y137.982 E12.48061
G1 X155.152 Y138.251 E12.51121
G1 X154.251 Y138.444 E12.54186
G1 X153.338 Y138.557 E12.57246
G1 X152.788 Y138.587 E12.59078
G1 X152.17 Y138.6 E12.61134
G1 X83.207 Y138.6 E14.90506
G1 X82.372 Y138.59 E14.93283
G1 X81.453 Y138.538 E14.96345
G1 X80.542 Y138.407 E14.99406
G1 X79.646 Y138.197 E15.02467
G1 X78.771 Y137.91 E15.05529
G1 X77.924 Y137.548 E15.08593
G1 X77.112 Y137.114 E15.11655
G1 X76.341 Y136.612 E15.14715
G1 X75.616 Y136.044 E15.17779
G1 X74.943 Y135.415 E15.20842
G1 X74.328 Y134.731 E15.23902
G1 X73.774 Y133.996 E15.26963
G1 X73.286 Y133.215 E15.30026
G1 X72.867 Y132.395 E15.33089
G1 X72.521 Y131.542 E15.3615
G1 X72.251 Y130.662 E15.39212
G1 X72.058 Y129.761 E15.42277
G1 X71.944 Y128.848 E15.45337
G1 X71.913 Y128.277 E15.47239
G1 X71.9 Y127.658 E15.49298
G1 X71.901 Y108.531 E16.12915
G1 X71.91 Y107.866 E16.15127
G1 X71.962 Y106.946 E16.18192
G1 X72.094 Y106.035 E16.21253
G1 X72.305 Y105.139 E16.24315
G1 X72.592 Y104.264 E16.27378
G1 X72.955 Y103.418 E16.3044
G1 X73.389 Y102.606 E16.33502
G1 X73.892 Y101.835 E16.36564
G1 X74.461 Y101.111 E16.39626
G1 X75.089 Y100.439 E16.42686
G1 X75.774 Y99.823 E16.4575
G1 X76.51 Y99.27 E16.48812
G0 F6000 X76.894 Y99.494
G1 F1200 X77.669 Y99.031 E16.51814
G1 X78.482 Y98.638 E16.54818
G1 X79.327 Y98.318 E16.57823
G1 X80.196 Y98.075 E16.60824
G1 X81.084 Y97.909 E16.63829
G1 X82.223 Y97.813 E16.6763
G1 X82.83 Y97.8 E16.6965
G1 X129.905 Y97.8 E18.26222
G1 X132.511 Y97.763 E18.3489
G1 X135.076 Y97.654 E18.43429
G1 X137.583 Y97.476 E18.51789
G1 X140.103 Y97.227 E18.60211
G1 X142.581 Y96.912 E18.68519
G1 X143.481 Y96.838 E18.71523
G1 X144.384 Y96.844 E18.74526
G1 X145.215 Y96.921 E18.77302
G1 X146.497 Y97.092 E18.81604
G1 X147.039 Y97.174 E18.83427
G1 X149.518 Y97.49 E18.91739
G1 X153.574 Y97.868 E19.05287
G1 X154.466 Y98.003 E19.08288
G1 X155.344 Y98.217 E19.11294
G1 X156.199 Y98.508 E19.14298
G1 X157.025 Y98.873 E19.17301
G1 X157.815 Y99.31 E19.20304
G1 X158.564 Y99.815 E19.23309
G1 X159.265 Y100.384 E19.26311
G1 X159.913 Y101.013 E19.29315
G1 X160.503 Y101.697 E19.3232
G1 X161.03 Y102.431 E19.35325
G1 X161.49 Y103.208 E19.38328
G1 X161.879 Y104.023 E19.41332
G1 X162.195 Y104.869 E19.44335
G1 X162.435 Y105.739 E19.47337
G1 X162.597 Y106.628 E19.50343
G1 X162.687 Y107.723 E19.53997
G1 X162.7 Y108.33 E19.56016
G1 X162.699 Y127.404 E20.19457
G1 X162.689 Y128.131 E20.21875
G1 X162.637 Y129.033 E20.2488
G1 X162.505 Y129.926 E20.27882
G1 X162.294 Y130.805 E20.30889
G1 X162.007 Y131.661 E20.33892
G1 X161.645 Y132.488 E20.36894
G1 X161.211 Y133.28 E20.39898
G1 X160.709 Y134.031 E20.42903
G1 X160.143 Y134.734 E20.45905
G1 X159.516 Y135.385 E20.48911
G1 X158.835 Y135.977 E20.51912
G1 X158.104 Y136.507 E20.54915
G1 X157.328 Y136.97 E20.57921
G1 X156.515 Y137.363 E20.60924
G1 X155.67 Y137.683 E20.63929
G1 X154.801 Y137.926 E20.6693
G1 X153.913 Y138.091 E20.69934
G1 X152.777 Y138.187 E20.73726
G1 X152.17 Y138.2 E20.75746
G1 X83.207 Y138.2 E23.05117
G1 X82.377 Y138.19 E23.07878
G1 X81.476 Y138.139 E23.1088
G1 X80.582 Y138.007 E23.13885
G1 X79.704 Y137.798 E23.16887
G1 X78.847 Y137.511 E23.19893
G1 X78.02 Y137.15 E23.22895
G1 X77.227 Y136.717 E23.259
G1 X76.476 Y136.216 E23.28902
G1 X75.772 Y135.65 E23.31907
G1 X75.121 Y135.024 E23.34911
G1 X74.528 Y134.343 E23.37914
G1 X73.998 Y133.612 E23.40917
G1 X73.534 Y132.837 E23.43921
G1 X73.14 Y132.024 E23.46926
G1 X72.82 Y131.18 E23.49928
G1 X72.576 Y130.31 E23.52934
G1 X72.41 Y129.422 E23.55938
G1 X72.313 Y128.267 E23.59793
G1 X72.3 Y127.658 E23.61819
G1 X72.301 Y108.536 E24.2542
G1 X72.31 Y107.871 E24.27632
G1 X72.362 Y106.969 E24.30637
G1 X72.494 Y106.076 E24.33639
G1 X72.704 Y105.198 E24.36642
G1 X72.991 Y104.341 E24.39648
G1 X73.353 Y103.514 E24.4265
G1 X73.786 Y102.722 E24.45652
G1 X74.288 Y101.971 E24.48657
G1 X74.855 Y101.267 E24.51663
G1 X75.481 Y100.617 E24.54665
G1 X76.162 Y100.024 E24.57668
G1 X76.894 Y99.494 E24.60674
G1 F2700 E19.60674
;MESH:Nameplate_Kali.stl
G0 F6000 X82.92 Y107.335
G0 X82.92 Y108.42
G0 X142.463 Y109.172
G0 X143.899 Y108.355
G0 X151.318 Y109.182
G0 X151.5 Y127
;TYPE:WALL-INNER
G1 F2700 E24.60674
G1 F1200 X83.5 Y127 E26.86843
G1 X83.5 Y109 E27.46711
G1 X142.417 Y109 E29.4267
G1 X143.9 Y108.153 E29.4835
G1 X145.366 Y109 E29.53981
G1 X151.5 Y109 E29.74383
G1 X151.5 Y127 E30.34251
G0 F6000 X151.9 Y127.4
G1 F1200 X83.1 Y127.4 E32.63081
G1 X83.1 Y108.6 E33.2561
G1 X142.311 Y108.6 E35.22547
G1 X143.901 Y107.692 E35.28637
G1 X145.473 Y108.6 E35.34675
G1 X151.9 Y108.6 E35.56051
G1 X151.9 Y127.4 E36.1858
G0 F6000 X152.3 Y127.8
;TYPE:WALL-OUTER
G1 F1200 X82.7 Y127.8 E38.50071
G1 X82.7 Y108.2 E39.15261
G1 X142.205 Y108.2 E41.13175
G1 X143.902 Y107.231 E41.19675
G1 X145.58 Y108.2 E41.26119
G1 X152.3 Y108.2 E41.4847
G1 X152.3 Y127.8 E42.1366
G0 F6000 X152.03 Y127.53
G0 X151.39 Y126.61
G0 X151.11 Y126.61
;TYPE:SKIN
G1 F1200 X83.89 Y126.61 E44.37235
G1 X83.89 Y109.39 E44.94509
G1 X142.52 Y109.39 E46.89513
G1 X143.899 Y108.603 E46.94794
G1 X145.261 Y109.39 E47.00026
G1 X151.11 Y109.39 E47.19479
G1 X151.11 Y126.61 E47.76753
G0 F6000 X151.39 Y126.61
G0 X151.39 Y109.654
G0 X150.949 Y109.654
G1 F1200 X150.844 Y109.549 E47.77247
G0 F6000 X150.279 Y109.549
G1 F1200 X150.949 Y110.22 E47.80401
G0 F6000 X150.949 Y110.785
G1 F1200 X149.713 Y109.549 E47.86215
G0 F6000 X149.147 Y109.549
G1 F1200 X150.949 Y111.351 E47.94691
G0 F6000 X150.949 Y111.917
G1 F1200 X148.582 Y109.549 E48.05827
G0 F6000 X148.016 Y109.549
G1 F1200 X150.949 Y112.483 E48.19625
G0 F6000 X150.949 Y113.048
G1 F1200 X147.45 Y109.549 E48.36083
G0 F6000 X146.885 Y109.549
G1 F1200 X150.949 Y113.614 E48.55202
G0 F6000 X150.949 Y114.18
G1 F1200 X146.319 Y109.549 E48.76982
G0 F6000 X145.753 Y109.549
G1 F1200 X150.949 Y114.745 E49.01422
G0 F6000 X150.949 Y115.311
G1 F1200 X145.147 Y109.509 E49.28713
G0 F6000 X145.335 Y109.114
G0 X143.899 Y108.355
G0 X143.657 Y108.419
G0 X143.874 Y108.801
G1 F1200 X150.949 Y115.877 E49.61994
G0 F6000 X150.949 Y116.442
G1 F1200 X143.514 Y109.007 E49.96966
G0 F6000 X143.153 Y109.212
G1 F1200 X150.949 Y117.008 E50.33636
G0 F6000 X150.949 Y117.574
G1 F1200 X142.793 Y109.418 E50.72
G0 F6000 X142.359 Y109.549
G1 F1200 X150.949 Y118.139 E51.12404
G0 F6000 X150.949 Y118.705
G1 F1200 X141.794 Y109.549 E51.55469
G0 F6000 X141.228 Y109.549
G1 F1200 X150.949 Y119.271 E52.01196
G0 F6000 X150.949 Y119.836
G1 F1200 X140.662 Y109.549 E52.49583
G0 F6000 X140.096 Y109.549
G1 F1200 X150.949 Y120.402 E53.00632
G0 F6000 X150.949 Y120.968
G1 F1200 X139.531 Y109.549 E53.54341
G0 F6000 X138.965 Y109.549
G1 F1200 X150.949 Y121.533 E54.1071
G0 F6000 X150.949 Y122.099
G1 F1200 X138.399 Y109.549 E54.69742
G0 F6000 X137.834 Y109.549
G1 F1200 X150.949 Y122.665 E55.31433
G0 F6000 X150.949 Y123.231
G1 F1200 X137.268 Y109.549 E55.95786
G0 F6000 X136.702 Y109.549
G1 F1200 X150.949 Y123.796 E56.628
G0 F6000 X150.949 Y124.362
G1 F1200 X136.137 Y109.549 E57.32473
G0 F6000 X135.571 Y109.549
G1 F1200 X150.949 Y124.928 E58.04809
G0 F6000 X150.949 Y125.493
G1 F1200 X135.005 Y109.549 E58.79805
G0 F6000 X134.44 Y109.549
G1 F1200 X150.949 Y126.059 E59.5746
G0 F6000 X150.773 Y126.449
G1 F1200 X133.874 Y109.549 E60.3695
G0 F6000 X133.308 Y109.549
G1 F1200 X150.207 Y126.449 E61.16441
G0 F6000 X149.642 Y126.449
G1 F1200 X132.743 Y109.549 E61.95931
G0 F6000 X132.177 Y109.549
G1 F1200 X149.076 Y126.449 E62.75421
G0 F6000 X148.51 Y126.449
G1 F1200 X131.611 Y109.549 E63.54911
G0 F6000 X131.045 Y109.549
G1 F1200 X147.945 Y126.449 E64.34403
G0 F6000 X147.379 Y126.449
G1 F1200 X130.48 Y109.549 E65.13893
G0 F6000 X129.914 Y109.549
G1 F1200 X146.813 Y126.449 E65.93383
G0 F6000 X146.248 Y126.449
G1 F1200 X129.348 Y109.549 E66.72876
G0 F6000 X128.783 Y109.549
G1 F1200 X145.682 Y126.449 E67.52366
G0 F6000 X145.116 Y126.449
G1 F1200 X128.217 Y109.549 E68.31856
G0 F6000 X127.651 Y109.549
G1 F1200 X144.551 Y126.449 E69.11348
G0 F6000 X143.985 Y126.449
G1 F1200 X127.086 Y109.549 E69.90838
G0 F6000 X126.52 Y109.549
G1 F1200 X143.419 Y126.449 E70.70328
G0 F6000 X142.853 Y126.449
G1 F1200 X125.954 Y109.549 E71.49818
G0 F6000 X125.389 Y109.549
G1 F1200 X142.288 Y126.449 E72.29309
G0 F6000 X141.722 Y126.449
G1 F1200 X124.823 Y109.549 E73.08799
G0 F6000 X124.257 Y109.549
G1 F1200 X141.156 Y126.449 E73.88289
G0 F6000 X140.591 Y126.449
G1 F1200 X123.692 Y109.549 E74.67779
G0 F6000 X123.126 Y109.549
G1 F1200 X140.025 Y126.449 E75.47269
G0 F6000 X139.459 Y126.449
G1 F1200 X122.56 Y109.549 E76.26759
G0 F6000 X121.995 Y109.549
G1 F1200 X138.894 Y126.449 E77.06249
G0 F6000 X138.328 Y126.449
G1 F1200 X121.429 Y109.549 E77.85739
G0 F6000 X120.863 Y109.549
G1 F1200 X137.762 Y126.449 E78.65229
G0 F6000 X137.197 Y126.449
G1 F1200 X120.297 Y109.549 E79.44721
G0 F6000 X119.732 Y109.549
G1 F1200 X136.631 Y126.449 E80.24212
G0 F6000 X136.065 Y126.449
G1 F1200 X119.166 Y109.549 E81.03702
G0 F6000 X118.6 Y109.549
G1 F1200 X135.5 Y126.449 E81.83194
G0 F6000 X134.934 Y126.449
G1 F1200 X118.035 Y109.549 E82.62684
G0 F6000 X117.469 Y109.549
G1 F1200 X134.368 Y126.449 E83.42174
G0 F6000 X133.802 Y126.449
G1 F1200 X116.903 Y109.549 E84.21664
G0 F6000 X116.338 Y109.549
G1 F1200 X133.237 Y126.449 E85.01154
G0 F6000 X132.671 Y126.449
G1 F1200 X115.772 Y109.549 E85.80644
G0 F6000 X115.206 Y109.549
G1 F1200 X132.105 Y126.449 E86.60134
G0 F6000 X131.54 Y126.449
G1 F1200 X114.641 Y109.549 E87.39625
G0 F6000 X114.075 Y109.549
G1 F1200 X130.974 Y126.449 E88.19115
G0 F6000 X130.408 Y126.449
G1 F1200 X113.509 Y109.549 E88.98605
G0 F6000 X112.944 Y109.549
G1 F1200 X129.843 Y126.449 E89.78095
G0 F6000 X129.277 Y126.449
G1 F1200 X112.378 Y109.549 E90.57585
G0 F6000 X111.812 Y109.549
G1 F1200 X128.711 Y126.449 E91.37075
G0 F6000 X128.146 Y126.449
G1 F1200 X111.246 Y109.549 E92.16567
G0 F6000 X110.681 Y109.549
G1 F1200 X127.58 Y126.449 E92.96057
G0 F6000 X127.014 Y126.449
G1 F1200 X110.115 Y109.549 E93.75547
G0 F6000 X109.549 Y109.549
G1 F1200 X126.449 Y126.449 E94.5504
G0 F6000 X125.883 Y126.449
G1 F1200 X108.984 Y109.549 E95.3453
G0 F6000 X108.418 Y109.549
G1 F1200 X125.317 Y126.449 E96.1402
G0 F6000 X124.752 Y126.449
G1 F1200 X107.852 Y109.549 E96.93512
G0 F6000 X107.287 Y109.549
G1 F1200 X124.186 Y126.449 E97.73002
G0 F6000 X123.62 Y126.449
G1 F1200 X106.721 Y109.549 E98.52493
G0 F6000 X106.155 Y109.549
G1 F1200 X123.054 Y126.449 E99.31983
G0 F6000 X122.489 Y126.449
G1 F1200 X105.59 Y109.549 E100.11473
G0 F6000 X105.024 Y109.549
G1 F1200 X121.923 Y126.449 E100.90963
G0 F6000 X121.357 Y126.449
G1 F1200 X104.458 Y109.549 E101.70453
G0 F6000 X103.893 Y109.549
G1 F1200 X120.792 Y126.449 E102.49943
G0 F6000 X120.226 Y126.449
G1 F1200 X103.327 Y109.549 E103.29433
G0 F6000 X102.761 Y109.549
G1 F1200 X119.66 Y126.449 E104.08923
G0 F6000 X119.095 Y126.449
G1 F1200 X102.196 Y109.549 E104.88413
G0 F6000 X101.63 Y109.549
G1 F1200 X118.529 Y126.449 E105.67903
G0 F6000 X117.963 Y126.449
