; generated by PrusaSlicer 2.1.0+ on 2019-12-10 at 19:55:36 UTC

; 

; external perimeters extrusion width = 0.45mm
; perimeters extrusion width = 0.45mm
; infill extrusion width = 0.45mm
; solid infill extrusion width = 0.45mm
; top infill extrusion width = 0.40mm
; support material extrusion width = 0.35mm
; first layer extrusion width = 0.42mm

M73 P0 R100
M73 Q0 S100
M201 X1000 Y1000 Z1000 E5000 ; sets maximum accelerations, mm/sec^2
M203 X200 Y200 Z12 E120 ; sets maximum feedrates, mm/sec
M204 P1250 R1250 T1250 ; sets acceleration (P, T) and retract acceleration (R), mm/sec^2
M205 X8.00 Y8.00 Z0.40 E1.50 ; sets the jerk limits, mm/sec
M205 S0 T0 ; sets the minimum extruding and travel feed rate, mm/sec
M107
M862.3 P "MK3" ; printer model check
M862.1 P0.4 ; nozzle diameter check
M115 U3.8.0 ; tell printer latest fw version
G90 ; use absolute coordinates
M83 ; extruder relative mode
M104 S215 ; set extruder temp
M140 S60 ; set bed temp
M190 S60 ; wait for bed temp
M109 S215 ; wait for extruder temp
G28 W ; home all without mesh bed level
G80 ; mesh bed leveling
G1 Y-3.0 F1000.0 ; go outside print area
G92 E0.0
G1 X60.0 E9.0 F1000.0 ; intro line
M73 Q0 S100
M73 P0 R100
G1 X100.0 E12.5 F1000.0 ; intro line
G92 E0.0
M221 S95
G21 ; set units to millimeters
G90 ; use absolute coordinates
M83 ; use relative distances for extrusion
M900 K30 ; Filament gcode
;BEFORE_LAYER_CHANGE
G92 E0.0
;0.2


G1 E-0.80000 F2100.00000
G1 Z0.600 F10800.000
;AFTER_LAYER_CHANGE
;0.2
G1 X76.952 Y40.040
G1 Z0.200
G1 E0.80000 F2100.00000
M204 S1000
G1 F1200
G1 X80.781 Y38.684 E0.12736
G1 X87.770 Y37.965 E0.22030
G1 X90.973 Y37.808 E0.10054
G1 X159.007 Y37.808 E2.13316
G1 X162.266 Y37.968 E0.10231
G1 X169.798 Y38.924 E0.23804
G1 X172.482 Y39.780 E0.08834
G1 X173.039 Y40.075 E0.01976
G1 X180.057 Y45.341 E0.27512
G1 X182.470 Y47.528 E0.10210
G1 X184.591 Y49.863 E0.09891
G1 X186.657 Y52.648 E0.10873
G1 X188.275 Y55.354 E0.09884
G1 X189.667 Y58.298 E0.10211
G1 X190.762 Y61.361 E0.10198
G1 X191.546 Y64.484 E0.10098
G1 X192.032 Y67.741 E0.10324
G1 X192.192 Y70.984 E0.10181
G1 X192.192 Y139.007 E2.13282
G1 X192.039 Y142.179 E0.09956
G1 X191.554 Y145.478 E0.10454
G1 X190.736 Y148.720 E0.10484
G1 X189.655 Y151.730 E0.10029
G1 X185.611 Y160.687 E0.30815
G1 X185.284 Y161.061 E0.01555
G1 X179.719 Y166.039 E0.23411
G1 X171.736 Y169.652 E0.27473
G1 X168.639 Y170.762 E0.10316
G1 X165.483 Y171.553 E0.10201
G1 X162.259 Y172.032 E0.10221
G1 X159.103 Y172.190 E0.09906
G1 X90.993 Y172.192 E2.13556
G1 X87.806 Y172.038 E0.10002
G1 X84.522 Y171.554 E0.10408
G1 X81.294 Y170.741 E0.10439
G1 X78.284 Y169.660 E0.10029
G1 X70.061 Y165.999 E0.28221
G1 X65.243 Y161.389 E0.20909
G1 X64.832 Y160.824 E0.02191
G1 X61.693 Y154.584 E0.21901
G1 X60.303 Y151.623 E0.10254
G1 X59.238 Y148.639 E0.09934
G1 X58.469 Y145.580 E0.09892
G1 X57.961 Y142.172 E0.10804
G1 X57.808 Y139.008 E0.09929
G1 X57.808 Y70.996 E2.13247
G1 X57.961 Y67.825 E0.09956
G1 X58.446 Y64.519 E0.10477
G1 X59.271 Y61.260 E0.10540
G1 X60.334 Y58.297 E0.09870
G1 X61.679 Y55.445 E0.09888
G1 X63.422 Y52.526 E0.10660
G1 X65.341 Y49.943 E0.10089
G1 X67.457 Y47.604 E0.09889
G1 X69.966 Y45.322 E0.10634
G1 X76.904 Y40.076 E0.27271
G1 F8640
G1 X80.002 Y38.964 E-0.76000
G1 E-0.04000 F2100.00000
G1 Z0.800 F10800.000
G1 X134.791 Y66.854
G1 Z0.200
G1 E0.80000 F2100.00000
G1 F1200
G1 X134.791 Y75.260 E0.26358
G1 X135.545 Y75.260 E0.02365
G1 X135.545 Y67.023 E0.25826
G1 X136.299 Y67.023 E0.02365
G1 X136.299 Y75.430 E0.26358
G1 F8640
G1 X136.299 Y72.139 E-0.76000
G1 E-0.04000 F2100.00000
G1 Z0.800 F10800.000
G1 X137.638 Y69.850
G1 Z0.200
G1 E0.80000 F2100.00000
G1 F1200
G1 X137.638 Y72.296 E0.06244
G1 X138.145 Y72.296 E0.01295
G1 X138.145 Y69.988 E0.05891
G1 X138.652 Y69.988 E0.01295
G1 X138.652 Y72.296 E0.05891
G1 X139.159 Y72.296 E0.01295
G1 X139.159 Y69.988 E0.05891
G1 X139.666 Y69.988 E0.01295
G1 X139.666 Y72.296 E0.05891
G1 X140.173 Y72.296 E0.01295
G1 X140.173 Y69.988 E0.05891
G1 X140.681 Y69.988 E0.01295
G1 X140.681 Y72.296 E0.05891
G1 X141.188 Y72.296 E0.01295
G1 X141.188 Y69.988 E0.05891
G1 X141.695 Y69.988 E0.01295
G1 X141.695 Y72.296 E0.05891
G1 X142.202 Y72.296 E0.01295
G1 X142.202 Y69.988 E0.05891
G1 X142.709 Y69.988 E0.01295
G1 X142.709 Y72.296 E0.05891
G1 X143.216 Y72.296 E0.01295
G1 X143.216 Y69.988 E0.05891
G1 X143.723 Y69.988 E0.01295
G1 X143.723 Y72.296 E0.05891
G1 X144.230 Y72.296 E0.01295
G1 X144.230 Y67.681 E0.11782
G1 X144.737 Y67.681 E0.01295
G1 X144.737 Y72.296 E0.11782
G1 X145.244 Y72.296 E0.01295
G1 X145.244 Y67.681 E0.11782
G1 X145.751 Y67.681 E0.01295
G1 X145.751 Y72.296 E0.11782
G1 X146.258 Y72.296 E0.01295
G1 X146.258 Y67.681 E0.11782
G1 X146.460 Y67.681 E0.00515
G1 X146.460 Y65.374 E0.05891
G1 X146.766 Y65.374 E0.00780
G1 X146.766 Y83.831 E0.47127
G1 X147.273 Y83.831 E0.01295
G1 X147.273 Y65.374 E0.47127
G1 X147.780 Y65.374 E0.01295
G1 X147.780 Y83.831 E0.47127
G1 X148.287 Y83.831 E0.01295
G1 X148.287 Y65.374 E0.47127
G1 X148.767 Y65.374 E0.01227
G1 X148.767 Y63.067 E0.05891
G1 X148.794 Y63.067 E0.00068
G1 X148.794 Y79.217 E0.41236
G1 X149.301 Y79.217 E0.01295
G1 X149.301 Y63.067 E0.41236
G1 X149.808 Y63.067 E0.01295
G1 X149.808 Y79.217 E0.41236
G1 X150.315 Y79.217 E0.01295
G1 X150.315 Y63.067 E0.41236
G1 X150.822 Y63.067 E0.01295
G1 X150.822 Y79.217 E0.41236
G1 X151.074 Y79.217 E0.00644
G1 X151.074 Y81.524 E0.05891
G1 X151.329 Y81.524 E0.00651
G1 X151.329 Y53.839 E0.70690
G1 X151.836 Y53.839 E0.01295
G1 X151.836 Y81.524 E0.70690
G1 X152.343 Y81.524 E0.01295
G1 X152.343 Y53.839 E0.70690
G1 X152.850 Y53.839 E0.01295
G1 X152.850 Y81.524 E0.70690
G1 X153.358 Y81.524 E0.01295
G1 X153.358 Y44.611 E0.94254
G1 X153.381 Y44.611 E0.00061
G1 X153.381 Y46.918 E0.05891
G1 X153.865 Y46.918 E0.01234
G1 X153.865 Y88.445 E1.06035
G1 X154.372 Y88.445 E0.01295
G1 X154.372 Y46.918 E1.06035
G1 X154.879 Y46.918 E0.01295
G1 X154.879 Y88.445 E1.06035
G1 X155.386 Y88.445 E0.01295
G1 X155.386 Y46.918 E1.06035
G1 X155.689 Y46.918 E0.00773
G1 X155.689 Y51.532 E0.11782
G1 X155.893 Y51.532 E0.00522
G1 X155.893 Y90.752 E1.00144
M73 Q1 S99
G1 X156.400 Y90.752 E0.01295
G1 X156.400 Y51.532 E1.00144
M73 P1 R99
G1 X156.907 Y51.532 E0.01295
G1 X156.907 Y90.752 E1.00144
G1 X157.414 Y90.752 E0.01295
G1 X157.414 Y51.532 E1.00144
G1 X157.921 Y51.532 E0.01295
G1 X157.921 Y90.752 E1.00144
G1 X158.428 Y90.752 E0.01295
G1 X158.428 Y53.839 E0.94254
G1 X158.935 Y53.839 E0.01295
G1 X158.935 Y90.752 E0.94254
G1 X159.442 Y90.752 E0.01295
G1 X159.443 Y53.839 E0.94254
G1 X159.950 Y53.839 E0.01295
G1 X159.950 Y90.752 E0.94254
G1 X160.457 Y90.752 E0.01295
G1 X160.457 Y51.532 E1.00144
G1 X160.964 Y51.532 E0.01295
G1 X160.964 Y90.752 E1.00144
G1 X161.471 Y90.752 E0.01295
G1 X161.471 Y51.532 E1.00144
G1 X161.978 Y51.532 E0.01295
G1 X161.978 Y90.752 E1.00144
G1 X162.485 Y90.752 E0.01295
G1 X162.485 Y51.532 E1.00144
G1 X162.610 Y51.532 E0.00319
G1 X162.610 Y46.918 E0.11782
G1 X162.992 Y46.918 E0.00976
G1 X162.992 Y88.445 E1.06035
G1 X163.499 Y88.445 E0.01295
G1 X163.499 Y46.918 E1.06035
G1 X164.006 Y46.918 E0.01295
G1 X164.006 Y88.445 E1.06035
G1 X164.513 Y88.445 E0.01295
G1 X164.513 Y46.918 E1.06035
G1 X164.917 Y46.918 E0.01030
G1 X164.917 Y44.611 E0.05891
G1 X165.020 Y44.611 E0.00264
G1 X165.020 Y79.217 E0.88363
G1 X165.527 Y79.217 E0.01295
G1 X165.527 Y53.839 E0.64799
G1 X166.035 Y53.839 E0.01295
G1 X166.035 Y79.217 E0.64799
G1 X166.542 Y79.217 E0.01295
G1 X166.542 Y53.839 E0.64799
G1 X167.049 Y53.839 E0.01295
G1 X167.049 Y79.355 E0.65152
G1 F8640
G1 X167.049 Y76.064 E-0.76000
G1 E-0.04000 F2100.00000
G1 Z0.800 F10800.000
G1 X174.655 Y83.693
G1 Z0.200
G1 E0.80000 F2100.00000
G1 F1200
G1 X174.655 Y90.752 E0.18026
G1 X175.162 Y90.752 E0.01295
G1 X175.162 Y83.831 E0.17673
G1 X175.669 Y83.831 E0.01295
G1 X175.669 Y90.752 E0.17673
G1 X176.176 Y90.752 E0.01295
G1 X176.176 Y83.831 E0.17673
G1 X176.452 Y83.831 E0.00705
G1 X176.452 Y86.138 E0.05891
G1 X176.683 Y86.138 E0.00590
G1 X176.683 Y92.857 E0.17155
G1 X176.845 Y92.736 E0.00515
G1 X177.190 Y92.423 E0.01190
G1 X177.190 Y86.138 E0.16049
G1 X177.697 Y86.138 E0.01295
G1 X177.697 Y91.964 E0.14875
G1 X178.204 Y91.504 E0.01748
G1 X178.204 Y86.138 E0.13701
G1 X178.712 Y86.138 E0.01295
G1 X178.712 Y91.044 E0.12527
G1 X178.890 Y90.882 E0.00614
G1 X179.219 Y90.520 E0.01250
G1 X179.219 Y88.445 E0.05297
G1 X179.726 Y88.445 E0.01295
G1 X179.726 Y89.961 E0.03870
G1 X180.233 Y89.401 E0.01927
G1 X180.233 Y88.445 E0.02442
G1 X180.740 Y88.445 E0.01295
G1 X180.740 Y89.048 E0.01539
G1 F8640
G1 X180.740 Y88.445 E-0.13921
G1 X180.233 Y88.445 E-0.11709
G1 X180.233 Y89.401 E-0.22082
G1 X179.726 Y89.961 E-0.17430
G1 X179.726 Y89.490 E-0.10859
G1 E-0.04000 F2100.00000
G1 Z0.800 F10800.000
G1 X183.057 Y91.434
G1 Z0.200
G1 E0.80000 F2100.00000
G1 F1200
G1 X183.057 Y91.178 E0.00803
G1 X183.293 Y90.917 E0.01103
G1 X183.811 Y90.218 E0.02729
G1 X183.811 Y91.434 E0.03814
G1 F8640
G1 X183.811 Y90.218 E-0.28084
G1 X183.293 Y90.917 E-0.20098
G1 X183.057 Y91.178 E-0.08121
G1 X183.057 Y91.434 E-0.05913
G1 E-0.17785 F2100.00000
G1 Z0.800 F10800.000
G1 X182.303 Y85.310
G1 Z0.200
G1 E0.80000 F2100.00000
G1 F1200
G1 X182.303 Y86.676 E0.04282
G1 X181.549 Y87.693 E0.03970
G1 X181.549 Y83.173 E0.14172
G1 X180.795 Y83.173 E0.02365
G1 X180.795 Y88.103 E0.15457
G1 X180.041 Y88.103 E0.02365
G1 X180.041 Y83.173 E0.15457
G1 X179.417 Y83.173 E0.01955
G1 X179.417 Y80.866 E0.07234
G1 X179.286 Y80.866 E0.00410
G1 X179.286 Y88.103 E0.22691
G1 X179.101 Y88.103 E0.00580
G1 X179.101 Y85.796 E0.07234
G1 X178.532 Y85.796 E0.01785
G1 X178.532 Y80.866 E0.15457
G1 X177.778 Y80.866 E0.02365
G1 X177.778 Y85.796 E0.15457
G1 X177.024 Y85.796 E0.02365
G1 X177.024 Y72.638 E0.41257
G1 X177.778 Y72.638 E0.02365
G1 X177.778 Y77.567 E0.15457
G1 X178.532 Y77.567 E0.02365
G1 X178.532 Y72.638 E0.15457
G1 X179.286 Y72.638 E0.02365
G1 X179.286 Y77.567 E0.15457
G1 X179.417 Y77.567 E0.00410
G1 X179.417 Y75.260 E0.07234
G1 X180.041 Y75.260 E0.01955
G1 X180.041 Y72.638 E0.08224
G1 X180.795 Y72.638 E0.02365
G1 X180.795 Y75.260 E0.08224
G1 X181.549 Y75.260 E0.02365
G1 X181.549 Y67.023 E0.25826
G1 X182.303 Y67.023 E0.02365
G1 X182.303 Y75.260 E0.25826
G1 X183.057 Y75.260 E0.02365
G1 X183.057 Y67.023 E0.25826
G1 X183.811 Y67.023 E0.02365
G1 X183.811 Y75.430 E0.26358
G1 F8640
G1 X183.811 Y72.139 E-0.76000
G1 E-0.04000 F2100.00000
G1 Z0.800 F10800.000
G1 X180.740 Y72.434
G1 Z0.200
G1 E0.80000 F2100.00000
G1 F1200
G1 X180.740 Y69.988 E0.06244
G1 X180.233 Y69.988 E0.01295
G1 X180.233 Y72.296 E0.05891
G1 X179.726 Y72.296 E0.01295
G1 X179.726 Y69.988 E0.05891
G1 X179.219 Y69.988 E0.01295
G1 X179.219 Y72.296 E0.05891
G1 X178.712 Y72.296 E0.01295
G1 X178.712 Y69.988 E0.05891
G1 X178.204 Y69.988 E0.01295
G1 X178.204 Y72.296 E0.05891
G1 X177.697 Y72.296 E0.01295
G1 X177.697 Y69.988 E0.05891
G1 X177.190 Y69.988 E0.01295
G1 X177.190 Y72.296 E0.05891
G1 X176.683 Y72.296 E0.01295
G1 X176.683 Y69.988 E0.05891
G1 X176.176 Y69.988 E0.01295
G1 X176.176 Y74.603 E0.11782
G1 X175.669 Y74.603 E0.01295
G1 X175.669 Y69.988 E0.11782
G1 X175.162 Y69.988 E0.01295
G1 X175.162 Y74.603 E0.11782
G1 X174.655 Y74.603 E0.01295
G1 X174.655 Y69.988 E0.11782
G1 X174.148 Y69.988 E0.01295
G1 X174.145 Y90.752 E0.53018
G1 X174.145 Y88.445 E0.05891
G1 X173.641 Y88.445 E0.01288
G1 X173.641 Y67.681 E0.53018
G1 X173.134 Y67.681 E0.01295
G1 X173.134 Y88.445 E0.53018
G1 X172.627 Y88.445 E0.01295
G1 X172.627 Y67.681 E0.53018
M73 Q2 S98
G1 X172.119 Y67.681 E0.01295
G1 X172.119 Y88.445 E0.53018
G1 X171.838 Y88.445 E0.00719
G1 X171.838 Y86.138 E0.05891
G1 X171.612 Y86.138 E0.00576
G1 X171.612 Y65.374 E0.53018
M73 P2 R98
G1 X171.105 Y65.374 E0.01295
G1 X171.105 Y86.138 E0.53018
G1 X170.598 Y86.138 E0.01295
G1 X170.598 Y65.374 E0.53018
G1 X170.091 Y65.374 E0.01295
G1 X170.091 Y86.138 E0.53018
G1 X169.584 Y86.138 E0.01295
G1 X169.584 Y65.374 E0.53018
G1 X169.077 Y65.374 E0.01295
G1 X169.077 Y81.524 E0.41236
G1 X168.570 Y81.524 E0.01295
G1 X168.570 Y65.374 E0.41236
G1 X168.063 Y65.374 E0.01295
G1 X168.063 Y81.524 E0.41236
G1 X167.556 Y81.524 E0.01295
G1 X167.556 Y65.374 E0.41236
G1 X167.224 Y65.374 E0.00847
G1 X167.224 Y60.760 E0.11782
G1 X167.556 Y60.760 E0.00847
G1 X167.556 Y53.839 E0.17673
G1 X168.063 Y53.839 E0.01295
G1 X168.063 Y60.760 E0.17673
G1 X168.570 Y60.760 E0.01295
G1 X168.570 Y53.839 E0.17673
G1 X169.077 Y53.839 E0.01295
G1 X169.077 Y60.898 E0.18026
G1 X167.974 Y60.933 F10800.000
G1 F1200
G1 X167.974 Y65.032 E0.12854
G1 X168.728 Y65.032 E0.02365
G1 X168.728 Y61.102 E0.12322
G1 X169.482 Y61.102 E0.02365
G1 X169.482 Y65.202 E0.12854
G1 X174.761 Y74.775 F10800.000
G1 F1200
G1 X174.761 Y83.489 E0.27322
G1 X175.516 Y83.489 E0.02365
G1 X175.516 Y74.945 E0.26789
G1 X176.270 Y74.945 E0.02365
G1 X176.270 Y83.658 E0.27322
G1 X175.516 Y93.890 F10800.000
G1 F1200
G1 X175.516 Y91.094 E0.08766
G1 X174.761 Y91.094 E0.02365
G1 X174.761 Y94.238 E0.09856
G1 X174.609 Y94.351 E0.00597
G1 X174.007 Y94.712 E0.02198
G1 X174.007 Y91.094 E0.11342
G1 X173.803 Y91.094 E0.00640
G1 X173.803 Y88.787 E0.07234
G1 X173.253 Y88.787 E0.01724
G1 X173.253 Y93.717 E0.15457
G1 X172.499 Y93.717 E0.02365
G1 X172.499 Y88.787 E0.15457
G1 X171.745 Y88.787 E0.02365
G1 X171.745 Y93.717 E0.15457
G1 X171.180 Y93.717 E0.01770
G1 X171.180 Y91.410 E0.07234
G1 X170.991 Y91.410 E0.00594
G1 X170.991 Y86.480 E0.15457
G1 X170.237 Y86.480 E0.02365
G1 X170.237 Y91.410 E0.15457
G1 X169.482 Y91.410 E0.02365
G1 X169.482 Y86.480 E0.15457
G1 X169.189 Y86.480 E0.00920
G1 X169.189 Y81.866 E0.14467
G1 X168.728 Y81.866 E0.01445
G1 X168.728 Y89.103 E0.22691
G1 X167.974 Y89.103 E0.02365
G1 X167.974 Y81.866 E0.22691
G1 X167.220 Y81.866 E0.02365
G1 X167.220 Y91.410 E0.29925
G1 X166.466 Y91.410 E0.02365
G1 X166.466 Y79.559 E0.37158
G1 X165.712 Y79.559 E0.02365
G1 X165.712 Y91.410 E0.37158
G1 X165.575 Y91.410 E0.00429
G1 X165.575 Y93.717 E0.07234
G1 X164.957 Y93.717 E0.01936
G1 X164.957 Y88.787 E0.15457
G1 X164.203 Y88.787 E0.02365
G1 X164.203 Y93.717 E0.15457
G1 X163.449 Y93.717 E0.02365
G1 X163.449 Y88.787 E0.15457
G1 X162.952 Y88.787 E0.01559
G1 X162.952 Y91.094 E0.07234
G1 X162.695 Y91.094 E0.00806
G1 X162.695 Y93.717 E0.08224
G1 X161.941 Y93.717 E0.02365
G1 X161.941 Y91.094 E0.08224
G1 X161.187 Y91.094 E0.02365
G1 X161.187 Y93.717 E0.08224
G1 X160.432 Y93.717 E0.02365
G1 X160.432 Y91.094 E0.08224
G1 X159.678 Y91.094 E0.02365
G1 X159.678 Y93.717 E0.08224
G1 X158.924 Y93.717 E0.02365
G1 X158.924 Y91.094 E0.08224
G1 X158.170 Y91.094 E0.02365
G1 X158.170 Y93.717 E0.08224
G1 X157.416 Y93.717 E0.02365
G1 X157.416 Y91.094 E0.08224
G1 X156.662 Y91.094 E0.02365
G1 X156.662 Y93.717 E0.08224
G1 X155.907 Y93.717 E0.02365
G1 X155.907 Y91.094 E0.08224
G1 X155.346 Y91.094 E0.01759
G1 X155.346 Y88.787 E0.07234
G1 X155.153 Y88.787 E0.00606
G1 X155.153 Y93.717 E0.15457
G1 X154.399 Y93.717 E0.02365
G1 X154.399 Y88.787 E0.15457
G1 X153.645 Y88.787 E0.02365
G1 X153.645 Y93.717 E0.15457
G1 X152.891 Y93.717 E0.02365
G1 X152.891 Y81.866 E0.37158
G1 X152.137 Y81.866 E0.02365
G1 X152.137 Y91.410 E0.29925
G1 X151.383 Y91.410 E0.02365
G1 X151.383 Y81.866 E0.29925
G1 X150.732 Y81.866 E0.02039
G1 X150.732 Y79.559 E0.07234
G1 X150.628 Y79.559 E0.00326
G1 X150.628 Y91.410 E0.37158
G1 X150.417 Y91.410 E0.00664
G1 X150.417 Y86.796 E0.14467
G1 X149.874 Y86.796 E0.01700
G1 X149.874 Y79.559 E0.22691
G1 X149.120 Y79.559 E0.02365
G1 X149.120 Y91.410 E0.37158
G1 X148.366 Y91.410 E0.02365
G1 X148.366 Y84.173 E0.22691
G1 X147.612 Y84.173 E0.02365
G1 X147.612 Y91.410 E0.22691
G1 X147.118 Y91.410 E0.01548
G1 X147.118 Y93.717 E0.07234
G1 X146.858 Y93.717 E0.00817
G1 X146.858 Y84.173 E0.29925
G1 X146.802 Y84.173 E0.00173
G1 X146.802 Y88.787 E0.14467
G1 X146.103 Y88.787 E0.02191
G1 X146.103 Y93.717 E0.15457
G1 X145.349 Y93.717 E0.02365
G1 X145.349 Y88.787 E0.15457
G1 X144.595 Y88.787 E0.02365
G1 X144.595 Y95.068 E0.19694
G1 X143.841 Y94.616 E0.02757
G1 X143.841 Y91.094 E0.11043
G1 X143.087 Y91.094 E0.02365
G1 X143.087 Y94.120 E0.09487
G1 X142.333 Y93.561 E0.02944
G1 X142.333 Y90.925 E0.08266
G1 F8640
G1 X142.333 Y93.561 E-0.60871
G1 X142.859 Y93.951 E-0.15129
G1 E-0.04000 F2100.00000
G1 Z0.800 F10800.000
