;FLAVOR:Marlin
;TIME:2092
;Filament used: 1.0699m
;Layer height: 0.15
;MINX:101.652
;MINY:81.665
;MINZ:0.15
;MAXX:148.044
;MAXY:128.29
;MAXZ:4.35
;Generated with Cura_SteamEngine 4.2.1
M82 ;absolute extrusion mode
G21 ; set units to millimeters
G90 ; use absolute positioning
M82 ; absolute extrusion mode
M104 S200 ; set extruder temp
M140 S60 ; set bed temp
M190 S60 ; wait for bed temp
M109 S200 ; wait for extruder temp
G28 W ; home all without mesh bed level
G80 ; mesh bed leveling
G92 E0.0 ; reset extruder distance position
G1 Y-3.0 F1000.0 ; go outside print area
G1 X60.0 E9.0 F1000.0 ; intro line
G1 X100.0 E21.5 F1000.0 ; intro line
G92 E0.0 ; reset extruder distance position
M141 S28
G92 E0
G92 E0
G1 F2100 E-0.8
;LAYER_COUNT:29
;LAYER:0
M107
G0 F3600 X106.652 Y90.565 Z0.15
;TYPE:SKIRT
G1 F2100 E0
G1 F1800 X106.978 Y90.242 E0.01145
G1 X107.649 Y89.656 E0.03367
G1 X109.725 Y87.816 E0.10287
G1 X111.881 Y85.783 E0.17679
G1 X111.966 Y85.706 E0.17965
G1 X112.122 Y85.568 E0.18485
G1 X112.549 Y85.243 E0.19823
G1 X112.804 Y85.092 E0.20563
G1 X113.061 Y84.954 E0.2129
G1 X113.168 Y84.899 E0.2159
G1 X115.637 Y83.678 E0.28461
G1 X115.668 Y83.663 E0.28547
G1 X116.499 Y83.262 E0.30849
G1 X116.998 Y83.065 E0.32187
G1 X117.453 Y82.956 E0.33354
G1 X118.19 Y82.829 E0.3522
G1 X118.257 Y82.818 E0.35389
G1 X119.393 Y82.644 E0.38256
G1 X122.09 Y82.153 E0.45094
G1 X124.11 Y81.734 E0.5024
G1 X124.642 Y81.665 E0.51579
G1 X125.095 Y81.668 E0.52709
G1 X126.184 Y81.745 E0.55432
G1 X126.275 Y81.753 E0.5566
G1 X128.485 Y81.966 E0.61198
G1 X128.534 Y81.971 E0.61321
G1 X129.269 Y82.052 E0.63166
G1 X129.797 Y82.15 E0.64505
G1 X130.255 Y82.305 E0.65711
G1 X131.262 Y82.723 E0.68431
G1 X131.57 Y82.857 E0.69269
G1 X134.095 Y83.869 E0.76055
G1 X136.549 Y84.778 E0.82583
G1 X137.037 Y85.002 E0.83922
G1 X137.419 Y85.245 E0.85051
G1 X138.286 Y85.877 E0.87728
G1 X138.348 Y85.924 E0.87922
G1 X139.916 Y87.12 E0.92841
G1 X139.945 Y87.142 E0.92932
G1 X140.709 Y87.737 E0.95348
G1 X141.106 Y88.097 E0.96685
G1 X141.399 Y88.446 E0.97821
G1 X141.808 Y89.003 E0.99545
G1 X141.849 Y89.061 E0.99722
G1 X142.642 Y90.187 E1.03158
G1 X144.256 Y92.35 E1.0989
G1 X145.458 Y93.879 E1.14741
G1 X145.757 Y94.324 E1.16079
G1 X145.893 Y94.588 E1.1682
G1 X146.03 Y94.883 E1.17631
G1 X146.13 Y95.119 E1.1827
G1 X147.103 Y97.676 E1.25095
G1 X147.115 Y97.709 E1.25183
G1 X147.457 Y98.635 E1.27645
G1 X147.605 Y99.15 E1.28982
G1 X147.676 Y99.702 E1.3037
G1 X147.763 Y101.442 E1.34716
G1 X147.762 Y101.442 E1.34718
G1 X147.86 Y103.033 E1.38695
G1 X147.93 Y104.1 E1.41362
G1 X147.936 Y104.205 E1.41624
G1 X147.966 Y105.03 E1.43684
G1 X147.967 Y105.092 E1.43838
G1 X148.005 Y107.073 E1.48781
G1 X148.044 Y108.32 E1.51893
G1 X148.021 Y108.856 E1.53231
G1 X147.928 Y109.349 E1.54483
G1 X147.659 Y110.372 E1.57121
G1 X147.639 Y110.442 E1.57303
G1 X146.974 Y112.777 E1.63359
G1 X146.952 Y112.854 E1.63559
G1 X146.791 Y113.375 E1.64919
G1 X146.594 Y113.874 E1.66258
G1 X146.371 Y114.271 E1.67394
G1 X144.819 Y116.663 E1.74506
G1 X142.892 Y119.864 E1.83827
G1 X142.841 Y119.953 E1.84082
G1 X142.54 Y120.397 E1.8542
G1 X142.195 Y120.774 E1.86695
G1 X141.387 Y121.541 E1.89474
G1 X141.329 Y121.595 E1.89672
G1 X139.523 Y123.235 E1.95757
G1 X139.469 Y123.283 E1.95938
G1 X139.101 Y123.604 E1.97156
G1 X138.672 Y123.925 E1.98492
G1 X138.246 Y124.159 E1.99705
G1 X137.463 Y124.521 E2.01857
G1 X135.016 Y125.694 E2.08626
G1 X132.171 Y127.166 E2.16616
G1 X131.677 Y127.377 E2.17956
G1 X131.286 Y127.486 E2.18969
G1 X131.021 Y127.544 E2.19645
G1 X130.897 Y127.569 E2.19961
G1 X127.408 Y128.205 E2.28808
G1 X127.287 Y128.224 E2.29113
G1 X127.104 Y128.251 E2.29575
G1 X126.57 Y128.29 E2.3091
G1 X126.123 Y128.261 E2.32028
G1 X125.887 Y128.231 E2.32621
G1 X123.119 Y127.914 E2.39571
G1 X119.504 Y127.62 E2.48619
G1 X118.846 Y127.504 E2.50285
G1 X118.444 Y127.394 E2.51325
G1 X118.08 Y127.274 E2.52281
G1 X115.221 Y126.153 E2.59941
G1 X115.171 Y126.133 E2.60076
G1 X114.609 Y125.903 E2.61591
G1 X114.13 Y125.663 E2.62927
G1 X113.735 Y125.391 E2.64123
G1 X112.752 Y124.611 E2.67254
G1 X110.713 Y123.02 E2.73705
G1 X108.353 Y121.287 E2.81009
G1 X107.945 Y120.938 E2.82348
G1 X107.735 Y120.711 E2.8312
G1 X107.498 Y120.431 E2.84035
G1 X107.362 Y120.259 E2.84582
G1 X105.76 Y118.114 E2.9126
G1 X105.737 Y118.083 E2.91356
G1 X105.149 Y117.278 E2.93843
G1 X104.866 Y116.823 E2.9518
G1 X104.673 Y116.386 E2.96371
G1 X104.438 Y115.74 E2.98086
G1 X104.421 Y115.691 E2.98215
G1 X104.013 Y114.517 E3.01316
G1 X103.033 Y111.938 E3.08198
G1 X102.298 Y110.138 E3.13048
G1 X102.097 Y109.464 E3.14802
G1 X101.994 Y108.935 E3.16147
G1 X101.965 Y108.762 E3.16584
G1 X101.784 Y107.511 E3.19738
G1 X101.75 Y107.15 E3.20642
G1 X101.652 Y104.86 E3.2636
G1 X101.654 Y104.514 E3.27223
G1 X101.723 Y103.219 E3.30458
G1 X101.727 Y103.155 E3.30618
G1 X101.756 Y102.748 E3.31636
G1 X101.834 Y102.218 E3.32972
G1 X101.904 Y101.952 E3.33658
G1 X102.27 Y100.754 E3.36783
G1 X102.285 Y100.705 E3.36911
G1 X102.42 Y100.283 E3.38016
G1 X103.176 Y97.674 E3.44792
G1 X103.749 Y95.487 E3.50431
G1 X103.924 Y94.98 E3.51769
G1 X104.124 Y94.583 E3.52878
G1 X104.713 Y93.575 E3.55791
G1 X104.762 Y93.493 E3.56029
G1 X106.035 Y91.442 E3.6205
G1 X106.076 Y91.377 E3.62242
G1 X106.327 Y90.991 E3.63391
G1 X106.652 Y90.565 E3.64727
G0 F3600 X106.971 Y90.809
G1 F1800 X107.241 Y90.543 E3.65673
G1 X107.933 Y89.939 E3.67964
G1 X109.983 Y88.122 E3.74797
G1 X112.155 Y86.074 E3.82244
G1 X112.231 Y86.005 E3.825
G1 X112.387 Y85.867 E3.8302
G1 X112.993 Y85.445 E3.84862
G1 X113.25 Y85.307 E3.8559
G1 X113.345 Y85.258 E3.85856
G1 X115.814 Y84.037 E3.92727
G1 X115.842 Y84.023 E3.92805
G1 X116.673 Y83.622 E3.95107
G1 X117.145 Y83.439 E3.9637
G1 X117.521 Y83.35 E3.97334
G1 X118.258 Y83.223 E3.99199
G1 X118.317 Y83.214 E3.99348
G1 X119.453 Y83.04 E4.02215
G1 X122.164 Y82.547 E4.09088
G1 X124.191 Y82.126 E4.14253
G1 X124.693 Y82.062 E4.15515
G1 X125.067 Y82.067 E4.16448
G1 X126.156 Y82.144 E4.19171
G1 X126.237 Y82.151 E4.19374
G1 X128.447 Y82.364 E4.24912
G1 X128.491 Y82.368 E4.25023
G1 X129.226 Y82.449 E4.26867
G1 X129.722 Y82.544 E4.28127
G1 X130.102 Y82.675 E4.2913
G1 X131.056 Y83.071 E4.31706
G1 X131.103 Y83.09 E4.31833
G1 X131.441 Y83.237 E4.32752
G1 X133.923 Y84.231 E4.39422
G1 X136.41 Y85.153 E4.46038
G1 X136.869 Y85.366 E4.473
G1 X137.183 Y85.568 E4.48232
G1 X138.05 Y86.2 E4.50908
G1 X138.106 Y86.242 E4.51083
G1 X139.674 Y87.438 E4.56002
G1 X139.699 Y87.457 E4.5608
G1 X140.463 Y88.052 E4.58496
G1 X140.836 Y88.393 E4.59757
G1 X141.076 Y88.683 E4.60696
G1 X141.485 Y89.24 E4.62419
G1 X141.522 Y89.291 E4.62577
G1 X142.327 Y90.434 E4.66064
G1 X143.959 Y92.621 E4.72871
G1 X145.143 Y94.126 E4.77648
G1 X145.53 Y94.756 E4.79492
G1 X145.667 Y95.051 E4.80304
G1 X145.756 Y95.261 E4.80872
G1 X146.729 Y97.818 E4.87697
G1 X146.74 Y97.847 E4.87774
G1 X147.082 Y98.773 E4.90237
G1 X147.219 Y99.26 E4.91499
G1 X147.276 Y99.722 E4.9266
G1 X147.361 Y101.426 E4.96916
G1 X147.461 Y103.06 E5.01
G1 X147.531 Y104.127 E5.03667
G1 X147.536 Y104.22 E5.03899
G1 X147.566 Y105.045 E5.05959
G1 X147.567 Y105.099 E5.06093
G1 X147.605 Y107.086 E5.11051
G1 X147.644 Y108.333 E5.14163
G1 X147.62 Y108.838 E5.15424
G1 X147.541 Y109.247 E5.16463
G1 X147.272 Y110.27 E5.19102
G1 X147.255 Y110.332 E5.19262
G1 X146.59 Y112.667 E5.25319
G1 X146.569 Y112.736 E5.25499
G1 X146.408 Y113.257 E5.26859
G1 X146.221 Y113.727 E5.28121
G1 X146.036 Y114.053 E5.29056
G1 X144.479 Y116.453 E5.36192
G1 X142.51 Y119.724 E5.45716
G1 X142.493 Y119.754 E5.45802
G1 X142.208 Y120.171 E5.47062
G1 X141.92 Y120.484 E5.48123
G1 X141.112 Y121.251 E5.50902
G1 X141.06 Y121.299 E5.51078
G1 X139.254 Y122.939 E5.57164
G1 X139.207 Y122.981 E5.57321
G1 X138.839 Y123.302 E5.58539
G1 X138.432 Y123.604 E5.59803
G1 X138.078 Y123.796 E5.60808
G1 X137.295 Y124.158 E5.6296
G1 X134.824 Y125.343 E5.69796
G1 X131.987 Y126.811 E5.77764
G1 X131.521 Y127.007 E5.79025
G1 X131.2 Y127.095 E5.79855
G1 X130.935 Y127.153 E5.80532
G1 X130.825 Y127.175 E5.80812
G1 X127.336 Y127.811 E5.89659
G1 X127.229 Y127.829 E5.89929
G1 X127.046 Y127.856 E5.90391
G1 X126.542 Y127.89 E5.91651
G1 X126.174 Y127.864 E5.92571
G1 X125.915 Y127.831 E5.93223
G1 X123.167 Y127.516 E6.00122
G1 X119.537 Y127.221 E6.09207
G1 X118.951 Y127.119 E6.10691
G1 X118.549 Y127.009 E6.11731
G1 X118.226 Y126.901 E6.1258
G1 X115.367 Y125.78 E6.20241
G1 X115.323 Y125.763 E6.20358
G1 X114.761 Y125.533 E6.21873
G1 X114.31 Y125.305 E6.23134
G1 X113.984 Y125.078 E6.24125
G1 X113.001 Y124.298 E6.27255
G1 X110.967 Y122.711 E6.3369
G1 X108.589 Y120.965 E6.4105
G1 X108.04 Y120.452 E6.42924
G1 X107.803 Y120.172 E6.43839
G1 X107.682 Y120.02 E6.44324
G1 X106.08 Y117.875 E6.51002
G1 X106.06 Y117.847 E6.51088
G1 X105.472 Y117.042 E6.53575
G1 X105.207 Y116.612 E6.54835
G1 X105.049 Y116.249 E6.55822
G1 X104.814 Y115.603 E6.57537
G1 X104.799 Y115.56 E6.5765
G1 X104.394 Y114.394 E6.6073
G1 X103.39 Y111.75 E6.67785
G1 X102.669 Y109.986 E6.72538
G1 X102.49 Y109.388 E6.74095
G1 X102.387 Y108.859 E6.7544
G1 X102.361 Y108.705 E6.75829
G1 X102.18 Y107.454 E6.78982
G1 X102.15 Y107.133 E6.79787
G1 X102.052 Y104.843 E6.85504
G1 X102.054 Y104.536 E6.8627
G1 X102.123 Y103.241 E6.89505
G1 X102.126 Y103.184 E6.89647
G1 X102.155 Y102.777 E6.90665
G1 X102.287 Y102.069 E6.92462
G1 X102.653 Y100.871 E6.95587
G1 X102.666 Y100.828 E6.95699
G1 X102.8 Y100.412 E6.96789
G1 X103.561 Y97.782 E7.03619
G1 X104.136 Y95.588 E7.09276
G1 X104.303 Y95.111 E7.10537
G1 X104.469 Y94.785 E7.1145
G1 X105.058 Y93.777 E7.14362
G1 X105.102 Y93.703 E7.14577
G1 X106.375 Y91.652 E7.20598
G1 X106.411 Y91.596 E7.20764
G1 X106.662 Y91.21 E7.21913
G1 X106.971 Y90.809 E7.23176
G1 F2100 E6.43176
;MESH:MakerSummitCoin2019b.stl
G0 F3600 X109.089 Y92.163
G0 X113.478 Y94.968
G0 X115.312 Y96.141
G0 X116.191 Y96.141
G0 X116.247 Y99.217
G0 X116.177 Y99.147
;TYPE:WALL-OUTER
G1 F2100 E7.23176
G1 F1800 X116.177 Y96.127 E7.30709
G1 X116.84 Y96.127 E7.32363
G1 X116.84 Y99.147 E7.39896
G1 X117.832 Y99.147 E7.42371
G1 X117.832 Y99.504 E7.43262
G1 X116.84 Y99.504 E7.4547
G1 X116.177 Y99.504 E7.47124
G1 X115.185 Y99.504 E7.49598
G1 X115.185 Y99.147 E7.50489
G1 X116.177 Y99.147 E7.52698
G0 F3600 X116.177 Y98.947
G0 X116.507 Y98.971
;TYPE:SKIN
G1 F1800 X116.466 Y99.212 E7.53129
G1 X116.507 Y97.274 E7.56552
G1 X116.523 Y96.442 E7.58022
G0 F3600 X116.577 Y96.562
G1 F2100 E6.78022
G0 F3600 X118.516 Y96.509
G0 X120.827 Y97.097
G0 X120.746 Y97.155
;TYPE:WALL-OUTER
G1 F2100 E7.58022
G1 F1800 X119.371 Y97.155 E7.61452
G1 X119.902 Y98.808 E7.65783
G1 X120.192 Y98.81 E7.66506
G1 X120.746 Y97.155 E7.7086
G0 F3600 X120.546 Y97.155
G0 X120.822 Y96.874
G1 F1800 X121.056 Y96.127 E7.72812
G1 X121.299 Y96.127 E7.73418
G1 X121.3 Y96.127 E7.73421
G1 X121.581 Y96.127 E7.74122
G1 X121.488 Y96.393 E7.74538
G1 X120.397 Y99.504 E7.82762
G1 X119.553 Y99.504 E7.84867
G1 X118.474 Y96.391 E7.93086
G1 X118.383 Y96.127 E7.93783
G1 X118.662 Y96.127 E7.94196
G1 X118.663 Y96.127 E7.94198
G1 X119.038 Y96.127 E7.95133
G1 X119.288 Y96.874 E7.97098
G1 X119.371 Y96.874 E7.97276
G1 X120.746 Y96.874 E7.99686
G1 X120.822 Y96.874 E7.99875
G0 F3600 X120.881 Y96.683
G0 X121.1 Y96.775
;TYPE:SKIN
G1 F1800 X121.036 Y96.994 E8.0009
G1 X120.603 Y98.258 E8.01347
G1 X120.272 Y99.058 E8.02161
G1 X120.086 Y99.155 E8.02358
G1 X119.752 Y99.105 E8.02676
G1 X119.254 Y97.758 E8.04027
G1 X118.839 Y96.494 E8.05278
G0 F3600 X118.666 Y96.322
G0 X119.265 Y96.906
G0 X120.845 Y96.906
G0 X121.17 Y96.563
G1 F1800 X121.246 Y96.356 E8.0553
G0 F3600 X121.039 Y96.465
G1 F2100 E7.2553
G0 F3600 X121.053 Y96.469
G0 X120.855 Y98.141
G0 X122.306 Y99.161
G0 X123.921 Y99.217
G0 X123.851 Y99.147
;TYPE:WALL-OUTER
G1 F2100 E8.0553
G1 F1800 X123.851 Y98.027 E8.08324
G1 X122.63 Y98.027 E8.1137
G1 X122.63 Y97.681 E8.12233
G1 X123.851 Y97.681 E8.14868
G1 X123.851 Y96.485 E8.17851
G1 X122.238 Y96.485 E8.21875
G1 X122.238 Y96.127 E8.22768
G1 X123.851 Y96.127 E8.26369
G1 X124.503 Y96.127 E8.27995
G1 X124.503 Y99.504 E8.36419
G1 X123.851 Y99.504 E8.38046
G1 X122.292 Y99.504 E8.41935
G1 X122.292 Y99.147 E8.42825
G1 X123.851 Y99.147 E8.46296
G0 F3600 X123.851 Y98.947
G0 X124.175 Y99.002
;TYPE:SKIN
G1 F1800 X124.121 Y99.231 E8.46694
G1 X124.175 Y97.871 E8.48996
G1 X124.175 Y96.457 E8.51388
G0 F3600 X124.251 Y96.527
G1 F2100 E7.71388
G0 F3600 X124.483 Y97.443
G0 X125.596 Y97.673
G0 X127.345 Y97.443
G0 X127.274 Y97.374
;TYPE:WALL-OUTER
G1 F2100 E8.51388
G1 F1800 X127.274 Y96.127 E8.54498
G1 X127.937 Y96.127 E8.56152
G1 X127.937 Y99.504 E8.64576
G1 X127.274 Y99.504 E8.6623
G1 X126.57 Y99.504 E8.67986
G1 X126.364 Y99.488 E8.68501
G1 X126.23 Y99.478 E8.68837
G1 X126.136 Y99.47 E8.69072
G1 X125.805 Y99.375 E8.69931
G1 X125.568 Y99.232 E8.70621
G1 X125.404 Y99.037 E8.71257
G1 X125.304 Y98.791 E8.71919
G1 X125.27 Y98.473 E8.72717
G1 X125.309 Y98.127 E8.73586
G1 X125.414 Y97.859 E8.74304
G1 X125.583 Y97.658 E8.74959
G1 X125.818 Y97.51 E8.75652
G1 X126.044 Y97.443 E8.7624
G1 X126.136 Y97.416 E8.76479
G1 X126.268 Y97.412 E8.76808
G1 X126.56 Y97.402 E8.77537
G1 X127.264 Y97.375 E8.79295
G1 X127.274 Y97.374 E8.7932
G0 F3600 X127.274 Y97.174
G0 X127.374 Y97.174
G0 X127.343 Y99.261
G0 X127.274 Y99.189
G1 F1800 X127.274 Y97.655 E8.83146
G1 X126.57 Y97.661 E8.84329
G1 X126.28 Y97.74 E8.84884
G1 X126.211 Y97.805 E8.85107
G1 X126.066 Y97.942 E8.85604
G1 X125.965 Y98.312 E8.86561
G1 X126 Y98.745 E8.87645
G1 X126.14 Y99.003 E8.88377
G1 X126.275 Y99.083 E8.88768
G1 X126.39 Y99.15 E8.89075
G1 X126.585 Y99.158 E8.89489
G1 X127.274 Y99.189 E8.90908
G0 F3600 X127.274 Y98.989
G0 X127.604 Y99.037
;TYPE:SKIN
G1 F1800 X127.53 Y99.246 E8.91296
G1 X127.604 Y98.189 E8.93152
G1 X127.604 Y96.492 E8.96125
G0 F3600 X127.468 Y96.356
G0 X127.302 Y97.401
G0 X126.009 Y97.725
G0 X125.982 Y97.698
G1 F1800 X125.826 Y97.824 E8.96418
G1 X125.649 Y98.214 E8.97045
G1 X125.725 Y98.855 E8.9799
G1 X126.089 Y99.219 E8.98744
G0 F3600 X126.006 Y99.387
G1 F2100 E8.18744
G0 F3600 X126.021 Y99.334
G0 X127.917 Y99.217
G0 X128.869 Y99.217
G0 X130.478 Y99.217
G0 X130.408 Y99.147
;TYPE:WALL-OUTER
G1 F2100 E8.98744
G1 F1800 X130.408 Y98.027 E9.01538
G1 X129.187 Y98.027 E9.04584
G1 X129.187 Y97.681 E9.05447
G1 X130.408 Y97.681 E9.08081
G1 X130.408 Y96.485 E9.11065
G1 X128.795 Y96.485 E9.15088
G1 X128.795 Y96.127 E9.15981
G1 X130.408 Y96.127 E9.19583
G1 X131.06 Y96.127 E9.21209
G1 X131.06 Y99.504 E9.29633
G1 X130.408 Y99.504 E9.31259
G1 X128.849 Y99.504 E9.35148
G1 X128.849 Y99.147 E9.36039
G1 X130.408 Y99.147 E9.3951
G0 F3600 X130.408 Y98.947
G0 X130.733 Y99.054
;TYPE:SKIN
G1 F1800 X130.653 Y99.257 E9.39854
G1 X130.733 Y98.206 E9.41518
G1 X130.733 Y96.509 E9.44198
G1 X130.846 Y96.339 E9.4452
G0 F3600 X130.66 Y96.527
G1 F2100 E8.6452
G0 F3600 X131.04 Y97.571
G0 X132.293 Y96.928
G0 X134.004 Y97.571
G0 X133.934 Y97.501
;TYPE:WALL-OUTER
G1 F2100 E9.4452
G1 F1800 X133.934 Y96.127 E9.47947
G1 X134.597 Y96.127 E9.49601
G1 X134.597 Y99.504 E9.58025
G1 X133.945 Y99.504 E9.59652
G1 X133.247 Y99.504 E9.61393
G1 X133.219 Y99.504 E9.61463
G1 X132.847 Y99.464 E9.62396
G1 X132.834 Y99.463 E9.62429
G1 X132.626 Y99.439 E9.62951
G1 X132.36 Y99.331 E9.63667
G1 X132.173 Y99.179 E9.64268
G1 X132.048 Y98.972 E9.64871
G1 X131.983 Y98.694 E9.65584
G1 X131.991 Y98.32 E9.66517
G1 X132.069 Y98.095 E9.67111
G1 X132.199 Y97.93 E9.67635
G1 X132.478 Y97.759 E9.68451
G1 X132.48 Y97.758 E9.68457
G1 X132.661 Y97.646 E9.68988
G1 X132.03 Y96.417 E9.72434
G1 X131.881 Y96.127 E9.73247
G1 X132.207 Y96.127 E9.73714
G1 X132.208 Y96.127 E9.73716
G1 X132.531 Y96.127 E9.74522
G1 X133.183 Y97.42 E9.78134
G1 X133.224 Y97.501 E9.7836
G1 X133.934 Y97.501 E9.80132
G0 F3600 X133.934 Y97.301
G0 X133.945 Y97.736
G1 F1800 X133.227 Y97.742 E9.81207
G1 X133.141 Y97.771 E9.81434
G1 X132.874 Y97.861 E9.82137
G1 X132.689 Y98.096 E9.82803
G1 X132.689 Y98.098 E9.82808
G1 X132.621 Y98.483 E9.83784
G1 X132.694 Y98.859 E9.84739
G1 X132.88 Y99.067 E9.85435
G1 X132.889 Y99.077 E9.85469
G1 X133.247 Y99.182 E9.86297
G1 X133.945 Y99.186 E9.8769
G1 X133.945 Y97.736 E9.91307
G0 F3600 X133.745 Y97.737
G0 X134.269 Y97.783
;TYPE:SKIN
G1 F1800 X134.269 Y98.065 E9.91894
G1 X134.259 Y99.187 E9.94228
G0 F3600 X134.138 Y99.066
