; generated by PrusaSlicer 2.1.0+ on 2019-12-30 at 22:35:18 UTC

; 

; external perimeters extrusion width = 0.60mm
; perimeters extrusion width = 0.50mm
; infill extrusion width = 0.50mm
; solid infill extrusion width = 0.50mm
; top infill extrusion width = 0.45mm
; first layer extrusion width = 0.42mm

M73 P0 R55
M73 Q0 S55
M201 X1000 Y1000 Z1000 E5000 ; sets maximum accelerations, mm/sec^2
M203 X200 Y200 Z12 E120 ; sets maximum feedrates, mm/sec
M204 P1250 R1250 T1250 ; sets acceleration (P, T) and retract acceleration (R), mm/sec^2
M205 X8.00 Y8.00 Z0.40 E1.50 ; sets the jerk limits, mm/sec
M205 S0 T0 ; sets the minimum extruding and travel feed rate, mm/sec
M107
M862.3 P "MK3" ; printer model check
M862.1 P0.4 ; nozzle diameter check
M115 U3.8.1 ; tell printer latest fw version
G90 ; use absolute coordinates
M83 ; extruder relative mode
M104 S215 ; set extruder temp
M140 S60 ; set bed temp
M190 S60 ; wait for bed temp
M109 S215 ; wait for extruder temp
G28 W ; home all without mesh bed level
G80 ; mesh bed leveling
G1 Y-3.0 F1000.0 ; go outside print area
G92 E0.0
G1 X60.0 E9.0 F1000.0 ; intro line
M73 Q0 S55
M73 P0 R55
G1 X100.0 E12.5 F1000.0 ; intro line
G92 E0.0
M221 S95
G21 ; set units to millimeters
G90 ; use absolute coordinates
M83 ; use relative distances for extrusion
M900 K30 ; Filament gcode
;BEFORE_LAYER_CHANGE
G92 E0.0
;0.2


G1 E-0.80000 F2100.00000
G1 Z0.600 F10800.000
;AFTER_LAYER_CHANGE
;0.2
G1 X41.100 Y38.961
G1 Z0.200
G1 E0.80000 F2100.00000
M204 S1000
G1 F1200
G1 X41.836 Y38.819 E0.02349
G1 X103.281 Y37.819 E1.92683
G1 X214.114 Y39.877 E3.47570
G1 X214.901 Y40.040 E0.02518
G1 X215.426 Y40.347 E0.01908
G1 X215.849 Y40.789 E0.01919
G1 X216.132 Y41.332 E0.01919
G1 X216.255 Y41.931 E0.01919
G1 X216.255 Y62.196 E0.63539
G1 X212.682 Y81.654 E0.62028
G1 X212.372 Y82.534 E0.02925
G1 X211.532 Y83.800 E0.04765
G1 X210.299 Y84.691 E0.04769
G1 X209.791 Y84.911 E0.01737
G1 X208.536 Y85.202 E0.04038
G1 X207.809 Y85.236 E0.02281
G1 X41.572 Y63.175 E5.25794
G1 X41.011 Y63.018 E0.01828
G1 X40.508 Y62.717 E0.01839
G1 X40.105 Y62.295 E0.01828
G1 X39.828 Y61.782 E0.01828
G1 X39.686 Y61.021 E0.02428
G1 X39.689 Y40.887 E0.63128
G1 X39.814 Y40.269 E0.01976
G1 X40.108 Y39.716 E0.01964
G1 X40.549 Y39.266 E0.01976
G1 X41.048 Y38.990 E0.01787
G1 F8640
G1 X41.836 Y38.819 E-0.18621
G1 X44.321 Y38.779 E-0.57379
G1 E-0.04000 F2100.00000
G1 Z0.800 F10800.000
G1 X42.462 Y41.595
G1 Z0.200
G1 E0.80000 F2100.00000
G1 F1200
G1 X101.702 Y41.595 E1.85744
G1 X103.277 Y40.685 E0.05701
G1 X104.851 Y41.595 E0.05701
G1 X111.288 Y41.595 E0.20180
G1 X111.288 Y60.420 E0.59027
G1 X42.462 Y60.420 E2.15799
G1 X42.462 Y41.655 E0.58839
G1 X42.085 Y41.217 F10800.000
G1 F1200
G1 X101.601 Y41.217 E1.86609
G1 X103.277 Y40.250 E0.06067
G1 X104.952 Y41.217 E0.06067
G1 X111.665 Y41.217 E0.21046
G1 X111.665 Y60.797 E0.61392
G1 X42.085 Y60.797 E2.18163
G1 X42.085 Y41.277 E0.61204
G1 X42.483 Y41.254 F10800.000
G1 F8640
G1 X45.376 Y41.274 E-0.76000
G1 E-0.04000 F2100.00000
G1 Z0.800 F10800.000
G1 X42.575 Y59.542
G1 Z0.200
G1 E0.80000 F2100.00000
G1 F1200
G1 X43.171 Y60.138 E0.02652
G1 X43.706 Y60.138 E0.01686
G1 X42.745 Y59.176 E0.04281
G1 X42.745 Y58.641 E0.01686
G1 X44.241 Y60.138 E0.06665
G1 X44.777 Y60.138 E0.01686
G1 X42.745 Y58.105 E0.09048
G1 X42.745 Y57.570 E0.01686
G1 X45.312 Y60.138 E0.11432
G1 X45.848 Y60.138 E0.01686
G1 X42.745 Y57.034 E0.13816
G1 X42.745 Y56.499 E0.01686
G1 X46.383 Y60.138 E0.16200
G1 X46.919 Y60.138 E0.01686
G1 X42.745 Y55.964 E0.18583
G1 X42.745 Y55.428 E0.01686
G1 X47.454 Y60.138 E0.20967
G1 X47.989 Y60.138 E0.01686
G1 X42.745 Y54.893 E0.23351
G1 X42.745 Y54.357 E0.01686
G1 X48.525 Y60.138 E0.25735
G1 X49.060 Y60.138 E0.01686
G1 X42.745 Y53.822 E0.28118
G1 X42.745 Y53.286 E0.01686
G1 X49.596 Y60.138 E0.30502
G1 X50.131 Y60.138 E0.01686
G1 X42.745 Y52.751 E0.32886
G1 X42.745 Y52.216 E0.01686
G1 X50.667 Y60.138 E0.35270
G1 X51.202 Y60.138 E0.01686
G1 X42.745 Y51.680 E0.37654
G1 X42.745 Y51.145 E0.01686
G1 X51.737 Y60.138 E0.40037
G1 X52.273 Y60.138 E0.01686
G1 X42.745 Y50.609 E0.42421
G1 X42.745 Y50.074 E0.01686
G1 X52.808 Y60.138 E0.44805
G1 X53.344 Y60.138 E0.01686
G1 X42.745 Y49.538 E0.47189
G1 X42.745 Y49.003 E0.01686
G1 X53.879 Y60.138 E0.49572
G1 X54.415 Y60.138 E0.01686
G1 X42.745 Y48.468 E0.51956
G1 X42.745 Y47.932 E0.01686
G1 X54.950 Y60.138 E0.54340
G1 X55.485 Y60.138 E0.01686
G1 X42.745 Y47.397 E0.56724
G1 X42.745 Y46.861 E0.01686
G1 X56.021 Y60.138 E0.59108
G1 X56.556 Y60.138 E0.01686
G1 X42.745 Y46.326 E0.61491
G1 X42.745 Y45.790 E0.01686
G1 X57.092 Y60.138 E0.63875
G1 X57.627 Y60.138 E0.01686
G1 X42.745 Y45.255 E0.66259
G1 X42.745 Y44.720 E0.01686
G1 X58.163 Y60.138 E0.68643
M73 Q1 S54
M73 P1 R54
G1 X58.698 Y60.138 E0.01686
G1 X42.745 Y44.184 E0.71026
G1 X42.745 Y43.649 E0.01686
G1 X59.233 Y60.138 E0.73410
G1 X59.769 Y60.138 E0.01686
G1 X42.745 Y43.113 E0.75794
G1 X42.745 Y42.578 E0.01686
G1 X60.304 Y60.138 E0.78178
G1 X60.840 Y60.138 E0.01686
G1 X42.745 Y42.042 E0.80561
G1 X42.745 Y41.877 E0.00520
G1 X43.115 Y41.877 E0.01166
G1 X61.375 Y60.138 E0.81296
G1 X61.911 Y60.138 E0.01686
G1 X43.650 Y41.877 E0.81296
G1 X44.186 Y41.877 E0.01686
G1 X62.446 Y60.138 E0.81296
G1 X62.981 Y60.138 E0.01686
G1 X44.721 Y41.877 E0.81296
G1 X45.257 Y41.877 E0.01686
G1 X63.517 Y60.138 E0.81296
G1 X64.052 Y60.138 E0.01686
G1 X45.792 Y41.877 E0.81296
G1 X46.327 Y41.877 E0.01686
G1 X64.588 Y60.138 E0.81296
G1 X65.123 Y60.138 E0.01686
G1 X46.863 Y41.877 E0.81296
G1 X47.398 Y41.877 E0.01686
G1 X65.659 Y60.138 E0.81296
G1 X66.194 Y60.138 E0.01686
G1 X47.934 Y41.877 E0.81296
G1 X48.469 Y41.877 E0.01686
G1 X66.729 Y60.138 E0.81296
G1 X67.265 Y60.138 E0.01686
G1 X49.005 Y41.877 E0.81296
G1 X49.540 Y41.877 E0.01686
G1 X67.800 Y60.138 E0.81296
G1 X68.336 Y60.138 E0.01686
G1 X50.075 Y41.877 E0.81296
G1 X50.611 Y41.877 E0.01686
G1 X68.871 Y60.138 E0.81296
G1 X69.407 Y60.138 E0.01686
G1 X51.146 Y41.877 E0.81296
G1 X51.682 Y41.877 E0.01686
G1 X69.942 Y60.138 E0.81296
G1 X70.477 Y60.138 E0.01686
G1 X52.217 Y41.877 E0.81296
G1 X52.753 Y41.877 E0.01686
G1 X71.013 Y60.138 E0.81296
G1 X71.548 Y60.138 E0.01686
G1 X53.288 Y41.877 E0.81296
G1 X53.823 Y41.877 E0.01686
G1 X72.084 Y60.138 E0.81296
G1 X72.619 Y60.138 E0.01686
G1 X54.359 Y41.877 E0.81296
G1 X54.894 Y41.877 E0.01686
G1 X73.155 Y60.138 E0.81296
G1 X73.690 Y60.138 E0.01686
G1 X55.430 Y41.877 E0.81296
G1 X55.965 Y41.877 E0.01686
G1 X74.225 Y60.138 E0.81296
G1 X74.761 Y60.138 E0.01686
G1 X56.501 Y41.877 E0.81296
G1 X57.036 Y41.877 E0.01686
G1 X75.296 Y60.138 E0.81296
G1 X75.832 Y60.138 E0.01686
G1 X57.571 Y41.877 E0.81296
G1 X58.107 Y41.877 E0.01686
G1 X76.367 Y60.138 E0.81296
G1 X76.903 Y60.138 E0.01686
G1 X58.642 Y41.877 E0.81296
G1 X59.178 Y41.877 E0.01686
G1 X77.438 Y60.138 E0.81296
G1 X77.973 Y60.138 E0.01686
G1 X59.713 Y41.877 E0.81296
G1 X60.249 Y41.877 E0.01686
G1 X78.509 Y60.138 E0.81296
G1 X79.044 Y60.138 E0.01686
G1 X60.784 Y41.877 E0.81296
G1 X61.319 Y41.877 E0.01686
G1 X79.580 Y60.138 E0.81296
G1 X80.115 Y60.138 E0.01686
G1 X61.855 Y41.877 E0.81296
G1 X62.390 Y41.877 E0.01686
G1 X80.650 Y60.138 E0.81296
G1 X81.186 Y60.138 E0.01686
G1 X62.926 Y41.877 E0.81296
G1 X63.461 Y41.877 E0.01686
G1 X81.721 Y60.138 E0.81296
G1 X82.257 Y60.138 E0.01686
G1 X63.997 Y41.877 E0.81296
G1 X64.532 Y41.877 E0.01686
G1 X82.792 Y60.138 E0.81296
M73 Q3 S53
M73 P3 R53
G1 X83.328 Y60.138 E0.01686
G1 X65.067 Y41.877 E0.81296
G1 X65.603 Y41.877 E0.01686
G1 X83.863 Y60.138 E0.81296
G1 X84.398 Y60.138 E0.01686
G1 X66.138 Y41.877 E0.81296
G1 X66.674 Y41.877 E0.01686
G1 X84.934 Y60.138 E0.81296
G1 X85.469 Y60.138 E0.01686
G1 X67.209 Y41.877 E0.81296
G1 X67.744 Y41.877 E0.01686
G1 X86.005 Y60.138 E0.81296
G1 X86.540 Y60.138 E0.01686
G1 X68.280 Y41.877 E0.81296
G1 X68.815 Y41.877 E0.01686
G1 X87.076 Y60.138 E0.81296
G1 X87.611 Y60.138 E0.01686
G1 X69.351 Y41.877 E0.81296
G1 X69.886 Y41.877 E0.01686
G1 X88.146 Y60.138 E0.81296
G1 X88.682 Y60.138 E0.01686
G1 X70.422 Y41.877 E0.81296
G1 X70.957 Y41.877 E0.01686
G1 X89.217 Y60.138 E0.81296
G1 X89.753 Y60.138 E0.01686
G1 X71.492 Y41.877 E0.81296
G1 X72.028 Y41.877 E0.01686
G1 X90.288 Y60.138 E0.81296
G1 X90.824 Y60.138 E0.01686
G1 X72.563 Y41.877 E0.81296
G1 X73.099 Y41.877 E0.01686
G1 X91.359 Y60.138 E0.81296
G1 X91.894 Y60.138 E0.01686
G1 X73.634 Y41.877 E0.81296
G1 X74.170 Y41.877 E0.01686
G1 X92.430 Y60.138 E0.81296
G1 X92.965 Y60.138 E0.01686
G1 X74.705 Y41.877 E0.81296
G1 X75.240 Y41.877 E0.01686
G1 X93.501 Y60.138 E0.81296
G1 X94.036 Y60.138 E0.01686
G1 X75.776 Y41.877 E0.81296
G1 X76.311 Y41.877 E0.01686
G1 X94.572 Y60.138 E0.81296
G1 X95.107 Y60.138 E0.01686
G1 X76.847 Y41.877 E0.81296
G1 X77.382 Y41.877 E0.01686
G1 X95.642 Y60.138 E0.81296
G1 X96.178 Y60.138 E0.01686
G1 X77.918 Y41.877 E0.81296
G1 X78.453 Y41.877 E0.01686
G1 X96.713 Y60.138 E0.81296
G1 X97.249 Y60.138 E0.01686
G1 X78.988 Y41.877 E0.81296
G1 X79.524 Y41.877 E0.01686
G1 X97.784 Y60.138 E0.81296
G1 X98.320 Y60.138 E0.01686
G1 X80.059 Y41.877 E0.81296
G1 X80.595 Y41.877 E0.01686
G1 X98.855 Y60.138 E0.81296
G1 X99.390 Y60.138 E0.01686
G1 X81.130 Y41.877 E0.81296
G1 X81.666 Y41.877 E0.01686
G1 X99.926 Y60.138 E0.81296
G1 X100.461 Y60.138 E0.01686
G1 X82.201 Y41.877 E0.81296
G1 X82.736 Y41.877 E0.01686
G1 X100.997 Y60.138 E0.81296
G1 X101.532 Y60.138 E0.01686
G1 X83.272 Y41.877 E0.81296
G1 X83.807 Y41.877 E0.01686
G1 X102.068 Y60.138 E0.81296
G1 X102.603 Y60.138 E0.01686
G1 X84.343 Y41.877 E0.81296
G1 X84.878 Y41.877 E0.01686
G1 X103.138 Y60.138 E0.81296
G1 X103.674 Y60.138 E0.01686
G1 X85.414 Y41.877 E0.81296
G1 X85.949 Y41.877 E0.01686
G1 X104.209 Y60.138 E0.81296
G1 X104.745 Y60.138 E0.01686
G1 X86.484 Y41.877 E0.81296
G1 X87.020 Y41.877 E0.01686
G1 X105.280 Y60.138 E0.81296
G1 X105.816 Y60.138 E0.01686
G1 X87.555 Y41.877 E0.81296
G1 X88.091 Y41.877 E0.01686
G1 X106.351 Y60.138 E0.81296
G1 X106.886 Y60.138 E0.01686
G1 X88.626 Y41.877 E0.81296
G1 X89.162 Y41.877 E0.01686
G1 X107.422 Y60.138 E0.81296
M73 Q5 S52
M73 P5 R52
G1 X107.957 Y60.138 E0.01686
G1 X89.697 Y41.877 E0.81296
G1 X90.232 Y41.877 E0.01686
G1 X108.493 Y60.138 E0.81296
G1 X109.028 Y60.138 E0.01686
G1 X90.768 Y41.877 E0.81296
G1 X91.303 Y41.877 E0.01686
G1 X109.564 Y60.138 E0.81296
G1 X110.099 Y60.138 E0.01686
G1 X91.839 Y41.877 E0.81296
G1 X92.374 Y41.877 E0.01686
G1 X110.634 Y60.138 E0.81296
G1 X111.005 Y60.138 E0.01166
G1 X111.005 Y59.973 E0.00520
G1 X92.910 Y41.877 E0.80562
G1 X93.445 Y41.877 E0.01686
G1 X111.005 Y59.437 E0.78178
G1 X111.005 Y58.902 E0.01686
G1 X93.980 Y41.877 E0.75794
G1 X94.516 Y41.877 E0.01686
G1 X111.005 Y58.366 E0.73410
G1 X111.005 Y57.831 E0.01686
G1 X95.051 Y41.877 E0.71027
G1 X95.587 Y41.877 E0.01686
G1 X111.005 Y57.295 E0.68643
G1 X111.005 Y56.760 E0.01686
G1 X96.122 Y41.877 E0.66259
G1 X96.658 Y41.877 E0.01686
G1 X111.005 Y56.225 E0.63875
G1 X111.005 Y55.689 E0.01686
G1 X97.193 Y41.877 E0.61491
G1 X97.728 Y41.877 E0.01686
G1 X111.005 Y55.154 E0.59108
G1 X111.005 Y54.618 E0.01686
G1 X98.264 Y41.877 E0.56724
G1 X98.799 Y41.877 E0.01686
G1 X111.005 Y54.083 E0.54340
G1 X111.005 Y53.547 E0.01686
G1 X99.335 Y41.877 E0.51956
G1 X99.870 Y41.877 E0.01686
G1 X111.005 Y53.012 E0.49573
G1 X111.005 Y52.477 E0.01686
G1 X100.406 Y41.877 E0.47189
G1 X100.941 Y41.877 E0.01686
G1 X111.005 Y51.941 E0.44805
G1 X111.005 Y51.406 E0.01686
G1 X101.476 Y41.877 E0.42421
G1 X101.778 Y41.877 E0.00949
G1 X101.926 Y41.792 E0.00539
G1 X111.005 Y50.870 E0.40419
G1 X111.005 Y50.335 E0.01686
G1 X102.266 Y41.596 E0.38908
G1 X102.605 Y41.400 E0.01234
G1 X111.005 Y49.799 E0.37397
G1 X111.005 Y49.264 E0.01686
G1 X102.944 Y41.204 E0.35885
G1 X103.277 Y41.012 E0.01208
G1 X103.304 Y41.028 E0.00099
G1 X111.005 Y48.729 E0.34286
G1 X111.005 Y48.193 E0.01686
G1 X104.571 Y41.759 E0.28645
G1 X104.776 Y41.877 E0.00745
G1 X105.224 Y41.877 E0.01413
G1 X111.005 Y47.658 E0.25735
G1 X111.005 Y47.122 E0.01686
G1 X105.760 Y41.877 E0.23351
G1 X106.295 Y41.877 E0.01686
G1 X111.005 Y46.587 E0.20967
G1 X111.005 Y46.051 E0.01686
G1 X106.831 Y41.877 E0.18584
G1 X107.366 Y41.877 E0.01686
G1 X111.005 Y45.516 E0.16200
G1 X111.005 Y44.981 E0.01686
G1 X107.902 Y41.877 E0.13816
G1 X108.437 Y41.877 E0.01686
G1 X111.005 Y44.445 E0.11432
G1 X111.005 Y43.910 E0.01686
G1 X108.972 Y41.877 E0.09048
G1 X109.508 Y41.877 E0.01686
G1 X111.005 Y43.374 E0.06665
G1 X111.005 Y42.839 E0.01686
G1 X110.043 Y41.877 E0.04281
G1 X110.579 Y41.877 E0.01686
G1 X111.174 Y42.473 E0.02653
G1 F8640
G1 X110.579 Y41.877 E-0.19456
G1 X110.043 Y41.877 E-0.12363
G1 X111.005 Y42.839 E-0.31399
G1 X111.005 Y43.374 E-0.12363
G1 X110.992 Y43.362 E-0.00418
G1 E-0.04000 F2100.00000
G1 Z0.800 F10800.000
G1 X210.427 Y67.026
G1 Z0.200
G1 E0.80000 F2100.00000
G1 F1200
G1 X210.916 Y67.026 E0.01533
G1 X210.732 Y68.437 E0.04461
G1 X210.671 Y68.586 E0.00505
G1 X210.611 Y68.437 E0.00505
G1 X210.435 Y67.086 E0.04273
G1 X210.783 Y67.208 F10800.000
G1 F8640
G1 X210.916 Y67.026 E-0.11196
G1 X210.732 Y68.437 E-0.32852
G1 X210.671 Y68.586 E-0.03720
G1 X210.611 Y68.437 E-0.03716
G1 X210.473 Y67.385 E-0.24516
G1 E-0.04000 F2100.00000
G1 Z0.800 F10800.000
G1 X206.548 Y67.026
G1 Z0.200
G1 E0.80000 F2100.00000
G1 F1200
G1 X206.364 Y68.437 E0.04461
G1 X206.303 Y68.586 E0.00505
G1 X206.243 Y68.437 E0.00505
G1 X206.059 Y67.026 E0.04461
G1 X206.488 Y67.026 E0.01345
G1 X206.485 Y67.421 F10800.000
G1 F8640
G1 X206.364 Y68.437 E-0.32702
G1 X206.303 Y68.586 E-0.03720
G1 X206.243 Y68.437 E-0.03716
G1 X206.059 Y67.026 E-0.32856
G1 X206.189 Y67.026 E-0.03006
G1 E-0.04000 F2100.00000
G1 Z0.800 F10800.000
G1 X213.483 Y61.478
G1 Z0.200
G1 E0.80000 F2100.00000
G1 F1200
G1 X144.657 Y61.478 E2.15799
G1 X144.657 Y42.652 E0.59027
G1 X213.483 Y42.652 E2.15799
G1 X213.483 Y61.418 E0.58839
G1 X213.860 Y61.855 F10800.000
G1 F1200
G1 X144.280 Y61.855 E2.18163
G1 X144.280 Y42.275 E0.61392
G1 X213.860 Y42.275 E2.18163
G1 X213.860 Y61.795 E0.61204
G1 X213.462 Y61.818 F10800.000
G1 F8640
G1 X210.569 Y61.797 E-0.76000
G1 E-0.04000 F2100.00000
G1 Z0.800 F10800.000
G1 X213.370 Y43.530
G1 Z0.200
G1 E0.80000 F2100.00000
G1 F1200
G1 X212.774 Y42.934 E0.02653
G1 X212.239 Y42.934 E0.01686
G1 X213.200 Y43.896 E0.04281
G1 X213.200 Y44.431 E0.01686
G1 X211.703 Y42.934 E0.06665
G1 X211.168 Y42.934 E0.01686
G1 X213.200 Y44.967 E0.09048
G1 X213.200 Y45.502 E0.01686
G1 X210.632 Y42.934 E0.11432
G1 X210.097 Y42.934 E0.01686
G1 X213.200 Y46.038 E0.13816
G1 X213.200 Y46.573 E0.01686
G1 X209.562 Y42.934 E0.16200
G1 X209.026 Y42.934 E0.01686
G1 X213.200 Y47.109 E0.18584
G1 X213.200 Y47.644 E0.01686
G1 X208.491 Y42.934 E0.20967
G1 X207.955 Y42.934 E0.01686
G1 X213.200 Y48.179 E0.23351
G1 X213.200 Y48.715 E0.01686
G1 X207.420 Y42.934 E0.25735
G1 X206.884 Y42.934 E0.01686
G1 X213.200 Y49.250 E0.28119
G1 X213.200 Y49.786 E0.01686
G1 X206.349 Y42.934 E0.30502
G1 X205.814 Y42.934 E0.01686
G1 X213.200 Y50.321 E0.32886
G1 X213.200 Y50.857 E0.01686
G1 X205.278 Y42.934 E0.35270
G1 X204.743 Y42.934 E0.01686
G1 X213.200 Y51.392 E0.37654
G1 X213.200 Y51.927 E0.01686
G1 X204.207 Y42.934 E0.40038
G1 X203.672 Y42.934 E0.01686
G1 X213.200 Y52.463 E0.42421
G1 X213.200 Y52.998 E0.01686
G1 X203.136 Y42.934 E0.44805
M73 Q7 S51
M73 P7 R51
G1 X202.601 Y42.934 E0.01686
G1 X213.200 Y53.534 E0.47189
G1 X213.200 Y54.069 E0.01686
G1 X202.066 Y42.934 E0.49573
G1 X201.530 Y42.934 E0.01686
G1 X213.200 Y54.605 E0.51956
G1 X213.200 Y55.140 E0.01686
G1 X200.995 Y42.934 E0.54340
G1 X200.459 Y42.934 E0.01686
G1 X213.200 Y55.675 E0.56724
G1 X213.200 Y56.211 E0.01686
G1 X199.924 Y42.934 E0.59108
G1 X199.388 Y42.934 E0.01686
G1 X213.200 Y56.746 E0.61491
G1 X213.200 Y57.282 E0.01686
G1 X198.853 Y42.934 E0.63875
G1 X198.318 Y42.934 E0.01686
G1 X213.200 Y57.817 E0.66259
G1 X213.200 Y58.353 E0.01686
G1 X197.782 Y42.934 E0.68643
G1 X197.247 Y42.934 E0.01686
G1 X213.200 Y58.888 E0.71027
G1 X213.200 Y59.423 E0.01686
G1 X196.711 Y42.934 E0.73410
G1 X196.176 Y42.934 E0.01686
G1 X213.200 Y59.959 E0.75794
G1 X213.200 Y60.494 E0.01686
G1 X195.640 Y42.934 E0.78178
G1 X195.105 Y42.934 E0.01686
G1 X213.200 Y61.030 E0.80562
G1 X213.200 Y61.195 E0.00520
G1 X212.830 Y61.195 E0.01166
