; generated by Slic3r Prusa Edition 1.41.3+ on 2019-04-23 at 13:49:32

; 

; external perimeters extrusion width = 0.45mm
; perimeters extrusion width = 0.45mm
; infill extrusion width = 0.45mm
; solid infill extrusion width = 0.45mm
; top infill extrusion width = 0.40mm
; support material extrusion width = 0.35mm
; first layer extrusion width = 0.42mm

M73 P0 R35
M73 Q0 S36
M201 X1000 Y1000 Z1000 E5000 ; sets maximum accelerations, mm/sec^2
M203 X200 Y200 Z12 E120 ; sets maximum feedrates, mm/sec
M204 P1250 R1250 T1250 ; sets acceleration (P, T) and retract acceleration (R), mm/sec^2
M205 X8.00 Y8.00 Z0.40 E1.50 ; sets the jerk limits, mm/sec
M205 S0 T0 ; sets the minimum extruding and travel feed rate, mm/sec
M107
M115 U3.6.0 ; tell printer latest fw version
M83  ; extruder relative mode
M104 S220 ; set extruder temp
M140 S65 ; set bed temp
M190 S65 ; wait for bed temp
M109 S220 ; wait for extruder temp
G28 W ; home all without mesh bed level
G80 ; mesh bed leveling
G1 Y-3.0 F1000.0 ; go outside print area
G92 E0.0
G1 X60.0 E9.0  F1000.0 ; intro line
M73 Q0 S36
M73 P0 R35
G1 X100.0 E12.5  F1000.0 ; intro line
G92 E0.0
M221 S95
M900 K30; Filament gcode
G21 ; set units to millimeters
G90 ; use absolute coordinates
M83 ; use relative distances for extrusion
;BEFORE_LAYER_CHANGE
G92 E0.0
;0.2


G1 E-0.80000 F2100.00000
G1 Z0.600 F10800.000
;AFTER_LAYER_CHANGE
;0.2
G1 X83.950 Y87.988
G1 Z0.200
G1 E0.80000 F2100.00000
M204 S1000
G1 F1200
G1 X84.656 Y87.529 E0.02642
G1 X85.480 Y87.370 E0.02630
G1 X163.916 Y87.539 E2.45932
G1 X164.725 Y87.698 E0.02586
G1 X165.267 Y88.013 E0.01964
G1 X165.697 Y88.468 E0.01964
G1 X165.981 Y89.027 E0.01964
G1 X166.094 Y89.643 E0.01964
G1 X166.096 Y118.909 E0.91763
G1 X165.938 Y119.715 E0.02574
G1 X165.614 Y120.268 E0.02010
G1 X165.144 Y120.704 E0.02010
G1 X164.568 Y120.985 E0.02010
G1 X163.935 Y121.087 E0.02010
G1 X88.484 Y121.087 E2.36571
G1 X85.287 Y120.909 E0.10042
G1 X84.660 Y120.760 E0.02021
G1 X84.118 Y120.445 E0.01964
G1 X83.689 Y119.993 E0.01953
G1 X83.404 Y119.436 E0.01964
G1 X83.289 Y118.823 E0.01953
G1 X83.287 Y89.503 E0.91931
G1 X83.470 Y88.681 E0.02642
G1 X83.916 Y88.038 E0.02454
; PURGING FINISHED
G1 F8640
G1 X84.656 Y87.529 E-0.20746
G1 X85.480 Y87.370 E-0.19365
G1 X87.034 Y87.373 E-0.35889
G1 E-0.04000 F2100.00000
G1 Z0.800 F10800.000
G1 X85.475 Y89.558
G1 Z0.200
G1 E0.80000 F2100.00000
G1 F1200
G1 X85.475 Y118.729 E0.91462
G1 X86.229 Y118.729 E0.02365
G1 X86.229 Y89.728 E0.90929
G1 X86.983 Y89.728 E0.02365
G1 X86.983 Y118.729 E0.90929
G1 X87.738 Y118.729 E0.02365
G1 X87.738 Y89.728 E0.90929
G1 X88.492 Y89.728 E0.02365
G1 X88.492 Y118.898 E0.91462
G1 X93.771 Y118.898 F10800.000
G1 F1200
G1 X93.771 Y114.441 E0.13977
G1 X93.427 Y114.854 E0.01685
G1 X93.017 Y115.115 E0.01525
G1 X93.017 Y118.729 E0.11332
G1 X92.262 Y118.729 E0.02365
G1 X92.262 Y115.370 E0.10532
G1 X91.960 Y115.414 E0.00960
G1 X91.508 Y115.324 E0.01442
G1 X91.508 Y118.729 E0.10674
G1 X90.754 Y118.729 E0.02365
G1 X90.754 Y114.969 E0.11789
G1 X90.522 Y114.808 E0.00886
G1 X90.040 Y114.204 E0.02422
G1 X90.000 Y114.127 E0.00271
G1 X90.000 Y118.729 E0.14427
G1 X89.246 Y118.729 E0.02365
G1 X89.246 Y89.728 E0.90929
G1 X90.000 Y89.728 E0.02365
G1 X90.000 Y95.873 E0.19266
G1 X90.040 Y95.796 E0.00271
G1 X90.522 Y95.192 E0.02422
G1 X90.754 Y95.031 E0.00886
G1 X90.754 Y89.728 E0.16628
G1 X91.508 Y89.728 E0.02365
G1 X91.508 Y94.676 E0.15513
G1 X91.960 Y94.586 E0.01442
G1 X92.262 Y94.630 E0.00960
G1 X92.262 Y89.728 E0.15371
G1 X93.017 Y89.728 E0.02365
G1 X93.017 Y94.885 E0.16171
G1 X93.427 Y95.146 E0.01525
G1 X93.771 Y95.559 E0.01685
G1 X93.771 Y89.728 E0.18284
G1 X94.525 Y89.728 E0.02365
G1 X94.525 Y118.729 E0.90929
G1 X95.279 Y118.729 E0.02365
G1 X95.279 Y89.728 E0.90929
G1 X96.033 Y89.728 E0.02365
G1 X96.033 Y100.272 E0.33060
G1 X96.787 Y100.272 E0.02365
G1 X96.787 Y89.728 E0.33060
G1 X97.542 Y89.728 E0.02365
G1 X97.542 Y100.272 E0.33060
G1 X98.296 Y100.272 E0.02365
G1 X98.296 Y89.728 E0.33060
G1 X99.050 Y89.728 E0.02365
G1 X99.050 Y100.272 E0.33060
G1 X99.804 Y100.272 E0.02365
G1 X99.804 Y89.728 E0.33060
G1 X100.558 Y89.728 E0.02365
G1 X100.558 Y100.272 E0.33060
G1 X101.312 Y100.272 E0.02365
G1 X101.312 Y89.728 E0.33060
G1 X102.067 Y89.728 E0.02365
G1 X102.067 Y100.272 E0.33060
G1 X102.821 Y100.272 E0.02365
G1 X102.821 Y89.728 E0.33060
G1 X103.575 Y89.728 E0.02365
G1 X103.575 Y100.272 E0.33060
G1 X104.329 Y100.272 E0.02365
G1 X104.329 Y89.728 E0.33060
G1 X105.083 Y89.728 E0.02365
G1 X105.083 Y100.272 E0.33060
G1 X105.837 Y100.272 E0.02365
G1 X105.837 Y89.728 E0.33060
G1 X106.591 Y89.728 E0.02365
G1 X106.591 Y100.272 E0.33060
G1 X107.346 Y100.272 E0.02365
G1 X107.346 Y89.728 E0.33060
G1 X108.100 Y89.728 E0.02365
G1 X108.100 Y100.272 E0.33060
G1 X108.854 Y100.272 E0.02365
G1 X108.854 Y89.728 E0.33060
G1 X109.608 Y89.728 E0.02365
G1 X109.608 Y100.272 E0.33060
G1 X110.362 Y100.272 E0.02365
G1 X110.362 Y89.728 E0.33060
G1 X111.116 Y89.728 E0.02365
G1 X111.116 Y100.272 E0.33060
G1 X111.871 Y100.272 E0.02365
G1 X111.871 Y89.728 E0.33060
G1 X112.625 Y89.728 E0.02365
G1 X112.625 Y100.272 E0.33060
G1 X113.379 Y100.272 E0.02365
G1 X113.379 Y89.728 E0.33060
G1 X114.133 Y89.728 E0.02365
G1 X114.133 Y100.272 E0.33060
G1 X114.887 Y100.272 E0.02365
G1 X114.887 Y89.728 E0.33060
G1 X115.641 Y89.728 E0.02365
G1 X115.641 Y100.272 E0.33060
G1 X116.396 Y100.272 E0.02365
G1 X116.396 Y89.728 E0.33060
G1 X117.150 Y89.728 E0.02365
G1 X117.150 Y100.272 E0.33060
G1 X117.904 Y100.272 E0.02365
G1 X117.904 Y89.728 E0.33060
G1 X118.658 Y89.728 E0.02365
G1 X118.658 Y100.272 E0.33060
G1 X119.412 Y100.272 E0.02365
G1 X119.412 Y89.728 E0.33060
G1 X120.166 Y89.728 E0.02365
G1 X120.166 Y100.272 E0.33060
G1 X120.921 Y100.272 E0.02365
G1 X120.921 Y89.728 E0.33060
G1 X121.675 Y89.728 E0.02365
G1 X121.675 Y100.272 E0.33060
G1 X122.429 Y100.272 E0.02365
G1 X122.429 Y89.728 E0.33060
G1 X123.183 Y89.728 E0.02365
G1 X123.183 Y100.272 E0.33060
G1 X123.937 Y100.272 E0.02365
G1 X123.937 Y89.728 E0.33060
G1 X124.691 Y89.728 E0.02365
G1 X124.691 Y100.272 E0.33060
G1 X125.445 Y100.272 E0.02365
G1 X125.445 Y89.728 E0.33060
G1 X126.200 Y89.728 E0.02365
G1 X126.200 Y100.272 E0.33060
G1 X126.954 Y100.272 E0.02365
G1 X126.954 Y89.728 E0.33060
G1 X127.708 Y89.728 E0.02365
G1 X127.708 Y100.272 E0.33060
G1 X128.462 Y100.272 E0.02365
G1 X128.462 Y89.728 E0.33060
G1 X129.216 Y89.728 E0.02365
G1 X129.216 Y100.272 E0.33060
G1 X129.970 Y100.272 E0.02365
G1 X129.970 Y89.728 E0.33060
G1 X130.725 Y89.728 E0.02365
G1 X130.725 Y100.272 E0.33060
G1 X131.479 Y100.272 E0.02365
G1 X131.479 Y89.728 E0.33060
G1 X132.233 Y89.728 E0.02365
G1 X132.233 Y100.272 E0.33060
G1 X132.987 Y100.272 E0.02365
G1 X132.987 Y89.728 E0.33060
M73 Q2 S35
G1 X133.741 Y89.728 E0.02365
G1 X133.741 Y100.272 E0.33060
M73 P3 R34
G1 X134.495 Y100.272 E0.02365
G1 X134.495 Y89.728 E0.33060
G1 X135.250 Y89.728 E0.02365
G1 X135.250 Y100.272 E0.33060
G1 X136.004 Y100.272 E0.02365
G1 X136.004 Y89.728 E0.33060
G1 X136.758 Y89.728 E0.02365
G1 X136.758 Y100.272 E0.33060
G1 X137.512 Y100.272 E0.02365
G1 X137.512 Y89.728 E0.33060
G1 X138.266 Y89.728 E0.02365
G1 X138.266 Y100.272 E0.33060
G1 X139.020 Y100.272 E0.02365
G1 X139.020 Y89.728 E0.33060
G1 X139.774 Y89.728 E0.02365
G1 X139.774 Y100.272 E0.33060
G1 X140.529 Y100.272 E0.02365
G1 X140.529 Y89.728 E0.33060
G1 X141.283 Y89.728 E0.02365
G1 X141.283 Y100.272 E0.33060
G1 X142.037 Y100.272 E0.02365
G1 X142.037 Y89.728 E0.33060
G1 X142.791 Y89.728 E0.02365
G1 X142.791 Y100.272 E0.33060
G1 X143.545 Y100.272 E0.02365
G1 X143.545 Y89.728 E0.33060
G1 X144.299 Y89.728 E0.02365
G1 X144.299 Y100.272 E0.33060
G1 X145.054 Y100.272 E0.02365
G1 X145.054 Y89.728 E0.33060
G1 X145.808 Y89.728 E0.02365
G1 X145.808 Y100.272 E0.33060
G1 X146.562 Y100.272 E0.02365
G1 X146.562 Y89.728 E0.33060
G1 X147.316 Y89.728 E0.02365
G1 X147.316 Y100.272 E0.33060
G1 X148.070 Y100.272 E0.02365
G1 X148.070 Y89.728 E0.33060
G1 X148.824 Y89.728 E0.02365
G1 X148.824 Y100.272 E0.33060
G1 X149.579 Y100.272 E0.02365
G1 X149.579 Y89.728 E0.33060
G1 X150.333 Y89.728 E0.02365
G1 X150.333 Y100.272 E0.33060
G1 X151.087 Y100.272 E0.02365
G1 X151.087 Y89.728 E0.33060
G1 X151.841 Y89.728 E0.02365
G1 X151.841 Y100.272 E0.33060
G1 X152.595 Y100.272 E0.02365
G1 X152.595 Y89.728 E0.33060
G1 X153.349 Y89.728 E0.02365
G1 X153.349 Y100.442 E0.33592
G1 F8640
G1 X153.349 Y97.150 E-0.76000
G1 E-0.04000 F2100.00000
G1 Z0.800 F10800.000
G1 X156.366 Y110.660
G1 Z0.200
G1 E0.80000 F2100.00000
G1 F1200
G1 X156.366 Y99.612 E0.34640
G1 X156.573 Y99.854 E0.00998
G1 X157.120 Y100.202 E0.02033
G1 X157.120 Y109.798 E0.30090
G1 X157.264 Y109.724 E0.00508
G1 X157.874 Y109.603 E0.01950
G1 X157.874 Y100.397 E0.28867
G1 X158.040 Y100.414 E0.00524
G1 X158.628 Y100.297 E0.01879
G1 X158.628 Y109.703 E0.29489
G1 X158.807 Y109.752 E0.00583
G1 X159.383 Y110.118 E0.02137
G1 X159.383 Y99.882 E0.32096
G1 X159.478 Y99.808 E0.00378
G1 X159.960 Y99.204 E0.02422
G1 X160.137 Y98.792 E0.01405
G1 X160.137 Y111.661 E0.40349
G1 F8640
G1 X160.137 Y108.370 E-0.76000
G1 E-0.04000 F2100.00000
G1 Z0.800 F10800.000
G1 X160.137 Y118.898
G1 Z0.200
G1 E0.80000 F2100.00000
G1 F1200
G1 X160.137 Y113.792 E0.16010
G1 X159.960 Y114.204 E0.01405
G1 X159.478 Y114.808 E0.02422
G1 X159.383 Y114.882 E0.00378
G1 X159.383 Y118.729 E0.12062
G1 X158.628 Y118.729 E0.02365
G1 X158.628 Y115.297 E0.10758
G1 X158.040 Y115.414 E0.01879
G1 X157.874 Y115.397 E0.00524
G1 X157.874 Y118.729 E0.10447
G1 X157.120 Y118.729 E0.02365
G1 X157.120 Y115.202 E0.11059
G1 X156.573 Y114.854 E0.02033
G1 X156.366 Y114.612 E0.00998
G1 X156.366 Y118.729 E0.12907
G1 X155.612 Y118.729 E0.02365
G1 X155.612 Y89.728 E0.90929
G1 X156.366 Y89.728 E0.02365
G1 X156.366 Y95.388 E0.17747
G1 X156.573 Y95.146 E0.00998
G1 X157.120 Y94.798 E0.02033
G1 X157.120 Y89.728 E0.15898
G1 X157.874 Y89.728 E0.02365
G1 X157.874 Y94.603 E0.15286
G1 X158.040 Y94.586 E0.00524
G1 X158.628 Y94.703 E0.01879
G1 X158.628 Y89.728 E0.15597
G1 X159.383 Y89.728 E0.02365
G1 X159.383 Y95.118 E0.16901
G1 X159.478 Y95.192 E0.00378
G1 X159.960 Y95.796 E0.02422
G1 X160.137 Y96.208 E0.01405
G1 X160.137 Y89.728 E0.20317
G1 X160.891 Y89.728 E0.02365
G1 X160.891 Y118.729 E0.90929
G1 X161.645 Y118.729 E0.02365
G1 X161.645 Y89.728 E0.90929
G1 X162.399 Y89.728 E0.02365
G1 X162.399 Y118.729 E0.90929
G1 X163.153 Y118.729 E0.02365
G1 X163.153 Y89.728 E0.90929
G1 X163.908 Y89.728 E0.02365
G1 X163.908 Y118.898 E0.91462
G1 X154.858 Y118.898 F10800.000
G1 F1200
G1 X154.858 Y89.728 E0.91462
G1 X154.104 Y89.728 E0.02365
G1 X154.104 Y118.729 E0.90929
G1 X153.349 Y118.729 E0.02365
G1 X153.349 Y110.492 E0.25825
G1 X152.595 Y110.492 E0.02365
G1 X152.595 Y118.729 E0.25824
G1 X151.841 Y118.729 E0.02365
G1 X151.841 Y110.493 E0.25824
G1 X151.087 Y110.493 E0.02365
G1 X151.087 Y118.729 E0.25823
G1 X150.333 Y118.729 E0.02365
G1 X150.333 Y110.493 E0.25823
G1 X149.579 Y110.493 E0.02365
G1 X149.579 Y118.729 E0.25822
G1 X148.824 Y118.729 E0.02365
G1 X148.824 Y110.493 E0.25822
G1 X148.070 Y110.493 E0.02365
G1 X148.070 Y118.729 E0.25821
G1 X147.316 Y118.729 E0.02365
G1 X147.316 Y110.493 E0.25821
G1 X146.562 Y110.494 E0.02365
G1 X146.562 Y118.729 E0.25820
G1 X145.808 Y118.729 E0.02365
G1 X145.808 Y110.494 E0.25820
G1 X145.054 Y110.494 E0.02365
G1 X145.054 Y118.729 E0.25819
G1 X144.299 Y118.729 E0.02365
G1 X144.299 Y110.494 E0.25819
G1 X143.545 Y110.494 E0.02365
G1 X143.545 Y118.729 E0.25818
G1 X142.791 Y118.729 E0.02365
G1 X142.791 Y110.494 E0.25818
G1 X142.037 Y110.495 E0.02365
G1 X142.037 Y118.729 E0.25817
G1 X141.283 Y118.729 E0.02365
G1 X141.283 Y110.495 E0.25817
G1 X140.529 Y110.495 E0.02365
G1 X140.529 Y118.729 E0.25816
G1 X139.774 Y118.729 E0.02365
G1 X139.774 Y110.495 E0.25816
G1 X139.020 Y110.495 E0.02365
G1 X139.020 Y118.729 E0.25815
G1 X138.266 Y118.729 E0.02365
G1 X138.266 Y110.495 E0.25815
G1 X137.512 Y110.496 E0.02365
G1 X137.512 Y118.729 E0.25814
G1 X136.758 Y118.729 E0.02365
G1 X136.758 Y110.496 E0.25814
G1 X136.004 Y110.496 E0.02365
G1 X136.004 Y118.729 E0.25813
G1 X135.250 Y118.729 E0.02365
G1 X135.250 Y110.496 E0.25813
G1 X134.495 Y110.496 E0.02365
G1 X134.495 Y118.729 E0.25812
G1 X133.741 Y118.729 E0.02365
G1 X133.741 Y110.496 E0.25812
G1 X132.987 Y110.496 E0.02365
G1 X132.987 Y118.729 E0.25811
G1 X132.233 Y118.729 E0.02365
G1 X132.233 Y110.497 E0.25811
G1 X131.479 Y110.497 E0.02365
G1 X131.479 Y118.729 E0.25810
G1 X130.725 Y118.729 E0.02365
G1 X130.725 Y110.497 E0.25810
G1 X129.970 Y110.497 E0.02365
G1 X129.970 Y118.729 E0.25809
G1 X129.216 Y118.729 E0.02365
G1 X129.216 Y110.497 E0.25809
G1 X128.462 Y110.497 E0.02365
G1 X128.462 Y118.729 E0.25808
G1 X127.708 Y118.729 E0.02365
G1 X127.708 Y110.498 E0.25808
G1 X126.954 Y110.498 E0.02365
G1 X126.954 Y118.729 E0.25807
G1 X126.200 Y118.729 E0.02365
G1 X126.200 Y110.498 E0.25807
G1 X125.445 Y110.498 E0.02365
G1 X125.445 Y118.729 E0.25806
G1 X124.691 Y118.729 E0.02365
G1 X124.691 Y110.498 E0.25806
G1 X123.937 Y110.498 E0.02365
G1 X123.937 Y118.729 E0.25805
G1 X123.183 Y118.729 E0.02365
G1 X123.183 Y110.498 E0.25805
G1 X122.429 Y110.499 E0.02365
G1 X122.429 Y118.729 E0.25804
G1 X121.675 Y118.729 E0.02365
G1 X121.675 Y110.499 E0.25804
G1 X120.921 Y110.499 E0.02365
G1 X120.921 Y118.729 E0.25804
G1 X120.166 Y118.729 E0.02365
G1 X120.166 Y110.499 E0.25803
G1 X119.412 Y110.499 E0.02365
G1 X119.412 Y118.729 E0.25803
G1 X118.658 Y118.729 E0.02365
G1 X118.658 Y110.499 E0.25802
G1 X117.904 Y110.500 E0.02365
G1 X117.904 Y118.729 E0.25802
G1 X117.150 Y118.729 E0.02365
G1 X117.150 Y110.500 E0.25801
G1 X116.396 Y110.500 E0.02365
G1 X116.396 Y118.729 E0.25801
G1 X115.641 Y118.729 E0.02365
G1 X115.641 Y110.500 E0.25800
G1 X114.887 Y110.500 E0.02365
G1 X114.887 Y118.729 E0.25800
G1 X114.133 Y118.729 E0.02365
G1 X114.133 Y110.500 E0.25799
M73 Q5 S34
G1 X113.379 Y110.501 E0.02365
G1 X113.379 Y118.729 E0.25799
M73 P5 R33
G1 X112.625 Y118.729 E0.02365
G1 X112.625 Y110.501 E0.25798
G1 X111.871 Y110.501 E0.02365
G1 X111.871 Y118.729 E0.25798
G1 X111.116 Y118.729 E0.02365
G1 X111.116 Y110.501 E0.25797
G1 X110.362 Y110.501 E0.02365
G1 X110.362 Y118.729 E0.25797
G1 X109.608 Y118.729 E0.02365
G1 X109.608 Y110.501 E0.25796
G1 X108.854 Y110.501 E0.02365
G1 X108.854 Y118.729 E0.25796
G1 X108.100 Y118.729 E0.02365
G1 X108.100 Y110.502 E0.25795
G1 X107.346 Y110.502 E0.02365
G1 X107.346 Y118.729 E0.25795
G1 X106.591 Y118.729 E0.02365
G1 X106.591 Y110.502 E0.25794
G1 X105.837 Y110.502 E0.02365
G1 X105.837 Y118.729 E0.25794
G1 X105.083 Y118.729 E0.02365
G1 X105.083 Y110.502 E0.25793
G1 X104.329 Y110.502 E0.02365
G1 X104.329 Y118.729 E0.25793
G1 X103.575 Y118.729 E0.02365
G1 X103.575 Y110.503 E0.25792
G1 X102.821 Y110.503 E0.02365
G1 X102.821 Y118.729 E0.25792
G1 X102.067 Y118.729 E0.02365
G1 X102.067 Y110.503 E0.25791
G1 X101.312 Y110.503 E0.02365
G1 X101.312 Y118.729 E0.25791
G1 X100.558 Y118.729 E0.02365
G1 X100.558 Y110.503 E0.25790
G1 X99.804 Y110.503 E0.02365
G1 X99.804 Y118.729 E0.25790
G1 X99.050 Y118.729 E0.02365
G1 X99.050 Y110.504 E0.25789
G1 X98.296 Y110.504 E0.02365
G1 X98.296 Y118.729 E0.25789
G1 X97.542 Y118.729 E0.02365
G1 X97.542 Y110.504 E0.25788
G1 X96.787 Y110.504 E0.02365
G1 X96.787 Y118.729 E0.25788
G1 X96.033 Y118.729 E0.02365
G1 X96.033 Y110.334 E0.26319
G1 X93.771 Y110.832 F10800.000
G1 F1200
G1 X93.771 Y99.441 E0.35715
G1 X93.427 Y99.854 E0.01685
G1 X93.017 Y100.115 E0.01525
G1 X93.017 Y109.885 E0.30636
G1 X92.736 Y109.724 E0.01016
G1 X92.262 Y109.630 E0.01513
G1 X92.262 Y100.370 E0.29036
G1 X91.960 Y100.414 E0.00960
G1 X91.508 Y100.324 E0.01442
G1 X91.508 Y109.676 E0.29320
G1 X91.193 Y109.752 E0.01019
G1 X90.754 Y110.031 E0.01629
G1 X90.754 Y99.969 E0.31551
G1 X90.522 Y99.808 E0.00886
G1 X90.040 Y99.204 E0.02422
G1 X90.000 Y99.127 E0.00271
G1 X90.000 Y111.322 E0.38234
G1 F8640
G1 X90.000 Y108.030 E-0.76000
G1 E-0.04000 F2100.00000
G1 Z0.800 F10800.000
G1 X156.592 Y112.500
G1 Z0.200
G1 E0.80000 F2100.00000
G1 F1200
G1 X156.671 Y111.877 E0.01968
G1 X156.894 Y111.331 E0.01850
G1 X157.222 Y110.920 E0.01650
G1 X157.603 Y110.677 E0.01415
G1 X158.007 Y110.600 E0.01292
G1 X158.396 Y110.677 E0.01243
G1 X158.778 Y110.920 E0.01420
