; generated by Slic3r Prusa Edition 1.41.3+ on 2019-04-03 at 11:32:00

; 

; external perimeters extrusion width = 0.45mm
; perimeters extrusion width = 0.45mm
; infill extrusion width = 0.45mm
; solid infill extrusion width = 0.45mm
; top infill extrusion width = 0.40mm
; first layer extrusion width = 0.42mm

M73 P0 R87
M73 Q0 S88
M201 X1000 Y1000 Z1000 E5000 ; sets maximum accelerations, mm/sec^2
M203 X200 Y200 Z12 E120 ; sets maximum feedrates, mm/sec
M204 P1250 R1250 T1250 ; sets acceleration (P, T) and retract acceleration (R), mm/sec^2
M205 X8.00 Y8.00 Z0.40 E1.50 ; sets the jerk limits, mm/sec
M205 S0 T0 ; sets the minimum extruding and travel feed rate, mm/sec
M107
M115 U3.6.0 ; tell printer latest fw version
M83  ; extruder relative mode
M104 S220 ; set extruder temp
M140 S65 ; set bed temp
M190 S65 ; wait for bed temp
M109 S220 ; wait for extruder temp
G28 W ; home all without mesh bed level
G80 ; mesh bed leveling
G1 Y-3.0 F1000.0 ; go outside print area
G92 E0.0
G1 X60.0 E9.0  F1000.0 ; intro line
M73 Q0 S88
M73 P0 R87
G1 X100.0 E12.5  F1000.0 ; intro line
G92 E0.0
M221 S95
M900 K30; Filament gcode
G21 ; set units to millimeters
G90 ; use absolute coordinates
M83 ; use relative distances for extrusion
;BEFORE_LAYER_CHANGE
G92 E0.0
;0.2


G1 E-0.80000 F2100.00000
G1 Z0.600 F10800.000
;AFTER_LAYER_CHANGE
;0.2
G1 X29.816 Y95.218
G1 Z0.200
G1 E0.80000 F2100.00000
M204 S1000
G1 F1200
G1 X30.488 Y95.108 E0.02134
G1 X100.505 Y95.108 E2.19534
G1 X174.099 Y95.244 E2.30750
G1 X174.740 Y95.344 E0.02032
G1 X175.322 Y95.628 E0.02032
G1 X175.712 Y95.969 E0.01623
G1 X176.010 Y96.392 E0.01623
G1 X176.200 Y96.874 E0.01623
G1 X176.272 Y97.387 E0.01623
G1 X176.811 Y126.014 E0.89776
G1 X176.811 Y146.063 E0.62861
G1 X176.707 Y146.688 E0.01987
G1 X176.427 Y147.261 E0.01998
G1 X176.083 Y147.652 E0.01635
G1 X175.656 Y147.952 E0.01635
G1 X175.171 Y148.141 E0.01635
G1 X174.650 Y148.211 E0.01646
G1 X104.622 Y148.211 E2.19567
G1 X30.925 Y148.118 E2.31071
G1 X30.426 Y148.054 E0.01578
G1 X29.952 Y147.875 E0.01589
G1 X29.531 Y147.593 E0.01589
G1 X29.187 Y147.221 E0.01589
G1 X28.880 Y146.629 E0.02089
G1 X28.766 Y145.969 E0.02100
G1 X28.312 Y117.316 E0.89850
G1 X28.312 Y97.296 E0.62771
G1 X28.372 Y96.789 E0.01601
G1 X28.549 Y96.307 E0.01612
G1 X28.834 Y95.879 E0.01612
G1 X29.210 Y95.529 E0.01612
G1 X29.763 Y95.245 E0.01946
; PURGING FINISHED
G1 F8640
G1 X30.488 Y95.108 E-0.17041
G1 X33.041 Y95.108 E-0.58959
G1 E-0.04000 F2100.00000
G1 Z0.800 F10800.000
G1 X104.671 Y98.019
G1 Z0.200
G1 E0.80000 F2100.00000
G1 F1200
G1 X173.497 Y98.019 E2.15799
G1 X173.497 Y116.845 E0.59027
G1 X104.671 Y116.845 E2.15799
G1 X104.671 Y98.079 E0.58839
G1 X104.294 Y97.642 F10800.000
G1 F1200
G1 X173.874 Y97.642 E2.18163
G1 X173.874 Y117.222 E0.61392
G1 X104.294 Y117.222 E2.18163
G1 X104.294 Y97.702 E0.61204
G1 X104.693 Y97.679 F10800.000
G1 F8640
G1 X107.586 Y97.699 E-0.76000
G1 E-0.04000 F2100.00000
G1 Z0.800 F10800.000
G1 X104.784 Y115.967
G1 Z0.200
G1 E0.80000 F2100.00000
G1 F1200
G1 X105.380 Y116.562 E0.02652
G1 X105.916 Y116.562 E0.01686
G1 X104.954 Y115.601 E0.04281
G1 X104.954 Y115.065 E0.01686
G1 X106.451 Y116.562 E0.06665
G1 X106.987 Y116.562 E0.01686
G1 X104.954 Y114.530 E0.09048
G1 X104.954 Y113.995 E0.01686
G1 X107.522 Y116.562 E0.11432
G1 X108.057 Y116.562 E0.01686
G1 X104.954 Y113.459 E0.13816
G1 X104.954 Y112.924 E0.01686
G1 X108.593 Y116.562 E0.16200
G1 X109.128 Y116.562 E0.01686
G1 X104.954 Y112.388 E0.18583
G1 X104.954 Y111.853 E0.01686
G1 X109.664 Y116.562 E0.20967
G1 X110.199 Y116.562 E0.01686
G1 X104.954 Y111.317 E0.23351
G1 X104.954 Y110.782 E0.01686
G1 X110.734 Y116.562 E0.25735
G1 X111.270 Y116.562 E0.01686
G1 X104.954 Y110.247 E0.28119
G1 X104.954 Y109.711 E0.01686
G1 X111.805 Y116.562 E0.30502
G1 X112.341 Y116.562 E0.01686
G1 X104.954 Y109.176 E0.32886
G1 X104.954 Y108.640 E0.01686
G1 X112.876 Y116.562 E0.35270
G1 X113.412 Y116.562 E0.01686
G1 X104.954 Y108.105 E0.37654
G1 X104.954 Y107.569 E0.01686
G1 X113.947 Y116.562 E0.40037
G1 X114.482 Y116.562 E0.01686
G1 X104.954 Y107.034 E0.42421
G1 X104.954 Y106.499 E0.01686
G1 X115.018 Y116.562 E0.44805
G1 X115.553 Y116.562 E0.01686
G1 X104.954 Y105.963 E0.47189
G1 X104.954 Y105.428 E0.01686
G1 X116.089 Y116.562 E0.49572
G1 X116.624 Y116.562 E0.01686
G1 X104.954 Y104.892 E0.51956
G1 X104.954 Y104.357 E0.01686
G1 X117.160 Y116.562 E0.54340
G1 X117.695 Y116.562 E0.01686
G1 X104.954 Y103.822 E0.56724
G1 X104.954 Y103.286 E0.01686
G1 X118.230 Y116.562 E0.59108
G1 X118.766 Y116.562 E0.01686
G1 X104.954 Y102.751 E0.61491
G1 X104.954 Y102.215 E0.01686
G1 X119.301 Y116.562 E0.63875
G1 X119.837 Y116.562 E0.01686
G1 X104.954 Y101.680 E0.66259
G1 X104.954 Y101.144 E0.01686
G1 X120.372 Y116.562 E0.68643
M73 Q1 S87
G1 X120.908 Y116.562 E0.01686
G1 X104.954 Y100.609 E0.71026
M73 P1 R86
G1 X104.954 Y100.074 E0.01686
G1 X121.443 Y116.562 E0.73410
G1 X121.978 Y116.562 E0.01686
G1 X104.954 Y99.538 E0.75794
G1 X104.954 Y99.003 E0.01686
G1 X122.514 Y116.562 E0.78178
G1 X123.049 Y116.562 E0.01686
G1 X104.954 Y98.467 E0.80561
G1 X104.954 Y98.302 E0.00520
G1 X105.324 Y98.302 E0.01166
G1 X123.585 Y116.562 E0.81296
G1 X124.120 Y116.562 E0.01686
G1 X105.860 Y98.302 E0.81296
G1 X106.395 Y98.302 E0.01686
G1 X124.656 Y116.562 E0.81296
G1 X125.191 Y116.562 E0.01686
G1 X106.931 Y98.302 E0.81296
G1 X107.466 Y98.302 E0.01686
G1 X125.726 Y116.562 E0.81296
G1 X126.262 Y116.562 E0.01686
G1 X108.002 Y98.302 E0.81296
G1 X108.537 Y98.302 E0.01686
G1 X126.797 Y116.562 E0.81296
G1 X127.333 Y116.562 E0.01686
G1 X109.072 Y98.302 E0.81296
G1 X109.608 Y98.302 E0.01686
G1 X127.868 Y116.562 E0.81296
G1 X128.404 Y116.562 E0.01686
G1 X110.143 Y98.302 E0.81296
G1 X110.679 Y98.302 E0.01686
G1 X128.939 Y116.562 E0.81296
G1 X129.474 Y116.562 E0.01686
G1 X111.214 Y98.302 E0.81296
G1 X111.750 Y98.302 E0.01686
G1 X130.010 Y116.562 E0.81296
G1 X130.545 Y116.562 E0.01686
G1 X112.285 Y98.302 E0.81296
G1 X112.820 Y98.302 E0.01686
G1 X131.081 Y116.562 E0.81296
G1 X131.616 Y116.562 E0.01686
G1 X113.356 Y98.302 E0.81296
G1 X113.891 Y98.302 E0.01686
G1 X132.152 Y116.562 E0.81296
G1 X132.687 Y116.562 E0.01686
G1 X114.427 Y98.302 E0.81296
G1 X114.962 Y98.302 E0.01686
G1 X133.222 Y116.562 E0.81296
G1 X133.758 Y116.562 E0.01686
G1 X115.498 Y98.302 E0.81296
G1 X116.033 Y98.302 E0.01686
G1 X134.293 Y116.562 E0.81296
G1 X134.829 Y116.562 E0.01686
G1 X116.568 Y98.302 E0.81296
G1 X117.104 Y98.302 E0.01686
G1 X135.364 Y116.562 E0.81296
G1 X135.900 Y116.562 E0.01686
G1 X117.639 Y98.302 E0.81296
G1 X118.175 Y98.302 E0.01686
G1 X136.435 Y116.562 E0.81296
G1 X136.970 Y116.562 E0.01686
G1 X118.710 Y98.302 E0.81296
G1 X119.246 Y98.302 E0.01686
G1 X137.506 Y116.562 E0.81296
G1 X138.041 Y116.562 E0.01686
G1 X119.781 Y98.302 E0.81296
G1 X120.316 Y98.302 E0.01686
G1 X138.577 Y116.562 E0.81296
G1 X139.112 Y116.562 E0.01686
G1 X120.852 Y98.302 E0.81296
G1 X121.387 Y98.302 E0.01686
G1 X139.648 Y116.562 E0.81296
G1 X140.183 Y116.562 E0.01686
G1 X121.923 Y98.302 E0.81296
G1 X122.458 Y98.302 E0.01686
G1 X140.718 Y116.562 E0.81296
G1 X141.254 Y116.562 E0.01686
G1 X122.994 Y98.302 E0.81296
G1 X123.529 Y98.302 E0.01686
G1 X141.789 Y116.562 E0.81296
G1 X142.325 Y116.562 E0.01686
G1 X124.064 Y98.302 E0.81296
G1 X124.600 Y98.302 E0.01686
G1 X142.860 Y116.562 E0.81296
G1 X143.396 Y116.562 E0.01686
G1 X125.135 Y98.302 E0.81296
G1 X125.671 Y98.302 E0.01686
G1 X143.931 Y116.562 E0.81296
G1 X144.466 Y116.562 E0.01686
G1 X126.206 Y98.302 E0.81296
G1 X126.742 Y98.302 E0.01686
G1 X145.002 Y116.562 E0.81296
M73 Q2 S86
G1 X145.537 Y116.562 E0.01686
G1 X127.277 Y98.302 E0.81296
M73 P2 R85
G1 X127.812 Y98.302 E0.01686
G1 X146.073 Y116.562 E0.81296
G1 X146.608 Y116.562 E0.01686
G1 X128.348 Y98.302 E0.81296
G1 X128.883 Y98.302 E0.01686
G1 X147.144 Y116.562 E0.81296
G1 X147.679 Y116.562 E0.01686
G1 X129.419 Y98.302 E0.81296
G1 X129.954 Y98.302 E0.01686
G1 X148.214 Y116.562 E0.81296
G1 X148.750 Y116.562 E0.01686
G1 X130.490 Y98.302 E0.81296
G1 X131.025 Y98.302 E0.01686
G1 X149.285 Y116.562 E0.81296
G1 X149.821 Y116.562 E0.01686
G1 X131.560 Y98.302 E0.81296
G1 X132.096 Y98.302 E0.01686
G1 X150.356 Y116.562 E0.81296
G1 X150.892 Y116.562 E0.01686
G1 X132.631 Y98.302 E0.81296
G1 X133.167 Y98.302 E0.01686
G1 X151.427 Y116.562 E0.81296
G1 X151.962 Y116.562 E0.01686
G1 X133.702 Y98.302 E0.81296
G1 X134.238 Y98.302 E0.01686
G1 X152.498 Y116.562 E0.81296
G1 X153.033 Y116.562 E0.01686
G1 X134.773 Y98.302 E0.81296
G1 X135.308 Y98.302 E0.01686
G1 X153.569 Y116.562 E0.81296
G1 X154.104 Y116.562 E0.01686
G1 X135.844 Y98.302 E0.81296
G1 X136.379 Y98.302 E0.01686
G1 X154.640 Y116.562 E0.81296
G1 X155.175 Y116.562 E0.01686
G1 X136.915 Y98.302 E0.81296
G1 X137.450 Y98.302 E0.01686
G1 X155.710 Y116.562 E0.81296
G1 X156.246 Y116.562 E0.01686
G1 X137.986 Y98.302 E0.81296
G1 X138.521 Y98.302 E0.01686
G1 X156.781 Y116.562 E0.81296
G1 X157.317 Y116.562 E0.01686
G1 X139.056 Y98.302 E0.81296
G1 X139.592 Y98.302 E0.01686
G1 X157.852 Y116.562 E0.81296
G1 X158.387 Y116.562 E0.01686
G1 X140.127 Y98.302 E0.81296
G1 X140.663 Y98.302 E0.01686
G1 X158.923 Y116.562 E0.81296
G1 X159.458 Y116.562 E0.01686
G1 X141.198 Y98.302 E0.81296
G1 X141.734 Y98.302 E0.01686
G1 X159.994 Y116.562 E0.81296
G1 X160.529 Y116.562 E0.01686
G1 X142.269 Y98.302 E0.81296
G1 X142.804 Y98.302 E0.01686
G1 X161.065 Y116.562 E0.81296
G1 X161.600 Y116.562 E0.01686
G1 X143.340 Y98.302 E0.81296
G1 X143.875 Y98.302 E0.01686
G1 X162.135 Y116.562 E0.81296
G1 X162.671 Y116.562 E0.01686
G1 X144.411 Y98.302 E0.81296
G1 X144.946 Y98.302 E0.01686
G1 X163.206 Y116.562 E0.81296
G1 X163.742 Y116.562 E0.01686
G1 X145.481 Y98.302 E0.81296
G1 X146.017 Y98.302 E0.01686
G1 X164.277 Y116.562 E0.81296
G1 X164.813 Y116.562 E0.01686
G1 X146.552 Y98.302 E0.81296
G1 X147.088 Y98.302 E0.01686
G1 X165.348 Y116.562 E0.81296
G1 X165.883 Y116.562 E0.01686
G1 X147.623 Y98.302 E0.81296
G1 X148.159 Y98.302 E0.01686
G1 X166.419 Y116.562 E0.81296
G1 X166.954 Y116.562 E0.01686
G1 X148.694 Y98.302 E0.81296
G1 X149.229 Y98.302 E0.01686
G1 X167.490 Y116.562 E0.81296
G1 X168.025 Y116.562 E0.01686
G1 X149.765 Y98.302 E0.81296
G1 X150.300 Y98.302 E0.01686
G1 X168.561 Y116.562 E0.81296
G1 X169.096 Y116.562 E0.01686
G1 X150.836 Y98.302 E0.81296
G1 X151.371 Y98.302 E0.01686
G1 X169.631 Y116.562 E0.81296
M73 Q3 S85
G1 X170.167 Y116.562 E0.01686
G1 X151.907 Y98.302 E0.81296
M73 P3 R84
G1 X152.442 Y98.302 E0.01686
G1 X170.702 Y116.562 E0.81296
G1 X171.238 Y116.562 E0.01686
G1 X152.977 Y98.302 E0.81296
G1 X153.513 Y98.302 E0.01686
G1 X171.773 Y116.562 E0.81296
G1 X172.309 Y116.562 E0.01686
G1 X154.048 Y98.302 E0.81296
G1 X154.584 Y98.302 E0.01686
G1 X172.844 Y116.562 E0.81296
G1 X173.214 Y116.562 E0.01166
G1 X173.214 Y116.397 E0.00520
G1 X155.119 Y98.302 E0.80562
G1 X155.655 Y98.302 E0.01686
G1 X173.214 Y115.862 E0.78178
G1 X173.214 Y115.327 E0.01686
G1 X156.190 Y98.302 E0.75794
G1 X156.725 Y98.302 E0.01686
G1 X173.214 Y114.791 E0.73410
G1 X173.214 Y114.256 E0.01686
G1 X157.261 Y98.302 E0.71027
G1 X157.796 Y98.302 E0.01686
G1 X173.214 Y113.720 E0.68643
G1 X173.214 Y113.185 E0.01686
G1 X158.332 Y98.302 E0.66259
G1 X158.867 Y98.302 E0.01686
G1 X173.214 Y112.649 E0.63875
G1 X173.214 Y112.114 E0.01686
G1 X159.403 Y98.302 E0.61491
G1 X159.938 Y98.302 E0.01686
G1 X173.214 Y111.579 E0.59108
G1 X173.214 Y111.043 E0.01686
G1 X160.473 Y98.302 E0.56724
G1 X161.009 Y98.302 E0.01686
G1 X173.214 Y110.508 E0.54340
G1 X173.214 Y109.972 E0.01686
G1 X161.544 Y98.302 E0.51956
G1 X162.080 Y98.302 E0.01686
G1 X173.214 Y109.437 E0.49573
G1 X173.214 Y108.901 E0.01686
G1 X162.615 Y98.302 E0.47189
G1 X163.151 Y98.302 E0.01686
G1 X173.214 Y108.366 E0.44805
G1 X173.214 Y107.831 E0.01686
G1 X163.686 Y98.302 E0.42421
G1 X164.221 Y98.302 E0.01686
G1 X173.214 Y107.295 E0.40038
G1 X173.214 Y106.760 E0.01686
G1 X164.757 Y98.302 E0.37654
G1 X165.292 Y98.302 E0.01686
G1 X173.214 Y106.224 E0.35270
G1 X173.214 Y105.689 E0.01686
G1 X165.828 Y98.302 E0.32886
G1 X166.363 Y98.302 E0.01686
G1 X173.214 Y105.153 E0.30502
G1 X173.214 Y104.618 E0.01686
G1 X166.899 Y98.302 E0.28119
G1 X167.434 Y98.302 E0.01686
G1 X173.214 Y104.083 E0.25735
G1 X173.214 Y103.547 E0.01686
G1 X167.969 Y98.302 E0.23351
G1 X168.505 Y98.302 E0.01686
G1 X173.214 Y103.012 E0.20967
G1 X173.214 Y102.476 E0.01686
G1 X169.040 Y98.302 E0.18584
G1 X169.576 Y98.302 E0.01686
G1 X173.214 Y101.941 E0.16200
G1 X173.214 Y101.405 E0.01686
G1 X170.111 Y98.302 E0.13816
G1 X170.647 Y98.302 E0.01686
G1 X173.214 Y100.870 E0.11432
G1 X173.214 Y100.335 E0.01686
G1 X171.182 Y98.302 E0.09048
G1 X171.717 Y98.302 E0.01686
G1 X173.214 Y99.799 E0.06665
G1 X173.214 Y99.264 E0.01686
G1 X172.253 Y98.302 E0.04281
G1 X172.788 Y98.302 E0.01686
G1 X173.384 Y98.898 E0.02653
G1 F8640
G1 X172.788 Y98.302 E-0.19456
G1 X172.253 Y98.302 E-0.12363
G1 X173.214 Y99.264 E-0.31399
G1 X173.214 Y99.799 E-0.12363
G1 X173.202 Y99.786 E-0.00418
G1 E-0.04000 F2100.00000
G1 Z0.800 F10800.000
G1 X100.367 Y126.517
G1 Z0.200
G1 E0.80000 F2100.00000
G1 F1200
G1 X100.367 Y145.343 E0.59027
G1 X31.541 Y145.343 E2.15799
G1 X31.541 Y126.517 E0.59027
G1 X100.307 Y126.517 E2.15610
G1 X100.744 Y126.140 F10800.000
G1 F1200
G1 X100.744 Y145.720 E0.61392
G1 X31.164 Y145.720 E2.18163
G1 X31.164 Y126.140 E0.61392
G1 X100.684 Y126.140 E2.17975
G1 X100.576 Y126.503 F10800.000
G1 F8640
G1 X100.694 Y129.431 E-0.76000
G1 E-0.04000 F2100.00000
G1 Z0.800 F10800.000
G1 X100.254 Y127.395
G1 Z0.200
G1 E0.80000 F2100.00000
G1 F1200
G1 X99.658 Y126.800 E0.02653
G1 X99.122 Y126.800 E0.01686
G1 X100.084 Y127.761 E0.04281
G1 X100.084 Y128.297 E0.01686
G1 X98.587 Y126.800 E0.06665
G1 X98.052 Y126.800 E0.01686
G1 X100.084 Y128.832 E0.09048
G1 X100.084 Y129.367 E0.01686
G1 X97.516 Y126.800 E0.11432
G1 X96.981 Y126.800 E0.01686
G1 X100.084 Y129.903 E0.13816
G1 X100.084 Y130.438 E0.01686
G1 X96.445 Y126.800 E0.16200
G1 X95.910 Y126.800 E0.01686
G1 X100.084 Y130.974 E0.18584
G1 X100.084 Y131.509 E0.01686
G1 X95.374 Y126.800 E0.20967
G1 X94.839 Y126.800 E0.01686
G1 X100.084 Y132.045 E0.23351
G1 X100.084 Y132.580 E0.01686
G1 X94.304 Y126.800 E0.25735
G1 X93.768 Y126.800 E0.01686
G1 X100.084 Y133.115 E0.28119
G1 X100.084 Y133.651 E0.01686
G1 X93.233 Y126.800 E0.30502
G1 X92.697 Y126.800 E0.01686
G1 X100.084 Y134.186 E0.32886
G1 X100.084 Y134.722 E0.01686
G1 X92.162 Y126.800 E0.35270
G1 X91.626 Y126.800 E0.01686
G1 X100.084 Y135.257 E0.37654
G1 X100.084 Y135.793 E0.01686
G1 X91.091 Y126.800 E0.40038
G1 X90.556 Y126.800 E0.01686
G1 X100.084 Y136.328 E0.42421
G1 X100.084 Y136.863 E0.01686
G1 X90.020 Y126.800 E0.44805
G1 X89.485 Y126.800 E0.01686
G1 X100.084 Y137.399 E0.47189
G1 X100.084 Y137.934 E0.01686
G1 X88.949 Y126.800 E0.49573
M73 Q4 S84
G1 X88.414 Y126.800 E0.01686
G1 X100.084 Y138.470 E0.51956
G1 X100.084 Y139.005 E0.01686
G1 X87.878 Y126.800 E0.54340
M73 P4 R83
G1 X87.343 Y126.800 E0.01686
G1 X100.084 Y139.541 E0.56724
G1 X100.084 Y140.076 E0.01686
G1 X86.808 Y126.800 E0.59108
G1 X86.272 Y126.800 E0.01686
G1 X100.084 Y140.611 E0.61491
G1 X100.084 Y141.147 E0.01686
G1 X85.737 Y126.800 E0.63875
G1 X85.201 Y126.800 E0.01686
G1 X100.084 Y141.682 E0.66259
G1 X100.084 Y142.218 E0.01686
G1 X84.666 Y126.800 E0.68643
G1 X84.130 Y126.800 E0.01686
G1 X100.084 Y142.753 E0.71027
G1 X100.084 Y143.289 E0.01686
G1 X83.595 Y126.800 E0.73410
G1 X83.060 Y126.800 E0.01686
G1 X100.084 Y143.824 E0.75794
G1 X100.084 Y144.359 E0.01686
G1 X82.524 Y126.800 E0.78178
G1 X81.989 Y126.800 E0.01686
G1 X100.084 Y144.895 E0.80562
G1 X100.084 Y145.060 E0.00520
G1 X99.714 Y145.060 E0.01166
G1 X81.453 Y126.800 E0.81296
G1 X80.918 Y126.800 E0.01686
G1 X99.178 Y145.060 E0.81296
G1 X98.643 Y145.060 E0.01686
G1 X80.382 Y126.800 E0.81296
G1 X79.847 Y126.800 E0.01686
G1 X98.107 Y145.060 E0.81296
G1 X97.572 Y145.060 E0.01686
G1 X79.312 Y126.800 E0.81296
G1 X78.776 Y126.800 E0.01686
G1 X97.036 Y145.060 E0.81296
G1 X96.501 Y145.060 E0.01686
G1 X78.241 Y126.800 E0.81296
G1 X77.705 Y126.800 E0.01686
G1 X95.966 Y145.060 E0.81296
G1 X95.430 Y145.060 E0.01686
G1 X77.170 Y126.800 E0.81296
G1 X76.634 Y126.800 E0.01686
G1 X94.895 Y145.060 E0.81296
G1 X94.359 Y145.060 E0.01686
