; generated by Slic3r Prusa Edition 1.41.3+ on 2019-08-21 at 16:04:32

; 

; external perimeters extrusion width = 0.60mm
; perimeters extrusion width = 0.50mm
; infill extrusion width = 0.50mm
; solid infill extrusion width = 0.50mm
; top infill extrusion width = 0.45mm
; first layer extrusion width = 0.42mm

M73 P0 R35
M73 Q0 S35
M201 X1000 Y1000 Z1000 E5000 ; sets maximum accelerations, mm/sec^2
M203 X200 Y200 Z12 E120 ; sets maximum feedrates, mm/sec
M204 P1250 R1250 T1250 ; sets acceleration (P, T) and retract acceleration (R), mm/sec^2
M205 X8.00 Y8.00 Z0.40 E1.50 ; sets the jerk limits, mm/sec
M205 S0 T0 ; sets the minimum extruding and travel feed rate, mm/sec
M107
M115 U3.7.2 ; tell printer latest fw version
M83  ; extruder relative mode
M104 S220 ; set extruder temp
M140 S65 ; set bed temp
M190 S65 ; wait for bed temp
M109 S220 ; wait for extruder temp
G28 W ; home all without mesh bed level
G80 ; mesh bed leveling
G1 Y-3.0 F1000.0 ; go outside print area
G92 E0.0
G1 X60.0 E9.0  F1000.0 ; intro line
M73 Q0 S35
M73 P0 R35
G1 X100.0 E12.5  F1000.0 ; intro line
G92 E0.0
M221 S95
M900 K30; Filament gcode
G21 ; set units to millimeters
G90 ; use absolute coordinates
M83 ; use relative distances for extrusion
;BEFORE_LAYER_CHANGE
G92 E0.0
;0.2


G1 E-0.80000 F2100.00000
G1 Z0.600 F10800.000
;AFTER_LAYER_CHANGE
;0.2
G1 X88.735 Y68.147
G1 Z0.200
G1 E0.80000 F2100.00000
M204 S1000
G1 F1200
G1 X89.372 Y68.048 E0.02021
G1 X159.389 Y68.048 E2.19533
G1 X160.205 Y68.207 E0.02608
G1 X160.903 Y68.660 E0.02608
G1 X161.382 Y69.340 E0.02608
G1 X161.572 Y70.154 E0.02620
G1 X162.188 Y94.971 E0.77837
G1 X162.188 Y115.015 E0.62845
G1 X162.121 Y115.539 E0.01658
G1 X161.930 Y116.032 E0.01658
G1 X161.626 Y116.465 E0.01658
G1 X161.228 Y116.812 E0.01658
G1 X160.650 Y117.090 E0.02010
G1 X160.013 Y117.188 E0.02021
G1 X89.982 Y117.188 E2.19579
G1 X89.461 Y117.121 E0.01646
G1 X88.968 Y116.930 E0.01658
G1 X88.535 Y116.626 E0.01658
G1 X88.188 Y116.228 E0.01658
G1 X87.920 Y115.681 E0.01908
G1 X87.813 Y115.083 E0.01908
G1 X87.197 Y90.240 E0.77918
G1 X87.199 Y70.141 E0.63016
G1 X87.280 Y69.637 E0.01601
G1 X87.474 Y69.169 E0.01589
G1 X87.774 Y68.756 E0.01601
G1 X88.157 Y68.425 E0.01589
G1 X88.681 Y68.173 E0.01821
; PURGING FINISHED
G1 F8640
G1 X89.372 Y68.048 E-0.16214
G1 X91.961 Y68.048 E-0.59786
G1 E-0.04000 F2100.00000
G1 Z0.800 F10800.000
G1 X93.315 Y95.894
G1 Z0.200
G1 E0.80000 F2100.00000
G1 F1200
G1 X93.978 Y95.788 E0.02106
G1 X94.684 Y95.893 E0.02237
G1 X95.302 Y96.208 E0.02175
G1 X95.792 Y96.698 E0.02173
G1 X96.106 Y97.315 E0.02171
G1 X96.216 Y98.000 E0.02174
G1 X96.106 Y98.685 E0.02174
G1 X95.792 Y99.302 E0.02171
G1 X95.302 Y99.792 E0.02173
G1 X94.685 Y100.106 E0.02171
G1 X94.000 Y100.216 E0.02174
G1 X93.314 Y100.106 E0.02178
G1 X92.683 Y99.777 E0.02234
G1 X92.208 Y99.302 E0.02104
G1 X91.894 Y98.685 E0.02171
G1 X91.784 Y98.000 E0.02174
G1 X91.894 Y97.315 E0.02174
G1 X92.208 Y96.698 E0.02171
G1 X92.698 Y96.208 E0.02173
G1 X93.262 Y95.921 E0.01983
G1 X93.398 Y95.503 F10800.000
G1 X93.087 Y95.587
G1 F1200
G1 X92.474 Y95.899 E0.02156
G1 X91.899 Y96.474 E0.02548
G1 X91.531 Y97.197 E0.02545
G1 X91.402 Y98.000 E0.02550
G1 X91.531 Y98.803 E0.02550
G1 X91.899 Y99.526 E0.02545
G1 X92.457 Y100.084 E0.02473
G1 X93.194 Y100.469 E0.02607
G1 X94.000 Y100.598 E0.02559
G1 X94.803 Y100.469 E0.02550
G1 X95.526 Y100.101 E0.02545
G1 X96.101 Y99.526 E0.02548
G1 X96.469 Y98.803 E0.02545
G1 X96.598 Y98.000 E0.02550
G1 X96.469 Y97.197 E0.02550
G1 X96.101 Y96.474 E0.02545
G1 X95.526 Y95.899 E0.02548
G1 X94.913 Y95.587 E0.02156
G1 X159.413 Y95.587 E2.02234
G1 X159.413 Y114.413 E0.59027
G1 X90.587 Y114.413 E2.15799
G1 X90.587 Y95.587 E0.59027
G1 X93.027 Y95.587 E0.07649
G1 F8640
G1 X92.474 Y95.899 E-0.14659
G1 X91.899 Y96.474 E-0.18766
G1 X91.531 Y97.197 E-0.18741
G1 X91.402 Y98.000 E-0.18776
G1 X91.437 Y98.216 E-0.05058
G1 E-0.04000 F2100.00000
G1 Z0.800 F10800.000
G1 X90.210 Y95.210
G1 Z0.200
G1 E0.80000 F2100.00000
G1 F1200
G1 X159.790 Y95.210 E2.18163
G1 X159.790 Y114.790 E0.61392
G1 X90.210 Y114.790 E2.18163
G1 X90.210 Y95.270 E0.61204
G1 X90.608 Y95.247 F10800.000
G1 F8640
G1 X93.501 Y95.267 E-0.76000
G1 E-0.04000 F2100.00000
G1 Z0.800 F10800.000
G1 X92.059 Y96.154
G1 Z0.200
G1 E0.80000 F2100.00000
G1 F1200
G1 X91.776 Y95.870 E0.01263
G1 X91.240 Y95.870 E0.01686
G1 X91.672 Y96.301 E0.01920
G1 X91.490 Y96.655 E0.01252
G1 X90.870 Y96.035 E0.02759
G1 X90.870 Y96.570 E0.01686
G1 X91.309 Y97.010 E0.01955
G1 X91.259 Y97.108 E0.00349
G1 X91.205 Y97.441 E0.01061
G1 X90.870 Y97.106 E0.01494
G1 X90.870 Y97.641 E0.01686
G1 X91.132 Y97.903 E0.01165
G1 X91.116 Y98.000 E0.00309
G1 X91.197 Y98.503 E0.01605
G1 X90.870 Y98.177 E0.01455
G1 X90.870 Y98.712 E0.01686
G1 X106.288 Y114.130 E0.68643
G1 X106.823 Y114.130 E0.01686
G1 X93.497 Y100.803 E0.59332
G1 X94.000 Y100.884 E0.01605
G1 X94.097 Y100.868 E0.00309
G1 X107.359 Y114.130 E0.59042
G1 X107.894 Y114.130 E0.01686
G1 X94.559 Y100.795 E0.59371
G1 X94.892 Y100.741 E0.01061
G1 X94.990 Y100.691 E0.00349
G1 X108.430 Y114.130 E0.59832
G1 X108.965 Y114.130 E0.01686
G1 X95.345 Y100.510 E0.60636
G1 X95.699 Y100.328 E0.01252
G1 X109.500 Y114.130 E0.61447
G1 X110.036 Y114.130 E0.01686
G1 X95.966 Y100.061 E0.62638
G1 X96.234 Y99.793 E0.01192
G1 X110.571 Y114.130 E0.63830
G1 X111.107 Y114.130 E0.01686
G1 X96.447 Y99.470 E0.65267
G1 X96.627 Y99.115 E0.01253
G1 X111.642 Y114.130 E0.66847
G1 X112.178 Y114.130 E0.01686
G1 X96.769 Y98.721 E0.68602
G1 X96.842 Y98.260 E0.01472
G1 X112.713 Y114.130 E0.70657
G1 X113.248 Y114.130 E0.01686
G1 X96.839 Y97.721 E0.73055
G1 X96.741 Y97.108 E0.01953
G1 X96.720 Y97.066 E0.00150
G1 X113.784 Y114.130 E0.75971
G1 X114.319 Y114.130 E0.01686
G1 X96.059 Y95.870 E0.81296
G1 X96.595 Y95.870 E0.01686
G1 X114.855 Y114.130 E0.81296
G1 X115.390 Y114.130 E0.01686
G1 X97.130 Y95.870 E0.81296
G1 X97.665 Y95.870 E0.01686
G1 X115.926 Y114.130 E0.81296
G1 X116.461 Y114.130 E0.01686
G1 X98.201 Y95.870 E0.81296
G1 X98.736 Y95.870 E0.01686
G1 X116.996 Y114.130 E0.81296
M73 Q3 S34
M73 P3 R34
G1 X117.532 Y114.130 E0.01686
G1 X99.272 Y95.870 E0.81296
G1 X99.807 Y95.870 E0.01686
G1 X118.067 Y114.130 E0.81296
G1 X118.603 Y114.130 E0.01686
G1 X100.342 Y95.870 E0.81296
G1 X100.878 Y95.870 E0.01686
G1 X119.138 Y114.130 E0.81296
G1 X119.674 Y114.130 E0.01686
G1 X101.413 Y95.870 E0.81296
G1 X101.949 Y95.870 E0.01686
G1 X120.209 Y114.130 E0.81296
G1 X120.744 Y114.130 E0.01686
G1 X102.484 Y95.870 E0.81296
G1 X103.020 Y95.870 E0.01686
G1 X121.280 Y114.130 E0.81296
G1 X121.815 Y114.130 E0.01686
G1 X103.555 Y95.870 E0.81296
G1 X104.090 Y95.870 E0.01686
G1 X122.351 Y114.130 E0.81296
G1 X122.886 Y114.130 E0.01686
G1 X104.626 Y95.870 E0.81296
G1 X105.161 Y95.870 E0.01686
G1 X123.422 Y114.130 E0.81296
G1 X123.957 Y114.130 E0.01686
G1 X105.697 Y95.870 E0.81296
G1 X106.232 Y95.870 E0.01686
G1 X124.492 Y114.130 E0.81296
G1 X125.028 Y114.130 E0.01686
G1 X106.768 Y95.870 E0.81296
G1 X107.303 Y95.870 E0.01686
G1 X125.563 Y114.130 E0.81296
G1 X126.099 Y114.130 E0.01686
G1 X107.838 Y95.870 E0.81296
G1 X108.374 Y95.870 E0.01686
G1 X126.634 Y114.130 E0.81296
G1 X127.170 Y114.130 E0.01686
G1 X108.909 Y95.870 E0.81296
G1 X109.445 Y95.870 E0.01686
G1 X127.705 Y114.130 E0.81296
G1 X128.240 Y114.130 E0.01686
G1 X109.980 Y95.870 E0.81296
G1 X110.516 Y95.870 E0.01686
G1 X128.776 Y114.130 E0.81296
G1 X129.311 Y114.130 E0.01686
G1 X111.051 Y95.870 E0.81296
G1 X111.586 Y95.870 E0.01686
G1 X129.847 Y114.130 E0.81296
G1 X130.382 Y114.130 E0.01686
G1 X112.122 Y95.870 E0.81296
G1 X112.657 Y95.870 E0.01686
G1 X130.918 Y114.130 E0.81296
G1 X131.453 Y114.130 E0.01686
G1 X113.193 Y95.870 E0.81296
G1 X113.728 Y95.870 E0.01686
G1 X131.988 Y114.130 E0.81296
G1 X132.524 Y114.130 E0.01686
G1 X114.264 Y95.870 E0.81296
G1 X114.799 Y95.870 E0.01686
G1 X133.059 Y114.130 E0.81296
G1 X133.595 Y114.130 E0.01686
G1 X115.334 Y95.870 E0.81296
G1 X115.870 Y95.870 E0.01686
G1 X134.130 Y114.130 E0.81296
G1 X134.666 Y114.130 E0.01686
G1 X116.405 Y95.870 E0.81296
G1 X116.941 Y95.870 E0.01686
G1 X135.201 Y114.130 E0.81296
G1 X135.736 Y114.130 E0.01686
G1 X117.476 Y95.870 E0.81296
G1 X118.012 Y95.870 E0.01686
G1 X136.272 Y114.130 E0.81296
G1 X136.807 Y114.130 E0.01686
G1 X118.547 Y95.870 E0.81296
G1 X119.082 Y95.870 E0.01686
G1 X137.343 Y114.130 E0.81296
G1 X137.878 Y114.130 E0.01686
G1 X119.618 Y95.870 E0.81296
G1 X120.153 Y95.870 E0.01686
G1 X138.414 Y114.130 E0.81296
G1 X138.949 Y114.130 E0.01686
G1 X120.689 Y95.870 E0.81296
G1 X121.224 Y95.870 E0.01686
G1 X139.484 Y114.130 E0.81296
G1 X140.020 Y114.130 E0.01686
G1 X121.760 Y95.870 E0.81296
G1 X122.295 Y95.870 E0.01686
G1 X140.555 Y114.130 E0.81296
G1 X141.091 Y114.130 E0.01686
G1 X122.830 Y95.870 E0.81296
G1 X123.366 Y95.870 E0.01686
G1 X141.626 Y114.130 E0.81296
M73 Q6 S33
M73 P6 R32
G1 X142.162 Y114.130 E0.01686
G1 X123.901 Y95.870 E0.81296
G1 X124.437 Y95.870 E0.01686
G1 X142.697 Y114.130 E0.81296
G1 X143.232 Y114.130 E0.01686
G1 X124.972 Y95.870 E0.81296
G1 X125.508 Y95.870 E0.01686
G1 X143.768 Y114.130 E0.81296
G1 X144.303 Y114.130 E0.01686
G1 X126.043 Y95.870 E0.81296
G1 X126.578 Y95.870 E0.01686
G1 X144.839 Y114.130 E0.81296
G1 X145.374 Y114.130 E0.01686
G1 X127.114 Y95.870 E0.81296
G1 X127.649 Y95.870 E0.01686
G1 X145.910 Y114.130 E0.81296
G1 X146.445 Y114.130 E0.01686
G1 X128.185 Y95.870 E0.81296
G1 X128.720 Y95.870 E0.01686
G1 X146.980 Y114.130 E0.81296
G1 X147.516 Y114.130 E0.01686
G1 X129.256 Y95.870 E0.81296
G1 X129.791 Y95.870 E0.01686
G1 X148.051 Y114.130 E0.81296
G1 X148.587 Y114.130 E0.01686
G1 X130.326 Y95.870 E0.81296
G1 X130.862 Y95.870 E0.01686
G1 X149.122 Y114.130 E0.81296
G1 X149.657 Y114.130 E0.01686
G1 X131.397 Y95.870 E0.81296
G1 X131.933 Y95.870 E0.01686
G1 X150.193 Y114.130 E0.81296
G1 X150.728 Y114.130 E0.01686
G1 X132.468 Y95.870 E0.81296
G1 X133.004 Y95.870 E0.01686
G1 X151.264 Y114.130 E0.81296
G1 X151.799 Y114.130 E0.01686
G1 X133.539 Y95.870 E0.81296
G1 X134.074 Y95.870 E0.01686
G1 X152.335 Y114.130 E0.81296
G1 X152.870 Y114.130 E0.01686
G1 X134.610 Y95.870 E0.81296
G1 X135.145 Y95.870 E0.01686
G1 X153.405 Y114.130 E0.81296
G1 X153.941 Y114.130 E0.01686
G1 X135.681 Y95.870 E0.81296
G1 X136.216 Y95.870 E0.01686
G1 X154.476 Y114.130 E0.81296
G1 X155.012 Y114.130 E0.01686
G1 X136.752 Y95.870 E0.81296
G1 X137.287 Y95.870 E0.01686
G1 X155.547 Y114.130 E0.81296
G1 X156.083 Y114.130 E0.01686
G1 X137.822 Y95.870 E0.81296
G1 X138.358 Y95.870 E0.01686
G1 X156.618 Y114.130 E0.81296
G1 X157.153 Y114.130 E0.01686
G1 X138.893 Y95.870 E0.81296
G1 X139.429 Y95.870 E0.01686
G1 X157.689 Y114.130 E0.81296
G1 X158.224 Y114.130 E0.01686
G1 X139.964 Y95.870 E0.81296
G1 X140.499 Y95.870 E0.01686
G1 X158.760 Y114.130 E0.81296
G1 X159.130 Y114.130 E0.01166
G1 X159.130 Y113.965 E0.00520
G1 X141.035 Y95.870 E0.80562
G1 X141.570 Y95.870 E0.01686
G1 X159.130 Y113.430 E0.78178
G1 X159.130 Y112.894 E0.01686
G1 X142.106 Y95.870 E0.75794
G1 X142.641 Y95.870 E0.01686
G1 X159.130 Y112.359 E0.73410
G1 X159.130 Y111.823 E0.01686
G1 X143.177 Y95.870 E0.71027
G1 X143.712 Y95.870 E0.01686
G1 X159.130 Y111.288 E0.68643
G1 X159.130 Y110.753 E0.01686
G1 X144.247 Y95.870 E0.66259
G1 X144.783 Y95.870 E0.01686
G1 X159.130 Y110.217 E0.63875
G1 X159.130 Y109.682 E0.01686
G1 X145.318 Y95.870 E0.61491
G1 X145.854 Y95.870 E0.01686
G1 X159.130 Y109.146 E0.59108
G1 X159.130 Y108.611 E0.01686
G1 X146.389 Y95.870 E0.56724
G1 X146.925 Y95.870 E0.01686
G1 X159.130 Y108.075 E0.54340
G1 X159.130 Y107.540 E0.01686
G1 X147.460 Y95.870 E0.51956
G1 X147.995 Y95.870 E0.01686
G1 X159.130 Y107.005 E0.49573
G1 X159.130 Y106.469 E0.01686
G1 X148.531 Y95.870 E0.47189
G1 X149.066 Y95.870 E0.01686
G1 X159.130 Y105.934 E0.44805
G1 X159.130 Y105.398 E0.01686
G1 X149.602 Y95.870 E0.42421
G1 X150.137 Y95.870 E0.01686
G1 X159.130 Y104.863 E0.40037
M73 Q8 S32
M73 P8 R31
G1 X159.130 Y104.327 E0.01686
G1 X150.673 Y95.870 E0.37654
G1 X151.208 Y95.870 E0.01686
G1 X159.130 Y103.792 E0.35270
G1 X159.130 Y103.257 E0.01686
G1 X151.743 Y95.870 E0.32886
G1 X152.279 Y95.870 E0.01686
G1 X159.130 Y102.721 E0.30502
G1 X159.130 Y102.186 E0.01686
G1 X152.814 Y95.870 E0.28119
G1 X153.350 Y95.870 E0.01686
G1 X159.130 Y101.650 E0.25735
G1 X159.130 Y101.115 E0.01686
G1 X153.885 Y95.870 E0.23351
G1 X154.421 Y95.870 E0.01686
G1 X159.130 Y100.579 E0.20967
G1 X159.130 Y100.044 E0.01686
G1 X154.956 Y95.870 E0.18584
G1 X155.491 Y95.870 E0.01686
G1 X159.130 Y99.509 E0.16200
G1 X159.130 Y98.973 E0.01686
G1 X156.027 Y95.870 E0.13816
G1 X156.562 Y95.870 E0.01686
G1 X159.130 Y98.438 E0.11432
G1 X159.130 Y97.902 E0.01686
G1 X157.098 Y95.870 E0.09048
G1 X157.633 Y95.870 E0.01686
G1 X159.130 Y97.367 E0.06665
G1 X159.130 Y96.831 E0.01686
G1 X158.169 Y95.870 E0.04281
G1 X158.704 Y95.870 E0.01686
G1 X159.300 Y96.466 E0.02653
G1 F8640
G1 X158.704 Y95.870 E-0.19456
G1 X158.169 Y95.870 E-0.12363
G1 X159.130 Y96.831 E-0.31399
G1 X159.130 Y97.367 E-0.12363
G1 X159.117 Y97.354 E-0.00418
G1 E-0.04000 F2100.00000
G1 Z0.800 F10800.000
G1 X105.922 Y114.300
G1 Z0.200
G1 E0.80000 F2100.00000
G1 F1200
G1 X90.870 Y99.248 E0.67014
G1 X90.870 Y99.783 E0.01686
G1 X105.217 Y114.130 E0.63875
G1 X104.682 Y114.130 E0.01686
G1 X90.870 Y100.318 E0.61491
G1 X90.870 Y100.854 E0.01686
G1 X104.146 Y114.130 E0.59108
G1 X103.611 Y114.130 E0.01686
G1 X90.870 Y101.389 E0.56724
G1 X90.870 Y101.925 E0.01686
G1 X103.075 Y114.130 E0.54340
G1 X102.540 Y114.130 E0.01686
G1 X90.870 Y102.460 E0.51956
G1 X90.870 Y102.995 E0.01686
G1 X102.005 Y114.130 E0.49572
G1 X101.469 Y114.130 E0.01686
G1 X90.870 Y103.531 E0.47189
G1 X90.870 Y104.066 E0.01686
G1 X100.934 Y114.130 E0.44805
G1 X100.398 Y114.130 E0.01686
G1 X90.870 Y104.602 E0.42421
G1 X90.870 Y105.137 E0.01686
G1 X99.863 Y114.130 E0.40037
G1 X99.327 Y114.130 E0.01686
G1 X90.870 Y105.673 E0.37654
G1 X90.870 Y106.208 E0.01686
G1 X98.792 Y114.130 E0.35270
G1 X98.257 Y114.130 E0.01686
G1 X90.870 Y106.743 E0.32886
G1 X90.870 Y107.279 E0.01686
G1 X97.721 Y114.130 E0.30502
G1 X97.186 Y114.130 E0.01686
G1 X90.870 Y107.814 E0.28119
G1 X90.870 Y108.350 E0.01686
G1 X96.650 Y114.130 E0.25735
G1 X96.115 Y114.130 E0.01686
G1 X90.870 Y108.885 E0.23351
G1 X90.870 Y109.421 E0.01686
G1 X95.579 Y114.130 E0.20967
G1 X95.044 Y114.130 E0.01686
G1 X90.870 Y109.956 E0.18583
G1 X90.870 Y110.491 E0.01686
G1 X94.509 Y114.130 E0.16200
G1 X93.973 Y114.130 E0.01686
G1 X90.870 Y111.027 E0.13816
G1 X90.870 Y111.562 E0.01686
G1 X93.438 Y114.130 E0.11432
G1 X92.902 Y114.130 E0.01686
G1 X90.870 Y112.098 E0.09048
G1 X90.870 Y112.633 E0.01686
G1 X92.367 Y114.130 E0.06665
G1 X91.831 Y114.130 E0.01686
G1 X90.870 Y113.169 E0.04281
G1 X90.870 Y113.704 E0.01686
G1 X91.466 Y114.300 E0.02652
G1 F8640
G1 X90.870 Y113.704 E-0.19455
G1 X90.870 Y113.169 E-0.12363
G1 X91.831 Y114.130 E-0.31398
G1 X92.367 Y114.130 E-0.12363
G1 X92.354 Y114.117 E-0.00420
G1 E-0.04000 F2100.00000
G1 Z0.800 F10800.000
G1 X93.272 Y95.553
G1 Z0.200
G1 E0.80000 F2100.00000
G1 F1200
G1 X93.992 Y95.498 E0.01199
G1 X94.360 Y95.526 E0.00747
G1 X94.728 Y95.553 E0.00881
G1 F8640
G1 X94.360 Y95.526 E-0.08515
G1 E-0.71485 F2100.00000
G1 Z0.800 F10800.000
G1 X94.885 Y81.863
G1 Z0.200
G1 E0.80000 F2100.00000
G1 F1200
G1 X94.464 Y81.808 E0.01332
G1 X94.072 Y81.645 E0.01330
G1 X93.734 Y81.387 E0.01333
G1 X93.476 Y81.049 E0.01333
G1 X93.314 Y80.658 E0.01329
G1 X93.258 Y80.236 E0.01333
G1 X93.314 Y79.815 E0.01333
G1 X93.476 Y79.423 E0.01329
G1 X93.734 Y79.086 E0.01333
G1 X94.072 Y78.827 E0.01333
G1 X94.464 Y78.665 E0.01329
G1 X94.863 Y78.612 E0.01264
G1 X95.302 Y78.663 E0.01386
G1 X95.698 Y78.827 E0.01343
G1 X96.036 Y79.086 E0.01333
G1 X96.294 Y79.423 E0.01333
G1 X96.456 Y79.815 E0.01330
G1 X96.512 Y80.236 E0.01332
G1 X96.456 Y80.658 E0.01332
G1 X96.294 Y81.049 E0.01330
G1 X96.036 Y81.387 E0.01333
G1 X95.698 Y81.645 E0.01333
G1 X95.306 Y81.808 E0.01330
G1 X94.945 Y81.855 E0.01144
G1 X94.896 Y81.481 F10800.000
G1 F1200
G1 X94.562 Y81.440 E0.01053
G1 X94.262 Y81.316 E0.01019
G1 X94.003 Y81.118 E0.01021
G1 X93.806 Y80.859 E0.01021
G1 X93.681 Y80.559 E0.01019
G1 X93.638 Y80.236 E0.01021
G1 X93.681 Y79.913 E0.01021
G1 X93.806 Y79.613 E0.01019
