; generated by Slic3r Prusa Edition 1.40.1+win64 on 2018-12-14 at 16:12:14

; 

; external perimeters extrusion width = 0.45mm
; perimeters extrusion width = 0.45mm
; infill extrusion width = 0.45mm
; solid infill extrusion width = 0.45mm
; top infill extrusion width = 0.40mm
; first layer extrusion width = 0.42mm

; external perimeters extrusion width = 0.45mm
; perimeters extrusion width = 0.45mm
; infill extrusion width = 0.45mm
; solid infill extrusion width = 0.45mm
; top infill extrusion width = 0.40mm
; first layer extrusion width = 0.42mm

M107
M115 U3.3.1 ; tell printer latest fw version
M201 X1000 Y1000 Z1000 E9000 ; sets maximum accelerations, mm/sec^2
M203 X200 Y200 Z12 E120 ; sets maximum feedrates, mm/sec
M204 S1250 T1250 ; sets acceleration (S) and retract acceleration (T)
M205 X8 Y8 Z0.4 E1.5 ; sets the jerk limits, mm/sec
M205 S0 T0 ; sets the minimum extruding and travel feed rate, mm/sec
M83  ; extruder relative mode
M104 S215 ; set extruder temp
M140 S60 ; set bed temp
M190 S60 ; wait for bed temp
M109 S215 ; wait for extruder temp
G28 W ; home all without mesh bed level
G80 ; mesh bed leveling
G1 Y-3.0 F1000.0 ; go outside print area
G92 E0.0
G1 X60.0 E9.0  F1000.0 ; intro line
G1 X100.0 E12.5  F1000.0 ; intro line
G92 E0.0
M221 S95
M900 K30; Filament gcode
G21 ; set units to millimeters
G90 ; use absolute coordinates
M83 ; use relative distances for extrusion
;BEFORE_LAYER_CHANGE
G92 E0.0
;0.2


G1 E-0.80000 F2100.00000
G1 Z0.600 F10800.000
;AFTER_LAYER_CHANGE
;0.2
G1 X73.736 Y88.213
G1 Z0.200
G1 E0.80000 F2100.00000
M204 S1000
G1 F1800
G1 X74.329 Y87.917 E0.02078
G1 X74.998 Y87.811 E0.02123
G1 X175.004 Y87.811 E3.13561
G1 X175.830 Y87.975 E0.02642
G1 X176.534 Y88.439 E0.02642
G1 X177.010 Y89.134 E0.02642
G1 X177.188 Y89.958 E0.02642
G1 X177.186 Y120.102 E0.94517
G1 X177.057 Y120.748 E0.02066
G1 X176.738 Y121.330 E0.02078
G1 X176.264 Y121.787 E0.02066
G1 X175.671 Y122.083 E0.02078
G1 X175.002 Y122.189 E0.02123
G1 X74.971 Y122.188 E3.13642
G1 X74.303 Y122.075 E0.02123
G1 X73.700 Y121.760 E0.02134
G1 X73.222 Y121.276 E0.02134
G1 X72.917 Y120.671 E0.02123
G1 X72.811 Y120.006 E0.02112
G1 X72.814 Y89.905 E0.94379
G1 X72.942 Y89.255 E0.02078
G1 X73.259 Y88.673 E0.02078
G1 X73.693 Y88.255 E0.01889
G1 F8640
G1 X74.329 Y87.917 E-0.16627
G1 X74.998 Y87.811 E-0.15634
G1 X76.892 Y87.811 E-0.43739
G1 E-0.04000 F2100.00000
G1 Z0.800 F10800.000
G1 X75.587 Y90.587
G1 Z0.200
G1 E0.80000 F2100.00000
G1 F1800
G1 X174.413 Y90.587 E3.09862
G1 X174.413 Y119.413 E0.90381
G1 X75.587 Y119.413 E3.09862
G1 X75.587 Y90.647 E0.90193
G1 X75.210 Y90.210 F10800.000
G1 F1800
G1 X174.790 Y90.210 E3.12226
G1 X174.790 Y119.790 E0.92746
G1 X75.210 Y119.790 E3.12226
G1 X75.210 Y90.270 E0.92558
G1 X75.608 Y90.248 F10800.000
G1 F8640
G1 X78.501 Y90.268 E-0.76000
G1 E-0.04000 F2100.00000
G1 Z0.800 F10800.000
G1 X76.465 Y119.300
G1 Z0.200
G1 E0.80000 F2100.00000
G1 F1800
G1 X75.870 Y118.705 E0.02646
G1 X75.870 Y118.170 E0.01681
G1 X76.830 Y119.130 E0.04269
G1 X77.365 Y119.130 E0.01681
G1 X75.870 Y117.635 E0.06647
G1 X75.870 Y117.101 E0.01681
G1 X77.899 Y119.130 E0.09025
G1 X78.434 Y119.130 E0.01681
G1 X75.870 Y116.566 E0.11403
G1 X75.870 Y116.031 E0.01681
G1 X78.969 Y119.130 E0.13781
G1 X79.504 Y119.130 E0.01681
G1 X75.870 Y115.496 E0.16159
G1 X75.870 Y114.961 E0.01681
G1 X80.039 Y119.130 E0.18536
G1 X80.573 Y119.130 E0.01681
G1 X75.870 Y114.427 E0.20914
G1 X75.870 Y113.892 E0.01681
G1 X81.108 Y119.130 E0.23292
G1 X81.643 Y119.130 E0.01681
G1 X75.870 Y113.357 E0.25670
G1 X75.870 Y112.822 E0.01681
G1 X82.178 Y119.130 E0.28048
G1 X82.712 Y119.130 E0.01681
G1 X75.870 Y112.288 E0.30426
G1 X75.870 Y111.753 E0.01681
G1 X83.247 Y119.130 E0.32804
G1 X83.782 Y119.130 E0.01681
G1 X75.870 Y111.218 E0.35182
G1 X75.870 Y110.683 E0.01681
G1 X84.317 Y119.130 E0.37560
G1 X84.851 Y119.130 E0.01681
G1 X75.870 Y110.149 E0.39937
G1 X75.870 Y109.614 E0.01681
G1 X85.386 Y119.130 E0.42315
G1 X85.921 Y119.130 E0.01681
G1 X75.870 Y109.079 E0.44693
G1 X75.870 Y108.544 E0.01681
G1 X86.456 Y119.130 E0.47071
G1 X86.990 Y119.130 E0.01681
G1 X75.870 Y108.010 E0.49449
G1 X75.870 Y107.475 E0.01681
G1 X87.525 Y119.130 E0.51827
G1 X88.060 Y119.130 E0.01681
G1 X75.870 Y106.940 E0.54205
G1 X75.870 Y106.405 E0.01681
G1 X88.595 Y119.130 E0.56583
G1 X89.130 Y119.130 E0.01681
G1 X75.870 Y105.870 E0.58961
G1 X75.870 Y105.336 E0.01681
G1 X89.664 Y119.130 E0.61339
G1 X90.199 Y119.130 E0.01681
G1 X75.870 Y104.801 E0.63716
G1 X75.870 Y104.266 E0.01681
G1 X90.734 Y119.130 E0.66094
G1 X91.269 Y119.130 E0.01681
G1 X75.870 Y103.731 E0.68472
G1 X75.870 Y103.197 E0.01681
G1 X91.803 Y119.130 E0.70850
G1 X92.338 Y119.130 E0.01681
G1 X75.870 Y102.662 E0.73228
G1 X75.870 Y102.127 E0.01681
G1 X92.873 Y119.130 E0.75606
G1 X93.408 Y119.130 E0.01681
G1 X75.870 Y101.592 E0.77984
G1 X75.870 Y101.058 E0.01681
G1 X93.942 Y119.130 E0.80362
G1 X94.477 Y119.130 E0.01681
G1 X75.870 Y100.523 E0.82740
G1 X75.870 Y99.988 E0.01681
G1 X95.012 Y119.130 E0.85117
G1 X95.547 Y119.130 E0.01681
G1 X75.870 Y99.453 E0.87495
G1 X75.870 Y98.918 E0.01681
G1 X96.082 Y119.130 E0.89873
G1 X96.616 Y119.130 E0.01681
G1 X75.870 Y98.384 E0.92251
G1 X75.870 Y97.849 E0.01681
G1 X97.151 Y119.130 E0.94629
G1 X97.686 Y119.130 E0.01681
G1 X75.870 Y97.314 E0.97007
G1 X75.870 Y96.779 E0.01681
G1 X98.221 Y119.130 E0.99385
G1 X98.755 Y119.130 E0.01681
G1 X75.870 Y96.245 E1.01763
G1 X75.870 Y95.710 E0.01681
G1 X99.290 Y119.130 E1.04141
G1 X99.825 Y119.130 E0.01681
G1 X75.870 Y95.175 E1.06519
G1 X75.870 Y94.640 E0.01681
G1 X100.360 Y119.130 E1.08896
G1 X100.894 Y119.130 E0.01681
G1 X75.870 Y94.106 E1.11274
G1 X75.870 Y93.571 E0.01681
G1 X101.429 Y119.130 E1.13652
G1 X101.964 Y119.130 E0.01681
G1 X75.870 Y93.036 E1.16030
G1 X75.870 Y92.501 E0.01681
G1 X102.499 Y119.130 E1.18408
G1 X103.033 Y119.130 E0.01681
G1 X75.870 Y91.967 E1.20786
G1 X75.870 Y91.432 E0.01681
G1 X103.568 Y119.130 E1.23164
G1 X104.103 Y119.130 E0.01681
G1 X75.870 Y90.897 E1.25542
G1 X75.870 Y90.870 E0.00085
G1 X76.378 Y90.870 E0.01596
G1 X104.638 Y119.130 E1.25662
G1 X105.173 Y119.130 E0.01681
G1 X76.912 Y90.870 E1.25662
G1 X77.447 Y90.870 E0.01681
G1 X105.707 Y119.130 E1.25662
G1 X106.242 Y119.130 E0.01681
G1 X77.982 Y90.870 E1.25662
G1 X78.517 Y90.870 E0.01681
G1 X106.777 Y119.130 E1.25662
G1 X107.312 Y119.130 E0.01681
G1 X79.051 Y90.870 E1.25662
G1 X79.586 Y90.870 E0.01681
G1 X107.846 Y119.130 E1.25662
G1 X108.381 Y119.130 E0.01681
G1 X80.121 Y90.870 E1.25662
G1 X80.656 Y90.870 E0.01681
G1 X108.916 Y119.130 E1.25662
G1 X109.451 Y119.130 E0.01681
G1 X81.190 Y90.870 E1.25662
G1 X81.725 Y90.870 E0.01681
G1 X109.985 Y119.130 E1.25662
G1 X110.520 Y119.130 E0.01681
G1 X82.260 Y90.870 E1.25662
G1 X82.795 Y90.870 E0.01681
G1 X111.055 Y119.130 E1.25662
G1 X111.590 Y119.130 E0.01681
G1 X83.329 Y90.870 E1.25662
G1 X83.864 Y90.870 E0.01681
G1 X112.125 Y119.130 E1.25662
G1 X112.659 Y119.130 E0.01681
G1 X84.399 Y90.870 E1.25662
G1 X84.934 Y90.870 E0.01681
G1 X113.194 Y119.130 E1.25662
G1 X113.729 Y119.130 E0.01681
G1 X85.469 Y90.870 E1.25662
G1 X86.003 Y90.870 E0.01681
G1 X114.264 Y119.130 E1.25662
G1 X114.798 Y119.130 E0.01681
G1 X86.538 Y90.870 E1.25662
G1 X87.073 Y90.870 E0.01681
G1 X115.333 Y119.130 E1.25662
G1 X115.868 Y119.130 E0.01681
G1 X87.608 Y90.870 E1.25662
G1 X88.142 Y90.870 E0.01681
G1 X116.403 Y119.130 E1.25662
G1 X116.937 Y119.130 E0.01681
G1 X88.677 Y90.870 E1.25662
G1 X89.212 Y90.870 E0.01681
G1 X117.472 Y119.130 E1.25662
G1 X118.007 Y119.130 E0.01681
G1 X89.747 Y90.870 E1.25662
G1 X90.281 Y90.870 E0.01681
G1 X118.542 Y119.130 E1.25662
G1 X119.076 Y119.130 E0.01681
G1 X90.816 Y90.870 E1.25662
G1 X91.351 Y90.870 E0.01681
G1 X119.611 Y119.130 E1.25662
G1 X120.146 Y119.130 E0.01681
G1 X91.886 Y90.870 E1.25662
G1 X92.420 Y90.870 E0.01681
G1 X120.681 Y119.130 E1.25662
G1 X121.216 Y119.130 E0.01681
G1 X92.955 Y90.870 E1.25662
G1 X93.490 Y90.870 E0.01681
G1 X121.750 Y119.130 E1.25662
G1 X122.285 Y119.130 E0.01681
G1 X94.025 Y90.870 E1.25662
G1 X94.560 Y90.870 E0.01681
G1 X122.820 Y119.130 E1.25662
G1 X123.355 Y119.130 E0.01681
G1 X95.094 Y90.870 E1.25662
G1 X95.629 Y90.870 E0.01681
G1 X123.889 Y119.130 E1.25662
G1 X124.424 Y119.130 E0.01681
G1 X96.164 Y90.870 E1.25662
G1 X96.699 Y90.870 E0.01681
G1 X124.959 Y119.130 E1.25662
G1 X125.494 Y119.130 E0.01681
G1 X97.233 Y90.870 E1.25662
G1 X97.768 Y90.870 E0.01681
G1 X126.028 Y119.130 E1.25662
G1 X126.563 Y119.130 E0.01681
G1 X98.303 Y90.870 E1.25662
G1 X98.838 Y90.870 E0.01681
G1 X127.098 Y119.130 E1.25662
G1 X127.633 Y119.130 E0.01681
G1 X99.372 Y90.870 E1.25662
G1 X99.907 Y90.870 E0.01681
G1 X128.168 Y119.130 E1.25662
G1 X128.702 Y119.130 E0.01681
G1 X100.442 Y90.870 E1.25662
G1 X100.977 Y90.870 E0.01681
G1 X129.237 Y119.130 E1.25662
G1 X129.772 Y119.130 E0.01681
G1 X101.512 Y90.870 E1.25662
G1 X102.046 Y90.870 E0.01681
G1 X130.307 Y119.130 E1.25662
G1 X130.841 Y119.130 E0.01681
G1 X102.581 Y90.870 E1.25662
G1 X103.116 Y90.870 E0.01681
G1 X131.376 Y119.130 E1.25662
G1 X131.911 Y119.130 E0.01681
G1 X103.651 Y90.870 E1.25662
G1 X104.185 Y90.870 E0.01681
G1 X132.446 Y119.130 E1.25662
G1 X132.980 Y119.130 E0.01681
G1 X104.720 Y90.870 E1.25662
G1 X105.255 Y90.870 E0.01681
G1 X133.515 Y119.130 E1.25662
G1 X134.050 Y119.130 E0.01681
G1 X105.790 Y90.870 E1.25662
G1 X106.324 Y90.870 E0.01681
G1 X134.585 Y119.130 E1.25662
G1 X135.119 Y119.130 E0.01681
G1 X106.859 Y90.870 E1.25662
G1 X107.394 Y90.870 E0.01681
G1 X135.654 Y119.130 E1.25662
G1 X136.189 Y119.130 E0.01681
G1 X107.929 Y90.870 E1.25662
G1 X108.463 Y90.870 E0.01681
G1 X136.724 Y119.130 E1.25662
G1 X137.259 Y119.130 E0.01681
G1 X108.998 Y90.870 E1.25662
G1 X109.533 Y90.870 E0.01681
G1 X137.793 Y119.130 E1.25662
G1 X138.328 Y119.130 E0.01681
G1 X110.068 Y90.870 E1.25662
G1 X110.603 Y90.870 E0.01681
G1 X138.863 Y119.130 E1.25662
G1 X139.398 Y119.130 E0.01681
G1 X111.137 Y90.870 E1.25662
G1 X111.672 Y90.870 E0.01681
G1 X139.932 Y119.130 E1.25662
G1 X140.467 Y119.130 E0.01681
G1 X112.207 Y90.870 E1.25662
G1 X112.742 Y90.870 E0.01681
G1 X141.002 Y119.130 E1.25662
G1 X141.537 Y119.130 E0.01681
G1 X113.276 Y90.870 E1.25662
G1 X113.811 Y90.870 E0.01681
G1 X142.071 Y119.130 E1.25662
G1 X142.606 Y119.130 E0.01681
G1 X114.346 Y90.870 E1.25662
G1 X114.881 Y90.870 E0.01681
G1 X143.141 Y119.130 E1.25662
G1 X143.676 Y119.130 E0.01681
G1 X115.415 Y90.870 E1.25662
G1 X115.950 Y90.870 E0.01681
G1 X144.211 Y119.130 E1.25662
G1 X144.745 Y119.130 E0.01681
G1 X116.485 Y90.870 E1.25662
G1 X117.020 Y90.870 E0.01681
G1 X145.280 Y119.130 E1.25662
G1 X145.815 Y119.130 E0.01681
G1 X117.555 Y90.870 E1.25662
G1 X118.089 Y90.870 E0.01681
G1 X146.350 Y119.130 E1.25662
G1 X146.884 Y119.130 E0.01681
G1 X118.624 Y90.870 E1.25662
G1 X119.159 Y90.870 E0.01681
G1 X147.419 Y119.130 E1.25662
G1 X147.954 Y119.130 E0.01681
G1 X119.694 Y90.870 E1.25662
G1 X120.228 Y90.870 E0.01681
G1 X148.489 Y119.130 E1.25662
G1 X149.023 Y119.130 E0.01681
G1 X120.763 Y90.870 E1.25662
G1 X121.298 Y90.870 E0.01681
G1 X149.558 Y119.130 E1.25662
G1 X150.093 Y119.130 E0.01681
G1 X121.833 Y90.870 E1.25662
G1 X122.367 Y90.870 E0.01681
G1 X150.628 Y119.130 E1.25662
G1 X151.162 Y119.130 E0.01681
G1 X122.902 Y90.870 E1.25662
G1 X123.437 Y90.870 E0.01681
G1 X151.697 Y119.130 E1.25662
G1 X152.232 Y119.130 E0.01681
G1 X123.972 Y90.870 E1.25662
G1 X124.506 Y90.870 E0.01681
G1 X152.767 Y119.130 E1.25662
G1 X153.302 Y119.130 E0.01681
G1 X125.041 Y90.870 E1.25662
G1 X125.576 Y90.870 E0.01681
G1 X153.836 Y119.130 E1.25662
G1 X154.371 Y119.130 E0.01681
G1 X126.111 Y90.870 E1.25662
G1 X126.646 Y90.870 E0.01681
G1 X154.906 Y119.130 E1.25662
G1 X155.441 Y119.130 E0.01681
G1 X127.180 Y90.870 E1.25662
G1 X127.715 Y90.870 E0.01681
G1 X155.975 Y119.130 E1.25662
G1 X156.510 Y119.130 E0.01681
G1 X128.250 Y90.870 E1.25662
G1 X128.785 Y90.870 E0.01681
G1 X157.045 Y119.130 E1.25662
G1 X157.580 Y119.130 E0.01681
G1 X129.319 Y90.870 E1.25662
G1 X129.854 Y90.870 E0.01681
G1 X158.114 Y119.130 E1.25662
G1 X158.649 Y119.130 E0.01681
G1 X130.389 Y90.870 E1.25662
G1 X130.924 Y90.870 E0.01681
G1 X159.184 Y119.130 E1.25662
G1 X159.719 Y119.130 E0.01681
G1 X131.458 Y90.870 E1.25662
G1 X131.993 Y90.870 E0.01681
G1 X160.254 Y119.130 E1.25662
G1 X160.788 Y119.130 E0.01681
G1 X132.528 Y90.870 E1.25662
G1 X133.063 Y90.870 E0.01681
G1 X161.323 Y119.130 E1.25662
G1 X161.858 Y119.130 E0.01681
G1 X133.598 Y90.870 E1.25662
G1 X134.132 Y90.870 E0.01681
G1 X162.393 Y119.130 E1.25662
G1 X162.927 Y119.130 E0.01681
G1 X134.667 Y90.870 E1.25662
G1 X135.202 Y90.870 E0.01681
G1 X163.462 Y119.130 E1.25662
G1 X163.997 Y119.130 E0.01681
G1 X135.737 Y90.870 E1.25662
G1 X136.271 Y90.870 E0.01681
G1 X164.532 Y119.130 E1.25662
G1 X165.066 Y119.130 E0.01681
G1 X136.806 Y90.870 E1.25662
G1 X137.341 Y90.870 E0.01681
G1 X165.601 Y119.130 E1.25662
G1 X166.136 Y119.130 E0.01681
G1 X137.876 Y90.870 E1.25662
G1 X138.410 Y90.870 E0.01681
G1 X166.671 Y119.130 E1.25662
G1 X167.205 Y119.130 E0.01681
G1 X138.945 Y90.870 E1.25662
G1 X139.480 Y90.870 E0.01681
G1 X167.740 Y119.130 E1.25662
G1 X168.275 Y119.130 E0.01681
G1 X140.015 Y90.870 E1.25662
G1 X140.549 Y90.870 E0.01681
G1 X168.810 Y119.130 E1.25662
G1 X169.345 Y119.130 E0.01681
G1 X141.084 Y90.870 E1.25662
G1 X141.619 Y90.870 E0.01681
G1 X169.879 Y119.130 E1.25662
G1 X170.414 Y119.130 E0.01681
G1 X142.154 Y90.870 E1.25662
G1 X142.689 Y90.870 E0.01681
G1 X170.949 Y119.130 E1.25662
G1 X171.484 Y119.130 E0.01681
G1 X143.223 Y90.870 E1.25662
G1 X143.758 Y90.870 E0.01681
G1 X172.018 Y119.130 E1.25662
G1 X172.553 Y119.130 E0.01681
G1 X144.293 Y90.870 E1.25662
G1 X144.828 Y90.870 E0.01681
G1 X173.088 Y119.130 E1.25662
G1 X173.623 Y119.130 E0.01681
G1 X145.362 Y90.870 E1.25662
G1 X145.897 Y90.870 E0.01681
G1 X174.130 Y119.103 E1.25541
G1 X174.130 Y118.568 E0.01681
G1 X146.432 Y90.870 E1.23163
G1 X146.967 Y90.870 E0.01681
G1 X174.130 Y118.033 E1.20785
G1 X174.130 Y117.499 E0.01681
G1 X147.501 Y90.870 E1.18407
G1 X148.036 Y90.870 E0.01681
G1 X174.130 Y116.964 E1.16029
G1 X174.130 Y116.429 E0.01681
G1 X148.571 Y90.870 E1.13651
G1 X149.106 Y90.870 E0.01681
G1 X174.130 Y115.894 E1.11274
G1 X174.130 Y115.359 E0.01681
G1 X149.641 Y90.870 E1.08896
G1 X150.175 Y90.870 E0.01681
G1 X174.130 Y114.825 E1.06518
G1 X174.130 Y114.290 E0.01681
G1 X150.710 Y90.870 E1.04140
G1 X151.245 Y90.870 E0.01681
G1 X174.130 Y113.755 E1.01762
G1 X174.130 Y113.220 E0.01681
G1 X151.780 Y90.870 E0.99384
G1 X152.314 Y90.870 E0.01681
G1 X174.130 Y112.686 E0.97006
G1 X174.130 Y112.151 E0.01681
G1 X152.849 Y90.870 E0.94628
G1 X153.384 Y90.870 E0.01681
G1 X174.130 Y111.616 E0.92250
G1 X174.130 Y111.081 E0.01681
G1 X153.919 Y90.870 E0.89873
G1 X154.453 Y90.870 E0.01681
G1 X174.130 Y110.547 E0.87495
G1 X174.130 Y110.012 E0.01681
G1 X154.988 Y90.870 E0.85117
G1 X155.523 Y90.870 E0.01681
G1 X174.130 Y109.477 E0.82739
G1 X174.130 Y108.942 E0.01681
G1 X156.058 Y90.870 E0.80361
G1 X156.592 Y90.870 E0.01681
G1 X174.130 Y108.408 E0.77983
G1 X174.130 Y107.873 E0.01681
G1 X157.127 Y90.870 E0.75605
G1 X157.662 Y90.870 E0.01681
G1 X174.130 Y107.338 E0.73227
G1 X174.130 Y106.803 E0.01681
G1 X158.197 Y90.870 E0.70849
G1 X158.732 Y90.870 E0.01681
G1 X174.130 Y106.268 E0.68471
G1 X174.130 Y105.734 E0.01681
G1 X159.266 Y90.870 E0.66094
G1 X159.801 Y90.870 E0.01681
G1 X174.130 Y105.199 E0.63716
G1 X174.130 Y104.664 E0.01681
G1 X160.336 Y90.870 E0.61338
G1 X160.871 Y90.870 E0.01681
G1 X174.130 Y104.129 E0.58960
G1 X174.130 Y103.595 E0.01681
G1 X161.405 Y90.870 E0.56582
G1 X161.940 Y90.870 E0.01681
G1 X174.130 Y103.060 E0.54204
G1 X174.130 Y102.525 E0.01681
G1 X162.475 Y90.870 E0.51826
G1 X163.010 Y90.870 E0.01681
G1 X174.130 Y101.990 E0.49448
G1 X174.130 Y101.456 E0.01681
G1 X163.544 Y90.870 E0.47070
G1 X164.079 Y90.870 E0.01681
G1 X174.130 Y100.921 E0.44693
G1 X174.130 Y100.386 E0.01681
G1 X164.614 Y90.870 E0.42315
G1 X165.149 Y90.870 E0.01681
G1 X174.130 Y99.851 E0.39937
G1 X174.130 Y99.316 E0.01681
G1 X165.684 Y90.870 E0.37559
G1 X166.218 Y90.870 E0.01681
G1 X174.130 Y98.782 E0.35181
G1 X174.130 Y98.247 E0.01681
G1 X166.753 Y90.870 E0.32803
G1 X167.288 Y90.870 E0.01681
