; generated by Slic3r Prusa Edition 1.41.2+ on 2019-02-22 at 15:53:51

; 

; external perimeters extrusion width = 0.45mm
; perimeters extrusion width = 0.45mm
; infill extrusion width = 0.45mm
; solid infill extrusion width = 0.45mm
; top infill extrusion width = 0.40mm
; first layer extrusion width = 0.42mm

M73 P0 R22
M73 Q0 S22
M201 X1000 Y1000 Z1000 E5000 ; sets maximum accelerations, mm/sec^2
M203 X200 Y200 Z12 E120 ; sets maximum feedrates, mm/sec
M204 P1250 R1250 T1250 ; sets acceleration (P, T) and retract acceleration (R), mm/sec^2
M205 X8.00 Y8.00 Z0.40 E1.50 ; sets the jerk limits, mm/sec
M205 S0 T0 ; sets the minimum extruding and travel feed rate, mm/sec
M107
M115 U3.5.1 ; tell printer latest fw version
M83  ; extruder relative mode
M104 S220 ; set extruder temp
M140 S65 ; set bed temp
M190 S65 ; wait for bed temp
M109 S220 ; wait for extruder temp
G28 W ; home all without mesh bed level
G80 ; mesh bed leveling
G1 Y-3.0 F1000.0 ; go outside print area
G92 E0.0
G1 X60.0 E9.0  F1000.0 ; intro line
M73 Q0 S22
M73 P0 R22
G1 X100.0 E12.5  F1000.0 ; intro line
G92 E0.0
M221 S95
M900 K30; Filament gcode
G21 ; set units to millimeters
G90 ; use absolute coordinates
M83 ; use relative distances for extrusion
;BEFORE_LAYER_CHANGE
G92 E0.0
;0.2


G1 E-0.80000 F2100.00000
G1 Z0.600 F10800.000
;AFTER_LAYER_CHANGE
;0.2
G1 X89.339 Y92.914
G1 Z0.200
G1 E0.80000 F2100.00000
M204 S1000
G1 F1200
G1 X89.998 Y92.811 E0.02089
G1 X160.004 Y92.811 E2.19498
G1 X160.823 Y92.972 E0.02620
G1 X161.526 Y93.431 E0.02631
G1 X162.004 Y94.121 E0.02631
G1 X162.188 Y94.939 E0.02631
G1 X162.183 Y115.150 E0.63368
G1 X162.042 Y115.786 E0.02044
G1 X161.720 Y116.353 E0.02044
G1 X161.246 Y116.799 E0.02044
G1 X160.661 Y117.086 E0.02044
G1 X160.002 Y117.189 E0.02089
G1 X89.956 Y117.188 E2.19625
G1 X89.286 Y117.069 E0.02134
G1 X88.688 Y116.752 E0.02123
G1 X88.215 Y116.267 E0.02123
G1 X87.914 Y115.661 E0.02123
G1 X87.811 Y115.010 E0.02066
G1 X87.816 Y94.865 E0.63162
G1 X87.954 Y94.224 E0.02055
G1 X88.275 Y93.653 E0.02055
G1 X88.751 Y93.203 E0.02055
G1 X89.286 Y92.940 E0.01867
; PURGING FINISHED
G1 F8640
G1 X89.998 Y92.811 E-0.16711
G1 X92.565 Y92.811 E-0.59289
G1 E-0.04000 F2100.00000
G1 Z0.800 F10800.000
G1 X90.587 Y95.587
G1 Z0.200
G1 E0.80000 F2100.00000
G1 F1200
G1 X159.413 Y95.587 E2.15799
G1 X159.413 Y114.413 E0.59027
G1 X90.587 Y114.413 E2.15799
G1 X90.587 Y95.647 E0.58839
G1 X90.210 Y95.210 F10800.000
G1 F1200
G1 X159.790 Y95.210 E2.18163
G1 X159.790 Y114.790 E0.61392
G1 X90.210 Y114.790 E2.18163
G1 X90.210 Y95.270 E0.61204
G1 X90.608 Y95.247 F10800.000
G1 F8640
G1 X93.501 Y95.267 E-0.76000
G1 E-0.04000 F2100.00000
G1 Z0.800 F10800.000
G1 X90.700 Y113.534
G1 Z0.200
G1 E0.80000 F2100.00000
G1 F1200
G1 X91.296 Y114.130 E0.02652
G1 X91.831 Y114.130 E0.01686
G1 X90.870 Y113.169 E0.04281
G1 X90.870 Y112.633 E0.01686
G1 X92.367 Y114.130 E0.06665
G1 X92.902 Y114.130 E0.01686
G1 X90.870 Y112.098 E0.09048
G1 X90.870 Y111.562 E0.01686
G1 X93.438 Y114.130 E0.11432
G1 X93.973 Y114.130 E0.01686
G1 X90.870 Y111.027 E0.13816
G1 X90.870 Y110.491 E0.01686
G1 X94.509 Y114.130 E0.16200
G1 X95.044 Y114.130 E0.01686
G1 X90.870 Y109.956 E0.18583
G1 X90.870 Y109.421 E0.01686
G1 X95.579 Y114.130 E0.20967
G1 X96.115 Y114.130 E0.01686
G1 X90.870 Y108.885 E0.23351
G1 X90.870 Y108.350 E0.01686
G1 X96.650 Y114.130 E0.25735
G1 X97.186 Y114.130 E0.01686
G1 X90.870 Y107.814 E0.28119
G1 X90.870 Y107.279 E0.01686
G1 X97.721 Y114.130 E0.30502
G1 X98.257 Y114.130 E0.01686
G1 X90.870 Y106.743 E0.32886
G1 X90.870 Y106.208 E0.01686
G1 X98.792 Y114.130 E0.35270
G1 X99.327 Y114.130 E0.01686
G1 X90.870 Y105.673 E0.37654
G1 X90.870 Y105.137 E0.01686
G1 X99.863 Y114.130 E0.40037
G1 X100.398 Y114.130 E0.01686
G1 X90.870 Y104.602 E0.42421
G1 X90.870 Y104.066 E0.01686
G1 X100.934 Y114.130 E0.44805
G1 X101.469 Y114.130 E0.01686
G1 X90.870 Y103.531 E0.47189
G1 X90.870 Y102.995 E0.01686
G1 X102.005 Y114.130 E0.49572
G1 X102.540 Y114.130 E0.01686
G1 X90.870 Y102.460 E0.51956
G1 X90.870 Y101.925 E0.01686
G1 X103.075 Y114.130 E0.54340
G1 X103.611 Y114.130 E0.01686
G1 X90.870 Y101.389 E0.56724
G1 X90.870 Y100.854 E0.01686
G1 X104.146 Y114.130 E0.59108
G1 X104.682 Y114.130 E0.01686
G1 X90.870 Y100.318 E0.61491
G1 X90.870 Y99.783 E0.01686
G1 X105.217 Y114.130 E0.63875
G1 X105.752 Y114.130 E0.01686
G1 X90.870 Y99.248 E0.66259
G1 X90.870 Y98.712 E0.01686
G1 X106.288 Y114.130 E0.68643
G1 X106.823 Y114.130 E0.01686
G1 X90.870 Y98.177 E0.71026
G1 X90.870 Y97.641 E0.01686
G1 X107.359 Y114.130 E0.73410
G1 X107.894 Y114.130 E0.01686
G1 X90.870 Y97.106 E0.75794
G1 X90.870 Y96.570 E0.01686
G1 X108.430 Y114.130 E0.78178
G1 X108.965 Y114.130 E0.01686
G1 X90.870 Y96.035 E0.80561
G1 X90.870 Y95.870 E0.00520
G1 X91.240 Y95.870 E0.01166
G1 X109.500 Y114.130 E0.81296
G1 X110.036 Y114.130 E0.01686
G1 X91.776 Y95.870 E0.81296
G1 X92.311 Y95.870 E0.01686
G1 X110.571 Y114.130 E0.81296
G1 X111.107 Y114.130 E0.01686
G1 X92.846 Y95.870 E0.81296
M73 Q4 S21
M73 P4 R21
G1 X93.382 Y95.870 E0.01686
G1 X111.642 Y114.130 E0.81296
G1 X112.178 Y114.130 E0.01686
G1 X93.917 Y95.870 E0.81296
G1 X94.453 Y95.870 E0.01686
G1 X112.713 Y114.130 E0.81296
G1 X113.248 Y114.130 E0.01686
G1 X94.988 Y95.870 E0.81296
G1 X95.524 Y95.870 E0.01686
G1 X113.784 Y114.130 E0.81296
G1 X114.319 Y114.130 E0.01686
G1 X96.059 Y95.870 E0.81296
G1 X96.594 Y95.870 E0.01686
G1 X114.855 Y114.130 E0.81296
G1 X115.390 Y114.130 E0.01686
G1 X97.130 Y95.870 E0.81296
G1 X97.665 Y95.870 E0.01686
G1 X115.926 Y114.130 E0.81296
G1 X116.461 Y114.130 E0.01686
G1 X98.201 Y95.870 E0.81296
G1 X98.736 Y95.870 E0.01686
G1 X116.996 Y114.130 E0.81296
G1 X117.532 Y114.130 E0.01686
G1 X99.272 Y95.870 E0.81296
G1 X99.807 Y95.870 E0.01686
G1 X118.067 Y114.130 E0.81296
G1 X118.603 Y114.130 E0.01686
G1 X100.342 Y95.870 E0.81296
G1 X100.878 Y95.870 E0.01686
G1 X119.138 Y114.130 E0.81296
G1 X119.674 Y114.130 E0.01686
G1 X101.413 Y95.870 E0.81296
G1 X101.949 Y95.870 E0.01686
G1 X120.209 Y114.130 E0.81296
G1 X120.744 Y114.130 E0.01686
G1 X102.484 Y95.870 E0.81296
G1 X103.020 Y95.870 E0.01686
G1 X121.280 Y114.130 E0.81296
G1 X121.815 Y114.130 E0.01686
G1 X103.555 Y95.870 E0.81296
G1 X104.090 Y95.870 E0.01686
G1 X122.351 Y114.130 E0.81296
G1 X122.886 Y114.130 E0.01686
G1 X104.626 Y95.870 E0.81296
G1 X105.161 Y95.870 E0.01686
G1 X123.422 Y114.130 E0.81296
G1 X123.957 Y114.130 E0.01686
G1 X105.697 Y95.870 E0.81296
G1 X106.232 Y95.870 E0.01686
G1 X124.492 Y114.130 E0.81296
G1 X125.028 Y114.130 E0.01686
G1 X106.768 Y95.870 E0.81296
G1 X107.303 Y95.870 E0.01686
G1 X125.563 Y114.130 E0.81296
G1 X126.099 Y114.130 E0.01686
G1 X107.838 Y95.870 E0.81296
G1 X108.374 Y95.870 E0.01686
G1 X126.634 Y114.130 E0.81296
G1 X127.170 Y114.130 E0.01686
G1 X108.909 Y95.870 E0.81296
G1 X109.445 Y95.870 E0.01686
G1 X127.705 Y114.130 E0.81296
G1 X128.240 Y114.130 E0.01686
G1 X109.980 Y95.870 E0.81296
G1 X110.516 Y95.870 E0.01686
G1 X128.776 Y114.130 E0.81296
G1 X129.311 Y114.130 E0.01686
G1 X111.051 Y95.870 E0.81296
G1 X111.586 Y95.870 E0.01686
G1 X129.847 Y114.130 E0.81296
G1 X130.382 Y114.130 E0.01686
G1 X112.122 Y95.870 E0.81296
G1 X112.657 Y95.870 E0.01686
G1 X130.918 Y114.130 E0.81296
G1 X131.453 Y114.130 E0.01686
G1 X113.193 Y95.870 E0.81296
G1 X113.728 Y95.870 E0.01686
G1 X131.988 Y114.130 E0.81296
G1 X132.524 Y114.130 E0.01686
G1 X114.264 Y95.870 E0.81296
G1 X114.799 Y95.870 E0.01686
G1 X133.059 Y114.130 E0.81296
G1 X133.595 Y114.130 E0.01686
G1 X115.334 Y95.870 E0.81296
G1 X115.870 Y95.870 E0.01686
G1 X134.130 Y114.130 E0.81296
G1 X134.666 Y114.130 E0.01686
G1 X116.405 Y95.870 E0.81296
G1 X116.941 Y95.870 E0.01686
G1 X135.201 Y114.130 E0.81296
G1 X135.736 Y114.130 E0.01686
G1 X117.476 Y95.870 E0.81296
M73 Q9 S20
M73 P9 R20
G1 X118.012 Y95.870 E0.01686
G1 X136.272 Y114.130 E0.81296
G1 X136.807 Y114.130 E0.01686
G1 X118.547 Y95.870 E0.81296
G1 X119.082 Y95.870 E0.01686
G1 X137.343 Y114.130 E0.81296
G1 X137.878 Y114.130 E0.01686
G1 X119.618 Y95.870 E0.81296
G1 X120.153 Y95.870 E0.01686
G1 X138.414 Y114.130 E0.81296
G1 X138.949 Y114.130 E0.01686
G1 X120.689 Y95.870 E0.81296
G1 X121.224 Y95.870 E0.01686
G1 X139.484 Y114.130 E0.81296
G1 X140.020 Y114.130 E0.01686
G1 X121.760 Y95.870 E0.81296
G1 X122.295 Y95.870 E0.01686
G1 X140.555 Y114.130 E0.81296
G1 X141.091 Y114.130 E0.01686
G1 X122.830 Y95.870 E0.81296
G1 X123.366 Y95.870 E0.01686
G1 X141.626 Y114.130 E0.81296
G1 X142.162 Y114.130 E0.01686
G1 X123.901 Y95.870 E0.81296
G1 X124.437 Y95.870 E0.01686
G1 X142.697 Y114.130 E0.81296
G1 X143.232 Y114.130 E0.01686
G1 X124.972 Y95.870 E0.81296
G1 X125.508 Y95.870 E0.01686
G1 X143.768 Y114.130 E0.81296
G1 X144.303 Y114.130 E0.01686
G1 X126.043 Y95.870 E0.81296
G1 X126.578 Y95.870 E0.01686
G1 X144.839 Y114.130 E0.81296
G1 X145.374 Y114.130 E0.01686
G1 X127.114 Y95.870 E0.81296
G1 X127.649 Y95.870 E0.01686
G1 X145.910 Y114.130 E0.81296
G1 X146.445 Y114.130 E0.01686
G1 X128.185 Y95.870 E0.81296
G1 X128.720 Y95.870 E0.01686
G1 X146.980 Y114.130 E0.81296
G1 X147.516 Y114.130 E0.01686
G1 X129.256 Y95.870 E0.81296
G1 X129.791 Y95.870 E0.01686
G1 X148.051 Y114.130 E0.81296
G1 X148.587 Y114.130 E0.01686
G1 X130.326 Y95.870 E0.81296
G1 X130.862 Y95.870 E0.01686
G1 X149.122 Y114.130 E0.81296
G1 X149.657 Y114.130 E0.01686
G1 X131.397 Y95.870 E0.81296
G1 X131.933 Y95.870 E0.01686
G1 X150.193 Y114.130 E0.81296
G1 X150.728 Y114.130 E0.01686
G1 X132.468 Y95.870 E0.81296
G1 X133.004 Y95.870 E0.01686
G1 X151.264 Y114.130 E0.81296
G1 X151.799 Y114.130 E0.01686
G1 X133.539 Y95.870 E0.81296
G1 X134.074 Y95.870 E0.01686
G1 X152.335 Y114.130 E0.81296
G1 X152.870 Y114.130 E0.01686
G1 X134.610 Y95.870 E0.81296
G1 X135.145 Y95.870 E0.01686
G1 X153.405 Y114.130 E0.81296
G1 X153.941 Y114.130 E0.01686
G1 X135.681 Y95.870 E0.81296
G1 X136.216 Y95.870 E0.01686
G1 X154.476 Y114.130 E0.81296
G1 X155.012 Y114.130 E0.01686
G1 X136.751 Y95.870 E0.81296
G1 X137.287 Y95.870 E0.01686
G1 X155.547 Y114.130 E0.81296
G1 X156.083 Y114.130 E0.01686
G1 X137.822 Y95.870 E0.81296
G1 X138.358 Y95.870 E0.01686
G1 X156.618 Y114.130 E0.81296
G1 X157.153 Y114.130 E0.01686
G1 X138.893 Y95.870 E0.81296
G1 X139.429 Y95.870 E0.01686
G1 X157.689 Y114.130 E0.81296
G1 X158.224 Y114.130 E0.01686
G1 X139.964 Y95.870 E0.81296
G1 X140.499 Y95.870 E0.01686
G1 X158.760 Y114.130 E0.81296
G1 X159.130 Y114.130 E0.01166
G1 X159.130 Y113.965 E0.00520
G1 X141.035 Y95.870 E0.80562
G1 X141.570 Y95.870 E0.01686
G1 X159.130 Y113.430 E0.78178
G1 X159.130 Y112.894 E0.01686
G1 X142.106 Y95.870 E0.75794
M73 Q14 S19
M73 P14 R19
G1 X142.641 Y95.870 E0.01686
G1 X159.130 Y112.359 E0.73410
G1 X159.130 Y111.823 E0.01686
G1 X143.177 Y95.870 E0.71027
G1 X143.712 Y95.870 E0.01686
G1 X159.130 Y111.288 E0.68643
G1 X159.130 Y110.753 E0.01686
G1 X144.247 Y95.870 E0.66259
G1 X144.783 Y95.870 E0.01686
G1 X159.130 Y110.217 E0.63875
G1 X159.130 Y109.682 E0.01686
G1 X145.318 Y95.870 E0.61491
G1 X145.854 Y95.870 E0.01686
G1 X159.130 Y109.146 E0.59108
G1 X159.130 Y108.611 E0.01686
G1 X146.389 Y95.870 E0.56724
G1 X146.925 Y95.870 E0.01686
G1 X159.130 Y108.075 E0.54340
G1 X159.130 Y107.540 E0.01686
G1 X147.460 Y95.870 E0.51956
G1 X147.995 Y95.870 E0.01686
G1 X159.130 Y107.005 E0.49573
G1 X159.130 Y106.469 E0.01686
G1 X148.531 Y95.870 E0.47189
G1 X149.066 Y95.870 E0.01686
G1 X159.130 Y105.934 E0.44805
G1 X159.130 Y105.398 E0.01686
G1 X149.602 Y95.870 E0.42421
G1 X150.137 Y95.870 E0.01686
G1 X159.130 Y104.863 E0.40038
G1 X159.130 Y104.327 E0.01686
G1 X150.673 Y95.870 E0.37654
G1 X151.208 Y95.870 E0.01686
G1 X159.130 Y103.792 E0.35270
G1 X159.130 Y103.257 E0.01686
G1 X151.743 Y95.870 E0.32886
G1 X152.279 Y95.870 E0.01686
G1 X159.130 Y102.721 E0.30502
G1 X159.130 Y102.186 E0.01686
G1 X152.814 Y95.870 E0.28119
G1 X153.350 Y95.870 E0.01686
G1 X159.130 Y101.650 E0.25735
G1 X159.130 Y101.115 E0.01686
G1 X153.885 Y95.870 E0.23351
G1 X154.421 Y95.870 E0.01686
G1 X159.130 Y100.579 E0.20967
G1 X159.130 Y100.044 E0.01686
G1 X154.956 Y95.870 E0.18584
G1 X155.491 Y95.870 E0.01686
G1 X159.130 Y99.509 E0.16200
G1 X159.130 Y98.973 E0.01686
G1 X156.027 Y95.870 E0.13816
G1 X156.562 Y95.870 E0.01686
G1 X159.130 Y98.438 E0.11432
G1 X159.130 Y97.902 E0.01686
G1 X157.098 Y95.870 E0.09048
G1 X157.633 Y95.870 E0.01686
G1 X159.130 Y97.367 E0.06665
G1 X159.130 Y96.831 E0.01686
G1 X158.169 Y95.870 E0.04281
G1 X158.704 Y95.870 E0.01686
G1 X159.300 Y96.466 E0.02653
M106 S255
;BEFORE_LAYER_CHANGE
G92 E0.0
;0.4


G1 F8640
G1 X158.704 Y95.870 E-0.19456
G1 X158.169 Y95.870 E-0.12363
G1 X159.130 Y96.831 E-0.31399
G1 X159.130 Y97.367 E-0.12363
G1 X159.117 Y97.354 E-0.00418
G1 E-0.04000 F2100.00000
G1 Z0.800 F10800.000
;AFTER_LAYER_CHANGE
;0.4
M104 S215 ; set temperature
M140 S60 ; set bed temperature
G1 X162.004 Y94.121
G1 Z0.400
G1 E0.80000 F2100.00000
G1 F3000
G1 X162.188 Y94.939 E0.02631
G1 X162.183 Y115.150 E0.63368
G1 X162.042 Y115.786 E0.02044
G1 X161.720 Y116.353 E0.02044
G1 X161.246 Y116.799 E0.02044
G1 X160.661 Y117.086 E0.02044
G1 X160.002 Y117.189 E0.02089
G1 X89.956 Y117.188 E2.19625
G1 X89.286 Y117.069 E0.02134
G1 X88.688 Y116.752 E0.02123
G1 X88.215 Y116.267 E0.02123
G1 X87.914 Y115.661 E0.02123
G1 X87.811 Y115.010 E0.02066
G1 X87.816 Y94.865 E0.63162
G1 X87.954 Y94.224 E0.02055
G1 X88.275 Y93.653 E0.02055
G1 X88.751 Y93.203 E0.02055
G1 X89.339 Y92.914 E0.02055
G1 X89.998 Y92.811 E0.02089
G1 X160.004 Y92.811 E2.19498
G1 X160.823 Y92.972 E0.02620
G1 X161.526 Y93.431 E0.02631
G1 X161.970 Y94.071 E0.02443
; PURGING FINISHED
G1 F8640
G1 X162.188 Y94.939 E-0.20664
G1 X162.187 Y97.336 E-0.55336
G1 E-0.04000 F2100.00000
G1 Z1.000 F10800.000
G1 X159.368 Y95.632
G1 Z0.400
G1 E0.80000 F2100.00000
M204 S800
G1 F2700
G1 X159.368 Y114.368 E0.63419
G1 X90.632 Y114.368 E2.32663
G1 X90.632 Y95.632 E0.63419
G1 X159.308 Y95.632 E2.32460
M204 S1000
G1 X159.775 Y95.225 F10800.000
M204 S800
G1 F2100
G1 X159.775 Y114.775 E0.66174
G1 X90.225 Y114.775 E2.35418
G1 X90.225 Y95.225 E0.66174
G1 X159.715 Y95.225 E2.35215
M204 S1000
G1 X159.607 Y95.588 F10800.000
G1 F8640
G1 X159.725 Y98.516 E-0.76000
G1 E-0.04000 F2100.00000
G1 Z1.000 F10800.000
G1 X158.422 Y114.246
G1 Z0.400
G1 E0.80000 F2100.00000
M204 S1250
G1 F11037.3
G1 X159.063 Y113.605 E0.03073
G1 X159.063 Y113.028 E0.01955
G1 X158.028 Y114.063 E0.04960
G1 X157.452 Y114.063 E0.01955
G1 X159.063 Y112.452 E0.07724
G1 X159.063 Y111.875 E0.01955
G1 X156.875 Y114.063 E0.10488
G1 X156.298 Y114.063 E0.01955
G1 X159.063 Y111.298 E0.13253
G1 X159.063 Y110.722 E0.01955
G1 X155.722 Y114.063 E0.16017
G1 X155.145 Y114.063 E0.01955
G1 X159.063 Y110.145 E0.18781
G1 X159.063 Y109.569 E0.01955
G1 X154.569 Y114.063 E0.21546
G1 X153.992 Y114.063 E0.01955
G1 X159.063 Y108.992 E0.24310
G1 X159.063 Y108.415 E0.01955
G1 X153.415 Y114.063 E0.27074
G1 X152.839 Y114.063 E0.01955
G1 X159.063 Y107.839 E0.29839
G1 X159.063 Y107.262 E0.01955
G1 X152.262 Y114.063 E0.32603
G1 X151.686 Y114.063 E0.01955
G1 X159.063 Y106.686 E0.35367
G1 X159.063 Y106.109 E0.01955
G1 X151.109 Y114.063 E0.38132
G1 X150.533 Y114.063 E0.01955
G1 X159.063 Y105.533 E0.40896
G1 X159.063 Y104.956 E0.01955
G1 X149.956 Y114.063 E0.43660
G1 X149.379 Y114.063 E0.01955
G1 X159.063 Y104.379 E0.46425
G1 X159.063 Y103.803 E0.01955
G1 X148.803 Y114.063 E0.49189
G1 X148.226 Y114.063 E0.01955
G1 X159.063 Y103.226 E0.51953
G1 X159.063 Y102.650 E0.01955
G1 X147.650 Y114.063 E0.54718
G1 X147.073 Y114.063 E0.01955
G1 X159.063 Y102.073 E0.57482
G1 X159.063 Y101.496 E0.01955
G1 X146.496 Y114.063 E0.60246
G1 X145.920 Y114.063 E0.01955
G1 X159.063 Y100.920 E0.63011
G1 X159.063 Y100.343 E0.01955
G1 X145.343 Y114.063 E0.65775
G1 X144.767 Y114.063 E0.01955
G1 X159.063 Y99.767 E0.68540
G1 X159.063 Y99.190 E0.01955
G1 X144.190 Y114.063 E0.71304
G1 X143.614 Y114.063 E0.01955
G1 X159.063 Y98.614 E0.74068
G1 X159.063 Y98.037 E0.01955
G1 X143.037 Y114.063 E0.76833
G1 X142.460 Y114.063 E0.01955
G1 X159.063 Y97.460 E0.79597
G1 X159.063 Y96.884 E0.01955
G1 X141.884 Y114.063 E0.82361
G1 X141.307 Y114.063 E0.01955
G1 X159.063 Y96.307 E0.85126
G1 X159.063 Y95.937 E0.01254
G1 X158.856 Y95.937 E0.00701
G1 X140.731 Y114.063 E0.86899
G1 X140.154 Y114.063 E0.01955
