; generated by Slic3r Prusa Edition 1.41.3+ on 2019-03-28 at 09:45:25

; 

; external perimeters extrusion width = 0.45mm
; perimeters extrusion width = 0.45mm
; infill extrusion width = 0.45mm
; solid infill extrusion width = 0.45mm
; top infill extrusion width = 0.40mm
; first layer extrusion width = 0.42mm

M73 P0 R23
M73 Q0 S23
M201 X1000 Y1000 Z1000 E5000 ; sets maximum accelerations, mm/sec^2
M203 X200 Y200 Z12 E120 ; sets maximum feedrates, mm/sec
M204 P1250 R1250 T1250 ; sets acceleration (P, T) and retract acceleration (R), mm/sec^2
M205 X8.00 Y8.00 Z0.40 E1.50 ; sets the jerk limits, mm/sec
M205 S0 T0 ; sets the minimum extruding and travel feed rate, mm/sec
M107
M115 U3.6.0 ; tell printer latest fw version
M83  ; extruder relative mode
M104 S220 ; set extruder temp
M140 S65 ; set bed temp
M190 S65 ; wait for bed temp
M109 S220 ; wait for extruder temp
G28 W ; home all without mesh bed level
G80 ; mesh bed leveling
G1 Y-3.0 F1000.0 ; go outside print area
G92 E0.0
G1 X60.0 E9.0  F1000.0 ; intro line
M73 Q0 S23
M73 P0 R22
G1 X100.0 E12.5  F1000.0 ; intro line
G92 E0.0
M221 S95
M900 K30; Filament gcode
G21 ; set units to millimeters
G90 ; use absolute coordinates
M83 ; use relative distances for extrusion
;BEFORE_LAYER_CHANGE
G92 E0.0
;0.2


G1 E-0.80000 F2100.00000
G1 Z0.600 F10800.000
;AFTER_LAYER_CHANGE
;0.2
G1 X92.010 Y69.161
G1 Z0.200
G1 E0.80000 F2100.00000
M204 S1000
G1 F1200
G1 X92.486 Y68.710 E0.02055
G1 X93.074 Y68.421 E0.02055
G1 X93.732 Y68.319 E0.02089
G1 X163.738 Y68.319 E2.19498
G1 X164.558 Y68.480 E0.02620
G1 X165.260 Y68.939 E0.02631
G1 X165.739 Y69.628 E0.02631
G1 X165.922 Y70.447 E0.02631
G1 X165.918 Y90.658 E0.63368
G1 X165.777 Y91.294 E0.02044
G1 X165.455 Y91.861 E0.02044
G1 X164.980 Y92.307 E0.02044
G1 X164.395 Y92.594 E0.02044
G1 X163.737 Y92.696 E0.02089
G1 X93.691 Y92.696 E2.19625
G1 X93.021 Y92.577 E0.02134
G1 X92.422 Y92.259 E0.02123
G1 X91.950 Y91.774 E0.02123
G1 X91.648 Y91.168 E0.02123
G1 X91.546 Y90.517 E0.02066
G1 X91.550 Y70.373 E0.63162
G1 X91.688 Y69.732 E0.02055
G1 X91.980 Y69.213 E0.01867
; PURGING FINISHED
G1 F8640
G1 X92.486 Y68.710 E-0.16462
G1 X93.074 Y68.421 E-0.15133
G1 X93.732 Y68.319 E-0.15384
G1 X94.989 Y68.319 E-0.29022
G1 E-0.04000 F2100.00000
G1 Z0.800 F10800.000
G1 X94.322 Y71.095
G1 Z0.200
G1 E0.80000 F2100.00000
G1 F1200
G1 X163.147 Y71.095 E2.15799
G1 X163.147 Y89.921 E0.59027
G1 X94.322 Y89.921 E2.15799
G1 X94.322 Y71.155 E0.58839
G1 X93.945 Y70.718 F10800.000
G1 F1200
G1 X163.525 Y70.718 E2.18163
G1 X163.525 Y90.298 E0.61392
G1 X93.945 Y90.298 E2.18163
G1 X93.945 Y70.778 E0.61204
G1 X94.343 Y70.754 F10800.000
G1 F8640
G1 X97.236 Y70.775 E-0.76000
G1 E-0.04000 F2100.00000
G1 Z0.800 F10800.000
G1 X94.435 Y89.042
G1 Z0.200
G1 E0.80000 F2100.00000
G1 F1200
G1 X95.030 Y89.638 E0.02652
G1 X95.566 Y89.638 E0.01686
G1 X94.604 Y88.676 E0.04281
G1 X94.604 Y88.141 E0.01686
G1 X96.101 Y89.638 E0.06665
G1 X96.637 Y89.638 E0.01686
G1 X94.604 Y87.606 E0.09048
G1 X94.604 Y87.070 E0.01686
G1 X97.172 Y89.638 E0.11432
G1 X97.708 Y89.638 E0.01686
G1 X94.604 Y86.535 E0.13816
G1 X94.604 Y85.999 E0.01686
G1 X98.243 Y89.638 E0.16200
G1 X98.778 Y89.638 E0.01686
G1 X94.604 Y85.464 E0.18583
G1 X94.604 Y84.928 E0.01686
G1 X99.314 Y89.638 E0.20967
G1 X99.849 Y89.638 E0.01686
G1 X94.604 Y84.393 E0.23351
G1 X94.604 Y83.858 E0.01686
G1 X100.385 Y89.638 E0.25735
G1 X100.920 Y89.638 E0.01686
G1 X94.604 Y83.322 E0.28119
G1 X94.604 Y82.787 E0.01686
G1 X101.456 Y89.638 E0.30502
G1 X101.991 Y89.638 E0.01686
G1 X94.604 Y82.251 E0.32886
G1 X94.604 Y81.716 E0.01686
G1 X102.526 Y89.638 E0.35270
G1 X103.062 Y89.638 E0.01686
G1 X94.604 Y81.180 E0.37654
G1 X94.604 Y80.645 E0.01686
G1 X103.597 Y89.638 E0.40037
G1 X104.133 Y89.638 E0.01686
G1 X94.604 Y80.110 E0.42421
G1 X94.604 Y79.574 E0.01686
G1 X104.668 Y89.638 E0.44805
G1 X105.204 Y89.638 E0.01686
G1 X94.604 Y79.039 E0.47189
G1 X94.604 Y78.503 E0.01686
G1 X105.739 Y89.638 E0.49572
G1 X106.274 Y89.638 E0.01686
G1 X94.604 Y77.968 E0.51956
G1 X94.604 Y77.432 E0.01686
G1 X106.810 Y89.638 E0.54340
G1 X107.345 Y89.638 E0.01686
G1 X94.604 Y76.897 E0.56724
G1 X94.604 Y76.362 E0.01686
G1 X107.881 Y89.638 E0.59108
G1 X108.416 Y89.638 E0.01686
G1 X94.604 Y75.826 E0.61491
G1 X94.604 Y75.291 E0.01686
G1 X108.952 Y89.638 E0.63875
G1 X109.487 Y89.638 E0.01686
G1 X94.604 Y74.755 E0.66259
G1 X94.604 Y74.220 E0.01686
G1 X110.022 Y89.638 E0.68643
G1 X110.558 Y89.638 E0.01686
G1 X94.604 Y73.684 E0.71026
G1 X94.604 Y73.149 E0.01686
G1 X111.093 Y89.638 E0.73410
G1 X111.629 Y89.638 E0.01686
G1 X94.604 Y72.614 E0.75794
G1 X94.604 Y72.078 E0.01686
G1 X112.164 Y89.638 E0.78178
G1 X112.700 Y89.638 E0.01686
G1 X94.604 Y71.543 E0.80561
G1 X94.604 Y71.378 E0.00520
G1 X94.975 Y71.378 E0.01166
G1 X113.235 Y89.638 E0.81296
G1 X113.770 Y89.638 E0.01686
G1 X95.510 Y71.378 E0.81296
G1 X96.046 Y71.378 E0.01686
G1 X114.306 Y89.638 E0.81296
G1 X114.841 Y89.638 E0.01686
G1 X96.581 Y71.378 E0.81296
M73 Q4 S22
M73 P4 R21
G1 X97.116 Y71.378 E0.01686
G1 X115.377 Y89.638 E0.81296
G1 X115.912 Y89.638 E0.01686
G1 X97.652 Y71.378 E0.81296
G1 X98.187 Y71.378 E0.01686
G1 X116.448 Y89.638 E0.81296
G1 X116.983 Y89.638 E0.01686
G1 X98.723 Y71.378 E0.81296
G1 X99.258 Y71.378 E0.01686
G1 X117.518 Y89.638 E0.81296
G1 X118.054 Y89.638 E0.01686
G1 X99.794 Y71.378 E0.81296
G1 X100.329 Y71.378 E0.01686
G1 X118.589 Y89.638 E0.81296
G1 X119.125 Y89.638 E0.01686
G1 X100.864 Y71.378 E0.81296
G1 X101.400 Y71.378 E0.01686
G1 X119.660 Y89.638 E0.81296
G1 X120.196 Y89.638 E0.01686
G1 X101.935 Y71.378 E0.81296
G1 X102.471 Y71.378 E0.01686
G1 X120.731 Y89.638 E0.81296
G1 X121.266 Y89.638 E0.01686
G1 X103.006 Y71.378 E0.81296
G1 X103.542 Y71.378 E0.01686
G1 X121.802 Y89.638 E0.81296
G1 X122.337 Y89.638 E0.01686
G1 X104.077 Y71.378 E0.81296
G1 X104.612 Y71.378 E0.01686
G1 X122.873 Y89.638 E0.81296
G1 X123.408 Y89.638 E0.01686
G1 X105.148 Y71.378 E0.81296
G1 X105.683 Y71.378 E0.01686
G1 X123.944 Y89.638 E0.81296
G1 X124.479 Y89.638 E0.01686
G1 X106.219 Y71.378 E0.81296
G1 X106.754 Y71.378 E0.01686
G1 X125.014 Y89.638 E0.81296
G1 X125.550 Y89.638 E0.01686
G1 X107.290 Y71.378 E0.81296
G1 X107.825 Y71.378 E0.01686
G1 X126.085 Y89.638 E0.81296
G1 X126.621 Y89.638 E0.01686
G1 X108.360 Y71.378 E0.81296
G1 X108.896 Y71.378 E0.01686
G1 X127.156 Y89.638 E0.81296
G1 X127.692 Y89.638 E0.01686
G1 X109.431 Y71.378 E0.81296
G1 X109.967 Y71.378 E0.01686
G1 X128.227 Y89.638 E0.81296
G1 X128.762 Y89.638 E0.01686
G1 X110.502 Y71.378 E0.81296
G1 X111.038 Y71.378 E0.01686
G1 X129.298 Y89.638 E0.81296
G1 X129.833 Y89.638 E0.01686
G1 X111.573 Y71.378 E0.81296
G1 X112.108 Y71.378 E0.01686
G1 X130.369 Y89.638 E0.81296
G1 X130.904 Y89.638 E0.01686
G1 X112.644 Y71.378 E0.81296
G1 X113.179 Y71.378 E0.01686
G1 X131.440 Y89.638 E0.81296
G1 X131.975 Y89.638 E0.01686
G1 X113.715 Y71.378 E0.81296
G1 X114.250 Y71.378 E0.01686
G1 X132.510 Y89.638 E0.81296
G1 X133.046 Y89.638 E0.01686
G1 X114.786 Y71.378 E0.81296
G1 X115.321 Y71.378 E0.01686
G1 X133.581 Y89.638 E0.81296
G1 X134.117 Y89.638 E0.01686
G1 X115.856 Y71.378 E0.81296
G1 X116.392 Y71.378 E0.01686
G1 X134.652 Y89.638 E0.81296
G1 X135.188 Y89.638 E0.01686
G1 X116.927 Y71.378 E0.81296
G1 X117.463 Y71.378 E0.01686
G1 X135.723 Y89.638 E0.81296
G1 X136.258 Y89.638 E0.01686
G1 X117.998 Y71.378 E0.81296
G1 X118.534 Y71.378 E0.01686
G1 X136.794 Y89.638 E0.81296
G1 X137.329 Y89.638 E0.01686
G1 X119.069 Y71.378 E0.81296
G1 X119.604 Y71.378 E0.01686
G1 X137.865 Y89.638 E0.81296
G1 X138.400 Y89.638 E0.01686
G1 X120.140 Y71.378 E0.81296
G1 X120.675 Y71.378 E0.01686
G1 X138.935 Y89.638 E0.81296
G1 X139.471 Y89.638 E0.01686
G1 X121.211 Y71.378 E0.81296
M73 Q9 S21
M73 P9 R20
G1 X121.746 Y71.378 E0.01686
G1 X140.006 Y89.638 E0.81296
G1 X140.542 Y89.638 E0.01686
G1 X122.282 Y71.378 E0.81296
G1 X122.817 Y71.378 E0.01686
G1 X141.077 Y89.638 E0.81296
G1 X141.613 Y89.638 E0.01686
G1 X123.352 Y71.378 E0.81296
G1 X123.888 Y71.378 E0.01686
G1 X142.148 Y89.638 E0.81296
G1 X142.683 Y89.638 E0.01686
G1 X124.423 Y71.378 E0.81296
G1 X124.959 Y71.378 E0.01686
G1 X143.219 Y89.638 E0.81296
G1 X143.754 Y89.638 E0.01686
G1 X125.494 Y71.378 E0.81296
G1 X126.029 Y71.378 E0.01686
G1 X144.290 Y89.638 E0.81296
G1 X144.825 Y89.638 E0.01686
G1 X126.565 Y71.378 E0.81296
G1 X127.100 Y71.378 E0.01686
G1 X145.361 Y89.638 E0.81296
G1 X145.896 Y89.638 E0.01686
G1 X127.636 Y71.378 E0.81296
G1 X128.171 Y71.378 E0.01686
G1 X146.431 Y89.638 E0.81296
G1 X146.967 Y89.638 E0.01686
G1 X128.707 Y71.378 E0.81296
G1 X129.242 Y71.378 E0.01686
G1 X147.502 Y89.638 E0.81296
G1 X148.038 Y89.638 E0.01686
G1 X129.777 Y71.378 E0.81296
G1 X130.313 Y71.378 E0.01686
G1 X148.573 Y89.638 E0.81296
G1 X149.109 Y89.638 E0.01686
G1 X130.848 Y71.378 E0.81296
G1 X131.384 Y71.378 E0.01686
G1 X149.644 Y89.638 E0.81296
G1 X150.179 Y89.638 E0.01686
G1 X131.919 Y71.378 E0.81296
G1 X132.455 Y71.378 E0.01686
G1 X150.715 Y89.638 E0.81296
G1 X151.250 Y89.638 E0.01686
G1 X132.990 Y71.378 E0.81296
G1 X133.525 Y71.378 E0.01686
G1 X151.786 Y89.638 E0.81296
G1 X152.321 Y89.638 E0.01686
G1 X134.061 Y71.378 E0.81296
G1 X134.596 Y71.378 E0.01686
G1 X152.857 Y89.638 E0.81296
G1 X153.392 Y89.638 E0.01686
G1 X135.132 Y71.378 E0.81296
G1 X135.667 Y71.378 E0.01686
G1 X153.927 Y89.638 E0.81296
G1 X154.463 Y89.638 E0.01686
G1 X136.203 Y71.378 E0.81296
G1 X136.738 Y71.378 E0.01686
G1 X154.998 Y89.638 E0.81296
G1 X155.534 Y89.638 E0.01686
G1 X137.273 Y71.378 E0.81296
G1 X137.809 Y71.378 E0.01686
G1 X156.069 Y89.638 E0.81296
G1 X156.605 Y89.638 E0.01686
G1 X138.344 Y71.378 E0.81296
G1 X138.880 Y71.378 E0.01686
G1 X157.140 Y89.638 E0.81296
G1 X157.675 Y89.638 E0.01686
G1 X139.415 Y71.378 E0.81296
G1 X139.951 Y71.378 E0.01686
G1 X158.211 Y89.638 E0.81296
G1 X158.746 Y89.638 E0.01686
G1 X140.486 Y71.378 E0.81296
G1 X141.021 Y71.378 E0.01686
G1 X159.282 Y89.638 E0.81296
G1 X159.817 Y89.638 E0.01686
G1 X141.557 Y71.378 E0.81296
G1 X142.092 Y71.378 E0.01686
G1 X160.353 Y89.638 E0.81296
G1 X160.888 Y89.638 E0.01686
G1 X142.628 Y71.378 E0.81296
G1 X143.163 Y71.378 E0.01686
G1 X161.423 Y89.638 E0.81296
G1 X161.959 Y89.638 E0.01686
G1 X143.699 Y71.378 E0.81296
G1 X144.234 Y71.378 E0.01686
G1 X162.494 Y89.638 E0.81296
G1 X162.865 Y89.638 E0.01166
G1 X162.865 Y89.473 E0.00520
G1 X144.769 Y71.378 E0.80562
G1 X145.305 Y71.378 E0.01686
G1 X162.865 Y88.937 E0.78178
G1 X162.865 Y88.402 E0.01686
G1 X145.840 Y71.378 E0.75794
M73 Q13 S20
M73 P13 R19
G1 X146.376 Y71.378 E0.01686
G1 X162.865 Y87.867 E0.73410
G1 X162.865 Y87.331 E0.01686
G1 X146.911 Y71.378 E0.71027
G1 X147.447 Y71.378 E0.01686
G1 X162.865 Y86.796 E0.68643
G1 X162.865 Y86.260 E0.01686
G1 X147.982 Y71.378 E0.66259
G1 X148.517 Y71.378 E0.01686
G1 X162.865 Y85.725 E0.63875
G1 X162.865 Y85.189 E0.01686
G1 X149.053 Y71.378 E0.61491
G1 X149.588 Y71.378 E0.01686
G1 X162.865 Y84.654 E0.59108
G1 X162.865 Y84.119 E0.01686
G1 X150.124 Y71.378 E0.56724
G1 X150.659 Y71.378 E0.01686
G1 X162.865 Y83.583 E0.54340
G1 X162.865 Y83.048 E0.01686
G1 X151.195 Y71.378 E0.51956
G1 X151.730 Y71.378 E0.01686
G1 X162.865 Y82.512 E0.49573
G1 X162.865 Y81.977 E0.01686
G1 X152.265 Y71.378 E0.47189
G1 X152.801 Y71.378 E0.01686
G1 X162.865 Y81.441 E0.44805
G1 X162.865 Y80.906 E0.01686
G1 X153.336 Y71.378 E0.42421
G1 X153.872 Y71.378 E0.01686
G1 X162.865 Y80.371 E0.40038
G1 X162.865 Y79.835 E0.01686
G1 X154.407 Y71.378 E0.37654
G1 X154.943 Y71.378 E0.01686
G1 X162.865 Y79.300 E0.35270
G1 X162.865 Y78.764 E0.01686
G1 X155.478 Y71.378 E0.32886
G1 X156.013 Y71.378 E0.01686
G1 X162.865 Y78.229 E0.30502
G1 X162.865 Y77.693 E0.01686
G1 X156.549 Y71.378 E0.28119
G1 X157.084 Y71.378 E0.01686
G1 X162.865 Y77.158 E0.25735
G1 X162.865 Y76.623 E0.01686
G1 X157.620 Y71.378 E0.23351
G1 X158.155 Y71.378 E0.01686
G1 X162.865 Y76.087 E0.20967
G1 X162.865 Y75.552 E0.01686
G1 X158.691 Y71.378 E0.18584
G1 X159.226 Y71.378 E0.01686
G1 X162.865 Y75.016 E0.16200
G1 X162.865 Y74.481 E0.01686
G1 X159.761 Y71.378 E0.13816
G1 X160.297 Y71.378 E0.01686
G1 X162.865 Y73.945 E0.11432
G1 X162.865 Y73.410 E0.01686
G1 X160.832 Y71.378 E0.09048
G1 X161.368 Y71.378 E0.01686
G1 X162.865 Y72.875 E0.06665
G1 X162.865 Y72.339 E0.01686
G1 X161.903 Y71.378 E0.04281
G1 X162.439 Y71.378 E0.01686
G1 X163.034 Y71.973 E0.02653
M106 S255
;BEFORE_LAYER_CHANGE
G92 E0.0
;0.4


G1 F8640
G1 X162.439 Y71.378 E-0.19456
G1 X161.903 Y71.378 E-0.12363
G1 X162.865 Y72.339 E-0.31399
G1 X162.865 Y72.875 E-0.12363
G1 X162.852 Y72.862 E-0.00418
G1 E-0.04000 F2100.00000
G1 Z0.800 F10800.000
;AFTER_LAYER_CHANGE
;0.4
M104 S215 ; set temperature
M140 S60 ; set bed temperature
G1 X165.739 Y69.628
G1 Z0.400
G1 E0.80000 F2100.00000
G1 F3000
G1 X165.922 Y70.447 E0.02631
G1 X165.918 Y90.658 E0.63368
G1 X165.777 Y91.294 E0.02044
G1 X165.455 Y91.861 E0.02044
G1 X164.980 Y92.307 E0.02044
G1 X164.395 Y92.594 E0.02044
G1 X163.737 Y92.696 E0.02089
G1 X93.691 Y92.696 E2.19625
G1 X93.021 Y92.577 E0.02134
G1 X92.422 Y92.259 E0.02123
G1 X91.950 Y91.774 E0.02123
G1 X91.648 Y91.168 E0.02123
G1 X91.546 Y90.517 E0.02066
G1 X91.550 Y70.373 E0.63162
G1 X91.688 Y69.732 E0.02055
G1 X92.010 Y69.161 E0.02055
G1 X92.486 Y68.710 E0.02055
G1 X93.074 Y68.421 E0.02055
G1 X93.732 Y68.319 E0.02089
G1 X163.738 Y68.319 E2.19498
G1 X164.558 Y68.480 E0.02620
G1 X165.260 Y68.939 E0.02631
G1 X165.704 Y69.579 E0.02443
; PURGING FINISHED
G1 F8640
G1 X165.922 Y70.447 E-0.20664
G1 X165.922 Y72.844 E-0.55336
G1 E-0.04000 F2100.00000
G1 Z1.000 F10800.000
G1 X163.102 Y71.140
G1 Z0.400
G1 E0.80000 F2100.00000
M204 S800
G1 F2700
G1 X163.102 Y89.876 E0.63419
G1 X94.367 Y89.876 E2.32663
G1 X94.367 Y71.140 E0.63419
G1 X163.042 Y71.140 E2.32460
M204 S1000
G1 X163.510 Y70.733 F10800.000
M204 S800
G1 F2100
G1 X163.510 Y90.283 E0.66174
G1 X93.960 Y90.283 E2.35418
G1 X93.960 Y70.733 E0.66174
G1 X163.450 Y70.733 E2.35215
M204 S1000
G1 X163.342 Y71.096 F10800.000
G1 F8640
G1 X163.460 Y74.024 E-0.76000
G1 E-0.04000 F2100.00000
G1 Z1.000 F10800.000
G1 X162.156 Y89.754
G1 Z0.400
G1 E0.80000 F2100.00000
M204 S1250
G1 F11037.3
G1 X162.797 Y89.113 E0.03073
G1 X162.797 Y88.536 E0.01955
G1 X161.763 Y89.570 E0.04960
G1 X161.186 Y89.570 E0.01955
G1 X162.797 Y87.959 E0.07724
G1 X162.797 Y87.383 E0.01955
G1 X160.610 Y89.570 E0.10488
G1 X160.033 Y89.570 E0.01955
G1 X162.797 Y86.806 E0.13253
G1 X162.797 Y86.230 E0.01955
G1 X159.456 Y89.570 E0.16017
G1 X158.880 Y89.570 E0.01955
G1 X162.797 Y85.653 E0.18781
G1 X162.797 Y85.076 E0.01955
G1 X158.303 Y89.570 E0.21546
G1 X157.727 Y89.570 E0.01955
G1 X162.797 Y84.500 E0.24310
G1 X162.797 Y83.923 E0.01955
G1 X157.150 Y89.570 E0.27074
G1 X156.573 Y89.570 E0.01955
G1 X162.797 Y83.347 E0.29839
G1 X162.797 Y82.770 E0.01955
G1 X155.997 Y89.570 E0.32603
G1 X155.420 Y89.570 E0.01955
G1 X162.797 Y82.194 E0.35367
G1 X162.797 Y81.617 E0.01955
G1 X154.844 Y89.570 E0.38132
G1 X154.267 Y89.570 E0.01955
G1 X162.797 Y81.040 E0.40896
G1 X162.797 Y80.464 E0.01955
G1 X153.690 Y89.570 E0.43660
G1 X153.114 Y89.570 E0.01955
G1 X162.797 Y79.887 E0.46425
G1 X162.797 Y79.311 E0.01955
G1 X152.537 Y89.570 E0.49189
G1 X151.961 Y89.570 E0.01955
G1 X162.797 Y78.734 E0.51953
G1 X162.797 Y78.157 E0.01955
G1 X151.384 Y89.570 E0.54718
G1 X150.808 Y89.570 E0.01955
G1 X162.797 Y77.581 E0.57482
G1 X162.797 Y77.004 E0.01955
G1 X150.231 Y89.570 E0.60246
G1 X149.654 Y89.570 E0.01955
G1 X162.797 Y76.428 E0.63011
G1 X162.797 Y75.851 E0.01955
G1 X149.078 Y89.570 E0.65775
G1 X148.501 Y89.570 E0.01955
G1 X162.797 Y75.274 E0.68540
G1 X162.797 Y74.698 E0.01955
G1 X147.925 Y89.570 E0.71304
G1 X147.348 Y89.570 E0.01955
G1 X162.797 Y74.121 E0.74068
G1 X162.797 Y73.545 E0.01955
G1 X146.771 Y89.570 E0.76833
G1 X146.195 Y89.570 E0.01955
G1 X162.797 Y72.968 E0.79597
G1 X162.797 Y72.392 E0.01955
G1 X145.618 Y89.570 E0.82361
G1 X145.042 Y89.570 E0.01955
G1 X162.797 Y71.815 E0.85126
G1 X162.797 Y71.445 E0.01254
G1 X162.590 Y71.445 E0.00701
G1 X144.465 Y89.570 E0.86899
G1 X143.889 Y89.570 E0.01955
G1 X162.014 Y71.445 E0.86899
G1 X161.437 Y71.445 E0.01955
G1 X143.312 Y89.570 E0.86899
G1 X142.735 Y89.570 E0.01955
G1 X160.861 Y71.445 E0.86899
G1 X160.284 Y71.445 E0.01955
G1 X142.159 Y89.570 E0.86899
