;FLAVOR:Marlin
;TIME:1441
;Filament used: 1.26337m
;Layer height: 0.3
;Generated with Cura_SteamEngine 4.0.0
M82 ;absolute extrusion mode
G21 ; set units to millimeters
G90 ; use absolute positioning
M82 ; absolute extrusion mode
M104 S200 ; set extruder temp
M140 S60 ; set bed temp
M190 S60 ; wait for bed temp
M109 S200 ; wait for extruder temp
G28 W ; home all without mesh bed level
G80 ; mesh bed leveling
G92 E0.0 ; reset extruder distance position
G1 Y-3.0 F1000.0 ; go outside print area
G1 X60.0 E9.0 F1000.0 ; intro line
G1 X100.0 E21.5 F1000.0 ; intro line
G92 E0.0 ; reset extruder distance position
G92 E0
G1 F2100 E-0.8
;LAYER_COUNT:17
;LAYER:0
M107
G0 F3600 X87.364 Y92.567 Z0.15
;TYPE:SKIRT
G1 F2100 E0
G1 F1350 X87.756 Y92.201 E0.01338
G1 X88.198 Y91.898 E0.02675
G1 X88.681 Y91.663 E0.04014
G1 X89.192 Y91.503 E0.0535
G1 X89.722 Y91.42 E0.06688
G1 X90.009 Y91.409 E0.07405
G1 X159.991 Y91.41 E1.81976
G1 X160.526 Y91.45 E1.83314
G1 X161.049 Y91.569 E1.84652
G1 X161.548 Y91.764 E1.85988
G1 X162.013 Y92.032 E1.87327
G1 X162.433 Y92.365 E1.88664
G1 X162.799 Y92.757 E1.90002
G1 X163.102 Y93.199 E1.91339
G1 X163.337 Y93.682 E1.92679
G1 X163.497 Y94.193 E1.94014
G1 X163.58 Y94.723 E1.95353
G1 X163.591 Y95.01 E1.96069
G1 X163.591 Y114.991 E2.45912
G1 X163.551 Y115.526 E2.4725
G1 X163.432 Y116.049 E2.48588
G1 X163.237 Y116.548 E2.49925
G1 X162.969 Y117.013 E2.51263
G1 X162.636 Y117.433 E2.526
G1 X162.244 Y117.799 E2.53938
G1 X161.802 Y118.102 E2.55275
G1 X161.319 Y118.337 E2.56615
G1 X160.808 Y118.497 E2.57951
G1 X160.278 Y118.58 E2.59289
G1 X159.991 Y118.591 E2.60005
G1 X90.009 Y118.591 E4.34576
G1 X89.474 Y118.551 E4.35914
G1 X88.951 Y118.432 E4.37252
G1 X88.452 Y118.237 E4.38589
G1 X87.987 Y117.969 E4.39928
G1 X87.567 Y117.636 E4.41265
G1 X87.201 Y117.244 E4.42602
G1 X86.898 Y116.802 E4.43939
G1 X86.663 Y116.319 E4.45279
G1 X86.503 Y115.808 E4.46615
G1 X86.42 Y115.278 E4.47953
G1 X86.409 Y114.991 E4.48669
G1 X86.409 Y95.009 E4.98515
G1 X86.449 Y94.474 E4.99853
G1 X86.568 Y93.951 E5.01191
G1 X86.763 Y93.452 E5.02527
G1 X87.031 Y92.987 E5.03866
G1 X87.364 Y92.567 E5.05203
G0 F3600 X87.758 Y92.734
G1 F1350 X88.145 Y92.408 E5.06466
G1 X88.578 Y92.147 E5.07727
G1 X89.046 Y91.957 E5.08987
G1 X89.539 Y91.844 E5.10248
G1 X90.009 Y91.809 E5.11424
G1 X159.991 Y91.81 E6.85995
G1 X160.495 Y91.85 E6.87256
G1 X160.986 Y91.969 E6.88516
G1 X161.453 Y92.164 E6.89779
G1 X161.883 Y92.429 E6.91039
G1 X162.266 Y92.759 E6.923
G1 X162.592 Y93.146 E6.93562
G1 X162.853 Y93.579 E6.94823
G1 X163.043 Y94.047 E6.96083
G1 X163.156 Y94.54 E6.97345
G1 X163.191 Y95.01 E6.98521
G1 X163.191 Y114.991 E7.48363
G1 X163.151 Y115.495 E7.49624
G1 X163.032 Y115.986 E7.50885
G1 X162.838 Y116.453 E7.52146
G1 X162.572 Y116.883 E7.53408
G1 X162.242 Y117.266 E7.54669
G1 X161.855 Y117.592 E7.55931
G1 X161.422 Y117.853 E7.57192
G1 X160.954 Y118.043 E7.58452
G1 X160.461 Y118.156 E7.59714
G1 X159.991 Y118.191 E7.60889
G1 X90.009 Y118.191 E9.3546
G1 X89.505 Y118.151 E9.36721
G1 X89.014 Y118.032 E9.37982
G1 X88.547 Y117.838 E9.39243
G1 X88.117 Y117.572 E9.40504
G1 X87.734 Y117.242 E9.41765
G1 X87.408 Y116.855 E9.43028
G1 X87.147 Y116.422 E9.44289
G1 X86.957 Y115.954 E9.45549
G1 X86.844 Y115.461 E9.46811
G1 X86.809 Y114.991 E9.47986
G1 X86.809 Y95.009 E9.97832
G1 X86.849 Y94.505 E9.99093
G1 X86.968 Y94.014 E10.00353
G1 X87.162 Y93.547 E10.01614
G1 X87.428 Y93.117 E10.02876
G1 X87.758 Y92.734 E10.04137
G1 F2100 E9.24137
;MESH:Jon McClain 101 Name Plate.stl
G0 F3600 X90.614 Y94.335
G0 X90.614 Y95.614
G0 X159.33 Y114.33
G0 X159.4 Y114.4
;TYPE:WALL-INNER
G1 F2100 E10.04137
G1 F1350 X90.6 Y114.4 E11.75759
G1 X90.6 Y95.6 E12.22656
G1 X159.4 Y95.6 E13.94278
G1 X159.4 Y114.4 E14.41175
G0 F3600 X159.8 Y114.8
;TYPE:WALL-OUTER
G1 F1350 X90.2 Y114.8 E16.14793
G1 X90.2 Y95.2 E16.63685
G1 X159.8 Y95.2 E18.37303
G1 X159.8 Y114.8 E18.86196
G0 F3600 X159.6 Y114.8
G0 X159.01 Y114.01
;TYPE:SKIN
G1 F1350 X90.99 Y114.01 E20.55872
G1 X90.99 Y95.99 E21.00823
G1 X159.01 Y95.99 E22.705
G1 X159.01 Y114.01 E23.15451
G0 F3600 X158.829 Y96.604
G1 F1350 X158.395 Y96.17 E23.16982
G0 F3600 X157.829 Y96.17
G1 F1350 X158.829 Y97.169 E23.20508
G0 F3600 X158.829 Y97.735
G1 F1350 X157.264 Y96.17 E23.26029
G0 F3600 X156.698 Y96.17
G1 F1350 X158.829 Y98.301 E23.33547
G0 F3600 X158.829 Y98.866
G1 F1350 X156.132 Y96.17 E23.43059
G0 F3600 X155.567 Y96.17
G1 F1350 X158.829 Y99.432 E23.54567
G0 F3600 X158.829 Y99.998
G1 F1350 X155.001 Y96.17 E23.68071
G0 F3600 X154.435 Y96.17
G1 F1350 X158.829 Y100.564 E23.83572
G0 F3600 X158.829 Y101.129
G1 F1350 X153.869 Y96.17 E24.01068
G0 F3600 X153.304 Y96.17
G1 F1350 X158.829 Y101.695 E24.20559
G0 F3600 X158.829 Y102.261
G1 F1350 X152.738 Y96.17 E24.42047
G0 F3600 X152.172 Y96.17
G1 F1350 X158.829 Y102.826 E24.65529
G0 F3600 X158.829 Y103.392
G1 F1350 X151.607 Y96.17 E24.91007
G0 F3600 X151.041 Y96.17
G1 F1350 X158.829 Y103.958 E25.18481
G0 F3600 X158.829 Y104.523
G1 F1350 X150.475 Y96.17 E25.4795
G0 F3600 X149.91 Y96.17
G1 F1350 X158.829 Y105.089 E25.79415
G0 F3600 X158.829 Y105.655
G1 F1350 X149.344 Y96.17 E26.12875
G0 F3600 X148.778 Y96.17
G1 F1350 X158.829 Y106.22 E26.48331
G0 F3600 X158.829 Y106.786
G1 F1350 X148.213 Y96.17 E26.85782
G0 F3600 X147.647 Y96.17
G1 F1350 X158.829 Y107.352 E27.2523
G0 F3600 X158.829 Y107.917
G1 F1350 X147.081 Y96.17 E27.66672
G0 F3600 X146.516 Y96.17
G1 F1350 X158.829 Y108.483 E28.1011
G0 F3600 X158.829 Y109.049
G1 F1350 X145.95 Y96.17 E28.55544
G0 F3600 X145.384 Y96.17
G1 F1350 X158.829 Y109.614 E29.02973
G0 F3600 X158.829 Y110.18
G1 F1350 X144.819 Y96.17 E29.52397
G0 F3600 X144.253 Y96.17
G1 F1350 X158.829 Y110.746 E30.03818
G0 F3600 X158.829 Y111.312
G1 F1350 X143.687 Y96.17 E30.57235
G0 F3600 X143.121 Y96.17
G1 F1350 X158.829 Y111.877 E31.12648
G0 F3600 X158.829 Y112.443
G1 F1350 X142.556 Y96.17 E31.70055
G0 F3600 X141.99 Y96.17
G1 F1350 X158.829 Y113.009 E32.29459
G0 F3600 X158.829 Y113.574
G1 F1350 X141.424 Y96.17 E32.90858
G0 F3600 X140.859 Y96.17
G1 F1350 X158.518 Y113.829 E33.53155
G0 F3600 X157.952 Y113.829
G1 F1350 X140.293 Y96.17 E34.15452
G0 F3600 X139.727 Y96.17
G1 F1350 X157.387 Y113.829 E34.77751
G0 F3600 X156.821 Y113.829
G1 F1350 X139.162 Y96.17 E35.40047
G0 F3600 X138.596 Y96.17
G1 F1350 X156.255 Y113.829 E36.02344
G0 F3600 X155.69 Y113.829
G1 F1350 X138.03 Y96.17 E36.64643
G0 F3600 X137.465 Y96.17
G1 F1350 X155.124 Y113.829 E37.2694
G0 F3600 X154.558 Y113.829
G1 F1350 X136.899 Y96.17 E37.89237
G0 F3600 X136.333 Y96.17
G1 F1350 X153.993 Y113.829 E38.51535
G0 F3600 X153.427 Y113.829
G1 F1350 X135.768 Y96.17 E39.13832
G0 F3600 X135.202 Y96.17
G1 F1350 X152.861 Y113.829 E39.76129
G0 F3600 X152.295 Y113.829
G1 F1350 X134.636 Y96.17 E40.38426
G0 F3600 X134.07 Y96.17
G1 F1350 X151.73 Y113.829 E41.00725
G0 F3600 X151.164 Y113.829
G1 F1350 X133.505 Y96.17 E41.63022
G0 F3600 X132.939 Y96.17
G1 F1350 X150.598 Y113.829 E42.25319
G0 F3600 X150.033 Y113.829
G1 F1350 X132.373 Y96.17 E42.87617
G0 F3600 X131.808 Y96.17
G1 F1350 X149.467 Y113.829 E43.49914
G0 F3600 X148.901 Y113.829
G1 F1350 X131.242 Y96.17 E44.12211
G0 F3600 X130.676 Y96.17
G1 F1350 X148.336 Y113.829 E44.7451
G0 F3600 X147.77 Y113.829
G1 F1350 X130.111 Y96.17 E45.36807
G0 F3600 X129.545 Y96.17
G1 F1350 X147.204 Y113.829 E45.99103
G0 F3600 X146.639 Y113.829
G1 F1350 X128.979 Y96.17 E46.61402
G0 F3600 X128.414 Y96.17
G1 F1350 X146.073 Y113.829 E47.23699
G0 F3600 X145.507 Y113.829
G1 F1350 X127.848 Y96.17 E47.85996
G0 F3600 X127.282 Y96.17
G1 F1350 X144.942 Y113.829 E48.48295
G0 F3600 X144.376 Y113.829
G1 F1350 X126.717 Y96.17 E49.10591
G0 F3600 X126.151 Y96.17
G1 F1350 X143.81 Y113.829 E49.72888
G0 F3600 X143.244 Y113.829
G1 F1350 X125.585 Y96.17 E50.35185
G0 F3600 X125.02 Y96.17
G1 F1350 X142.679 Y113.829 E50.97482
G0 F3600 X142.113 Y113.829
G1 F1350 X124.454 Y96.17 E51.59779
G0 F3600 X123.888 Y96.17
G1 F1350 X141.547 Y113.829 E52.22076
G0 F3600 X140.982 Y113.829
G1 F1350 X123.322 Y96.17 E52.84375
G0 F3600 X122.757 Y96.17
G1 F1350 X140.416 Y113.829 E53.46671
G0 F3600 X139.85 Y113.829
G1 F1350 X122.191 Y96.17 E54.08968
G0 F3600 X121.625 Y96.17
G1 F1350 X139.285 Y113.829 E54.71267
G0 F3600 X138.719 Y113.829
G1 F1350 X121.06 Y96.17 E55.33564
G0 F3600 X120.494 Y96.17
G1 F1350 X138.153 Y113.829 E55.95861
G0 F3600 X137.588 Y113.829
G1 F1350 X119.928 Y96.17 E56.58159
G0 F3600 X119.363 Y96.17
G1 F1350 X137.022 Y113.829 E57.20456
G0 F3600 X136.456 Y113.829
G1 F1350 X118.797 Y96.17 E57.82753
G0 F3600 X118.231 Y96.17
G1 F1350 X135.891 Y113.829 E58.45052
G0 F3600 X135.325 Y113.829
G1 F1350 X117.666 Y96.17 E59.07349
G0 F3600 X117.1 Y96.17
G1 F1350 X134.759 Y113.829 E59.69646
G0 F3600 X134.194 Y113.829
G1 F1350 X116.534 Y96.17 E60.31944
G0 F3600 X115.969 Y96.17
G1 F1350 X133.628 Y113.829 E60.94241
G0 F3600 X133.062 Y113.829
G1 F1350 X115.403 Y96.17 E61.56538
G0 F3600 X114.837 Y96.17
G1 F1350 X132.496 Y113.829 E62.18835
G0 F3600 X131.931 Y113.829
G1 F1350 X114.271 Y96.17 E62.81134
G0 F3600 X113.706 Y96.17
G1 F1350 X131.365 Y113.829 E63.43431
G0 F3600 X130.799 Y113.829
G1 F1350 X113.14 Y96.17 E64.05727
G0 F3600 X112.574 Y96.17
G1 F1350 X130.234 Y113.829 E64.68026
G0 F3600 X129.668 Y113.829
G1 F1350 X112.009 Y96.17 E65.30323
G0 F3600 X111.443 Y96.17
G1 F1350 X129.102 Y113.829 E65.9262
G0 F3600 X128.537 Y113.829
G1 F1350 X110.877 Y96.17 E66.54919
G0 F3600 X110.312 Y96.17
G1 F1350 X127.971 Y113.829 E67.17215
G0 F3600 X127.405 Y113.829
G1 F1350 X109.746 Y96.17 E67.79512
G0 F3600 X109.18 Y96.17
G1 F1350 X126.84 Y113.829 E68.41811
G0 F3600 X126.274 Y113.829
G1 F1350 X108.615 Y96.17 E69.04108
G0 F3600 X108.049 Y96.17
G1 F1350 X125.708 Y113.829 E69.66405
G0 F3600 X125.143 Y113.829
G1 F1350 X107.483 Y96.17 E70.28703
G0 F3600 X106.918 Y96.17
G1 F1350 X124.577 Y113.829 E70.91
G0 F3600 X124.011 Y113.829
G1 F1350 X106.352 Y96.17 E71.53297
G0 F3600 X105.786 Y96.17
G1 F1350 X123.445 Y113.829 E72.15594
G0 F3600 X122.88 Y113.829
G1 F1350 X105.221 Y96.17 E72.77891
G0 F3600 X104.655 Y96.17
G1 F1350 X122.314 Y113.829 E73.40188
G0 F3600 X121.748 Y113.829
G1 F1350 X104.089 Y96.17 E74.02485
G0 F3600 X103.523 Y96.17
G1 F1350 X121.183 Y113.829 E74.64783
G0 F3600 X120.617 Y113.829
G1 F1350 X102.958 Y96.17 E75.2708
G0 F3600 X102.392 Y96.17
G1 F1350 X120.051 Y113.829 E75.89377
G0 F3600 X119.486 Y113.829
G1 F1350 X101.826 Y96.17 E76.51676
G0 F3600 X101.261 Y96.17
G1 F1350 X118.92 Y113.829 E77.13973
G0 F3600 X118.354 Y113.829
G1 F1350 X100.695 Y96.17 E77.7627
G0 F3600 X100.129 Y96.17
G1 F1350 X117.789 Y113.829 E78.38568
G0 F3600 X117.223 Y113.829
G1 F1350 X99.564 Y96.17 E79.00865
G0 F3600 X98.998 Y96.17
G1 F1350 X116.657 Y113.829 E79.63162
G0 F3600 X116.092 Y113.829
G1 F1350 X98.432 Y96.17 E80.25461
G0 F3600 X97.867 Y96.17
G1 F1350 X115.526 Y113.829 E80.87758
G0 F3600 X114.96 Y113.829
G1 F1350 X97.301 Y96.17 E81.50055
G0 F3600 X96.735 Y96.17
G1 F1350 X114.395 Y113.829 E82.12353
G0 F3600 X113.829 Y113.829
G1 F1350 X96.17 Y96.17 E82.7465
G0 F3600 X95.604 Y96.17
G1 F1350 X113.263 Y113.829 E83.36947
G0 F3600 X112.697 Y113.829
G1 F1350 X95.038 Y96.17 E83.99244
G0 F3600 X94.473 Y96.17
G1 F1350 X112.132 Y113.829 E84.61541
G0 F3600 X111.566 Y113.829
G1 F1350 X93.907 Y96.17 E85.23838
G0 F3600 X93.341 Y96.17
G1 F1350 X111 Y113.829 E85.86135
G0 F3600 X110.435 Y113.829
G1 F1350 X92.775 Y96.17 E86.48433
G0 F3600 X92.21 Y96.17
G1 F1350 X109.869 Y113.829 E87.1073
G0 F3600 X109.303 Y113.829
G1 F1350 X91.644 Y96.17 E87.73027
G0 F3600 X91.169 Y96.26
G1 F1350 X108.738 Y113.829 E88.35006
G0 F3600 X108.172 Y113.829
G1 F1350 X91.169 Y96.826 E88.94989
G0 F3600 X91.169 Y97.391
G1 F1350 X107.606 Y113.829 E89.52977
G0 F3600 X107.041 Y113.829
G1 F1350 X91.169 Y97.957 E90.08969
G0 F3600 X91.169 Y98.523
G1 F1350 X106.475 Y113.829 E90.62966
G0 F3600 X105.909 Y113.829
G1 F1350 X91.169 Y99.088 E91.14967
G0 F3600 X91.169 Y99.654
G1 F1350 X105.344 Y113.829 E91.64973
G0 F3600 X104.778 Y113.829
G1 F1350 X91.169 Y100.22 E92.12982
G0 F3600 X91.169 Y100.786
G1 F1350 X104.212 Y113.829 E92.58995
G0 F3600 X103.647 Y113.829
G1 F1350 X91.169 Y101.351 E93.03014
G0 F3600 X91.169 Y101.917
G1 F1350 X103.081 Y113.829 E93.45037
G0 F3600 X102.515 Y113.829
G1 F1350 X91.169 Y102.483 E93.85063
G0 F3600 X91.169 Y103.048
G1 F1350 X101.949 Y113.829 E94.23094
G0 F3600 X101.384 Y113.829
G1 F1350 X91.169 Y103.614 E94.59131
G0 F3600 X91.169 Y104.18
G1 F1350 X100.818 Y113.829 E94.9317
G0 F3600 X100.252 Y113.829
G1 F1350 X91.169 Y104.745 E95.25215
G0 F3600 X91.169 Y105.311
G1 F1350 X99.687 Y113.829 E95.55264
G0 F3600 X99.121 Y113.829
G1 F1350 X91.169 Y105.877 E95.83317
G0 F3600 X91.169 Y106.442
G1 F1350 X98.555 Y113.829 E96.09375
G0 F3600 X97.99 Y113.829
G1 F1350 X91.169 Y107.008 E96.33438
G0 F3600 X91.169 Y107.574
G1 F1350 X97.424 Y113.829 E96.55504
G0 F3600 X96.858 Y113.829
G1 F1350 X91.169 Y108.139 E96.75575
G0 F3600 X91.169 Y108.705
G1 F1350 X96.293 Y113.829 E96.93651
G0 F3600 X95.727 Y113.829
G1 F1350 X91.169 Y109.271 E97.09731
G0 F3600 X91.169 Y109.837
G1 F1350 X95.161 Y113.829 E97.23814
G0 F3600 X94.596 Y113.829
G1 F1350 X91.169 Y110.402 E97.35904
G0 F3600 X91.169 Y110.968
G1 F1350 X94.03 Y113.829 E97.45997
G0 F3600 X93.464 Y113.829
G1 F1350 X91.169 Y111.534 E97.54093
G0 F3600 X91.169 Y112.099
G1 F1350 X92.898 Y113.829 E97.60194
G0 F3600 X92.333 Y113.829
G1 F1350 X91.169 Y112.665 E97.643
G0 F3600 X91.169 Y113.231
G1 F1350 X91.767 Y113.829 E97.6641
M104 S200
G1 X91.837 Y113.899
;MESH:NONMESH
G0 F3600 X159.33 Y114.33
G0 X159.4 Y114.4
;TIME_ELAPSED:188.317347
;LAYER:1
M140 S60
M106 S255
;MESH:Jon McClain 101 Name Plate.stl
G0 F5400 X159.4 Y114.4 Z0.45
;TYPE:WALL-INNER
G1 F2025 X90.6 Y114.4 E101.09655
G1 X90.6 Y95.6 E102.03448
G1 X159.4 Y95.6 E105.46693
G1 X159.4 Y114.4 E106.40486
G0 F5400 X159.8 Y114.8
;TYPE:WALL-OUTER
G1 F1350 X90.2 Y114.8 E109.87722
G1 X90.2 Y95.2 E110.85507
G1 X159.8 Y95.2 E114.32743
G1 X159.8 Y114.8 E115.30528
G0 F5400 X159.6 Y114.8
G0 X159.01 Y114.01
;TYPE:SKIN
G1 F1350 X90.99 Y114.01 E118.69881
G1 X90.99 Y95.99 E119.59783
G1 X159.01 Y95.99 E122.99136
G1 X159.01 Y114.01 E123.89038
G0 F5400 X158.828 Y113.265
G1 F1350 X158.264 Y113.83 E123.93021
G0 F5400 X157.698 Y113.83
G1 F1350 X158.828 Y112.7 E124.00994
G0 F5400 X158.828 Y112.134
G1 F1350 X157.133 Y113.83 E124.12956
G0 F5400 X156.567 Y113.83
G1 F1350 X158.828 Y111.568 E124.28913
G0 F5400 X158.828 Y111.003
G1 F1350 X156.001 Y113.83 E124.48859
G0 F5400 X155.436 Y113.83
G1 F1350 X158.828 Y110.437 E124.72794
G0 F5400 X158.828 Y109.871
G1 F1350 X154.87 Y113.83 E125.00724
G0 F5400 X154.304 Y113.83
G1 F1350 X158.828 Y109.305 E125.32647
G0 F5400 X158.828 Y108.74
G1 F1350 X153.739 Y113.83 E125.68556
G0 F5400 X153.173 Y113.83
G1 F1350 X158.828 Y108.174 E126.08458
G0 F5400 X158.828 Y107.608
G1 F1350 X152.607 Y113.83 E126.52354
G0 F5400 X152.042 Y113.83
G1 F1350 X158.828 Y107.043 E127.00237
G0 F5400 X158.828 Y106.477
G1 F1350 X151.476 Y113.83 E127.52113
G0 F5400 X150.91 Y113.83
G1 F1350 X158.828 Y105.911 E128.07982
G0 F5400 X158.828 Y105.346
G1 F1350 X150.345 Y113.83 E128.67838
G0 F5400 X149.779 Y113.83
G1 F1350 X158.828 Y104.78 E129.31687
G0 F5400 X158.828 Y104.214
G1 F1350 X149.213 Y113.83 E129.99529
G0 F5400 X148.647 Y113.83
G1 F1350 X158.828 Y103.649 E130.71362
G0 F5400 X158.828 Y103.083
G1 F1350 X148.082 Y113.83 E131.47184
G0 F5400 X147.516 Y113.83
G1 F1350 X158.828 Y102.517 E132.27
G0 F5400 X158.828 Y101.952
G1 F1350 X146.95 Y113.83 E133.10806
G0 F5400 X146.385 Y113.83
G1 F1350 X158.828 Y101.386 E133.98601
G0 F5400 X158.828 Y100.82
G1 F1350 X145.819 Y113.83 E134.9039
G0 F5400 X145.253 Y113.83
G1 F1350 X158.828 Y100.255 E135.86169
G0 F5400 X158.828 Y99.689
G1 F1350 X144.688 Y113.83 E136.85938
G0 F5400 X144.122 Y113.83
G1 F1350 X158.828 Y99.123 E137.897
G0 F5400 X158.828 Y98.557
G1 F1350 X143.556 Y113.83 E138.97456
G0 F5400 X142.991 Y113.83
G1 F1350 X158.828 Y97.992 E140.09198
G0 F5400 X158.828 Y97.426
G1 F1350 X142.425 Y113.83 E141.24934
G0 F5400 X141.859 Y113.83
G1 F1350 X158.828 Y96.86 E142.44663
G0 F5400 X158.828 Y96.295
G1 F1350 X141.294 Y113.83 E143.68378
G0 F5400 X140.728 Y113.83
G1 F1350 X158.389 Y96.169 E144.92986
G0 F5400 X157.823 Y96.169
