; generated by Slic3r Prusa Edition 1.41.2+ on 2019-02-18 at 15:06:05

; 

; external perimeters extrusion width = 0.45mm
; perimeters extrusion width = 0.45mm
; infill extrusion width = 0.45mm
; solid infill extrusion width = 0.45mm
; top infill extrusion width = 0.40mm
; first layer extrusion width = 0.42mm

M73 P0 R72
M73 Q0 S72
M201 X1000 Y1000 Z1000 E5000 ; sets maximum accelerations, mm/sec^2
M203 X200 Y200 Z12 E120 ; sets maximum feedrates, mm/sec
M204 P1250 R1250 T1250 ; sets acceleration (P, T) and retract acceleration (R), mm/sec^2
M205 X8.00 Y8.00 Z0.40 E1.50 ; sets the jerk limits, mm/sec
M205 S0 T0 ; sets the minimum extruding and travel feed rate, mm/sec
M107
M115 U3.5.1 ; tell printer latest fw version
M83  ; extruder relative mode
M104 S220 ; set extruder temp
M140 S65 ; set bed temp
M190 S65 ; wait for bed temp
M109 S220 ; wait for extruder temp
G28 W ; home all without mesh bed level
G80 ; mesh bed leveling
G1 Y-3.0 F1000.0 ; go outside print area
G92 E0.0
G1 X60.0 E9.0  F1000.0 ; intro line
M73 Q0 S72
M73 P0 R72
G1 X100.0 E12.5  F1000.0 ; intro line
G92 E0.0
M221 S95
M900 K30; Filament gcode
G21 ; set units to millimeters
G90 ; use absolute coordinates
M83 ; use relative distances for extrusion
;BEFORE_LAYER_CHANGE
G92 E0.0
;0.2


G1 E-0.80000 F2100.00000
G1 Z0.600 F10800.000
;AFTER_LAYER_CHANGE
;0.2
G1 X9.382 Y54.828
G1 Z0.200
G1 E0.80000 F2100.00000
M204 S1000
G1 F1200
G1 X9.182 Y54.031 E0.02574
G1 X9.209 Y43.548 E0.32869
G1 X9.450 Y42.854 E0.02304
G1 X9.907 Y42.279 E0.02304
G1 X10.529 Y41.887 E0.02304
G1 X11.245 Y41.724 E0.02304
G1 X231.371 Y41.720 E6.90191
G1 X232.201 Y41.885 E0.02653
G1 X232.909 Y42.355 E0.02664
G1 X233.385 Y43.059 E0.02664
G1 X233.556 Y43.892 E0.02664
G1 X233.526 Y54.272 E0.32548
G1 X233.285 Y54.963 E0.02293
G1 X232.828 Y55.538 E0.02304
G1 X232.207 Y55.930 E0.02304
G1 X231.490 Y56.094 E0.02304
G1 X11.349 Y56.097 E6.90237
G1 X10.544 Y55.936 E0.02574
G1 X9.857 Y55.493 E0.02563
G1 X9.416 Y54.877 E0.02375
; PURGING FINISHED
G1 F8640
G1 X9.182 Y54.031 E-0.20254
G1 X9.189 Y51.617 E-0.55746
G1 E-0.04000 F2100.00000
G1 Z0.800 F10800.000
G1 X11.955 Y53.322
G1 Z0.200
G1 E0.80000 F2100.00000
G1 F1200
G1 X11.955 Y44.496 E0.27673
G1 X230.780 Y44.496 E6.86113
G1 X230.780 Y53.322 E0.27673
G1 X12.015 Y53.322 E6.85925
G1 X11.578 Y53.699 F10800.000
G1 F1200
G1 X11.578 Y44.119 E0.30037
G1 X231.158 Y44.119 E6.88478
M73 Q1 S71
M73 P1 R71
G1 X231.158 Y53.699 E0.30037
G1 X11.638 Y53.699 E6.88290
G1 X11.773 Y53.349 F10800.000
G1 F8640
G1 X11.617 Y50.407 E-0.76000
G1 E-0.04000 F2100.00000
G1 Z0.800 F10800.000
G1 X12.831 Y53.208
G1 Z0.200
G1 E0.80000 F2100.00000
G1 F1200
G1 X12.237 Y52.615 E0.02631
G1 X12.237 Y52.082 E0.01674
G1 X13.194 Y53.039 E0.04245
G1 X13.728 Y53.039 E0.01674
G1 X12.237 Y51.548 E0.06612
G1 X12.237 Y51.015 E0.01674
G1 X14.261 Y53.039 E0.08979
G1 X14.795 Y53.039 E0.01674
G1 X12.237 Y50.481 E0.11345
G1 X12.237 Y49.948 E0.01674
G1 X15.328 Y53.039 E0.13712
G1 X15.862 Y53.039 E0.01674
G1 X12.237 Y49.414 E0.16079
G1 X12.237 Y48.881 E0.01674
G1 X16.395 Y53.039 E0.18446
G1 X16.929 Y53.039 E0.01674
G1 X12.237 Y48.347 E0.20812
G1 X12.237 Y47.814 E0.01674
G1 X17.462 Y53.039 E0.23179
G1 X17.996 Y53.039 E0.01674
G1 X12.237 Y47.280 E0.25546
G1 X12.237 Y46.747 E0.01674
G1 X18.529 Y53.039 E0.27912
G1 X19.063 Y53.039 E0.01674
G1 X12.237 Y46.213 E0.30279
G1 X12.237 Y45.680 E0.01674
G1 X19.597 Y53.039 E0.32646
G1 X20.130 Y53.039 E0.01674
G1 X12.237 Y45.146 E0.35013
G1 X12.237 Y44.778 E0.01153
G1 X12.403 Y44.778 E0.00520
G1 X20.664 Y53.039 E0.36644
G1 X21.197 Y53.039 E0.01674
G1 X12.937 Y44.778 E0.36644
G1 X13.470 Y44.778 E0.01674
G1 X21.731 Y53.039 E0.36644
G1 X22.264 Y53.039 E0.01674
G1 X14.004 Y44.778 E0.36644
G1 X14.537 Y44.778 E0.01674
G1 X22.798 Y53.039 E0.36644
G1 X23.331 Y53.039 E0.01674
G1 X15.071 Y44.778 E0.36644
G1 X15.604 Y44.778 E0.01674
G1 X23.865 Y53.039 E0.36644
G1 X24.398 Y53.039 E0.01674
G1 X16.138 Y44.778 E0.36644
G1 X16.671 Y44.778 E0.01674
G1 X24.932 Y53.039 E0.36644
G1 X25.465 Y53.039 E0.01674
G1 X17.205 Y44.778 E0.36644
G1 X17.738 Y44.778 E0.01674
G1 X25.999 Y53.039 E0.36644
G1 X26.532 Y53.039 E0.01674
G1 X18.272 Y44.778 E0.36644
G1 X18.805 Y44.778 E0.01674
G1 X27.066 Y53.039 E0.36644
G1 X27.599 Y53.039 E0.01674
G1 X19.339 Y44.778 E0.36644
G1 X19.872 Y44.778 E0.01674
G1 X28.133 Y53.039 E0.36644
G1 X28.666 Y53.039 E0.01674
G1 X20.406 Y44.778 E0.36644
G1 X20.939 Y44.778 E0.01674
G1 X29.200 Y53.039 E0.36644
G1 X29.733 Y53.039 E0.01674
G1 X21.473 Y44.778 E0.36644
G1 X22.006 Y44.778 E0.01674
G1 X30.267 Y53.039 E0.36644
G1 X30.800 Y53.039 E0.01674
G1 X22.540 Y44.778 E0.36644
G1 X23.073 Y44.778 E0.01674
G1 X31.334 Y53.039 E0.36644
G1 X31.867 Y53.039 E0.01674
G1 X23.607 Y44.778 E0.36644
G1 X24.140 Y44.778 E0.01674
G1 X32.401 Y53.039 E0.36644
G1 X32.934 Y53.039 E0.01674
G1 X24.674 Y44.778 E0.36644
G1 X25.207 Y44.778 E0.01674
G1 X33.468 Y53.039 E0.36644
G1 X34.001 Y53.039 E0.01674
G1 X25.741 Y44.778 E0.36644
G1 X26.274 Y44.778 E0.01674
G1 X34.535 Y53.039 E0.36644
G1 X35.068 Y53.039 E0.01674
G1 X26.808 Y44.778 E0.36644
G1 X27.341 Y44.778 E0.01674
G1 X35.602 Y53.039 E0.36644
G1 X36.135 Y53.039 E0.01674
G1 X27.875 Y44.778 E0.36644
G1 X28.408 Y44.778 E0.01674
G1 X36.669 Y53.039 E0.36644
G1 X37.202 Y53.039 E0.01674
G1 X28.942 Y44.778 E0.36644
G1 X29.476 Y44.778 E0.01674
G1 X37.736 Y53.039 E0.36644
G1 X38.269 Y53.039 E0.01674
G1 X30.009 Y44.778 E0.36644
G1 X30.543 Y44.778 E0.01674
G1 X38.803 Y53.039 E0.36644
G1 X39.336 Y53.039 E0.01674
G1 X31.076 Y44.778 E0.36644
G1 X31.610 Y44.778 E0.01674
G1 X39.870 Y53.039 E0.36644
G1 X40.403 Y53.039 E0.01674
G1 X32.143 Y44.778 E0.36644
G1 X32.677 Y44.778 E0.01674
G1 X40.937 Y53.039 E0.36644
G1 X41.470 Y53.039 E0.01674
G1 X33.210 Y44.778 E0.36644
G1 X33.744 Y44.778 E0.01674
G1 X42.004 Y53.039 E0.36644
G1 X42.537 Y53.039 E0.01674
G1 X34.277 Y44.778 E0.36644
G1 X34.811 Y44.778 E0.01674
G1 X43.071 Y53.039 E0.36644
G1 X43.604 Y53.039 E0.01674
G1 X35.344 Y44.778 E0.36644
G1 X35.878 Y44.778 E0.01674
G1 X44.138 Y53.039 E0.36644
G1 X44.671 Y53.039 E0.01674
G1 X36.411 Y44.778 E0.36644
G1 X36.945 Y44.778 E0.01674
G1 X45.205 Y53.039 E0.36644
G1 X45.738 Y53.039 E0.01674
G1 X37.478 Y44.778 E0.36644
G1 X38.012 Y44.778 E0.01674
G1 X46.272 Y53.039 E0.36644
G1 X46.805 Y53.039 E0.01674
G1 X38.545 Y44.778 E0.36644
G1 X39.079 Y44.778 E0.01674
G1 X47.339 Y53.039 E0.36644
G1 X47.872 Y53.039 E0.01674
G1 X39.612 Y44.778 E0.36644
G1 X40.146 Y44.778 E0.01674
G1 X48.406 Y53.039 E0.36644
G1 X48.939 Y53.039 E0.01674
G1 X40.679 Y44.778 E0.36644
G1 X41.213 Y44.778 E0.01674
G1 X49.473 Y53.039 E0.36644
G1 X50.006 Y53.039 E0.01674
G1 X41.746 Y44.778 E0.36644
G1 X42.280 Y44.778 E0.01674
G1 X50.540 Y53.039 E0.36644
G1 X51.073 Y53.039 E0.01674
G1 X42.813 Y44.778 E0.36644
G1 X43.347 Y44.778 E0.01674
G1 X51.607 Y53.039 E0.36644
G1 X52.140 Y53.039 E0.01674
G1 X43.880 Y44.778 E0.36644
G1 X44.414 Y44.778 E0.01674
G1 X52.674 Y53.039 E0.36644
G1 X53.208 Y53.039 E0.01674
G1 X44.947 Y44.778 E0.36644
G1 X45.481 Y44.778 E0.01674
G1 X53.741 Y53.039 E0.36644
G1 X54.275 Y53.039 E0.01674
G1 X46.014 Y44.778 E0.36644
G1 X46.548 Y44.778 E0.01674
G1 X54.808 Y53.039 E0.36644
G1 X55.342 Y53.039 E0.01674
G1 X47.081 Y44.778 E0.36644
G1 X47.615 Y44.778 E0.01674
G1 X55.875 Y53.039 E0.36644
G1 X56.409 Y53.039 E0.01674
G1 X48.148 Y44.778 E0.36644
G1 X48.682 Y44.778 E0.01674
G1 X56.942 Y53.039 E0.36644
G1 X57.476 Y53.039 E0.01674
G1 X49.215 Y44.778 E0.36644
M73 Q2 S70
M73 P2 R70
G1 X49.749 Y44.778 E0.01674
G1 X58.009 Y53.039 E0.36644
G1 X58.543 Y53.039 E0.01674
G1 X50.282 Y44.778 E0.36644
G1 X50.816 Y44.778 E0.01674
G1 X59.076 Y53.039 E0.36644
G1 X59.610 Y53.039 E0.01674
G1 X51.349 Y44.778 E0.36644
G1 X51.883 Y44.778 E0.01674
G1 X60.143 Y53.039 E0.36644
G1 X60.677 Y53.039 E0.01674
G1 X52.416 Y44.778 E0.36644
G1 X52.950 Y44.778 E0.01674
G1 X61.210 Y53.039 E0.36644
G1 X61.744 Y53.039 E0.01674
G1 X53.483 Y44.778 E0.36644
G1 X54.017 Y44.778 E0.01674
G1 X62.277 Y53.039 E0.36644
G1 X62.811 Y53.039 E0.01674
G1 X54.550 Y44.778 E0.36644
G1 X55.084 Y44.778 E0.01674
G1 X63.344 Y53.039 E0.36644
G1 X63.878 Y53.039 E0.01674
G1 X55.617 Y44.778 E0.36644
G1 X56.151 Y44.778 E0.01674
G1 X64.411 Y53.039 E0.36644
G1 X64.945 Y53.039 E0.01674
G1 X56.684 Y44.778 E0.36644
G1 X57.218 Y44.778 E0.01674
G1 X65.478 Y53.039 E0.36644
G1 X66.012 Y53.039 E0.01674
G1 X57.751 Y44.778 E0.36644
G1 X58.285 Y44.778 E0.01674
G1 X66.545 Y53.039 E0.36644
G1 X67.079 Y53.039 E0.01674
G1 X58.818 Y44.778 E0.36644
G1 X59.352 Y44.778 E0.01674
G1 X67.612 Y53.039 E0.36644
G1 X68.146 Y53.039 E0.01674
G1 X59.885 Y44.778 E0.36644
G1 X60.419 Y44.778 E0.01674
G1 X68.679 Y53.039 E0.36644
G1 X69.213 Y53.039 E0.01674
G1 X60.952 Y44.778 E0.36644
G1 X61.486 Y44.778 E0.01674
G1 X69.746 Y53.039 E0.36644
G1 X70.280 Y53.039 E0.01674
G1 X62.019 Y44.778 E0.36644
G1 X62.553 Y44.778 E0.01674
G1 X70.813 Y53.039 E0.36644
G1 X71.347 Y53.039 E0.01674
G1 X63.087 Y44.778 E0.36644
G1 X63.620 Y44.778 E0.01674
G1 X71.880 Y53.039 E0.36644
G1 X72.414 Y53.039 E0.01674
G1 X64.154 Y44.778 E0.36644
G1 X64.687 Y44.778 E0.01674
G1 X72.947 Y53.039 E0.36644
G1 X73.481 Y53.039 E0.01674
G1 X65.221 Y44.778 E0.36644
G1 X65.754 Y44.778 E0.01674
G1 X74.014 Y53.039 E0.36644
G1 X74.548 Y53.039 E0.01674
G1 X66.288 Y44.778 E0.36644
G1 X66.821 Y44.778 E0.01674
G1 X75.081 Y53.039 E0.36644
G1 X75.615 Y53.039 E0.01674
G1 X67.355 Y44.778 E0.36644
G1 X67.888 Y44.778 E0.01674
G1 X76.148 Y53.039 E0.36644
G1 X76.682 Y53.039 E0.01674
G1 X68.422 Y44.778 E0.36644
G1 X68.955 Y44.778 E0.01674
G1 X77.215 Y53.039 E0.36644
G1 X77.749 Y53.039 E0.01674
G1 X69.489 Y44.778 E0.36644
G1 X70.022 Y44.778 E0.01674
G1 X78.282 Y53.039 E0.36644
G1 X78.816 Y53.039 E0.01674
G1 X70.556 Y44.778 E0.36644
G1 X71.089 Y44.778 E0.01674
G1 X79.349 Y53.039 E0.36644
G1 X79.883 Y53.039 E0.01674
G1 X71.623 Y44.778 E0.36644
G1 X72.156 Y44.778 E0.01674
G1 X80.416 Y53.039 E0.36644
G1 X80.950 Y53.039 E0.01674
G1 X72.690 Y44.778 E0.36644
G1 X73.223 Y44.778 E0.01674
G1 X81.483 Y53.039 E0.36644
G1 X82.017 Y53.039 E0.01674
G1 X73.757 Y44.778 E0.36644
G1 X74.290 Y44.778 E0.01674
G1 X82.550 Y53.039 E0.36644
G1 X83.084 Y53.039 E0.01674
G1 X74.824 Y44.778 E0.36644
G1 X75.357 Y44.778 E0.01674
G1 X83.617 Y53.039 E0.36644
G1 X84.151 Y53.039 E0.01674
G1 X75.891 Y44.778 E0.36644
G1 X76.424 Y44.778 E0.01674
G1 X84.684 Y53.039 E0.36644
G1 X85.218 Y53.039 E0.01674
G1 X76.958 Y44.778 E0.36644
G1 X77.491 Y44.778 E0.01674
G1 X85.751 Y53.039 E0.36644
G1 X86.285 Y53.039 E0.01674
G1 X78.025 Y44.778 E0.36644
G1 X78.558 Y44.778 E0.01674
G1 X86.819 Y53.039 E0.36644
G1 X87.352 Y53.039 E0.01674
G1 X79.092 Y44.778 E0.36644
G1 X79.625 Y44.778 E0.01674
G1 X87.886 Y53.039 E0.36644
G1 X88.419 Y53.039 E0.01674
G1 X80.159 Y44.778 E0.36644
G1 X80.692 Y44.778 E0.01674
G1 X88.953 Y53.039 E0.36644
G1 X89.486 Y53.039 E0.01674
G1 X81.226 Y44.778 E0.36644
G1 X81.759 Y44.778 E0.01674
G1 X90.020 Y53.039 E0.36644
G1 X90.553 Y53.039 E0.01674
G1 X82.293 Y44.778 E0.36644
G1 X82.826 Y44.778 E0.01674
G1 X91.087 Y53.039 E0.36644
G1 X91.620 Y53.039 E0.01674
G1 X83.360 Y44.778 E0.36644
G1 X83.893 Y44.778 E0.01674
G1 X92.154 Y53.039 E0.36644
G1 X92.687 Y53.039 E0.01674
G1 X84.427 Y44.778 E0.36644
G1 X84.960 Y44.778 E0.01674
G1 X93.221 Y53.039 E0.36644
G1 X93.754 Y53.039 E0.01674
G1 X85.494 Y44.778 E0.36644
G1 X86.027 Y44.778 E0.01674
G1 X94.288 Y53.039 E0.36644
G1 X94.821 Y53.039 E0.01674
G1 X86.561 Y44.778 E0.36644
G1 X87.094 Y44.778 E0.01674
G1 X95.355 Y53.039 E0.36644
G1 X95.888 Y53.039 E0.01674
G1 X87.628 Y44.778 E0.36644
G1 X88.161 Y44.778 E0.01674
G1 X96.422 Y53.039 E0.36644
G1 X96.955 Y53.039 E0.01674
G1 X88.695 Y44.778 E0.36644
G1 X89.228 Y44.778 E0.01674
G1 X97.489 Y53.039 E0.36644
G1 X98.022 Y53.039 E0.01674
G1 X89.762 Y44.778 E0.36644
G1 X90.295 Y44.778 E0.01674
G1 X98.556 Y53.039 E0.36644
G1 X99.089 Y53.039 E0.01674
G1 X90.829 Y44.778 E0.36644
G1 X91.362 Y44.778 E0.01674
G1 X99.623 Y53.039 E0.36644
G1 X100.156 Y53.039 E0.01674
G1 X91.896 Y44.778 E0.36644
G1 X92.429 Y44.778 E0.01674
G1 X100.690 Y53.039 E0.36644
G1 X101.223 Y53.039 E0.01674
G1 X92.963 Y44.778 E0.36644
G1 X93.496 Y44.778 E0.01674
G1 X101.757 Y53.039 E0.36644
G1 X102.290 Y53.039 E0.01674
G1 X94.030 Y44.778 E0.36644
G1 X94.563 Y44.778 E0.01674
G1 X102.824 Y53.039 E0.36644
G1 X103.357 Y53.039 E0.01674
G1 X95.097 Y44.778 E0.36644
G1 X95.630 Y44.778 E0.01674
G1 X103.891 Y53.039 E0.36644
G1 X104.424 Y53.039 E0.01674
G1 X96.164 Y44.778 E0.36644
G1 X96.697 Y44.778 E0.01674
G1 X104.958 Y53.039 E0.36644
G1 X105.491 Y53.039 E0.01674
G1 X97.231 Y44.778 E0.36644
G1 X97.765 Y44.778 E0.01674
G1 X106.025 Y53.039 E0.36644
G1 X106.558 Y53.039 E0.01674
G1 X98.298 Y44.778 E0.36644
G1 X98.832 Y44.778 E0.01674
G1 X107.092 Y53.039 E0.36644
G1 X107.625 Y53.039 E0.01674
G1 X99.365 Y44.778 E0.36644
G1 X99.899 Y44.778 E0.01674
G1 X108.159 Y53.039 E0.36644
G1 X108.692 Y53.039 E0.01674
G1 X100.432 Y44.778 E0.36644
G1 X100.966 Y44.778 E0.01674
G1 X109.226 Y53.039 E0.36644
M73 Q4 S69
M73 P4 R69
G1 X109.759 Y53.039 E0.01674
G1 X101.499 Y44.778 E0.36644
G1 X102.033 Y44.778 E0.01674
G1 X110.293 Y53.039 E0.36644
G1 X110.826 Y53.039 E0.01674
G1 X102.566 Y44.778 E0.36644
G1 X103.100 Y44.778 E0.01674
G1 X111.360 Y53.039 E0.36644
G1 X111.893 Y53.039 E0.01674
G1 X103.633 Y44.778 E0.36644
G1 X104.167 Y44.778 E0.01674
G1 X112.427 Y53.039 E0.36644
G1 X112.960 Y53.039 E0.01674
G1 X104.700 Y44.778 E0.36644
G1 X105.234 Y44.778 E0.01674
G1 X113.494 Y53.039 E0.36644
G1 X114.027 Y53.039 E0.01674
G1 X105.767 Y44.778 E0.36644
G1 X106.301 Y44.778 E0.01674
G1 X114.561 Y53.039 E0.36644
G1 X115.094 Y53.039 E0.01674
G1 X106.834 Y44.778 E0.36644
G1 X107.368 Y44.778 E0.01674
G1 X115.628 Y53.039 E0.36644
G1 X116.161 Y53.039 E0.01674
G1 X107.901 Y44.778 E0.36644
G1 X108.435 Y44.778 E0.01674
G1 X116.695 Y53.039 E0.36644
G1 X117.228 Y53.039 E0.01674
G1 X108.968 Y44.778 E0.36644
G1 X109.502 Y44.778 E0.01674
G1 X117.762 Y53.039 E0.36644
G1 X118.295 Y53.039 E0.01674
G1 X110.035 Y44.778 E0.36644
G1 X110.569 Y44.778 E0.01674
G1 X118.829 Y53.039 E0.36644
G1 X119.362 Y53.039 E0.01674
G1 X111.102 Y44.778 E0.36644
G1 X111.636 Y44.778 E0.01674
G1 X119.896 Y53.039 E0.36644
G1 X120.429 Y53.039 E0.01674
G1 X112.169 Y44.778 E0.36644
G1 X112.703 Y44.778 E0.01674
G1 X120.963 Y53.039 E0.36644
G1 X121.497 Y53.039 E0.01674
G1 X113.236 Y44.778 E0.36644
G1 X113.770 Y44.778 E0.01674
G1 X122.030 Y53.039 E0.36644
G1 X122.564 Y53.039 E0.01674
G1 X114.303 Y44.778 E0.36644
G1 X114.837 Y44.778 E0.01674
G1 X123.097 Y53.039 E0.36644
G1 X123.631 Y53.039 E0.01674
G1 X115.370 Y44.778 E0.36644
G1 X115.904 Y44.778 E0.01674
G1 X124.164 Y53.039 E0.36644
G1 X124.698 Y53.039 E0.01674
G1 X116.437 Y44.778 E0.36644
G1 X116.971 Y44.778 E0.01674
G1 X125.231 Y53.039 E0.36644
G1 X125.765 Y53.039 E0.01674
G1 X117.504 Y44.778 E0.36644
G1 X118.038 Y44.778 E0.01674
G1 X126.298 Y53.039 E0.36644
G1 X126.832 Y53.039 E0.01674
G1 X118.571 Y44.778 E0.36644
G1 X119.105 Y44.778 E0.01674
G1 X127.365 Y53.039 E0.36644
G1 X127.899 Y53.039 E0.01674
G1 X119.638 Y44.778 E0.36644
G1 X120.172 Y44.778 E0.01674
G1 X128.432 Y53.039 E0.36644
G1 X128.966 Y53.039 E0.01674
G1 X120.705 Y44.778 E0.36644
G1 X121.239 Y44.778 E0.01674
G1 X129.499 Y53.039 E0.36644
G1 X130.033 Y53.039 E0.01674
G1 X121.772 Y44.778 E0.36644
G1 X122.306 Y44.778 E0.01674
G1 X130.566 Y53.039 E0.36644
G1 X131.100 Y53.039 E0.01674
G1 X122.839 Y44.778 E0.36644
G1 X123.373 Y44.778 E0.01674
G1 X131.633 Y53.039 E0.36644
G1 X132.167 Y53.039 E0.01674
G1 X123.906 Y44.778 E0.36644
G1 X124.440 Y44.778 E0.01674
G1 X132.700 Y53.039 E0.36644
G1 X133.234 Y53.039 E0.01674
G1 X124.973 Y44.778 E0.36644
G1 X125.507 Y44.778 E0.01674
G1 X133.767 Y53.039 E0.36644
G1 X134.301 Y53.039 E0.01674
G1 X126.040 Y44.778 E0.36644
G1 X126.574 Y44.778 E0.01674
G1 X134.834 Y53.039 E0.36644
G1 X135.368 Y53.039 E0.01674
G1 X127.107 Y44.778 E0.36644
G1 X127.641 Y44.778 E0.01674
G1 X135.901 Y53.039 E0.36644
G1 X136.435 Y53.039 E0.01674
G1 X128.174 Y44.778 E0.36644
G1 X128.708 Y44.778 E0.01674
G1 X136.968 Y53.039 E0.36644
G1 X137.502 Y53.039 E0.01674
G1 X129.241 Y44.778 E0.36644
G1 X129.775 Y44.778 E0.01674
