; generated by Slic3r Prusa Edition 1.41.2+ on 2019-02-18 at 13:59:52

; 

; external perimeters extrusion width = 0.45mm
; perimeters extrusion width = 0.45mm
; infill extrusion width = 0.45mm
; solid infill extrusion width = 0.45mm
; top infill extrusion width = 0.40mm
; first layer extrusion width = 0.42mm

M73 P0 R59
M73 Q0 S59
M201 X1000 Y1000 Z1000 E5000 ; sets maximum accelerations, mm/sec^2
M203 X200 Y200 Z12 E120 ; sets maximum feedrates, mm/sec
M204 P1250 R1250 T1250 ; sets acceleration (P, T) and retract acceleration (R), mm/sec^2
M205 X8.00 Y8.00 Z0.40 E1.50 ; sets the jerk limits, mm/sec
M205 S0 T0 ; sets the minimum extruding and travel feed rate, mm/sec
M107
M115 U3.5.1 ; tell printer latest fw version
M83  ; extruder relative mode
M104 S215 ; set extruder temp
M140 S60 ; set bed temp
M190 S60 ; wait for bed temp
M109 S215 ; wait for extruder temp
G28 W ; home all without mesh bed level
G80 ; mesh bed leveling
G1 Y-3.0 F1000.0 ; go outside print area
G92 E0.0
G1 X60.0 E9.0  F1000.0 ; intro line
M73 Q0 S59
M73 P0 R59
G1 X100.0 E12.5  F1000.0 ; intro line
G92 E0.0
M221 S95
M900 K30; Filament gcode
G21 ; set units to millimeters
G90 ; use absolute coordinates
M83 ; use relative distances for extrusion
;BEFORE_LAYER_CHANGE
G92 E0.0
;0.2


G1 E-0.80000 F2100.00000
G1 Z0.600 F10800.000
;AFTER_LAYER_CHANGE
;0.2
G1 X8.733 Y76.235
G1 Z0.200
G1 E0.80000 F2100.00000
M204 S1000
G1 F1200
G1 X8.534 Y75.439 E0.02574
G1 X8.560 Y64.956 E0.32869
G1 X8.801 Y64.261 E0.02304
G1 X9.258 Y63.686 E0.02304
G1 X9.880 Y63.294 E0.02304
G1 X10.596 Y63.131 E0.02304
G1 X230.722 Y63.127 E6.90191
G1 X231.552 Y63.292 E0.02653
G1 X232.260 Y63.762 E0.02664
G1 X232.736 Y64.467 E0.02664
G1 X232.907 Y65.299 E0.02664
G1 X232.877 Y75.680 E0.32548
G1 X232.637 Y76.370 E0.02293
G1 X232.180 Y76.945 E0.02304
G1 X231.558 Y77.337 E0.02304
G1 X230.842 Y77.501 E0.02304
G1 X10.701 Y77.504 E6.90237
G1 X9.895 Y77.343 E0.02574
G1 X9.209 Y76.900 E0.02563
G1 X8.768 Y76.284 E0.02375
; PURGING FINISHED
G1 F8640
G1 X8.534 Y75.439 E-0.20254
G1 X8.540 Y73.024 E-0.55746
G1 E-0.04000 F2100.00000
G1 Z0.800 F10800.000
G1 X11.306 Y74.729
G1 Z0.200
G1 E0.80000 F2100.00000
G1 F1200
G1 X11.306 Y65.903 E0.27673
G1 X230.132 Y65.903 E6.86113
G1 X230.132 Y74.729 E0.27673
G1 X11.366 Y74.729 E6.85925
G1 X10.929 Y75.106 F10800.000
G1 F1200
G1 X10.929 Y65.526 E0.30037
G1 X230.509 Y65.526 E6.88478
M73 Q1 S58
M73 P1 R58
G1 X230.509 Y75.106 E0.30037
G1 X10.989 Y75.106 E6.88290
G1 X11.124 Y74.756 F10800.000
G1 F8640
G1 X10.968 Y71.814 E-0.76000
G1 E-0.04000 F2100.00000
G1 Z0.800 F10800.000
G1 X12.182 Y74.616
G1 Z0.200
G1 E0.80000 F2100.00000
G1 F1200
G1 X11.589 Y74.022 E0.02631
G1 X11.589 Y73.489 E0.01674
G1 X12.546 Y74.446 E0.04245
G1 X13.079 Y74.446 E0.01674
G1 X11.589 Y72.955 E0.06612
G1 X11.589 Y72.422 E0.01674
G1 X13.613 Y74.446 E0.08979
G1 X14.146 Y74.446 E0.01674
G1 X11.589 Y71.888 E0.11345
G1 X11.589 Y71.355 E0.01674
G1 X14.680 Y74.446 E0.13712
G1 X15.213 Y74.446 E0.01674
G1 X11.589 Y70.821 E0.16079
G1 X11.589 Y70.288 E0.01674
G1 X15.747 Y74.446 E0.18446
G1 X16.280 Y74.446 E0.01674
G1 X11.589 Y69.754 E0.20812
G1 X11.589 Y69.221 E0.01674
G1 X16.814 Y74.446 E0.23179
G1 X17.347 Y74.446 E0.01674
G1 X11.589 Y68.687 E0.25546
G1 X11.589 Y68.154 E0.01674
G1 X17.881 Y74.446 E0.27912
G1 X18.414 Y74.446 E0.01674
G1 X11.589 Y67.620 E0.30279
G1 X11.589 Y67.087 E0.01674
G1 X18.948 Y74.446 E0.32646
G1 X19.481 Y74.446 E0.01674
G1 X11.589 Y66.553 E0.35013
G1 X11.589 Y66.186 E0.01153
G1 X11.754 Y66.186 E0.00520
G1 X20.015 Y74.446 E0.36644
G1 X20.548 Y74.446 E0.01674
G1 X12.288 Y66.186 E0.36644
G1 X12.821 Y66.186 E0.01674
G1 X21.082 Y74.446 E0.36644
G1 X21.615 Y74.446 E0.01674
G1 X13.355 Y66.186 E0.36644
G1 X13.889 Y66.186 E0.01674
G1 X22.149 Y74.446 E0.36644
G1 X22.682 Y74.446 E0.01674
G1 X14.422 Y66.186 E0.36644
G1 X14.956 Y66.186 E0.01674
G1 X23.216 Y74.446 E0.36644
G1 X23.749 Y74.446 E0.01674
G1 X15.489 Y66.186 E0.36644
G1 X16.023 Y66.186 E0.01674
G1 X24.283 Y74.446 E0.36644
G1 X24.816 Y74.446 E0.01674
G1 X16.556 Y66.186 E0.36644
G1 X17.090 Y66.186 E0.01674
G1 X25.350 Y74.446 E0.36644
G1 X25.883 Y74.446 E0.01674
G1 X17.623 Y66.186 E0.36644
G1 X18.157 Y66.186 E0.01674
G1 X26.417 Y74.446 E0.36644
G1 X26.950 Y74.446 E0.01674
G1 X18.690 Y66.186 E0.36644
G1 X19.224 Y66.186 E0.01674
G1 X27.484 Y74.446 E0.36644
G1 X28.017 Y74.446 E0.01674
G1 X19.757 Y66.186 E0.36644
G1 X20.291 Y66.186 E0.01674
G1 X28.551 Y74.446 E0.36644
G1 X29.084 Y74.446 E0.01674
G1 X20.824 Y66.186 E0.36644
G1 X21.358 Y66.186 E0.01674
G1 X29.618 Y74.446 E0.36644
G1 X30.151 Y74.446 E0.01674
G1 X21.891 Y66.186 E0.36644
G1 X22.425 Y66.186 E0.01674
G1 X30.685 Y74.446 E0.36644
G1 X31.218 Y74.446 E0.01674
G1 X22.958 Y66.186 E0.36644
G1 X23.492 Y66.186 E0.01674
G1 X31.752 Y74.446 E0.36644
G1 X32.285 Y74.446 E0.01674
G1 X24.025 Y66.186 E0.36644
G1 X24.559 Y66.186 E0.01674
G1 X32.819 Y74.446 E0.36644
G1 X33.352 Y74.446 E0.01674
G1 X25.092 Y66.186 E0.36644
G1 X25.626 Y66.186 E0.01674
G1 X33.886 Y74.446 E0.36644
G1 X34.419 Y74.446 E0.01674
G1 X26.159 Y66.186 E0.36644
G1 X26.693 Y66.186 E0.01674
G1 X34.953 Y74.446 E0.36644
G1 X35.486 Y74.446 E0.01674
G1 X27.226 Y66.186 E0.36644
G1 X27.760 Y66.186 E0.01674
G1 X36.020 Y74.446 E0.36644
G1 X36.553 Y74.446 E0.01674
G1 X28.293 Y66.186 E0.36644
G1 X28.827 Y66.186 E0.01674
G1 X37.087 Y74.446 E0.36644
G1 X37.621 Y74.446 E0.01674
G1 X29.360 Y66.186 E0.36644
G1 X29.894 Y66.186 E0.01674
G1 X38.154 Y74.446 E0.36644
G1 X38.688 Y74.446 E0.01674
G1 X30.427 Y66.186 E0.36644
G1 X30.961 Y66.186 E0.01674
G1 X39.221 Y74.446 E0.36644
G1 X39.755 Y74.446 E0.01674
G1 X31.494 Y66.186 E0.36644
G1 X32.028 Y66.186 E0.01674
G1 X40.288 Y74.446 E0.36644
G1 X40.822 Y74.446 E0.01674
G1 X32.561 Y66.186 E0.36644
G1 X33.095 Y66.186 E0.01674
G1 X41.355 Y74.446 E0.36644
G1 X41.889 Y74.446 E0.01674
G1 X33.628 Y66.186 E0.36644
G1 X34.162 Y66.186 E0.01674
G1 X42.422 Y74.446 E0.36644
G1 X42.956 Y74.446 E0.01674
G1 X34.695 Y66.186 E0.36644
G1 X35.229 Y66.186 E0.01674
G1 X43.489 Y74.446 E0.36644
G1 X44.023 Y74.446 E0.01674
G1 X35.762 Y66.186 E0.36644
G1 X36.296 Y66.186 E0.01674
G1 X44.556 Y74.446 E0.36644
G1 X45.090 Y74.446 E0.01674
G1 X36.829 Y66.186 E0.36644
G1 X37.363 Y66.186 E0.01674
G1 X45.623 Y74.446 E0.36644
G1 X46.157 Y74.446 E0.01674
G1 X37.896 Y66.186 E0.36644
G1 X38.430 Y66.186 E0.01674
G1 X46.690 Y74.446 E0.36644
G1 X47.224 Y74.446 E0.01674
G1 X38.963 Y66.186 E0.36644
G1 X39.497 Y66.186 E0.01674
G1 X47.757 Y74.446 E0.36644
G1 X48.291 Y74.446 E0.01674
G1 X40.030 Y66.186 E0.36644
G1 X40.564 Y66.186 E0.01674
G1 X48.824 Y74.446 E0.36644
G1 X49.358 Y74.446 E0.01674
G1 X41.097 Y66.186 E0.36644
G1 X41.631 Y66.186 E0.01674
G1 X49.891 Y74.446 E0.36644
G1 X50.425 Y74.446 E0.01674
G1 X42.164 Y66.186 E0.36644
G1 X42.698 Y66.186 E0.01674
G1 X50.958 Y74.446 E0.36644
G1 X51.492 Y74.446 E0.01674
G1 X43.231 Y66.186 E0.36644
G1 X43.765 Y66.186 E0.01674
G1 X52.025 Y74.446 E0.36644
G1 X52.559 Y74.446 E0.01674
G1 X44.298 Y66.186 E0.36644
G1 X44.832 Y66.186 E0.01674
G1 X53.092 Y74.446 E0.36644
G1 X53.626 Y74.446 E0.01674
G1 X45.365 Y66.186 E0.36644
G1 X45.899 Y66.186 E0.01674
G1 X54.159 Y74.446 E0.36644
G1 X54.693 Y74.446 E0.01674
G1 X46.432 Y66.186 E0.36644
G1 X46.966 Y66.186 E0.01674
G1 X55.226 Y74.446 E0.36644
G1 X55.760 Y74.446 E0.01674
G1 X47.499 Y66.186 E0.36644
G1 X48.033 Y66.186 E0.01674
G1 X56.293 Y74.446 E0.36644
G1 X56.827 Y74.446 E0.01674
G1 X48.567 Y66.186 E0.36644
M73 Q3 S57
M73 P3 R57
G1 X49.100 Y66.186 E0.01674
G1 X57.360 Y74.446 E0.36644
G1 X57.894 Y74.446 E0.01674
G1 X49.634 Y66.186 E0.36644
G1 X50.167 Y66.186 E0.01674
G1 X58.427 Y74.446 E0.36644
G1 X58.961 Y74.446 E0.01674
G1 X50.701 Y66.186 E0.36644
G1 X51.234 Y66.186 E0.01674
G1 X59.494 Y74.446 E0.36644
G1 X60.028 Y74.446 E0.01674
G1 X51.768 Y66.186 E0.36644
G1 X52.301 Y66.186 E0.01674
G1 X60.561 Y74.446 E0.36644
G1 X61.095 Y74.446 E0.01674
G1 X52.835 Y66.186 E0.36644
G1 X53.368 Y66.186 E0.01674
G1 X61.628 Y74.446 E0.36644
G1 X62.162 Y74.446 E0.01674
G1 X53.902 Y66.186 E0.36644
G1 X54.435 Y66.186 E0.01674
G1 X62.695 Y74.446 E0.36644
G1 X63.229 Y74.446 E0.01674
G1 X54.969 Y66.186 E0.36644
G1 X55.502 Y66.186 E0.01674
G1 X63.762 Y74.446 E0.36644
G1 X64.296 Y74.446 E0.01674
G1 X56.036 Y66.186 E0.36644
G1 X56.569 Y66.186 E0.01674
G1 X64.829 Y74.446 E0.36644
G1 X65.363 Y74.446 E0.01674
G1 X57.103 Y66.186 E0.36644
G1 X57.636 Y66.186 E0.01674
G1 X65.896 Y74.446 E0.36644
G1 X66.430 Y74.446 E0.01674
G1 X58.170 Y66.186 E0.36644
G1 X58.703 Y66.186 E0.01674
G1 X66.963 Y74.446 E0.36644
G1 X67.497 Y74.446 E0.01674
G1 X59.237 Y66.186 E0.36644
G1 X59.770 Y66.186 E0.01674
G1 X68.030 Y74.446 E0.36644
G1 X68.564 Y74.446 E0.01674
G1 X60.304 Y66.186 E0.36644
G1 X60.837 Y66.186 E0.01674
G1 X69.097 Y74.446 E0.36644
G1 X69.631 Y74.446 E0.01674
G1 X61.371 Y66.186 E0.36644
G1 X61.904 Y66.186 E0.01674
G1 X70.164 Y74.446 E0.36644
G1 X70.698 Y74.446 E0.01674
G1 X62.438 Y66.186 E0.36644
G1 X62.971 Y66.186 E0.01674
G1 X71.231 Y74.446 E0.36644
G1 X71.765 Y74.446 E0.01674
G1 X63.505 Y66.186 E0.36644
G1 X64.038 Y66.186 E0.01674
G1 X72.299 Y74.446 E0.36644
G1 X72.832 Y74.446 E0.01674
G1 X64.572 Y66.186 E0.36644
G1 X65.105 Y66.186 E0.01674
G1 X73.366 Y74.446 E0.36644
G1 X73.899 Y74.446 E0.01674
G1 X65.639 Y66.186 E0.36644
G1 X66.172 Y66.186 E0.01674
G1 X74.433 Y74.446 E0.36644
G1 X74.966 Y74.446 E0.01674
G1 X66.706 Y66.186 E0.36644
G1 X67.239 Y66.186 E0.01674
G1 X75.500 Y74.446 E0.36644
G1 X76.033 Y74.446 E0.01674
G1 X67.773 Y66.186 E0.36644
G1 X68.306 Y66.186 E0.01674
G1 X76.567 Y74.446 E0.36644
G1 X77.100 Y74.446 E0.01674
G1 X68.840 Y66.186 E0.36644
G1 X69.373 Y66.186 E0.01674
G1 X77.634 Y74.446 E0.36644
G1 X78.167 Y74.446 E0.01674
G1 X69.907 Y66.186 E0.36644
G1 X70.440 Y66.186 E0.01674
G1 X78.701 Y74.446 E0.36644
G1 X79.234 Y74.446 E0.01674
G1 X70.974 Y66.186 E0.36644
G1 X71.507 Y66.186 E0.01674
G1 X79.768 Y74.446 E0.36644
G1 X80.301 Y74.446 E0.01674
G1 X72.041 Y66.186 E0.36644
G1 X72.574 Y66.186 E0.01674
G1 X80.835 Y74.446 E0.36644
G1 X81.368 Y74.446 E0.01674
G1 X73.108 Y66.186 E0.36644
G1 X73.641 Y66.186 E0.01674
G1 X81.902 Y74.446 E0.36644
G1 X82.435 Y74.446 E0.01674
G1 X74.175 Y66.186 E0.36644
G1 X74.708 Y66.186 E0.01674
G1 X82.969 Y74.446 E0.36644
G1 X83.502 Y74.446 E0.01674
G1 X75.242 Y66.186 E0.36644
G1 X75.775 Y66.186 E0.01674
G1 X84.036 Y74.446 E0.36644
G1 X84.569 Y74.446 E0.01674
G1 X76.309 Y66.186 E0.36644
G1 X76.842 Y66.186 E0.01674
G1 X85.103 Y74.446 E0.36644
G1 X85.636 Y74.446 E0.01674
G1 X77.376 Y66.186 E0.36644
G1 X77.909 Y66.186 E0.01674
G1 X86.170 Y74.446 E0.36644
G1 X86.703 Y74.446 E0.01674
G1 X78.443 Y66.186 E0.36644
G1 X78.976 Y66.186 E0.01674
G1 X87.237 Y74.446 E0.36644
G1 X87.770 Y74.446 E0.01674
G1 X79.510 Y66.186 E0.36644
G1 X80.043 Y66.186 E0.01674
G1 X88.304 Y74.446 E0.36644
G1 X88.837 Y74.446 E0.01674
G1 X80.577 Y66.186 E0.36644
G1 X81.110 Y66.186 E0.01674
G1 X89.371 Y74.446 E0.36644
G1 X89.904 Y74.446 E0.01674
G1 X81.644 Y66.186 E0.36644
G1 X82.178 Y66.186 E0.01674
G1 X90.438 Y74.446 E0.36644
G1 X90.971 Y74.446 E0.01674
G1 X82.711 Y66.186 E0.36644
G1 X83.245 Y66.186 E0.01674
G1 X91.505 Y74.446 E0.36644
G1 X92.038 Y74.446 E0.01674
G1 X83.778 Y66.186 E0.36644
G1 X84.312 Y66.186 E0.01674
G1 X92.572 Y74.446 E0.36644
G1 X93.105 Y74.446 E0.01674
G1 X84.845 Y66.186 E0.36644
G1 X85.379 Y66.186 E0.01674
G1 X93.639 Y74.446 E0.36644
G1 X94.172 Y74.446 E0.01674
G1 X85.912 Y66.186 E0.36644
G1 X86.446 Y66.186 E0.01674
G1 X94.706 Y74.446 E0.36644
G1 X95.239 Y74.446 E0.01674
G1 X86.979 Y66.186 E0.36644
G1 X87.513 Y66.186 E0.01674
G1 X95.773 Y74.446 E0.36644
G1 X96.306 Y74.446 E0.01674
G1 X88.046 Y66.186 E0.36644
G1 X88.580 Y66.186 E0.01674
G1 X96.840 Y74.446 E0.36644
G1 X97.373 Y74.446 E0.01674
G1 X89.113 Y66.186 E0.36644
G1 X89.647 Y66.186 E0.01674
G1 X97.907 Y74.446 E0.36644
G1 X98.440 Y74.446 E0.01674
G1 X90.180 Y66.186 E0.36644
G1 X90.714 Y66.186 E0.01674
G1 X98.974 Y74.446 E0.36644
G1 X99.507 Y74.446 E0.01674
G1 X91.247 Y66.186 E0.36644
G1 X91.781 Y66.186 E0.01674
G1 X100.041 Y74.446 E0.36644
G1 X100.574 Y74.446 E0.01674
G1 X92.314 Y66.186 E0.36644
G1 X92.848 Y66.186 E0.01674
G1 X101.108 Y74.446 E0.36644
G1 X101.641 Y74.446 E0.01674
G1 X93.381 Y66.186 E0.36644
G1 X93.915 Y66.186 E0.01674
G1 X102.175 Y74.446 E0.36644
G1 X102.708 Y74.446 E0.01674
G1 X94.448 Y66.186 E0.36644
G1 X94.982 Y66.186 E0.01674
G1 X103.242 Y74.446 E0.36644
G1 X103.775 Y74.446 E0.01674
G1 X95.515 Y66.186 E0.36644
G1 X96.049 Y66.186 E0.01674
G1 X104.309 Y74.446 E0.36644
G1 X104.842 Y74.446 E0.01674
G1 X96.582 Y66.186 E0.36644
G1 X97.116 Y66.186 E0.01674
G1 X105.376 Y74.446 E0.36644
G1 X105.910 Y74.446 E0.01674
G1 X97.649 Y66.186 E0.36644
G1 X98.183 Y66.186 E0.01674
G1 X106.443 Y74.446 E0.36644
G1 X106.977 Y74.446 E0.01674
G1 X98.716 Y66.186 E0.36644
G1 X99.250 Y66.186 E0.01674
G1 X107.510 Y74.446 E0.36644
G1 X108.044 Y74.446 E0.01674
G1 X99.783 Y66.186 E0.36644
G1 X100.317 Y66.186 E0.01674
G1 X108.577 Y74.446 E0.36644
M73 Q5 S56
M73 P5 R56
G1 X109.111 Y74.446 E0.01674
G1 X100.850 Y66.186 E0.36644
G1 X101.384 Y66.186 E0.01674
G1 X109.644 Y74.446 E0.36644
G1 X110.178 Y74.446 E0.01674
G1 X101.917 Y66.186 E0.36644
G1 X102.451 Y66.186 E0.01674
G1 X110.711 Y74.446 E0.36644
G1 X111.245 Y74.446 E0.01674
G1 X102.984 Y66.186 E0.36644
G1 X103.518 Y66.186 E0.01674
G1 X111.778 Y74.446 E0.36644
G1 X112.312 Y74.446 E0.01674
G1 X104.051 Y66.186 E0.36644
G1 X104.585 Y66.186 E0.01674
G1 X112.845 Y74.446 E0.36644
G1 X113.379 Y74.446 E0.01674
G1 X105.118 Y66.186 E0.36644
G1 X105.652 Y66.186 E0.01674
G1 X113.912 Y74.446 E0.36644
G1 X114.446 Y74.446 E0.01674
G1 X106.185 Y66.186 E0.36644
G1 X106.719 Y66.186 E0.01674
G1 X114.979 Y74.446 E0.36644
G1 X115.513 Y74.446 E0.01674
G1 X107.252 Y66.186 E0.36644
G1 X107.786 Y66.186 E0.01674
G1 X116.046 Y74.446 E0.36644
G1 X116.580 Y74.446 E0.01674
G1 X108.319 Y66.186 E0.36644
G1 X108.853 Y66.186 E0.01674
G1 X117.113 Y74.446 E0.36644
G1 X117.647 Y74.446 E0.01674
G1 X109.386 Y66.186 E0.36644
G1 X109.920 Y66.186 E0.01674
G1 X118.180 Y74.446 E0.36644
G1 X118.714 Y74.446 E0.01674
G1 X110.453 Y66.186 E0.36644
G1 X110.987 Y66.186 E0.01674
G1 X119.247 Y74.446 E0.36644
G1 X119.781 Y74.446 E0.01674
G1 X111.520 Y66.186 E0.36644
G1 X112.054 Y66.186 E0.01674
G1 X120.314 Y74.446 E0.36644
G1 X120.848 Y74.446 E0.01674
G1 X112.587 Y66.186 E0.36644
G1 X113.121 Y66.186 E0.01674
G1 X121.381 Y74.446 E0.36644
G1 X121.915 Y74.446 E0.01674
G1 X113.654 Y66.186 E0.36644
G1 X114.188 Y66.186 E0.01674
G1 X122.448 Y74.446 E0.36644
G1 X122.982 Y74.446 E0.01674
G1 X114.721 Y66.186 E0.36644
G1 X115.255 Y66.186 E0.01674
G1 X123.515 Y74.446 E0.36644
G1 X124.049 Y74.446 E0.01674
G1 X115.788 Y66.186 E0.36644
G1 X116.322 Y66.186 E0.01674
G1 X124.582 Y74.446 E0.36644
G1 X125.116 Y74.446 E0.01674
G1 X116.856 Y66.186 E0.36644
G1 X117.389 Y66.186 E0.01674
G1 X125.649 Y74.446 E0.36644
G1 X126.183 Y74.446 E0.01674
G1 X117.923 Y66.186 E0.36644
G1 X118.456 Y66.186 E0.01674
G1 X126.716 Y74.446 E0.36644
G1 X127.250 Y74.446 E0.01674
G1 X118.990 Y66.186 E0.36644
G1 X119.523 Y66.186 E0.01674
G1 X127.783 Y74.446 E0.36644
G1 X128.317 Y74.446 E0.01674
G1 X120.057 Y66.186 E0.36644
G1 X120.590 Y66.186 E0.01674
G1 X128.850 Y74.446 E0.36644
G1 X129.384 Y74.446 E0.01674
G1 X121.124 Y66.186 E0.36644
G1 X121.657 Y66.186 E0.01674
G1 X129.917 Y74.446 E0.36644
G1 X130.451 Y74.446 E0.01674
G1 X122.191 Y66.186 E0.36644
G1 X122.724 Y66.186 E0.01674
G1 X130.984 Y74.446 E0.36644
G1 X131.518 Y74.446 E0.01674
G1 X123.258 Y66.186 E0.36644
G1 X123.791 Y66.186 E0.01674
G1 X132.051 Y74.446 E0.36644
G1 X132.585 Y74.446 E0.01674
G1 X124.325 Y66.186 E0.36644
G1 X124.858 Y66.186 E0.01674
G1 X133.118 Y74.446 E0.36644
G1 X133.652 Y74.446 E0.01674
G1 X125.392 Y66.186 E0.36644
G1 X125.925 Y66.186 E0.01674
G1 X134.185 Y74.446 E0.36644
G1 X134.719 Y74.446 E0.01674
G1 X126.459 Y66.186 E0.36644
G1 X126.992 Y66.186 E0.01674
G1 X135.252 Y74.446 E0.36644
G1 X135.786 Y74.446 E0.01674
G1 X127.526 Y66.186 E0.36644
G1 X128.059 Y66.186 E0.01674
G1 X136.319 Y74.446 E0.36644
G1 X136.853 Y74.446 E0.01674
G1 X128.593 Y66.186 E0.36644
G1 X129.126 Y66.186 E0.01674
