; generated by Slic3r Prusa Edition 1.40.1+win64 on 2018-12-20 at 14:34:15

; 

; external perimeters extrusion width = 0.45mm
; perimeters extrusion width = 0.45mm
; infill extrusion width = 0.45mm
; solid infill extrusion width = 0.45mm
; top infill extrusion width = 0.40mm
; first layer extrusion width = 0.42mm

M107
M115 U3.3.1 ; tell printer latest fw version
M201 X1000 Y1000 Z1000 E9000 ; sets maximum accelerations, mm/sec^2
M203 X200 Y200 Z12 E120 ; sets maximum feedrates, mm/sec
M204 S1250 T1250 ; sets acceleration (S) and retract acceleration (T)
M205 X8 Y8 Z0.4 E1.5 ; sets the jerk limits, mm/sec
M205 S0 T0 ; sets the minimum extruding and travel feed rate, mm/sec
M83  ; extruder relative mode
M104 S215 ; set extruder temp
M140 S60 ; set bed temp
M190 S60 ; wait for bed temp
M109 S215 ; wait for extruder temp
G28 W ; home all without mesh bed level
G80 ; mesh bed leveling
G1 Y-3.0 F1000.0 ; go outside print area
G92 E0.0
G1 X60.0 E9.0  F1000.0 ; intro line
G1 X100.0 E12.5  F1000.0 ; intro line
G92 E0.0
M221 S95
M900 K30; Filament gcode
G21 ; set units to millimeters
G90 ; use absolute coordinates
M83 ; use relative distances for extrusion
;BEFORE_LAYER_CHANGE
G92 E0.0
;0.2


G1 E-0.80000 F2100.00000
G1 Z0.600 F10800.000
;AFTER_LAYER_CHANGE
;0.2
G1 X100.701 Y81.359
G1 Z0.200
G1 E0.80000 F2100.00000
M204 S1000
G1 F1800
G1 X101.014 Y80.855 E0.01862
G1 X101.454 Y80.451 E0.01873
G1 X101.984 Y80.182 E0.01862
G1 X102.570 Y80.065 E0.01873
G1 X122.504 Y80.061 E0.62501
G1 X147.755 Y82.076 E0.79424
G1 X148.258 Y82.197 E0.01623
G1 X148.722 Y82.435 E0.01635
G1 X149.117 Y82.775 E0.01635
G1 X149.420 Y83.199 E0.01635
G1 X149.619 Y83.701 E0.01692
G1 X149.688 Y84.236 E0.01692
G1 X149.688 Y125.794 E1.30301
G1 X149.602 Y126.359 E0.01794
G1 X149.372 Y126.883 E0.01794
G1 X149.014 Y127.330 E0.01794
G1 X148.550 Y127.670 E0.01805
G1 X147.692 Y127.930 E0.02810
G1 X122.550 Y129.938 E0.79081
G1 X102.587 Y129.936 E0.62595
G1 X102.042 Y129.837 E0.01737
G1 X101.535 Y129.603 E0.01749
G1 X101.107 Y129.251 E0.01737
G1 X100.780 Y128.800 E0.01749
G1 X100.579 Y128.291 E0.01714
G1 X100.511 Y127.752 E0.01703
G1 X100.511 Y82.243 E1.42692
G1 X100.688 Y81.418 E0.02645
G1 F8640
G1 X101.014 Y80.855 E-0.15025
G1 X101.454 Y80.451 E-0.13797
G1 X101.984 Y80.182 E-0.13713
G1 X102.570 Y80.065 E-0.13797
G1 X103.422 Y80.065 E-0.19668
G1 E-0.04000 F2100.00000
G1 Z0.800 F10800.000
G1 X103.287 Y82.837
G1 Z0.200
G1 E0.80000 F2100.00000
G1 F1800
G1 X121.913 Y82.837 E0.58400
G1 X121.913 Y84.837 E0.06271
G1 X146.913 Y84.837 E0.78386
G1 X146.913 Y125.163 E1.26439
G1 X121.913 Y125.163 E0.78386
G1 X121.913 Y127.163 E0.06271
G1 X103.287 Y127.163 E0.58400
G1 X103.287 Y126.337 E0.02589
G1 X103.312 Y126.337 E0.00078
G1 X103.312 Y83.663 E1.33802
G1 X103.287 Y83.663 E0.00078
G1 X103.287 Y82.897 E0.02401
G1 F8640
G1 X106.578 Y82.886 E-0.76000
G1 E-0.04000 F2100.00000
G1 Z0.800 F10800.000
G1 X122.290 Y84.460
G1 Z0.200
G1 E0.80000 F2100.00000
G1 F1800
G1 X147.290 Y84.460 E0.78386
G1 X147.290 Y125.540 E1.28803
G1 X122.290 Y125.540 E0.78386
G1 X122.290 Y127.540 E0.06271
G1 X102.910 Y127.540 E0.60765
G1 X102.910 Y125.960 E0.04954
G1 X102.935 Y125.960 E0.00078
G1 X102.935 Y84.040 E1.31437
G1 X102.910 Y84.040 E0.00078
G1 X102.910 Y82.460 E0.04954
G1 X122.290 Y82.460 E0.60765
G1 X122.290 Y84.400 E0.06083
G1 X122.478 Y84.813 F10800.000
G1 X121.800 Y83.713
G1 F1800
G1 X121.207 Y83.120 E0.02638
G1 X120.672 Y83.120 E0.01682
G1 X121.630 Y84.078 E0.04262
G1 X121.630 Y84.613 E0.01682
G1 X120.137 Y83.120 E0.06640
G1 X119.602 Y83.120 E0.01682
G1 X146.630 Y110.148 E1.20199
G1 X146.630 Y109.613 E0.01682
G1 X122.137 Y85.120 E1.08926
G1 X122.672 Y85.120 E0.01682
G1 X146.630 Y109.078 E1.06548
G1 X146.630 Y108.543 E0.01682
G1 X123.207 Y85.120 E1.04169
G1 X123.742 Y85.120 E0.01682
G1 X146.630 Y108.008 E1.01791
G1 X146.630 Y107.474 E0.01682
G1 X124.276 Y85.120 E0.99412
G1 X124.811 Y85.120 E0.01682
G1 X146.630 Y106.939 E0.97034
G1 X146.630 Y106.404 E0.01682
G1 X125.346 Y85.120 E0.94655
G1 X125.881 Y85.120 E0.01682
G1 X146.630 Y105.869 E0.92276
G1 X146.630 Y105.334 E0.01682
G1 X126.416 Y85.120 E0.89898
G1 X126.951 Y85.120 E0.01682
G1 X146.630 Y104.799 E0.87519
G1 X146.630 Y104.265 E0.01682
G1 X127.485 Y85.120 E0.85141
G1 X128.020 Y85.120 E0.01682
G1 X146.630 Y103.730 E0.82762
G1 X146.630 Y103.195 E0.01682
G1 X128.555 Y85.120 E0.80384
G1 X129.090 Y85.120 E0.01682
G1 X146.630 Y102.660 E0.78005
G1 X146.630 Y102.125 E0.01682
G1 X129.625 Y85.120 E0.75627
G1 X130.160 Y85.120 E0.01682
G1 X146.630 Y101.590 E0.73248
G1 X146.630 Y101.056 E0.01682
G1 X130.694 Y85.120 E0.70869
G1 X131.229 Y85.120 E0.01682
G1 X146.630 Y100.521 E0.68491
G1 X146.630 Y99.986 E0.01682
G1 X131.764 Y85.120 E0.66112
G1 X132.299 Y85.120 E0.01682
G1 X146.630 Y99.451 E0.63734
G1 X146.630 Y98.916 E0.01682
G1 X132.834 Y85.120 E0.61355
G1 X133.369 Y85.120 E0.01682
G1 X146.630 Y98.381 E0.58977
G1 X146.630 Y97.846 E0.01682
G1 X133.904 Y85.120 E0.56598
G1 X134.438 Y85.120 E0.01682
G1 X146.630 Y97.312 E0.54220
G1 X146.630 Y96.777 E0.01682
G1 X134.973 Y85.120 E0.51841
G1 X135.508 Y85.120 E0.01682
G1 X146.630 Y96.242 E0.49462
G1 X146.630 Y95.707 E0.01682
G1 X136.043 Y85.120 E0.47084
G1 X136.578 Y85.120 E0.01682
G1 X146.630 Y95.172 E0.44705
G1 X146.630 Y94.637 E0.01682
G1 X137.113 Y85.120 E0.42327
G1 X137.647 Y85.120 E0.01682
G1 X146.630 Y94.103 E0.39948
G1 X146.630 Y93.568 E0.01682
G1 X138.182 Y85.120 E0.37570
G1 X138.717 Y85.120 E0.01682
G1 X146.630 Y93.033 E0.35191
G1 X146.630 Y92.498 E0.01682
G1 X139.252 Y85.120 E0.32812
G1 X139.787 Y85.120 E0.01682
G1 X146.630 Y91.963 E0.30434
G1 X146.630 Y91.428 E0.01682
G1 X140.322 Y85.120 E0.28055
G1 X140.856 Y85.120 E0.01682
G1 X146.630 Y90.894 E0.25677
G1 X146.630 Y90.359 E0.01682
G1 X141.391 Y85.120 E0.23298
G1 X141.926 Y85.120 E0.01682
G1 X146.630 Y89.824 E0.20920
G1 X146.630 Y89.289 E0.01682
G1 X142.461 Y85.120 E0.18541
G1 X142.996 Y85.120 E0.01682
G1 X146.630 Y88.754 E0.16163
G1 X146.630 Y88.219 E0.01682
G1 X143.531 Y85.120 E0.13784
G1 X144.066 Y85.120 E0.01682
G1 X146.630 Y87.684 E0.11405
G1 X146.630 Y87.150 E0.01682
G1 X144.600 Y85.120 E0.09027
G1 X145.135 Y85.120 E0.01682
G1 X146.630 Y86.615 E0.06648
G1 X146.630 Y86.080 E0.01682
G1 X145.670 Y85.120 E0.04270
G1 X146.205 Y85.120 E0.01682
G1 X146.800 Y85.715 E0.02646
G1 F8640
G1 X146.205 Y85.120 E-0.19428
G1 X145.670 Y85.120 E-0.12350
G1 X146.630 Y86.080 E-0.31352
G1 X146.630 Y86.615 E-0.12350
G1 X146.614 Y86.599 E-0.00522
G1 E-0.04000 F2100.00000
G1 Z0.800 F10800.000
G1 X146.800 Y110.852
G1 Z0.200
G1 E0.80000 F2100.00000
G1 F1800
G1 X119.067 Y83.120 E1.23333
G1 X118.532 Y83.120 E0.01682
G1 X146.630 Y111.218 E1.24957
G1 X146.630 Y111.752 E0.01682
G1 X117.998 Y83.120 E1.27335
G1 X117.463 Y83.120 E0.01682
G1 X146.630 Y112.287 E1.29714
G1 X146.630 Y112.822 E0.01682
G1 X116.928 Y83.120 E1.32092
G1 X116.393 Y83.120 E0.01682
G1 X146.630 Y113.357 E1.34471
G1 X146.630 Y113.892 E0.01682
G1 X115.858 Y83.120 E1.36849
G1 X115.323 Y83.120 E0.01682
G1 X146.630 Y114.427 E1.39228
G1 X146.630 Y114.961 E0.01682
G1 X114.789 Y83.120 E1.41606
G1 X114.254 Y83.120 E0.01682
G1 X146.630 Y115.496 E1.43985
G1 X146.630 Y116.031 E0.01682
G1 X113.719 Y83.120 E1.46364
G1 X113.184 Y83.120 E0.01682
G1 X146.630 Y116.566 E1.48742
G1 X146.630 Y117.101 E0.01682
G1 X112.649 Y83.120 E1.51121
G1 X112.114 Y83.120 E0.01682
G1 X146.630 Y117.636 E1.53499
G1 X146.630 Y118.170 E0.01682
G1 X111.580 Y83.120 E1.55878
G1 X111.045 Y83.120 E0.01682
G1 X146.630 Y118.705 E1.58256
G1 X146.630 Y119.240 E0.01682
G1 X110.510 Y83.120 E1.60635
G1 X109.975 Y83.120 E0.01682
G1 X146.630 Y119.775 E1.63014
G1 X146.630 Y120.310 E0.01682
G1 X109.440 Y83.120 E1.65392
G1 X108.905 Y83.120 E0.01682
G1 X146.630 Y120.845 E1.67771
G1 X146.630 Y121.379 E0.01682
G1 X108.371 Y83.120 E1.70149
G1 X107.836 Y83.120 E0.01682
G1 X146.630 Y121.914 E1.72528
G1 X146.630 Y122.449 E0.01682
G1 X107.301 Y83.120 E1.74906
G1 X106.766 Y83.120 E0.01682
G1 X146.630 Y122.984 E1.77285
G1 X146.630 Y123.519 E0.01682
G1 X106.231 Y83.120 E1.79663
G1 X105.696 Y83.120 E0.01682
G1 X146.630 Y124.054 E1.82042
G1 X146.630 Y124.589 E0.01682
G1 X105.161 Y83.120 E1.84421
G1 X104.627 Y83.120 E0.01682
G1 X146.387 Y124.880 E1.85717
G1 X145.852 Y124.880 E0.01682
G1 X104.092 Y83.120 E1.85717
G1 X103.570 Y83.120 E0.01641
G1 X145.317 Y124.880 E1.85689
G1 X144.782 Y124.880 E0.01682
G1 X103.595 Y83.693 E1.83170
G1 X103.595 Y84.227 E0.01682
G1 X144.248 Y124.880 E1.80791
G1 X143.713 Y124.880 E0.01682
G1 X103.595 Y84.762 E1.78413
G1 X103.595 Y85.297 E0.01682
G1 X143.178 Y124.880 E1.76034
G1 X142.643 Y124.880 E0.01682
G1 X103.595 Y85.832 E1.73656
G1 X103.595 Y86.367 E0.01682
G1 X142.108 Y124.880 E1.71277
G1 X141.573 Y124.880 E0.01682
G1 X103.595 Y86.902 E1.68899
G1 X103.595 Y87.437 E0.01682
G1 X141.038 Y124.880 E1.66520
G1 X140.504 Y124.880 E0.01682
G1 X103.595 Y87.971 E1.64142
G1 X103.595 Y88.506 E0.01682
G1 X139.969 Y124.880 E1.61763
G1 X139.434 Y124.880 E0.01682
G1 X103.595 Y89.041 E1.59384
G1 X103.595 Y89.576 E0.01682
G1 X138.899 Y124.880 E1.57006
G1 X138.364 Y124.880 E0.01682
G1 X103.595 Y90.111 E1.54627
G1 X103.595 Y90.646 E0.01682
G1 X137.829 Y124.880 E1.52249
G1 X137.295 Y124.880 E0.01682
G1 X103.595 Y91.180 E1.49870
G1 X103.595 Y91.715 E0.01682
G1 X136.760 Y124.880 E1.47492
G1 X136.225 Y124.880 E0.01682
G1 X103.595 Y92.250 E1.45113
G1 X103.595 Y92.785 E0.01682
G1 X135.690 Y124.880 E1.42735
G1 X135.155 Y124.880 E0.01682
G1 X103.595 Y93.320 E1.40356
G1 X103.595 Y93.855 E0.01682
G1 X134.620 Y124.880 E1.37977
G1 X134.086 Y124.880 E0.01682
G1 X103.595 Y94.389 E1.35599
G1 X103.595 Y94.924 E0.01682
G1 X133.551 Y124.880 E1.33220
G1 X133.016 Y124.880 E0.01682
G1 X103.595 Y95.459 E1.30842
G1 X103.595 Y95.994 E0.01682
G1 X132.481 Y124.880 E1.28463
G1 X131.946 Y124.880 E0.01682
G1 X103.595 Y96.529 E1.26085
G1 X103.595 Y97.064 E0.01682
G1 X131.411 Y124.880 E1.23706
G1 X130.876 Y124.880 E0.01682
G1 X103.595 Y97.599 E1.21327
G1 X103.595 Y98.133 E0.01682
G1 X130.342 Y124.880 E1.18949
G1 X129.807 Y124.880 E0.01682
G1 X103.595 Y98.668 E1.16570
G1 X103.595 Y99.203 E0.01682
G1 X129.272 Y124.880 E1.14192
G1 X128.737 Y124.880 E0.01682
G1 X103.595 Y99.738 E1.11813
G1 X103.595 Y100.273 E0.01682
G1 X128.202 Y124.880 E1.09435
G1 X127.667 Y124.880 E0.01682
G1 X103.595 Y100.808 E1.07056
G1 X103.595 Y101.342 E0.01682
G1 X127.133 Y124.880 E1.04678
G1 X126.598 Y124.880 E0.01682
G1 X103.595 Y101.877 E1.02299
G1 X103.595 Y102.412 E0.01682
G1 X126.063 Y124.880 E0.99920
G1 X125.528 Y124.880 E0.01682
G1 X103.595 Y102.947 E0.97542
G1 X103.595 Y103.482 E0.01682
G1 X124.993 Y124.880 E0.95163
G1 X124.458 Y124.880 E0.01682
G1 X103.595 Y104.017 E0.92785
G1 X103.595 Y104.551 E0.01682
G1 X123.924 Y124.880 E0.90406
G1 X123.389 Y124.880 E0.01682
G1 X103.595 Y105.086 E0.88028
G1 X103.595 Y105.621 E0.01682
G1 X122.854 Y124.880 E0.85649
G1 X122.319 Y124.880 E0.01682
G1 X103.595 Y106.156 E0.83271
G1 X103.595 Y106.691 E0.01682
G1 X121.784 Y124.880 E0.80892
G1 X121.630 Y124.880 E0.00484
G1 X121.630 Y125.261 E0.01197
G1 X103.595 Y107.226 E0.80207
G1 X103.595 Y107.761 E0.01682
G1 X121.630 Y125.796 E0.80207
G1 X121.630 Y126.331 E0.01682
G1 X103.595 Y108.295 E0.80207
G1 X103.595 Y108.830 E0.01682
G1 X121.630 Y126.880 E0.80240
G1 X121.110 Y126.880 E0.01636
G1 X103.595 Y109.365 E0.77894
G1 X103.595 Y109.900 E0.01682
G1 X120.575 Y126.880 E0.75515
G1 X120.040 Y126.880 E0.01682
G1 X103.595 Y110.435 E0.73136
G1 X103.595 Y110.970 E0.01682
G1 X119.505 Y126.880 E0.70758
G1 X118.971 Y126.880 E0.01682
G1 X103.595 Y111.504 E0.68379
G1 X103.595 Y112.039 E0.01682
G1 X118.436 Y126.880 E0.66001
G1 X117.901 Y126.880 E0.01682
G1 X103.595 Y112.574 E0.63622
G1 X103.595 Y113.109 E0.01682
G1 X117.366 Y126.880 E0.61244
G1 X116.831 Y126.880 E0.01682
G1 X103.595 Y113.644 E0.58865
G1 X103.595 Y114.179 E0.01682
G1 X116.296 Y126.880 E0.56487
G1 X115.762 Y126.880 E0.01682
G1 X103.595 Y114.713 E0.54108
G1 X103.595 Y115.248 E0.01682
G1 X115.227 Y126.880 E0.51729
G1 X114.692 Y126.880 E0.01682
G1 X103.595 Y115.783 E0.49351
G1 X103.595 Y116.318 E0.01682
G1 X114.157 Y126.880 E0.46972
G1 X113.622 Y126.880 E0.01682
G1 X103.595 Y116.853 E0.44594
G1 X103.595 Y117.388 E0.01682
G1 X113.087 Y126.880 E0.42215
G1 X112.553 Y126.880 E0.01682
G1 X103.595 Y117.922 E0.39837
G1 X103.595 Y118.457 E0.01682
G1 X112.018 Y126.880 E0.37458
G1 X111.483 Y126.880 E0.01682
G1 X103.595 Y118.992 E0.35080
G1 X103.595 Y119.527 E0.01682
G1 X110.948 Y126.880 E0.32701
G1 X110.413 Y126.880 E0.01682
G1 X103.595 Y120.062 E0.30322
G1 X103.595 Y120.597 E0.01682
G1 X109.878 Y126.880 E0.27944
G1 X109.343 Y126.880 E0.01682
G1 X103.595 Y121.132 E0.25565
G1 X103.595 Y121.666 E0.01682
G1 X108.809 Y126.880 E0.23187
G1 X108.274 Y126.880 E0.01682
G1 X103.595 Y122.201 E0.20808
G1 X103.595 Y122.736 E0.01682
G1 X107.739 Y126.880 E0.18430
G1 X107.204 Y126.880 E0.01682
G1 X103.595 Y123.271 E0.16051
G1 X103.595 Y123.806 E0.01682
G1 X106.669 Y126.880 E0.13672
G1 X106.134 Y126.880 E0.01682
G1 X103.595 Y124.341 E0.11294
G1 X103.595 Y124.875 E0.01682
G1 X105.600 Y126.880 E0.08915
G1 X105.065 Y126.880 E0.01682
G1 X103.595 Y125.410 E0.06537
G1 X103.595 Y125.945 E0.01682
G1 X104.530 Y126.880 E0.04158
G1 X103.995 Y126.880 E0.01682
G1 X103.425 Y126.310 E0.02534
M106 S255
;BEFORE_LAYER_CHANGE
G92 E0.0
;0.4


G1 F8640
G1 X103.995 Y126.880 E-0.18609
G1 X104.530 Y126.880 E-0.12350
G1 X103.595 Y125.945 E-0.30533
G1 X103.595 Y125.410 E-0.12350
G1 X103.661 Y125.476 E-0.02159
G1 E-0.04000 F2100.00000
G1 Z0.800 F10800.000
;AFTER_LAYER_CHANGE
;0.4
M104 S210 ; set temperature
G1 X101.107 Y129.251
G1 Z0.400
G1 E0.80000 F2100.00000
G1 F3000
G1 X100.780 Y128.800 E0.01749
G1 X100.579 Y128.291 E0.01714
G1 X100.511 Y127.752 E0.01703
G1 X100.511 Y82.243 E1.42692
G1 X100.701 Y81.359 E0.02833
G1 X101.014 Y80.855 E0.01862
G1 X101.454 Y80.451 E0.01873
G1 X101.984 Y80.182 E0.01862
G1 X102.570 Y80.065 E0.01873
G1 X122.504 Y80.061 E0.62501
G1 X147.755 Y82.076 E0.79424
G1 X148.258 Y82.197 E0.01623
G1 X148.722 Y82.435 E0.01635
G1 X149.117 Y82.775 E0.01635
G1 X149.420 Y83.199 E0.01635
G1 X149.619 Y83.701 E0.01692
G1 X149.688 Y84.236 E0.01692
G1 X149.688 Y125.794 E1.30301
G1 X149.602 Y126.359 E0.01794
G1 X149.372 Y126.883 E0.01794
G1 X149.014 Y127.330 E0.01794
G1 X148.550 Y127.670 E0.01805
G1 X147.692 Y127.930 E0.02810
G1 X122.550 Y129.938 E0.79081
G1 X102.587 Y129.936 E0.62595
G1 X102.042 Y129.837 E0.01737
G1 X101.535 Y129.603 E0.01749
G1 X101.154 Y129.289 E0.01549
G1 F8640
G1 X100.780 Y128.800 E-0.14222
G1 X100.579 Y128.291 E-0.12626
G1 X100.511 Y127.752 E-0.12542
G1 X100.511 Y126.167 E-0.36611
G1 E-0.04000 F2100.00000
G1 Z1.000 F10800.000
G1 X103.732 Y127.118
G1 Z0.400
G1 E0.80000 F2100.00000
M204 S800
G1 F2700
G1 X103.732 Y126.382 E0.02491
G1 X103.807 Y126.382 E0.00254
G1 X103.807 Y83.618 E1.44752
G1 X103.732 Y83.618 E0.00254
G1 X103.732 Y82.882 E0.02491
G1 X121.868 Y82.882 E0.61388
G1 X121.868 Y84.882 E0.06770
G1 X146.868 Y84.882 E0.84622
G1 X146.868 Y125.118 E1.36194
G1 X121.868 Y125.118 E0.84622
G1 X121.868 Y127.118 E0.06770
G1 X103.792 Y127.118 E0.61185
M204 S1000
G1 F8640
G1 X103.732 Y126.382 E-0.17047
G1 X103.807 Y126.382 E-0.01732
G1 X103.807 Y123.904 E-0.57221
G1 E-0.04000 F2100.00000
G1 Z1.000 F10800.000
G1 X122.275 Y84.475
G1 Z0.400
G1 E0.80000 F2100.00000
M204 S800
G1 X147.275 Y84.475 E0.84622
G1 X147.275 Y125.525 E1.38949
G1 X122.275 Y125.525 E0.84622
G1 X122.275 Y127.525 E0.06770
G1 X103.325 Y127.525 E0.64143
G1 X103.325 Y125.975 E0.05247
G1 X103.400 Y125.975 E0.00254
G1 X103.400 Y84.025 E1.41996
G1 X103.325 Y84.025 E0.00254
G1 X103.325 Y82.475 E0.05247
G1 X122.275 Y82.475 E0.64143
G1 X122.275 Y84.415 E0.06567
M204 S1000
G1 X122.463 Y84.828 F10800.000
G1 F8640
G1 X125.566 Y84.423 E-0.76000
G1 E-0.04000 F2100.00000
G1 Z1.000 F10800.000
G1 X104.977 Y83.004
G1 Z0.400
G1 E0.80000 F2100.00000
M204 S1500
G1 F11049.5
G1 X104.112 Y83.869 E0.04143
G1 X104.112 Y84.445 E0.01950
G1 X105.370 Y83.187 E0.06023
G1 X105.946 Y83.187 E0.01950
G1 X104.112 Y85.021 E0.08782
G1 X104.112 Y85.597 E0.01950
G1 X106.522 Y83.187 E0.11540
G1 X107.098 Y83.187 E0.01950
G1 X104.112 Y86.173 E0.14298
G1 X104.112 Y86.749 E0.01950
