;FLAVOR:Marlin
;TIME:7644
;Filament used: 5.88861m
;Layer height: 0.2
;MINX:67.482
;MINY:67.482
;MINZ:0.2
;MAXX:152.518
;MAXY:219.49
;MAXZ:17.2
;Generated with Cura_SteamEngine 4.2.1
M140 S50
M105
M190 S50
M104 S200
M105
M109 S200
M82 ;absolute extrusion mode
M201 X500.00 Y500.00 Z100.00 E5000.00 ;Setup machine max acceleration
M203 X500.00 Y500.00 Z10.00 E50.00 ;Setup machine max feedrate
M204 P500.00 R1000.00 T500.00 ;Setup Print/Retract/Travel acceleration
M205 X8.00 Y8.00 Z0.40 E5.00 ;Setup Jerk
M220 S100 ;Reset Feedrate
M221 S100 ;Reset Flowrate

G28 ;Home

G92 E0 ;Reset Extruder
G1 Z2.0 F3000 ;Move Z Axis up
G1 X10.1 Y20 Z0.28 F5000.0 ;Move to start position
G1 X10.1 Y200.0 Z0.28 F1500.0 E15 ;Draw the first line
G1 X10.4 Y200.0 Z0.28 F5000.0 ;Move to side a little
G1 X10.4 Y20 Z0.28 F1500.0 E30 ;Draw the second line
G92 E0 ;Reset Extruder
G1 Z2.0 F3000 ;Move Z Axis up

M141 S28
G92 E0
G92 E0
G1 F2700 E-5
;LAYER_COUNT:85
;LAYER:0
M107
G0 F6000 X80.038 Y79.831 Z0.2
;TYPE:SKIRT
G1 F2700 E0
G1 F1200 X80.913 Y79.004 E0.04405
G1 X81.089 Y78.842 E0.0528
G1 X82.075 Y77.948 E0.10149
G1 X82.212 Y77.825 E0.10823
G1 X82.581 Y77.501 E0.1262
G1 X83.12 Y77.056 E0.15177
G1 X84.102 Y76.294 E0.19724
G1 X84.305 Y76.14 E0.20657
G1 X85.337 Y75.375 E0.25357
G1 X85.493 Y75.261 E0.26064
G1 X85.929 Y74.949 E0.28025
G1 X86.503 Y74.565 E0.30552
G1 X87.505 Y73.935 E0.34882
G1 X87.707 Y73.81 E0.35751
G1 X88.823 Y73.14 E0.40513
G1 X88.973 Y73.052 E0.4115
G1 X89.604 Y72.686 E0.43818
G1 X90.15 Y72.388 E0.46094
G1 X90.348 Y72.287 E0.46907
G1 X90.614 Y72.156 E0.47992
G1 X90.888 Y72.025 E0.49103
G1 X90.923 Y72.008 E0.49246
G1 X92.562 Y71.231 E0.55882
G1 X92.725 Y71.156 E0.56538
G1 X93.193 Y70.943 E0.5842
G1 X93.857 Y70.665 E0.61053
G1 X94.991 Y70.232 E0.65494
G1 X95.222 Y70.147 E0.66395
G1 X96.419 Y69.719 E0.71046
G1 X96.566 Y69.667 E0.71616
G1 X97.153 Y69.466 E0.73886
G1 X97.831 Y69.257 E0.76482
G1 X98.711 Y69.015 E0.79821
G1 X98.962 Y68.949 E0.80771
G1 X100.456 Y68.574 E0.86406
G1 X100.601 Y68.539 E0.86952
G1 X101.132 Y68.413 E0.88949
G1 X101.862 Y68.264 E0.91674
G1 X102.921 Y68.084 E0.95604
G1 X103.168 Y68.045 E0.96519
G1 X104.603 Y67.833 E1.01826
G1 X104.78 Y67.808 E1.0248
G1 X105.28 Y67.742 E1.04326
G1 X105.983 Y67.671 E1.06911
G1 X107.167 Y67.588 E1.11253
G1 X107.405 Y67.574 E1.12125
G1 X108.742 Y67.508 E1.17023
G1 X108.908 Y67.501 E1.17631
G1 X109.395 Y67.484 E1.19414
G1 X110.125 Y67.482 E1.22084
G1 X111.394 Y67.518 E1.26729
G1 X111.635 Y67.527 E1.27611
G1 X112.852 Y67.587 E1.32069
G1 X113.007 Y67.596 E1.32637
G1 X113.596 Y67.633 E1.34797
G1 X114.325 Y67.702 E1.37476
G1 X115.5 Y67.851 E1.41809
G1 X115.736 Y67.883 E1.4268
G1 X117.075 Y68.081 E1.47632
G1 X117.236 Y68.106 E1.48228
G1 X117.895 Y68.213 E1.50671
G1 X118.52 Y68.332 E1.52999
G1 X118.725 Y68.377 E1.53767
G1 X119.015 Y68.445 E1.54856
G1 X119.392 Y68.538 E1.56277
G1 X119.428 Y68.547 E1.56413
G1 X121.111 Y68.968 E1.6276
G1 X121.284 Y69.013 E1.63414
G1 X121.794 Y69.149 E1.65345
G1 X122.476 Y69.353 E1.6795
G1 X123.632 Y69.739 E1.72408
G1 X123.867 Y69.82 E1.73318
G1 X125.11 Y70.265 E1.78148
G1 X125.249 Y70.316 E1.7869
G1 X125.716 Y70.49 E1.80513
G1 X126.403 Y70.772 E1.8323
G1 X127.513 Y71.269 E1.8768
G1 X127.732 Y71.369 E1.8856
G1 X128.92 Y71.931 E1.93369
G1 X129.053 Y71.995 E1.93909
G1 X129.499 Y72.213 E1.95725
G1 X130.159 Y72.563 E1.98458
G1 X131.245 Y73.184 E2.03035
G1 X131.454 Y73.307 E2.03922
G1 X132.539 Y73.958 E2.08552
G1 X132.683 Y74.045 E2.09167
G1 X133.154 Y74.337 E2.11195
G1 X133.746 Y74.73 E2.13794
G1 X134.711 Y75.414 E2.18122
G1 X134.91 Y75.558 E2.19021
G1 X135.965 Y76.34 E2.23825
G1 X136.092 Y76.436 E2.24408
G1 X136.501 Y76.748 E2.2629
G1 X137.077 Y77.217 E2.29007
G1 X138.032 Y78.048 E2.33639
G1 X138.203 Y78.2 E2.34476
G1 X139.146 Y79.054 E2.39131
G1 X139.279 Y79.177 E2.39793
G1 X139.661 Y79.534 E2.41706
G1 X140.169 Y80.038 E2.44324
G1 X140.996 Y80.913 E2.48729
G1 X141.158 Y81.089 E2.49604
G1 X142.052 Y82.075 E2.54474
G1 X142.175 Y82.212 E2.55147
G1 X142.499 Y82.581 E2.56944
G1 X142.944 Y83.12 E2.59501
G1 X143.706 Y84.102 E2.64049
G1 X143.86 Y84.305 E2.64981
G1 X144.625 Y85.337 E2.69681
G1 X144.739 Y85.493 E2.70388
G1 X145.051 Y85.929 E2.72349
G1 X145.435 Y86.503 E2.74876
G1 X146.065 Y87.505 E2.79206
G1 X146.19 Y87.707 E2.80075
G1 X146.86 Y88.823 E2.84838
G1 X146.947 Y88.97 E2.85463
G1 X147.308 Y89.592 E2.88094
G1 X147.599 Y90.125 E2.90316
G1 X147.705 Y90.332 E2.91166
G1 X147.844 Y90.614 E2.92317
G1 X147.975 Y90.888 E2.93428
G1 X147.99 Y90.92 E2.93557
G1 X148.767 Y92.558 E3.0019
G1 X148.848 Y92.732 E3.00892
G1 X149.061 Y93.201 E3.02777
G1 X149.335 Y93.857 E3.05378
G1 X149.768 Y94.991 E3.09819
G1 X149.853 Y95.222 E3.10719
G1 X150.281 Y96.419 E3.1537
G1 X150.334 Y96.57 E3.15956
G1 X150.518 Y97.108 E3.18036
G1 X150.73 Y97.797 E3.20673
G1 X151.041 Y98.934 E3.24986
G1 X151.102 Y99.166 E3.25864
G1 X151.428 Y100.463 E3.30757
G1 X151.466 Y100.62 E3.31348
G1 X151.589 Y101.14 E3.33302
G1 X151.736 Y101.862 E3.35998
G1 X151.914 Y102.909 E3.39884
G1 X151.953 Y103.155 E3.40795
G1 X152.167 Y104.602 E3.46147
G1 X152.191 Y104.774 E3.46782
G1 X152.257 Y105.272 E3.4862
G1 X152.329 Y105.982 E3.51231
G1 X152.412 Y107.168 E3.55581
G1 X152.426 Y107.405 E3.56449
G1 X152.492 Y108.742 E3.61347
G1 X152.499 Y108.908 E3.61955
G1 X152.516 Y109.394 E3.63734
G1 X152.518 Y110.124 E3.66405
G1 X152.482 Y111.394 E3.71053
G1 X152.473 Y111.635 E3.71935
G1 X152.413 Y112.852 E3.76393
G1 X152.404 Y113.007 E3.76961
G1 X152.367 Y113.596 E3.7912
G1 X152.298 Y114.325 E3.81799
G1 X152.149 Y115.5 E3.86133
G1 X152.117 Y115.736 E3.87004
G1 X151.919 Y117.075 E3.91956
G1 X151.895 Y117.228 E3.92523
G1 X151.821 Y117.686 E3.9422
G1 X151.677 Y118.425 E3.96975
G1 X151.394 Y119.659 E4.01607
G1 X151.34 Y119.882 E4.02446
G1 X151.035 Y121.1 E4.0704
G1 X150.99 Y121.277 E4.07708
G1 X150.851 Y121.797 E4.09677
G1 X150.695 Y122.328 E4.11702
G1 X149.838 Y125.012 E4.2201
G1 X149.148 Y127.405 E4.31122
G1 X148.521 Y129.841 E4.40325
G1 X147.953 Y132.329 E4.49662
G1 X147.483 Y134.71 E4.58541
G1 X147.066 Y137.184 E4.6772
G1 X146.717 Y139.677 E4.7693
G1 X146.44 Y142.169 E4.86103
G1 X146.233 Y144.67 E4.95285
G1 X146.099 Y147.156 E5.04393
G1 X146.034 Y149.649 E5.13517
G1 X146.041 Y152.143 E5.22642
G1 X146.119 Y154.681 E5.31932
G1 X146.264 Y157.148 E5.40973
G1 X146.484 Y159.655 E5.50181
G1 X146.769 Y162.114 E5.59238
G1 X147.131 Y164.61 E5.68465
G1 X147.563 Y167.099 E5.77707
G1 X148.052 Y169.504 E5.86686
G1 X148.629 Y171.984 E5.96002
G1 X148.894 Y173.07 E6.00092
G1 X149.082 Y174.012 E6.03606
G1 X149.197 Y175.036 E6.07376
G1 X149.253 Y175.871 E6.10438
G1 X149.264 Y176.059 E6.11127
G1 X149.473 Y180.185 E6.26242
G1 X149.48 Y180.342 E6.26817
G1 X149.506 Y181.044 E6.29387
G1 X149.502 Y182.005 E6.32903
G1 X149.409 Y183.024 E6.36647
G1 X149.299 Y183.834 E6.39637
G1 X149.271 Y184.027 E6.40351
G1 X148.638 Y188.163 E6.55659
G1 X148.612 Y188.326 E6.56263
G1 X148.503 Y188.976 E6.58674
G1 X148.305 Y189.915 E6.62185
G1 X148.008 Y190.897 E6.65939
G1 X147.723 Y191.707 E6.6908
G1 X147.659 Y191.883 E6.69765
G1 X146.23 Y195.743 E6.84824
G1 X146.166 Y195.912 E6.85485
G1 X145.913 Y196.564 E6.88044
G1 X145.529 Y197.444 E6.91557
G1 X145.05 Y198.326 E6.95229
G1 X144.621 Y199.041 E6.9828
G1 X144.518 Y199.21 E6.99004
G1 X142.325 Y202.727 E7.14168
G1 X142.239 Y202.863 E7.14756
G1 X141.866 Y203.443 E7.17279
G1 X141.313 Y204.229 E7.20795
G1 X140.657 Y205.01 E7.24527
G1 X140.112 Y205.603 E7.27474
G1 X139.98 Y205.743 E7.28178
G1 X137.112 Y208.761 E7.4341
G1 X136.997 Y208.881 E7.44018
G1 X136.507 Y209.382 E7.46582
G1 X135.807 Y210.04 E7.50097
G1 X135.005 Y210.674 E7.53837
G1 X134.328 Y211.162 E7.5689
G1 X134.173 Y211.272 E7.57586
G1 X130.781 Y213.633 E7.72706
G1 X130.642 Y213.728 E7.73322
G1 X130.061 Y214.12 E7.75886
G1 X129.243 Y214.624 E7.79401
G1 X128.348 Y215.075 E7.83068
G1 X127.629 Y215.399 E7.85953
G1 X127.436 Y215.484 E7.86725
G1 X123.591 Y217.133 E8.02031
G1 X123.447 Y217.194 E8.02604
G1 X122.81 Y217.457 E8.05125
G1 X121.908 Y217.786 E8.08638
G1 X120.918 Y218.053 E8.12389
G1 X120.084 Y218.239 E8.15515
G1 X119.897 Y218.279 E8.16215
G1 X115.871 Y219.107 E8.31253
G1 X115.702 Y219.141 E8.31884
G1 X115.008 Y219.273 E8.34468
G1 X114.058 Y219.413 E8.37981
G1 X113.045 Y219.474 E8.41694
G1 X112.21 Y219.488 E8.4475
G1 X112.017 Y219.49 E8.45456
G1 X107.872 Y219.49 E8.60621
G1 X107.701 Y219.489 E8.61246
G1 X107.027 Y219.479 E8.63713
G1 X106.068 Y219.425 E8.67227
G1 X105.062 Y219.281 E8.70945
G1 X104.117 Y219.103 E8.74463
G1 X103.93 Y219.066 E8.7516
G1 X99.935 Y218.245 E8.90082
G1 X99.76 Y218.207 E8.90737
G1 X99.142 Y218.07 E8.93053
G1 X98.214 Y217.824 E8.96566
G1 X97.276 Y217.487 E9.00212
G1 X96.478 Y217.161 E9.03366
G1 X96.291 Y217.083 E9.04107
G1 X92.544 Y215.475 E9.19025
G1 X92.388 Y215.406 E9.19649
G1 X91.712 Y215.104 E9.22358
G1 X90.852 Y214.676 E9.25873
G1 X89.979 Y214.144 E9.29613
G1 X89.298 Y213.686 E9.32615
G1 X89.147 Y213.582 E9.33286
G1 X85.754 Y211.221 E9.48409
G1 X85.607 Y211.117 E9.49068
G1 X85.03 Y210.702 E9.51669
G1 X84.274 Y210.11 E9.55182
G1 X83.546 Y209.432 E9.58821
G1 X82.96 Y208.837 E9.61877
G1 X82.816 Y208.688 E9.62635
G1 X79.933 Y205.654 E9.77947
G1 X79.826 Y205.539 E9.78522
G1 X79.397 Y205.075 E9.80834
G1 X78.774 Y204.343 E9.84351
G1 X78.188 Y203.52 E9.88047
G1 X77.725 Y202.806 E9.9116
G1 X77.613 Y202.63 E9.91924
G1 X75.42 Y199.111 E10.07094
G1 X75.333 Y198.97 E10.077
G1 X74.98 Y198.385 E10.102
G1 X74.519 Y197.543 E10.13712
G1 X74.107 Y196.608 E10.1745
G1 X73.798 Y195.814 E10.20567
G1 X73.73 Y195.635 E10.21268
G1 X72.312 Y191.804 E10.36213
G1 X72.256 Y191.65 E10.36813
G1 X72.012 Y190.961 E10.39487
G1 X71.729 Y190.043 E10.43001
G1 X71.514 Y189.05 E10.46719
G1 X71.369 Y188.2 E10.49873
G1 X71.338 Y188.005 E10.50596
G1 X70.715 Y183.935 E10.6566
G1 X70.69 Y183.767 E10.66281
G1 X70.596 Y183.086 E10.68796
G1 X70.505 Y182.13 E10.7231
G1 X70.495 Y181.108 E10.76049
G1 X70.524 Y180.272 E10.79109
G1 X70.532 Y180.09 E10.79776
G1 X70.74 Y175.972 E10.94861
G1 X70.749 Y175.805 E10.95473
G1 X70.795 Y175.098 E10.98065
G1 X70.898 Y174.143 E11.0158
G1 X71.093 Y173.14 E11.05318
G1 X71.473 Y171.564 E11.11249
G1 X71.749 Y170.392 E11.15654
G1 X72.277 Y167.924 E11.24888
G1 X72.723 Y165.489 E11.33945
G1 X73.105 Y163.018 E11.43093
G1 X73.418 Y160.53 E11.52267
G1 X73.661 Y158.033 E11.61446
G1 X73.832 Y155.547 E11.70563
G1 X73.934 Y153.023 E11.79805
G1 X73.965 Y150.515 E11.88981
G1 X73.925 Y148.071 E11.97924
G1 X73.812 Y145.533 E12.07219
G1 X73.629 Y143.021 E12.16434
G1 X73.382 Y140.578 E12.25417
G1 X73.055 Y138.061 E12.34703
G1 X72.663 Y135.598 E12.43828
G1 X72.201 Y133.135 E12.52996
G1 X71.674 Y130.713 E12.62065
G1 X71.074 Y128.289 E12.71201
G1 X70.4 Y125.859 E12.80427
G1 X69.651 Y123.427 E12.89737
G1 X69.49 Y122.945 E12.91596
G1 X69.304 Y122.329 E12.9395
G1 X68.952 Y121.037 E12.9885
G1 X68.895 Y120.819 E12.99674
G1 X68.573 Y119.539 E13.04503
G1 X68.535 Y119.384 E13.05087
G1 X68.418 Y118.89 E13.06944
G1 X68.267 Y118.147 E13.09718
G1 X68.061 Y116.924 E13.14256
G1 X68.025 Y116.694 E13.15107
G1 X67.84 Y115.442 E13.19738
G1 X67.817 Y115.28 E13.20336
G1 X67.745 Y114.74 E13.22329
G1 X67.672 Y114.019 E13.24981
G1 X67.586 Y112.787 E13.29499
G1 X67.572 Y112.553 E13.30357
G1 X67.508 Y111.259 E13.35097
G1 X67.501 Y111.092 E13.35708
G1 X67.484 Y110.606 E13.37488
G1 X67.482 Y109.876 E13.40158
G1 X67.518 Y108.606 E13.44807
G1 X67.527 Y108.365 E13.45689
G1 X67.587 Y107.148 E13.50147
G1 X67.596 Y106.993 E13.50715
G1 X67.633 Y106.404 E13.52874
G1 X67.702 Y105.674 E13.55557
G1 X67.852 Y104.492 E13.59916
G1 X67.884 Y104.257 E13.60784
G1 X68.081 Y102.925 E13.6571
G1 X68.108 Y102.749 E13.66361
G1 X68.216 Y102.089 E13.68808
G1 X68.324 Y101.52 E13.70927
G1 X68.368 Y101.316 E13.71691
G1 X68.445 Y100.985 E13.72934
G1 X68.538 Y100.608 E13.74355
G1 X68.547 Y100.572 E13.7449
G1 X68.968 Y98.889 E13.80838
G1 X69.01 Y98.725 E13.81457
G1 X69.145 Y98.217 E13.8338
G1 X69.353 Y97.523 E13.86031
G1 X69.74 Y96.365 E13.90498
G1 X69.82 Y96.133 E13.91396
G1 X70.265 Y94.89 E13.96226
G1 X70.319 Y94.744 E13.96795
G1 X70.512 Y94.227 E13.98814
G1 X70.782 Y93.566 E14.01427
G1 X71.155 Y92.729 E14.04779
G1 X71.262 Y92.496 E14.05717
G1 X71.922 Y91.099 E14.1137
G1 X71.995 Y90.947 E14.11987
G1 X72.226 Y90.476 E14.13906
G1 X72.57 Y89.828 E14.16591
G1 X73.174 Y88.772 E14.21041
G1 X73.294 Y88.567 E14.2191
G1 X73.956 Y87.463 E14.2662
G1 X74.045 Y87.317 E14.27246
G1 X74.337 Y86.846 E14.29273
G1 X74.73 Y86.254 E14.31873
G1 X75.414 Y85.289 E14.362
G1 X75.558 Y85.09 E14.37099
G1 X76.34 Y84.035 E14.41904
G1 X76.436 Y83.908 E14.42486
G1 X76.748 Y83.499 E14.44368
G1 X77.217 Y82.923 E14.47086
G1 X78.048 Y81.968 E14.51717
G1 X78.2 Y81.797 E14.52554
G1 X79.054 Y80.854 E14.57209
G1 X79.177 Y80.721 E14.57872
G1 X79.534 Y80.339 E14.59785
G1 X80.038 Y79.831 E14.62403
G0 F6000 X80.341 Y80.151
G1 F1200 X81.216 Y79.324 E14.66808
G1 X81.384 Y79.168 E14.67646
G1 X82.37 Y78.274 E14.72516
G1 X82.502 Y78.156 E14.73164
G1 X82.871 Y77.832 E14.7496
G1 X83.39 Y77.404 E14.77421
G1 X84.372 Y76.642 E14.81969
G1 X84.567 Y76.494 E14.82865
G1 X85.599 Y75.729 E14.87564
G1 X85.749 Y75.619 E14.88245
G1 X86.185 Y75.307 E14.90206
G1 X86.737 Y74.937 E14.92638
G1 X87.739 Y74.307 E14.96968
G1 X87.934 Y74.187 E14.97806
G1 X89.05 Y73.517 E15.02568
G1 X89.194 Y73.432 E15.0318
G1 X89.825 Y73.066 E15.05849
G1 X90.35 Y72.78 E15.08036
G1 X90.548 Y72.679 E15.08849
G1 X90.804 Y72.553 E15.09893
G1 X91.078 Y72.422 E15.11004
G1 X91.111 Y72.406 E15.11138
G1 X92.75 Y71.629 E15.17775
G1 X92.907 Y71.556 E15.18408
G1 X93.375 Y71.343 E15.20289
G1 X94.013 Y71.076 E15.2282
G1 X95.147 Y70.643 E15.27261
G1 X95.37 Y70.561 E15.2813
G1 X96.567 Y70.133 E15.32781
G1 X96.708 Y70.084 E15.33327
G1 X97.295 Y69.883 E15.35597
G1 X97.948 Y69.681 E15.38098
G1 X98.828 Y69.439 E15.41437
G1 X99.069 Y69.376 E15.42348
G1 X100.563 Y69.001 E15.47984
G1 X100.702 Y68.967 E15.48507
G1 X101.233 Y68.841 E15.50504
G1 X101.936 Y68.698 E15.53129
G1 X102.995 Y68.518 E15.57059
G1 X103.233 Y68.48 E15.5794
G1 X104.668 Y68.268 E15.63248
G1 X104.837 Y68.244 E15.63872
G1 X105.337 Y68.178 E15.65717
G1 X106.014 Y68.11 E15.68207
G1 X107.198 Y68.027 E15.72549
G1 X107.427 Y68.013 E15.73388
G1 X108.764 Y67.947 E15.78286
G1 X108.924 Y67.941 E15.78872
G1 X109.411 Y67.924 E15.80655
G1 X110.113 Y67.921 E15.83223
G1 X111.382 Y67.957 E15.87868
G1 X111.614 Y67.966 E15.88717
G1 X112.831 Y68.026 E15.93175
G1 X112.98 Y68.035 E15.93721
G1 X113.569 Y68.072 E15.9588
G1 X114.269 Y68.138 E15.98453
G1 X115.444 Y68.287 E16.02786
G1 X115.672 Y68.318 E16.03628
G1 X117.011 Y68.516 E16.0858
G1 X117.166 Y68.54 E16.09154
G1 X117.825 Y68.647 E16.11596
G1 X118.426 Y68.762 E16.13835
G1 X118.631 Y68.807 E16.14603
G1 X118.91 Y68.872 E16.15651
G1 X119.287 Y68.965 E16.17072
G1 X119.322 Y68.974 E16.17204
G1 X121.005 Y69.395 E16.23551
G1 X121.171 Y69.438 E16.24178
G1 X121.681 Y69.574 E16.2611
G1 X122.337 Y69.77 E16.28614
G1 X123.493 Y70.156 E16.33073
G1 X123.718 Y70.235 E16.33946
G1 X124.961 Y70.68 E16.38776
G1 X125.095 Y70.729 E16.39298
G1 X125.562 Y70.903 E16.41121
G1 X126.223 Y71.173 E16.43734
G1 X127.333 Y71.67 E16.48183
G1 X127.544 Y71.767 E16.49033
G1 X128.732 Y72.329 E16.53841
G1 X128.859 Y72.391 E16.54358
G1 X129.305 Y72.609 E16.56174
G1 X129.941 Y72.945 E16.58806
G1 X131.027 Y73.566 E16.63383
G1 X131.228 Y73.684 E16.64236
G1 X132.313 Y74.335 E16.68865
G1 X132.451 Y74.419 E16.69456
G1 X132.922 Y74.711 E16.71484
G1 X133.492 Y75.089 E16.73986
G1 X134.457 Y75.773 E16.78314
G1 X134.648 Y75.912 E16.79178
G1 X135.703 Y76.694 E16.83982
G1 X135.825 Y76.786 E16.84541
G1 X136.234 Y77.098 E16.86423
G1 X136.788 Y77.549 E16.89037
G1 X137.743 Y78.38 E16.93669
G1 X137.908 Y78.526 E16.94475
G1 X138.851 Y79.38 E16.99129
G1 X138.979 Y79.498 E16.99766
G1 X139.361 Y79.855 E17.01679
G1 X139.849 Y80.341 E17.04199
G1 X140.676 Y81.216 E17.08604
G1 X140.832 Y81.384 E17.09443
G1 X141.726 Y82.37 E17.14312
G1 X141.844 Y82.502 E17.1496
G1 X142.168 Y82.871 E17.16756
G1 X142.596 Y83.39 E17.19218
G1 X143.358 Y84.372 E17.23765
G1 X143.506 Y84.567 E17.24661
G1 X144.271 Y85.599 E17.29361
G1 X144.381 Y85.749 E17.30041
G1 X144.693 Y86.185 E17.32003
