;FLAVOR:Marlin
;TIME:12944
;Filament used: 8.77091m
;Layer height: 0.2
;MINX:69.198
;MINY:69.2
;MINZ:0.2
;MAXX:150.802
;MAXY:150.802
;MAXZ:65
;Generated with Cura_SteamEngine 4.2.1
M140 S50
M105
M190 S50
M104 S200
M105
M109 S200
M82 ;absolute extrusion mode
M201 X500.00 Y500.00 Z100.00 E5000.00 ;Setup machine max acceleration
M203 X500.00 Y500.00 Z10.00 E50.00 ;Setup machine max feedrate
M204 P500.00 R1000.00 T500.00 ;Setup Print/Retract/Travel acceleration
M205 X8.00 Y8.00 Z0.40 E5.00 ;Setup Jerk
M220 S100 ;Reset Feedrate
M221 S100 ;Reset Flowrate

G28 ;Home

G92 E0 ;Reset Extruder
G1 Z2.0 F3000 ;Move Z Axis up
G1 X10.1 Y20 Z0.28 F5000.0 ;Move to start position
G1 X10.1 Y200.0 Z0.28 F1500.0 E15 ;Draw the first line
G1 X10.4 Y200.0 Z0.28 F5000.0 ;Move to side a little
G1 X10.4 Y20 Z0.28 F1500.0 E30 ;Draw the second line
G92 E0 ;Reset Extruder
G1 Z2.0 F3000 ;Move Z Axis up

M141 S28
G92 E0
G92 E0
G1 F2700 E-5
;LAYER_COUNT:325
;LAYER:0
M107
G0 F6000 X80.85 Y81.45 Z0.2
;TYPE:SKIRT
G1 F2700 E0
G1 F1200 X81.535 Y80.777 E0.03513
G1 X82.098 Y80.299 E0.06215
G1 X82.858 Y79.695 E0.09767
G1 X83.008 Y79.578 E0.10463
G1 X87.772 Y75.918 E0.32443
G1 X87.903 Y75.818 E0.33046
G1 X88.43 Y75.425 E0.35451
G1 X89.224 Y74.883 E0.38968
G1 X90.059 Y74.409 E0.42481
G1 X90.713 Y74.099 E0.45129
G1 X91.554 Y73.732 E0.48486
G1 X91.745 Y73.651 E0.49245
G1 X97.304 Y71.343 E0.71266
G1 X97.46 Y71.28 E0.71882
G1 X98.133 Y71.012 E0.74532
G1 X99.039 Y70.694 E0.78045
G1 X99.969 Y70.452 E0.81561
G1 X100.636 Y70.329 E0.84042
G1 X101.256 Y70.233 E0.86338
G1 X101.518 Y70.195 E0.87306
G1 X107.816 Y69.367 E1.10547
G1 X107.97 Y69.348 E1.11114
G1 X108.615 Y69.272 E1.1349
G1 X109.572 Y69.2 E1.17002
G1 X110.533 Y69.207 E1.20518
G1 X111.055 Y69.245 E1.22433
G1 X111.603 Y69.297 E1.24446
G1 X112.019 Y69.344 E1.25978
G1 X118.433 Y70.188 E1.49647
G1 X118.595 Y70.21 E1.50245
G1 X119.218 Y70.301 E1.52548
G1 X120.162 Y70.479 E1.56063
G1 X121.088 Y70.736 E1.59579
G1 X121.76 Y70.975 E1.62188
G1 X122.467 Y71.252 E1.64966
G1 X122.67 Y71.334 E1.65767
G1 X128.416 Y73.712 E1.88519
G1 X128.57 Y73.777 E1.89131
G1 X129.171 Y74.036 E1.91525
G1 X130.037 Y74.453 E1.95041
G1 X130.865 Y74.94 E1.98556
G1 X131.473 Y75.361 E2.01262
G1 X132.202 Y75.901 E2.04581
G1 X132.358 Y76.018 E2.05294
G1 X137.17 Y79.71 E2.27484
G1 X137.287 Y79.801 E2.28027
G1 X137.815 Y80.217 E2.30486
G1 X138.544 Y80.843 E2.34001
G1 X139.219 Y81.527 E2.37517
G1 X139.705 Y82.099 E2.40263
G1 X140.245 Y82.778 E2.43437
G1 X140.364 Y82.931 E2.44147
G1 X144.077 Y87.764 E2.66444
G1 X144.177 Y87.895 E2.67047
G1 X144.57 Y88.422 E2.69452
G1 X145.112 Y89.216 E2.7297
G1 X145.586 Y90.051 E2.76483
G1 X145.899 Y90.712 E2.79158
G1 X146.268 Y91.559 E2.82538
G1 X146.348 Y91.747 E2.83286
G1 X148.666 Y97.336 E3.05423
G1 X148.726 Y97.485 E3.06011
G1 X148.987 Y98.14 E3.0859
G1 X149.305 Y99.047 E3.12107
G1 X149.547 Y99.976 E3.15619
G1 X149.676 Y100.679 E3.18234
G1 X149.799 Y101.489 E3.21231
G1 X149.831 Y101.717 E3.22074
G1 X150.627 Y107.767 E3.44399
G1 X150.648 Y107.933 E3.45011
G1 X150.73 Y108.635 E3.47597
G1 X150.802 Y109.593 E3.51112
G1 X150.793 Y110.554 E3.54628
G1 X150.737 Y111.256 E3.57204
G1 X150.649 Y112.043 E3.60102
G1 X150.622 Y112.263 E3.60913
G1 X149.819 Y118.382 E3.83492
G1 X149.797 Y118.543 E3.84086
G1 X149.7 Y119.209 E3.86548
G1 X149.522 Y120.153 E3.90063
G1 X149.137 Y121.456 E3.95034
G1 X149.052 Y121.692 E3.95952
G1 X148.859 Y122.192 E3.97913
G1 X146.289 Y128.407 E4.22518
G1 X146.229 Y128.549 E4.23082
G1 X145.968 Y129.157 E4.25503
G1 X145.553 Y130.023 E4.29016
G1 X145.067 Y130.852 E4.32532
G1 X144.647 Y131.461 E4.35239
G1 X144.147 Y132.138 E4.38318
G1 X144.03 Y132.293 E4.39028
G1 X143.565 Y132.901 E4.41829
G1 X143.553 Y132.917 E4.41902
G1 X140.288 Y137.17 E4.61519
G1 X140.199 Y137.284 E4.62048
G1 X139.776 Y137.821 E4.64549
G1 X139.151 Y138.55 E4.68062
G1 X138.467 Y139.225 E4.71578
G1 X137.9 Y139.707 E4.743
G1 X137.301 Y140.184 E4.77102
G1 X137.143 Y140.308 E4.77837
G1 X132.247 Y144.07 E5.00427
G1 X132.11 Y144.173 E5.01054
G1 X131.565 Y144.579 E5.0354
G1 X130.771 Y145.121 E5.07057
G1 X129.936 Y145.594 E5.10568
G1 X129.284 Y145.903 E5.13208
G1 X128.454 Y146.265 E5.16521
G1 X128.263 Y146.346 E5.1728
G1 X122.663 Y148.669 E5.39461
G1 X122.53 Y148.723 E5.39986
G1 X121.883 Y148.982 E5.42536
G1 X120.977 Y149.302 E5.46051
G1 X120.047 Y149.545 E5.49568
G1 X119.331 Y149.678 E5.52232
G1 X118.753 Y149.766 E5.54372
G1 X118.521 Y149.798 E5.55228
G1 X112.196 Y150.63 E5.78568
G1 X112.03 Y150.651 E5.79181
G1 X111.354 Y150.73 E5.81671
G1 X110.397 Y150.802 E5.85182
G1 X109.436 Y150.793 E5.88698
G1 X108.81 Y150.745 E5.90995
G1 X108.248 Y150.686 E5.93062
G1 X107.949 Y150.651 E5.94164
G1 X101.596 Y149.816 E6.17607
G1 X101.447 Y149.795 E6.18157
G1 X100.832 Y149.706 E6.20431
G1 X99.888 Y149.529 E6.23945
G1 X98.559 Y149.137 E6.29014
G1 X98.208 Y149.01 E6.3038
G1 X97.854 Y148.875 E6.31766
G1 X97.526 Y148.744 E6.33058
G1 X97.392 Y148.689 E6.33588
G1 X91.583 Y146.284 E6.5659
G1 X91.451 Y146.229 E6.57114
G1 X90.835 Y145.965 E6.59566
G1 X89.969 Y145.55 E6.63079
G1 X89.14 Y145.065 E6.66593
G1 X88.547 Y144.656 E6.69228
G1 X88.03 Y144.276 E6.71576
G1 X87.836 Y144.131 E6.72462
G1 X82.794 Y140.26 E6.95718
G1 X82.676 Y140.168 E6.96266
G1 X82.184 Y139.78 E6.98558
G1 X81.455 Y139.155 E7.02071
G1 X80.781 Y138.47 E7.05587
G1 X80.333 Y137.945 E7.08112
G1 X79.823 Y137.31 E7.11092
G1 X79.664 Y137.108 E7.12033
G1 X75.943 Y132.257 E7.34401
G1 X75.844 Y132.126 E7.35001
G1 X75.421 Y131.558 E7.37592
G1 X74.879 Y130.764 E7.4111
G1 X74.406 Y129.928 E7.44624
G1 X74.107 Y129.297 E7.47178
G1 X73.681 Y128.325 E7.51061
G1 X73.591 Y128.115 E7.51897
G1 X71.349 Y122.71 E7.73306
G1 X71.289 Y122.563 E7.73886
G1 X71.017 Y121.881 E7.76573
G1 X70.699 Y120.975 E7.80086
G1 X70.389 Y119.709 E7.84854
G1 X70.351 Y119.504 E7.85617
G1 X70.271 Y119.012 E7.87441
G1 X70.187 Y118.416 E7.89643
G1 X70.172 Y118.308 E7.90042
G1 X69.378 Y112.264 E8.12345
G1 X69.358 Y112.101 E8.12945
G1 X69.27 Y111.348 E8.15719
G1 X69.198 Y110.39 E8.19234
G1 X69.207 Y109.429 E8.2275
G1 X69.263 Y108.726 E8.2533
G1 X69.339 Y108.046 E8.27833
G1 X69.366 Y107.825 E8.28648
G1 X70.187 Y101.576 E8.51707
G1 X70.209 Y101.417 E8.52294
G1 X70.301 Y100.785 E8.54631
G1 X70.479 Y99.841 E8.58146
G1 X70.735 Y98.915 E8.61661
G1 X70.912 Y98.404 E8.63639
G1 X71.056 Y98.019 E8.65143
G1 X71.203 Y97.647 E8.66606
G1 X73.71 Y91.593 E8.9058
G1 X73.766 Y91.46 E8.91108
G1 X74.034 Y90.835 E8.93596
G1 X74.449 Y89.969 E8.97109
G1 X74.935 Y89.14 E9.00625
G1 X75.3 Y88.605 E9.02994
G1 X75.583 Y88.215 E9.04757
G1 X75.74 Y88.005 E9.05717
G1 X75.931 Y87.754 E9.0687
G1 X75.96 Y87.716 E9.07045
G1 X79.691 Y82.855 E9.29465
G1 X79.79 Y82.727 E9.30057
G1 X80.223 Y82.179 E9.32612
G1 X80.85 Y81.45 E9.3613
G0 F6000 X81.184 Y81.738
G1 F1200 X81.857 Y81.079 E9.39576
G1 X82.372 Y80.643 E9.42045
G1 X83.132 Y80.039 E9.45596
G1 X83.276 Y79.927 E9.46264
G1 X88.04 Y76.267 E9.68243
G1 X88.166 Y76.171 E9.68823
G1 X88.693 Y75.778 E9.71228
G1 X89.472 Y75.247 E9.74677
G1 X90.292 Y74.784 E9.78122
G1 X90.889 Y74.502 E9.80538
G1 X91.73 Y74.135 E9.83895
G1 X91.914 Y74.057 E9.84626
G1 X97.473 Y71.749 E10.06648
G1 X97.622 Y71.689 E10.07236
G1 X98.295 Y71.421 E10.09886
G1 X99.185 Y71.109 E10.13336
G1 X100.097 Y70.875 E10.16781
G1 X100.704 Y70.764 E10.19039
G1 X101.324 Y70.668 E10.21334
G1 X101.575 Y70.632 E10.22262
G1 X107.873 Y69.804 E10.45502
G1 X108.021 Y69.785 E10.46048
G1 X108.666 Y69.709 E10.48424
G1 X109.606 Y69.639 E10.51873
G1 X111.014 Y69.683 E10.57026
G1 X111.562 Y69.735 E10.5904
G1 X111.961 Y69.78 E10.60509
G1 X118.375 Y70.624 E10.84178
G1 X118.531 Y70.646 E10.84754
G1 X119.154 Y70.737 E10.87058
G1 X120.08 Y70.912 E10.90506
G1 X120.987 Y71.166 E10.93952
G1 X121.599 Y71.385 E10.9633
G1 X122.306 Y71.662 E10.99108
G1 X122.502 Y71.741 E10.99881
G1 X128.248 Y74.119 E11.22633
G1 X128.396 Y74.181 E11.2322
G1 X128.997 Y74.44 E11.25614
G1 X129.846 Y74.85 E11.29064
G1 X130.656 Y75.329 E11.32506
G1 X131.211 Y75.715 E11.3498
G1 X131.94 Y76.255 E11.38299
G1 X132.09 Y76.367 E11.38984
G1 X136.902 Y80.059 E11.61174
G1 X137.014 Y80.147 E11.61695
G1 X137.542 Y80.563 E11.64154
G1 X138.257 Y81.177 E11.67602
G1 X138.917 Y81.849 E11.71048
G1 X139.361 Y82.373 E11.73561
G1 X139.901 Y83.052 E11.76735
G1 X140.015 Y83.199 E11.77416
G1 X143.728 Y88.032 E11.99714
G1 X143.824 Y88.158 E12.00293
G1 X144.217 Y88.685 E12.02698
G1 X144.748 Y89.464 E12.06148
G1 X145.211 Y90.284 E12.09593
G1 X145.495 Y90.888 E12.12035
G1 X145.864 Y91.735 E12.15415
G1 X145.941 Y91.916 E12.16135
G1 X148.259 Y97.505 E12.38271
G1 X148.318 Y97.648 E12.38837
G1 X148.579 Y98.303 E12.41417
G1 X148.89 Y99.192 E12.44863
G1 X149.125 Y100.105 E12.48312
G1 X149.241 Y100.746 E12.50695
G1 X149.364 Y101.556 E12.53693
G1 X149.395 Y101.774 E12.54498
G1 X150.191 Y107.824 E12.76824
G1 X150.211 Y107.984 E12.77414
G1 X150.293 Y108.686 E12.79999
G1 X150.363 Y109.626 E12.83448
G1 X150.352 Y110.568 E12.86895
G1 X150.299 Y111.207 E12.89241
G1 X150.211 Y111.994 E12.92138
G1 X150.186 Y112.205 E12.92915
G1 X149.383 Y118.324 E13.15494
G1 X149.361 Y118.48 E13.16071
G1 X149.264 Y119.146 E13.18533
G1 X149.089 Y120.071 E13.21977
G1 X148.723 Y121.307 E13.26693
G1 X148.638 Y121.543 E13.27611
G1 X148.453 Y122.024 E13.29497
G1 X145.883 Y128.239 E13.54102
G1 X145.825 Y128.376 E13.54647
G1 X145.564 Y128.984 E13.57067
G1 X145.156 Y129.833 E13.60514
G1 X144.677 Y130.644 E13.6396
G1 X144.293 Y131.199 E13.66429
G1 X143.793 Y131.876 E13.69508
G1 X143.681 Y132.025 E13.7019
G1 X143.216 Y132.633 E13.7299
G1 X143.204 Y132.649 E13.73063
G1 X139.939 Y136.902 E13.9268
G1 X139.854 Y137.012 E13.93189
G1 X139.431 Y137.549 E13.9569
G1 X138.817 Y138.263 E13.99135
G1 X138.145 Y138.923 E14.02581
G1 X137.626 Y139.363 E14.0507
G1 X137.027 Y139.84 E14.07872
G1 X136.875 Y139.959 E14.08578
G1 X131.979 Y143.721 E14.31168
G1 X131.847 Y143.821 E14.31774
G1 X131.302 Y144.227 E14.3426
G1 X130.523 Y144.757 E14.37707
G1 X129.703 Y145.219 E14.41151
G1 X129.109 Y145.499 E14.43553
G1 X128.279 Y145.861 E14.46866
G1 X128.094 Y145.94 E14.47602
G1 X122.494 Y148.263 E14.69783
G1 X122.366 Y148.315 E14.70289
G1 X121.719 Y148.574 E14.72839
G1 X120.83 Y148.887 E14.76287
G1 X119.918 Y149.123 E14.79733
G1 X119.265 Y149.243 E14.82162
G1 X118.687 Y149.331 E14.84301
G1 X118.464 Y149.362 E14.85125
G1 X112.139 Y150.194 E15.08465
G1 X111.979 Y150.214 E15.09055
G1 X111.303 Y150.293 E15.11545
G1 X110.364 Y150.363 E15.1499
G1 X109.422 Y150.352 E15.18437
G1 X108.856 Y150.307 E15.20514
G1 X108.294 Y150.248 E15.22582
G1 X108.007 Y150.214 E15.23639
G1 X101.654 Y149.379 E15.47082
G1 X101.51 Y149.36 E15.47613
G1 X100.895 Y149.271 E15.49887
G1 X99.969 Y149.096 E15.53335
G1 X98.708 Y148.723 E15.58146
G1 X98.357 Y148.596 E15.59512
G1 X98.017 Y148.466 E15.60843
G1 X97.689 Y148.335 E15.62136
G1 X97.56 Y148.283 E15.62644
G1 X91.751 Y145.878 E15.85647
G1 X91.624 Y145.825 E15.8615
G1 X91.008 Y145.561 E15.88602
G1 X90.159 Y145.153 E15.92048
G1 X89.347 Y144.675 E15.95496
G1 X88.807 Y144.302 E15.97897
G1 X88.29 Y143.922 E16.00244
G1 X88.104 Y143.782 E16.01096
G1 X83.062 Y139.911 E16.24352
G1 X82.949 Y139.823 E16.24876
G1 X82.457 Y139.435 E16.27169
G1 X81.742 Y138.821 E16.30617
G1 X81.083 Y138.148 E16.34063
G1 X80.676 Y137.67 E16.3636
G1 X80.166 Y137.035 E16.3934
G1 X80.013 Y136.84 E16.40246
G1 X76.292 Y131.989 E16.62614
G1 X76.196 Y131.863 E16.63194
G1 X75.773 Y131.295 E16.65785
G1 X75.243 Y130.516 E16.69232
G1 X74.781 Y129.695 E16.72679
G1 X74.51 Y129.121 E16.75001
G1 X74.084 Y128.149 E16.78884
G1 X73.997 Y127.946 E16.79692
G1 X71.755 Y122.541 E17.011
G1 X71.698 Y122.4 E17.01657
G1 X71.426 Y121.718 E17.04343
G1 X71.114 Y120.829 E17.0779
G1 X70.822 Y119.629 E17.12309
G1 X70.784 Y119.424 E17.13071
G1 X70.707 Y118.95 E17.14828
G1 X70.623 Y118.354 E17.1703
G1 X70.609 Y118.251 E17.17411
G1 X69.815 Y112.207 E17.39713
G1 X69.795 Y112.049 E17.40296
G1 X69.707 Y111.296 E17.4307
G1 X69.637 Y110.357 E17.46515
G1 X69.648 Y109.415 E17.49961
G1 X69.701 Y108.775 E17.52311
G1 X69.777 Y108.095 E17.54814
G1 X69.803 Y107.882 E17.55599
G1 X70.624 Y101.633 E17.78658
G1 X70.645 Y101.48 E17.79223
G1 X70.737 Y100.848 E17.8156
G1 X70.912 Y99.922 E17.85008
G1 X71.165 Y99.015 E17.88453
G1 X71.324 Y98.558 E17.90223
G1 X71.468 Y98.173 E17.91727
G1 X71.61 Y97.815 E17.93136
G1 X74.117 Y91.761 E18.17109
G1 X74.17 Y91.634 E18.17613
G1 X74.438 Y91.009 E18.20101
G1 X74.846 Y90.159 E18.2355
G1 X75.324 Y89.347 E18.26998
G1 X75.656 Y88.864 E18.29142
G1 X75.939 Y88.474 E18.30905
G1 X76.09 Y88.271 E18.31831
G1 X76.281 Y88.02 E18.32985
G1 X76.309 Y87.984 E18.33151
G1 X80.04 Y83.123 E18.55571
G1 X80.136 Y82.999 E18.56144
G1 X80.569 Y82.451 E18.587
G1 X81.184 Y81.738 E18.62145
G0 F6000 X81.517 Y82.025
G1 F1200 X82.179 Y81.381 E18.65524
G1 X82.646 Y80.988 E18.67757
G1 X83.406 Y80.384 E18.71308
G1 X83.544 Y80.276 E18.71949
G1 X88.308 Y76.616 E18.93929
G1 X88.429 Y76.524 E18.94485
G1 X88.956 Y76.131 E18.9689
G1 X89.72 Y75.611 E19.00271
G1 X90.525 Y75.16 E19.03647
G1 X91.065 Y74.906 E19.05831
G1 X91.906 Y74.539 E19.09188
G1 X92.082 Y74.464 E19.09888
G1 X97.641 Y72.156 E19.31909
G1 X97.785 Y72.097 E19.32479
G1 X98.458 Y71.829 E19.35129
G1 X99.33 Y71.525 E19.38507
G1 X100.225 Y71.298 E19.41886
G1 X100.771 Y71.199 E19.43916
G1 X101.391 Y71.103 E19.46211
G1 X101.632 Y71.068 E19.47102
G1 X107.93 Y70.24 E19.70342
G1 X108.073 Y70.222 E19.7087
G1 X108.718 Y70.146 E19.73246
G1 X109.638 Y70.078 E19.76621
G1 X110.972 Y70.121 E19.81504
G1 X111.52 Y70.173 E19.83518
G1 X111.904 Y70.216 E19.84932
G1 X118.318 Y71.06 E20.086
G1 X118.468 Y71.081 E20.09154
G1 X119.091 Y71.172 E20.11458
G1 X119.998 Y71.345 E20.14836
G1 X120.886 Y71.596 E20.18212
G1 X121.439 Y71.795 E20.20362
G1 X122.146 Y72.072 E20.23141
G1 X122.333 Y72.147 E20.23878
G1 X128.079 Y74.525 E20.46629
G1 X128.222 Y74.585 E20.47197
G1 X128.823 Y74.844 E20.49591
G1 X129.654 Y75.246 E20.52968
G1 X130.447 Y75.718 E20.56345
G1 X130.949 Y76.068 E20.58584
G1 X131.678 Y76.608 E20.61903
G1 X131.822 Y76.717 E20.62564
G1 X136.634 Y80.409 E20.84754
G1 X136.742 Y80.493 E20.85254
G1 X137.27 Y80.909 E20.87713
G1 X137.97 Y81.511 E20.91091
G1 X138.615 Y82.171 E20.94468
G1 X139.016 Y82.647 E20.96745
G1 X139.556 Y83.326 E20.99919
G1 X139.666 Y83.467 E21.00573
G1 X143.379 Y88.3 E21.22871
G1 X143.471 Y88.421 E21.23427
G1 X143.864 Y88.948 E21.25832
G1 X144.384 Y89.712 E21.29213
G1 X144.835 Y90.517 E21.32589
G1 X145.092 Y91.063 E21.34797
G1 X145.461 Y91.91 E21.38177
G1 X145.535 Y92.084 E21.38869
G1 X147.853 Y97.673 E21.61006
G1 X147.909 Y97.811 E21.61551
G1 X148.17 Y98.466 E21.6413
G1 X148.474 Y99.338 E21.67509
G1 X148.702 Y100.232 E21.70885
G1 X148.806 Y100.812 E21.7304
G1 X148.929 Y101.622 E21.76038
G1 X148.959 Y101.831 E21.7681
G1 X149.755 Y107.881 E21.99136
G1 X149.774 Y108.035 E21.99703
G1 X149.856 Y108.737 E22.02289
G1 X149.923 Y109.658 E22.05668
G1 X149.911 Y110.581 E22.09045
G1 X149.862 Y111.159 E22.11167
G1 X149.774 Y111.946 E22.14064
G1 X149.749 Y112.148 E22.14809
G1 X148.946 Y118.267 E22.37388
G1 X148.926 Y118.416 E22.37938
G1 X148.829 Y119.082 E22.40401
G1 X148.656 Y119.989 E22.43779
G1 X148.309 Y121.158 E22.4824
G1 X148.224 Y121.394 E22.49158
G1 X148.046 Y121.856 E22.50969
G1 X145.476 Y128.071 E22.75575
G1 X145.421 Y128.202 E22.76095
G1 X145.16 Y128.81 E22.78515
G1 X144.759 Y129.642 E22.81894
G1 X144.288 Y130.436 E22.85272
G1 X143.939 Y130.938 E22.87509
G1 X143.439 Y131.615 E22.90588
G1 X143.331 Y131.758 E22.91244
G1 X142.866 Y132.366 E22.94044
G1 X142.855 Y132.381 E22.94112
G1 X139.59 Y136.634 E23.13729
G1 X139.508 Y136.739 E23.14216
G1 X139.085 Y137.276 E23.16717
G1 X138.483 Y137.976 E23.20095
G1 X137.822 Y138.621 E23.23474
G1 X137.352 Y139.019 E23.25727
G1 X136.753 Y139.496 E23.28529
G1 X136.607 Y139.61 E23.29206
G1 X131.711 Y143.372 E23.51796
G1 X131.584 Y143.468 E23.52379
G1 X131.039 Y143.874 E23.54865
G1 X130.276 Y144.393 E23.58241
G1 X129.47 Y144.844 E23.6162
G1 X128.933 Y145.096 E23.63791
G1 X128.103 Y145.458 E23.67103
G1 X127.926 Y145.533 E23.67807
G1 X122.326 Y147.856 E23.89988
G1 X122.203 Y147.907 E23.90475
G1 X121.556 Y148.166 E23.93025
G1 X120.684 Y148.471 E23.96405
G1 X119.79 Y148.7 E23.99781
