;FLAVOR:Marlin
;TIME:7702
;Filament used: 5.88494m
;Layer height: 0.2
;MINX:67.481
;MINY:67.481
;MINZ:0.2
;MAXX:152.519
;MAXY:219.49
;MAXZ:17.2
;Generated with Cura_SteamEngine 4.2.1
M140 S50
M105
M190 S50
M104 S200
M105
M109 S200
M82 ;absolute extrusion mode
M201 X500.00 Y500.00 Z100.00 E5000.00 ;Setup machine max acceleration
M203 X500.00 Y500.00 Z10.00 E50.00 ;Setup machine max feedrate
M204 P500.00 R1000.00 T500.00 ;Setup Print/Retract/Travel acceleration
M205 X8.00 Y8.00 Z0.40 E5.00 ;Setup Jerk
M220 S100 ;Reset Feedrate
M221 S100 ;Reset Flowrate

G28 ;Home

G92 E0 ;Reset Extruder
G1 Z2.0 F3000 ;Move Z Axis up
G1 X10.1 Y20 Z0.28 F5000.0 ;Move to start position
G1 X10.1 Y200.0 Z0.28 F1500.0 E15 ;Draw the first line
G1 X10.4 Y200.0 Z0.28 F5000.0 ;Move to side a little
G1 X10.4 Y20 Z0.28 F1500.0 E30 ;Draw the second line
G92 E0 ;Reset Extruder
G1 Z2.0 F3000 ;Move Z Axis up

M141 S28
G92 E0
G92 E0
G1 F2700 E-5
;LAYER_COUNT:85
;LAYER:0
M107
G0 F6000 X80.026 Y79.844 Z0.2
;TYPE:SKIRT
G1 F2700 E0
G1 F1200 X80.915 Y79.003 E0.04477
G1 X81.092 Y78.839 E0.0536
G1 X82.072 Y77.95 E0.10201
G1 X82.216 Y77.822 E0.10906
G1 X82.599 Y77.486 E0.1277
G1 X83.134 Y77.045 E0.15307
G1 X84.072 Y76.317 E0.19651
G1 X84.273 Y76.164 E0.20575
G1 X85.368 Y75.352 E0.25562
G1 X85.516 Y75.244 E0.26233
G1 X85.898 Y74.97 E0.27953
G1 X86.481 Y74.578 E0.30523
G1 X87.537 Y73.914 E0.35087
G1 X87.749 Y73.784 E0.35997
G1 X88.849 Y73.125 E0.40688
G1 X88.996 Y73.038 E0.41313
G1 X89.602 Y72.687 E0.43875
G1 X90.136 Y72.396 E0.461
G1 X90.412 Y72.255 E0.47234
G1 X90.694 Y72.116 E0.48384
G1 X90.933 Y72.002 E0.49353
G1 X90.965 Y71.987 E0.49482
G1 X92.569 Y71.228 E0.55975
G1 X92.725 Y71.156 E0.56603
G1 X93.193 Y70.943 E0.58484
G1 X93.857 Y70.665 E0.61118
G1 X94.991 Y70.232 E0.65559
G1 X95.222 Y70.147 E0.6646
G1 X96.419 Y69.719 E0.7111
G1 X96.562 Y69.668 E0.71666
G1 X97.093 Y69.486 E0.7372
G1 X97.796 Y69.27 E0.7641
G1 X98.972 Y68.949 E0.8087
G1 X99.206 Y68.888 E0.81755
G1 X100.471 Y68.571 E0.86526
G1 X100.615 Y68.536 E0.87068
G1 X101.113 Y68.418 E0.88941
G1 X101.854 Y68.268 E0.91707
G1 X103.057 Y68.065 E0.9617
G1 X103.277 Y68.03 E0.96985
G1 X104.613 Y67.831 E1.01927
G1 X104.78 Y67.807 E1.02544
G1 X105.235 Y67.746 E1.04224
G1 X105.96 Y67.672 E1.0689
G1 X107.186 Y67.586 E1.11387
G1 X107.43 Y67.572 E1.12281
G1 X108.717 Y67.509 E1.16995
G1 X108.874 Y67.502 E1.1757
G1 X109.413 Y67.483 E1.19543
G1 X110.153 Y67.481 E1.22251
G1 X111.367 Y67.516 E1.26694
G1 X111.597 Y67.525 E1.27536
G1 X112.887 Y67.588 E1.32262
G1 X113.04 Y67.596 E1.32822
G1 X113.571 Y67.629 E1.34769
G1 X114.316 Y67.7 E1.37507
G1 X115.507 Y67.852 E1.41899
G1 X115.737 Y67.884 E1.42749
G1 X117.08 Y68.083 E1.47716
G1 X117.239 Y68.107 E1.48304
G1 X117.707 Y68.183 E1.50039
G1 X118.43 Y68.324 E1.52734
G1 X119.628 Y68.598 E1.5723
G1 X119.858 Y68.654 E1.58096
G1 X121.168 Y68.982 E1.63037
G1 X121.337 Y69.025 E1.63675
G1 X121.776 Y69.142 E1.65337
G1 X122.462 Y69.348 E1.67958
G1 X123.641 Y69.742 E1.72506
G1 X123.874 Y69.823 E1.73408
G1 X125.111 Y70.266 E1.78216
G1 X125.261 Y70.32 E1.78799
G1 X125.78 Y70.514 E1.80826
G1 X126.435 Y70.783 E1.83417
G1 X127.27 Y71.155 E1.86761
G1 X127.504 Y71.262 E1.87702
G1 X128.901 Y71.922 E1.93355
G1 X129.043 Y71.99 E1.93931
G1 X129.511 Y72.219 E1.95837
G1 X130.17 Y72.569 E1.98567
G1 X131.25 Y73.187 E2.0312
G1 X131.454 Y73.306 E2.03984
G1 X132.538 Y73.956 E2.08608
G1 X132.662 Y74.031 E2.09138
G1 X133.124 Y74.316 E2.11124
G1 X133.745 Y74.728 E2.13851
G1 X134.724 Y75.423 E2.18243
G1 X134.92 Y75.565 E2.19129
G1 X135.978 Y76.35 E2.23949
G1 X136.122 Y76.459 E2.2461
G1 X136.533 Y76.774 E2.26504
G1 X137.08 Y77.22 E2.29086
G1 X138 Y78.019 E2.33544
G1 X138.184 Y78.182 E2.34444
G1 X139.168 Y79.074 E2.39303
G1 X139.3 Y79.196 E2.39961
G1 X139.656 Y79.529 E2.41744
G1 X140.156 Y80.026 E2.44323
G1 X140.997 Y80.915 E2.48801
G1 X141.161 Y81.092 E2.49683
G1 X142.05 Y82.072 E2.54524
G1 X142.178 Y82.216 E2.55229
G1 X142.514 Y82.599 E2.57093
G1 X142.955 Y83.134 E2.5963
G1 X143.683 Y84.072 E2.63974
G1 X143.836 Y84.273 E2.64898
G1 X144.648 Y85.368 E2.69886
G1 X144.756 Y85.516 E2.70556
G1 X145.03 Y85.898 E2.72276
G1 X145.422 Y86.481 E2.74846
G1 X146.086 Y87.537 E2.7941
G1 X146.214 Y87.745 E2.80304
G1 X146.858 Y88.819 E2.84885
G1 X146.947 Y88.971 E2.8553
G1 X147.313 Y89.603 E2.88202
G1 X147.604 Y90.136 E2.90423
G1 X147.745 Y90.412 E2.91557
G1 X147.884 Y90.694 E2.92707
G1 X147.998 Y90.933 E2.93676
G1 X148.013 Y90.965 E2.93806
G1 X148.772 Y92.569 E3.00298
G1 X148.844 Y92.725 E3.00926
G1 X149.057 Y93.193 E3.02808
G1 X149.335 Y93.857 E3.05441
G1 X149.768 Y94.991 E3.09882
G1 X149.853 Y95.222 E3.10783
G1 X150.281 Y96.419 E3.15434
G1 X150.333 Y96.566 E3.16004
G1 X150.534 Y97.153 E3.18274
G1 X150.741 Y97.825 E3.20847
G1 X150.981 Y98.696 E3.24152
G1 X151.051 Y98.961 E3.25155
G1 X151.42 Y100.436 E3.30718
G1 X151.455 Y100.579 E3.31256
G1 X151.588 Y101.141 E3.33369
G1 X151.737 Y101.877 E3.36117
G1 X151.928 Y103.008 E3.40313
G1 X151.963 Y103.23 E3.41135
G1 X152.169 Y104.613 E3.46251
G1 X152.192 Y104.773 E3.46843
G1 X152.253 Y105.226 E3.48515
G1 X152.328 Y105.96 E3.51214
G1 X152.414 Y107.188 E3.55718
G1 X152.428 Y107.431 E3.56609
G1 X152.489 Y108.679 E3.6118
G1 X152.495 Y108.822 E3.61704
G1 X152.516 Y109.399 E3.63816
G1 X152.519 Y110.151 E3.66567
G1 X152.484 Y111.366 E3.71014
G1 X152.475 Y111.597 E3.7186
G1 X152.412 Y112.887 E3.76585
G1 X152.404 Y113.04 E3.77146
G1 X152.371 Y113.571 E3.79092
G1 X152.3 Y114.316 E3.8183
G1 X152.148 Y115.507 E3.86223
G1 X152.116 Y115.737 E3.87073
G1 X151.917 Y117.08 E3.9204
G1 X151.893 Y117.239 E3.92628
G1 X151.817 Y117.707 E3.94363
G1 X151.676 Y118.43 E3.97058
G1 X151.402 Y119.628 E4.01554
G1 X151.346 Y119.858 E4.0242
G1 X151.018 Y121.168 E4.07361
G1 X150.975 Y121.335 E4.07992
G1 X150.857 Y121.778 E4.09669
G1 X150.697 Y122.324 E4.11751
G1 X149.839 Y125.007 E4.22056
G1 X149.147 Y127.41 E4.31205
G1 X148.522 Y129.837 E4.40375
G1 X147.956 Y132.316 E4.49678
G1 X147.481 Y134.724 E4.58657
G1 X147.066 Y137.186 E4.67792
G1 X146.717 Y139.679 E4.77002
G1 X146.44 Y142.171 E4.86175
G1 X146.233 Y144.672 E4.95357
G1 X146.099 Y147.158 E5.04465
G1 X146.034 Y149.651 E5.13589
G1 X146.041 Y152.145 E5.22714
G1 X146.119 Y154.68 E5.31993
G1 X146.264 Y157.154 E5.4106
G1 X146.483 Y159.65 E5.50227
G1 X146.77 Y162.124 E5.59339
G1 X147.13 Y164.607 E5.68518
G1 X147.563 Y167.101 E5.77779
G1 X148.052 Y169.506 E5.86758
G1 X148.597 Y171.849 E5.95559
G1 X148.897 Y173.086 E6.00216
G1 X149.085 Y174.028 E6.03731
G1 X149.197 Y175.036 E6.07441
G1 X149.253 Y175.871 E6.10503
G1 X149.264 Y176.059 E6.11192
G1 X149.473 Y180.185 E6.26307
G1 X149.48 Y180.342 E6.26882
G1 X149.506 Y181.044 E6.29452
G1 X149.502 Y182.005 E6.32968
G1 X149.409 Y183.024 E6.36711
G1 X149.299 Y183.834 E6.39702
G1 X149.271 Y184.027 E6.40416
G1 X148.638 Y188.163 E6.55724
G1 X148.612 Y188.326 E6.56328
G1 X148.503 Y188.976 E6.58739
G1 X148.305 Y189.915 E6.6225
G1 X148.008 Y190.897 E6.66004
G1 X147.723 Y191.707 E6.69145
G1 X147.659 Y191.883 E6.6983
G1 X146.23 Y195.743 E6.84889
G1 X146.166 Y195.912 E6.8555
G1 X145.913 Y196.564 E6.88109
G1 X145.529 Y197.444 E6.91622
G1 X145.05 Y198.326 E6.95294
G1 X144.621 Y199.041 E6.98345
G1 X144.518 Y199.21 E6.99069
G1 X142.325 Y202.727 E7.14232
G1 X142.239 Y202.863 E7.14821
G1 X141.866 Y203.443 E7.17344
G1 X141.313 Y204.229 E7.2086
G1 X140.657 Y205.01 E7.24592
G1 X140.112 Y205.603 E7.27538
G1 X139.98 Y205.743 E7.28242
G1 X137.112 Y208.761 E7.43475
G1 X136.997 Y208.881 E7.44083
G1 X136.507 Y209.382 E7.46647
G1 X135.807 Y210.04 E7.50162
G1 X135.005 Y210.674 E7.53902
G1 X134.328 Y211.162 E7.56955
G1 X134.173 Y211.272 E7.57651
G1 X130.781 Y213.633 E7.72771
G1 X130.642 Y213.728 E7.73387
G1 X130.061 Y214.12 E7.75951
G1 X129.243 Y214.624 E7.79466
G1 X128.348 Y215.075 E7.83133
G1 X127.629 Y215.399 E7.86018
G1 X127.436 Y215.484 E7.8679
G1 X123.591 Y217.133 E8.02096
G1 X123.447 Y217.194 E8.02668
G1 X122.81 Y217.457 E8.0519
G1 X121.908 Y217.786 E8.08703
G1 X120.918 Y218.053 E8.12454
G1 X120.084 Y218.239 E8.1558
G1 X119.897 Y218.279 E8.1628
G1 X115.871 Y219.107 E8.31318
G1 X115.702 Y219.141 E8.31948
G1 X115.008 Y219.273 E8.34533
G1 X114.058 Y219.413 E8.38046
G1 X113.045 Y219.474 E8.41759
G1 X112.21 Y219.488 E8.44815
G1 X112.017 Y219.49 E8.45521
G1 X107.872 Y219.49 E8.60686
G1 X107.701 Y219.489 E8.61311
G1 X107.027 Y219.479 E8.63777
G1 X106.068 Y219.425 E8.67292
G1 X105.062 Y219.281 E8.7101
G1 X104.117 Y219.103 E8.74528
G1 X103.93 Y219.066 E8.75225
G1 X99.935 Y218.245 E8.90147
G1 X99.76 Y218.207 E8.90802
G1 X99.142 Y218.07 E8.93118
G1 X98.214 Y217.824 E8.9663
G1 X97.276 Y217.487 E9.00277
G1 X96.478 Y217.161 E9.03431
G1 X96.291 Y217.083 E9.04172
G1 X92.544 Y215.475 E9.1909
G1 X92.388 Y215.406 E9.19714
G1 X91.712 Y215.104 E9.22423
G1 X90.852 Y214.676 E9.25937
G1 X89.979 Y214.144 E9.29678
G1 X89.298 Y213.686 E9.3268
G1 X89.147 Y213.582 E9.33351
G1 X85.754 Y211.221 E9.48474
G1 X85.607 Y211.117 E9.49133
G1 X85.03 Y210.702 E9.51734
G1 X84.274 Y210.11 E9.55247
G1 X83.546 Y209.432 E9.58886
G1 X82.96 Y208.837 E9.61942
G1 X82.816 Y208.688 E9.627
G1 X79.933 Y205.654 E9.78012
G1 X79.826 Y205.539 E9.78587
G1 X79.397 Y205.075 E9.80899
G1 X78.774 Y204.343 E9.84416
G1 X78.188 Y203.52 E9.88112
G1 X77.725 Y202.806 E9.91225
G1 X77.613 Y202.63 E9.91989
G1 X75.42 Y199.111 E10.07159
G1 X75.333 Y198.97 E10.07765
G1 X74.98 Y198.385 E10.10265
G1 X74.519 Y197.543 E10.13777
G1 X74.107 Y196.608 E10.17515
G1 X73.798 Y195.814 E10.20632
G1 X73.73 Y195.635 E10.21332
G1 X72.312 Y191.804 E10.36278
G1 X72.256 Y191.65 E10.36877
G1 X72.012 Y190.961 E10.39552
G1 X71.729 Y190.043 E10.43066
G1 X71.514 Y189.05 E10.46783
G1 X71.369 Y188.2 E10.49938
G1 X71.338 Y188.005 E10.50661
G1 X70.715 Y183.935 E10.65725
G1 X70.69 Y183.767 E10.66346
G1 X70.596 Y183.086 E10.68861
G1 X70.505 Y182.13 E10.72375
G1 X70.495 Y181.108 E10.76114
G1 X70.524 Y180.272 E10.79174
G1 X70.532 Y180.09 E10.79841
G1 X70.74 Y175.972 E10.94926
G1 X70.749 Y175.805 E10.95538
G1 X70.795 Y175.098 E10.9813
G1 X70.898 Y174.143 E11.01644
G1 X71.093 Y173.14 E11.05383
G1 X71.473 Y171.564 E11.11314
G1 X71.749 Y170.392 E11.15719
G1 X72.277 Y167.924 E11.24953
G1 X72.723 Y165.489 E11.3401
G1 X73.105 Y163.018 E11.43158
G1 X73.418 Y160.53 E11.52332
G1 X73.661 Y158.033 E11.61511
G1 X73.832 Y155.547 E11.70628
G1 X73.934 Y153.023 E11.79869
G1 X73.965 Y150.515 E11.89046
G1 X73.925 Y148.071 E11.97989
G1 X73.812 Y145.533 E12.07284
G1 X73.629 Y143.021 E12.16498
G1 X73.382 Y140.578 E12.25482
G1 X73.055 Y138.061 E12.34768
G1 X72.663 Y135.598 E12.43893
G1 X72.201 Y133.135 E12.53061
G1 X71.674 Y130.713 E12.62129
G1 X71.074 Y128.289 E12.71266
G1 X70.396 Y125.847 E12.80538
G1 X69.65 Y123.425 E12.8981
G1 X69.485 Y122.928 E12.91726
G1 X69.317 Y122.378 E12.9383
G1 X69.025 Y121.327 E12.97821
G1 X68.949 Y121.039 E12.9891
G1 X68.58 Y119.564 E13.04473
G1 X68.545 Y119.421 E13.05012
G1 X68.412 Y118.859 E13.07125
G1 X68.263 Y118.123 E13.09872
G1 X68.072 Y116.992 E13.14069
G1 X68.037 Y116.77 E13.14891
G1 X67.831 Y115.387 E13.20007
G1 X67.807 Y115.22 E13.20624
G1 X67.746 Y114.765 E13.22303
G1 X67.672 Y114.04 E13.2497
G1 X67.586 Y112.814 E13.29466
G1 X67.572 Y112.57 E13.3036
G1 X67.509 Y111.283 E13.35075
G1 X67.502 Y111.126 E13.3565
G1 X67.483 Y110.588 E13.37619
G1 X67.481 Y109.849 E13.40323
G1 X67.516 Y108.634 E13.4477
G1 X67.525 Y108.403 E13.45616
G1 X67.588 Y107.113 E13.50341
G1 X67.596 Y106.96 E13.50901
G1 X67.629 Y106.429 E13.52848
G1 X67.7 Y105.684 E13.55586
G1 X67.852 Y104.493 E13.59979
G1 X67.884 Y104.263 E13.60828
G1 X68.083 Y102.92 E13.65795
G1 X68.111 Y102.74 E13.66462
G1 X68.214 Y102.113 E13.68787
G1 X68.321 Y101.547 E13.70894
G1 X68.383 Y101.26 E13.71968
G1 X68.456 Y100.946 E13.73148
G1 X68.523 Y100.673 E13.74176
G1 X68.533 Y100.63 E13.74338
G1 X68.962 Y98.911 E13.8082
G1 X69.004 Y98.749 E13.81432
G1 X69.141 Y98.232 E13.83389
G1 X69.352 Y97.528 E13.86078
G1 X69.747 Y96.347 E13.90634
G1 X69.826 Y96.12 E13.91513
G1 X70.265 Y94.893 E13.96281
G1 X70.314 Y94.756 E13.96813
G1 X70.487 Y94.291 E13.98628
G1 X70.771 Y93.598 E14.01369
G1 X71.269 Y92.486 E14.05826
G1 X71.369 Y92.268 E14.06704
G1 X71.931 Y91.08 E14.11512
G1 X71.991 Y90.956 E14.12016
G1 X72.21 Y90.507 E14.13844
G1 X72.568 Y89.832 E14.16639
G1 X73.191 Y88.744 E14.21226
G1 X73.307 Y88.545 E14.22069
G1 X73.955 Y87.464 E14.2668
G1 X74.031 Y87.338 E14.27218
G1 X74.316 Y86.876 E14.29204
G1 X74.728 Y86.255 E14.31931
G1 X75.423 Y85.276 E14.36323
G1 X75.565 Y85.08 E14.37209
G1 X76.35 Y84.022 E14.42029
G1 X76.459 Y83.878 E14.4269
G1 X76.774 Y83.467 E14.44584
G1 X77.22 Y82.92 E14.47166
G1 X78.019 Y82 E14.51624
G1 X78.182 Y81.816 E14.52524
G1 X79.074 Y80.832 E14.57383
G1 X79.196 Y80.7 E14.5804
G1 X79.529 Y80.344 E14.59824
G1 X80.026 Y79.844 E14.62403
G0 F6000 X80.329 Y80.163
G1 F1200 X81.218 Y79.322 E14.6688
G1 X81.388 Y79.165 E14.67727
G1 X82.368 Y78.276 E14.72568
G1 X82.506 Y78.153 E14.73244
G1 X82.889 Y77.817 E14.75108
G1 X83.403 Y77.392 E14.77548
G1 X84.341 Y76.664 E14.81893
G1 X84.535 Y76.517 E14.82783
G1 X85.63 Y75.705 E14.87771
G1 X85.772 Y75.601 E14.88415
G1 X86.154 Y75.327 E14.90134
G1 X86.715 Y74.95 E14.92607
G1 X87.771 Y74.286 E14.97171
G1 X87.975 Y74.161 E14.98046
G1 X89.075 Y73.502 E15.02738
G1 X89.217 Y73.419 E15.0334
G1 X89.823 Y73.068 E15.05902
G1 X90.336 Y72.788 E15.0804
G1 X90.612 Y72.647 E15.09174
G1 X90.883 Y72.513 E15.1028
G1 X91.122 Y72.399 E15.11249
G1 X91.153 Y72.385 E15.11373
G1 X92.757 Y71.626 E15.17866
G1 X92.907 Y71.556 E15.18471
G1 X93.375 Y71.343 E15.20352
G1 X94.013 Y71.076 E15.22883
G1 X95.147 Y70.643 E15.27324
G1 X95.37 Y70.561 E15.28193
G1 X96.567 Y70.133 E15.32844
G1 X96.705 Y70.085 E15.33379
G1 X97.236 Y69.903 E15.35432
G1 X97.912 Y69.695 E15.3802
G1 X99.088 Y69.374 E15.4248
G1 X99.313 Y69.315 E15.43331
G1 X100.578 Y68.998 E15.48102
G1 X100.717 Y68.964 E15.48626
G1 X101.215 Y68.846 E15.50498
G1 X101.927 Y68.702 E15.53156
G1 X103.13 Y68.499 E15.57619
G1 X103.342 Y68.465 E15.58405
G1 X104.678 Y68.266 E15.63347
G1 X104.838 Y68.243 E15.63938
G1 X105.293 Y68.182 E15.65618
G1 X105.991 Y68.111 E15.68184
G1 X107.217 Y68.025 E15.72681
G1 X107.451 Y68.011 E15.73539
G1 X108.738 Y67.948 E15.78253
G1 X108.89 Y67.942 E15.78809
G1 X109.429 Y67.923 E15.80783
G1 X110.14 Y67.921 E15.83384
G1 X111.354 Y67.956 E15.87827
G1 X111.575 Y67.964 E15.88636
G1 X112.865 Y68.027 E15.93362
G1 X113.013 Y68.035 E15.93904
G1 X113.544 Y68.068 E15.9585
G1 X114.26 Y68.136 E15.98482
G1 X115.451 Y68.288 E16.02874
G1 X115.673 Y68.319 E16.03695
G1 X117.016 Y68.518 E16.08662
G1 X117.168 Y68.542 E16.09225
G1 X117.636 Y68.618 E16.10959
G1 X118.332 Y68.753 E16.13553
G1 X119.53 Y69.027 E16.18049
G1 X119.751 Y69.08 E16.18881
G1 X121.061 Y69.408 E16.23822
G1 X121.224 Y69.45 E16.24437
G1 X121.663 Y69.567 E16.261
G1 X122.322 Y69.765 E16.28617
G1 X123.501 Y70.159 E16.33165
G1 X123.725 Y70.237 E16.34033
G1 X124.962 Y70.68 E16.3884
G1 X125.106 Y70.733 E16.39402
G1 X125.625 Y70.927 E16.41429
G1 X126.256 Y71.185 E16.43923
G1 X127.091 Y71.557 E16.47267
G1 X127.316 Y71.66 E16.48173
G1 X128.713 Y72.32 E16.53825
G1 X128.85 Y72.386 E16.54382
G1 X129.318 Y72.615 E16.56288
G1 X129.952 Y72.951 E16.58913
G1 X131.032 Y73.569 E16.63466
G1 X131.227 Y73.683 E16.64292
G1 X132.311 Y74.333 E16.68916
G1 X132.431 Y74.406 E16.6943
G1 X132.893 Y74.691 E16.71416
G1 X133.49 Y75.087 E16.74037
G1 X134.469 Y75.782 E16.7843
G1 X134.658 Y75.919 E16.79284
G1 X135.716 Y76.704 E16.84104
G1 X135.854 Y76.808 E16.84736
G1 X136.265 Y77.123 E16.8663
G1 X136.791 Y77.552 E16.89114
G1 X137.711 Y78.351 E16.93572
G1 X137.888 Y78.508 E16.94437
G1 X138.872 Y79.4 E16.99297
G1 X139 Y79.518 E16.99934
G1 X139.356 Y79.851 E17.01717
G1 X139.837 Y80.329 E17.04198
G1 X140.678 Y81.218 E17.08675
G1 X140.835 Y81.388 E17.09522
G1 X141.724 Y82.368 E17.14363
G1 X141.847 Y82.506 E17.15039
G1 X142.183 Y82.889 E17.16903
G1 X142.608 Y83.403 E17.19343
G1 X143.336 Y84.341 E17.23687
G1 X143.483 Y84.535 E17.24578
G1 X144.295 Y85.63 E17.29565
G1 X144.399 Y85.772 E17.30209
G1 X144.673 Y86.154 E17.31929
G1 X145.05 Y86.715 E17.34402
G1 X145.714 Y87.771 E17.38966
G1 X145.837 Y87.972 E17.39828
G1 X146.481 Y89.046 E17.4441
G1 X146.567 Y89.191 E17.45026
