;FLAVOR:Marlin
;TIME:13126
;Filament used: 10.4514m
;Layer height: 0.28
;MINX:6.029
;MINY:11.932
;MINZ:0.28
;MAXX:213.97
;MAXY:208.413
;MAXZ:2.8
;Generated with Cura_SteamEngine 4.2.1
M140 S50
M105
M190 S50
M104 S200
M105
M109 S200
M82 ;absolute extrusion mode
M201 X500.00 Y500.00 Z100.00 E5000.00 ;Setup machine max acceleration
M203 X500.00 Y500.00 Z10.00 E50.00 ;Setup machine max feedrate
M204 P500.00 R1000.00 T500.00 ;Setup Print/Retract/Travel acceleration
M205 X8.00 Y8.00 Z0.40 E5.00 ;Setup Jerk
M220 S100 ;Reset Feedrate
M221 S100 ;Reset Flowrate

G28 ;Home

G92 E0 ;Reset Extruder
G1 Z2.0 F3000 ;Move Z Axis up
G1 X10.1 Y20 Z0.28 F5000.0 ;Move to start position
G1 X10.1 Y200.0 Z0.28 F1500.0 E15 ;Draw the first line
G1 X10.4 Y200.0 Z0.28 F5000.0 ;Move to side a little
G1 X10.4 Y20 Z0.28 F1500.0 E30 ;Draw the second line
G92 E0 ;Reset Extruder
G1 Z2.0 F3000 ;Move Z Axis up

M141 S28
G92 E0
G92 E0
G1 F2700 E-5
;LAYER_COUNT:10
;LAYER:0
M107
;MESH:jewelry_tree_1.stl
G0 F6000 X70.084 Y206.376 Z0.28
;TYPE:WALL-INNER
G1 F2700 E0
G1 F1200 X69.87 Y206.208 E0.01394
G1 X68.575 Y205.192 E0.09824
G1 X79.075 Y183.339 E1.34007
G1 X78.955 Y182.661 E1.37534
G1 X75.437 Y162.689 E2.41406
G1 X74.52 Y162.533 E2.46171
G1 X71.498 Y167.938 E2.77889
G1 X71.437 Y168.047 E2.78529
G1 X71.221 Y168.432 E2.8079
G1 X70.993 Y168.84 E2.83184
G1 X70.918 Y168.974 E2.8397
G1 X70.831 Y169.13 E2.84885
G1 X70.701 Y169.362 E2.86248
G1 X70.556 Y169.62 E2.87763
G1 X70.491 Y169.737 E2.88449
G1 X70.409 Y169.883 E2.89307
G1 X64.464 Y180.511 E3.51682
G1 X64.352 Y180.712 E3.5286
G1 X64.277 Y180.846 E3.53647
G1 X64.188 Y181.006 E3.54585
G1 X57.841 Y192.352 E4.21175
G1 X57.706 Y192.593 E4.2259
G1 X57.502 Y192.407 E4.2345
G1 X56.25 Y191.263 E4.32137
G1 X60.952 Y182.856 E4.81476
G1 X60.43 Y182.166 E4.85907
G1 X51.527 Y184.348 E5.32859
G1 X51.4 Y184.379 E5.33528
G1 X51.295 Y184.405 E5.34082
G1 X51.159 Y184.439 E5.348
G1 X51.075 Y184.46 E5.35244
G1 X51.139 Y184.359 E5.35411
G1 X51.249 Y184.216 E5.3594
G1 X51.327 Y184.082 E5.36464
G1 X51.375 Y183.961 E5.3704
G1 X51.501 Y183.646 E5.38778
G1 X51.602 Y183.195 E5.41145
G1 X51.633 Y182.754 E5.4341
G1 X51.602 Y182.313 E5.45674
G1 X51.501 Y181.86 E5.48051
G1 X51.326 Y181.426 E5.50448
G1 X51.264 Y181.319 E5.51082
G1 X51.074 Y181.022 E5.52888
G1 X50.968 Y180.896 E5.53731
G1 X50.83 Y180.779 E5.54658
G1 X50.642 Y180.586 E5.56038
G1 X50.456 Y180.464 E5.57177
G1 X50.387 Y180.419 E5.57599
G1 X50.263 Y180.354 E5.58316
G1 X49.916 Y180.231 E5.60202
G1 X50.169 Y180.127 E5.60492
G1 X50.252 Y180.093 E5.60506
G1 X50.328 Y180.062 E5.60889
G1 X63.209 Y174.777 E6.32204
G1 X63.625 Y173.841 E6.3745
G1 X66.421 Y167.548 E6.72722
G1 X66.533 Y167.296 E6.74134
G1 X66.702 Y166.917 E6.7626
G1 X66.886 Y166.503 E6.7858
G1 X67.077 Y166.075 E6.80981
G1 X67.139 Y165.936 E6.8176
G1 X67.212 Y165.772 E6.8268
G1 X67.319 Y165.532 E6.84026
G1 X67.436 Y165.268 E6.85505
G1 X67.488 Y165.151 E6.86161
G1 X67.583 Y164.937 E6.8736
G1 X74.112 Y150.246 E7.69705
G1 X74.221 Y150 E7.71083
G1 X74.39 Y149.621 E7.73208
G1 X74.574 Y149.207 E7.75529
G1 X74.765 Y148.778 E7.77934
G1 X74.828 Y148.638 E7.78721
G1 X74.902 Y148.471 E7.79656
G1 X75.007 Y148.236 E7.80974
G1 X75.124 Y147.973 E7.82449
G1 X75.176 Y147.856 E7.83105
G1 X75.269 Y147.645 E7.84286
G1 X89.452 Y115.743 E9.63111
G1 X89.366 Y115.257 E9.65639
G1 X87.144 Y102.883 E10.30033
G1 X86.223 Y102.733 E10.34812
G1 X85.61 Y103.848 E10.4133
G1 X54.015 Y161.48 E13.77974
G1 X53.687 Y162.078 E13.81467
G1 X53.686 Y162.079 E13.81475
G1 X53.576 Y162.281 E13.82653
G1 X53.38 Y162.159 E13.83405
G1 X51.916 Y161.245 E13.92245
G1 X52.147 Y160.643 E13.95547
G1 X60.922 Y137.697 E15.21379
G1 X60.295 Y137.091 E15.25846
G1 X49.092 Y141.822 E15.88135
G1 X44.225 Y155.103 E16.60585
G1 X44.134 Y155.351 E16.61938
G1 X43.907 Y155.215 E16.62771
G1 X42.553 Y154.406 E16.7085
G1 X46.436 Y143.804 E17.28682
G1 X45.81 Y143.207 E17.33112
G1 X39.756 Y145.765 E17.66776
G1 X39.523 Y145.863 E17.6807
G1 X39.461 Y145.618 E17.68873
G1 X39.46 Y145.617 E17.6888
G1 X38.91 Y143.49 E17.80133
G1 X62.52 Y133.519 E19.11407
G1 X70.041 Y113.855 E20.19243
G1 X70.154 Y113.558 E20.20871
G1 X69.837 Y113.558 E20.21826
G1 X69.835 Y113.558 E20.21836
G1 X48.939 Y113.574 E21.28867
G1 X48.828 Y113.574 E21.29435
G1 X48.649 Y113.575 E21.30352
G1 X48.414 Y113.576 E21.31556
G1 X48.273 Y113.577 E21.32278
G1 X48.054 Y113.578 E21.334
G1 X47.918 Y113.579 E21.34097
G1 X47.596 Y113.58 E21.35746
G1 X47.455 Y113.581 E21.36468
G1 X47.139 Y113.582 E21.38087
G1 X47.014 Y113.583 E21.38727
G1 X46.939 Y113.583 E21.39111
G1 X44.165 Y113.587 E21.5332
G1 X30.897 Y128.245 E22.54589
G1 X31.673 Y145.515 E23.43136
G1 X31.676 Y145.599 E23.43566
G1 X31.681 Y145.706 E23.44115
G1 X31.701 Y146.151 E23.46397
G1 X31.722 Y146.607 E23.48735
G1 X31.742 Y147.049 E23.51001
G1 X31.762 Y147.487 E23.53247
G1 X31.782 Y147.932 E23.55528
G1 X31.8 Y148.343 E23.57636
G1 X32.687 Y168.05 E24.58678
G1 X32.697 Y168.274 E24.59827
G1 X32.473 Y168.277 E24.60563
G1 X32.472 Y168.278 E24.6057
G1 X30.906 Y168.31 E24.68593
G1 X28.376 Y149.698 E25.64802
G1 X28.37 Y149.653 E25.65034
G1 X28.264 Y149.64 E25.65581
G1 X28.24 Y149.637 E25.65705
G1 X27.368 Y149.521 E25.70211
G1 X18.163 Y171.668 E26.93057
G1 X18.06 Y171.916 E26.94433
G1 X17.838 Y171.765 E26.95274
G1 X16.508 Y170.862 E27.03508
G1 X27.619 Y144.13 E28.51788
G1 X26.648 Y136.992 E28.88686
G1 X25.908 Y136.716 E28.92731
G1 X20.065 Y141.865 E29.32622
G1 X19.782 Y142.114 E29.34553
G1 X19.492 Y142.37 E29.36534
G1 X19.654 Y141.969 E29.37154
G1 X19.735 Y141.6 E29.38572
G1 X19.754 Y141.518 E29.39004
G1 X19.785 Y141.078 E29.41263
G1 X19.754 Y140.637 E29.43527
G1 X19.654 Y140.183 E29.45908
G1 X19.478 Y139.749 E29.48307
G1 X19.416 Y139.642 E29.48941
G1 X19.227 Y139.344 E29.50748
G1 X19.119 Y139.217 E29.51602
G1 X18.984 Y139.104 E29.52504
G1 X18.794 Y138.909 E29.53898
G1 X18.539 Y138.742 E29.5546
G1 X18.415 Y138.677 E29.56177
G1 X18.099 Y138.561 E29.57901
G1 X17.957 Y138.531 E29.58644
G1 X17.631 Y138.497 E29.60323
G1 X17.497 Y138.508 E29.61012
G1 X17.279 Y138.533 E29.62136
G1 X17.207 Y138.549 E29.62514
G1 X17.136 Y138.565 E29.62886
G1 X16.904 Y138.65 E29.64152
G1 X16.726 Y138.728 E29.65147
G1 X16.421 Y138.931 E29.67024
G1 X16.613 Y138.651 E29.6726
G1 X16.707 Y138.515 E29.67765
G1 X16.82 Y138.35 E29.68394
G1 X16.861 Y138.29 E29.68744
G1 X34.883 Y112.064 E31.31734
G1 X34.547 Y111.372 E31.35674
G1 X33.854 Y111.329 E31.39231
G1 X27.963 Y110.959 E31.69464
G1 X27.947 Y110.958 E31.69546
G1 X27.655 Y110.939 E31.71045
G1 X27.483 Y110.928 E31.71928
G1 X27.253 Y110.913 E31.73109
G1 X27.208 Y110.91 E31.7334
G1 X27.254 Y110.9
G1 X27.489 Y110.815 E31.73585
G1 X27.668 Y110.737 E31.73997
G1 X27.973 Y110.532 E31.7542
G1 X27.985 Y110.521 E31.75502
G1 X28.08 Y110.441 E31.76139
G1 X28.296 Y110.216 E31.77736
G1 X28.437 Y109.994 E31.79083
G1 X28.549 Y109.847 E31.8003
G1 X28.627 Y109.714 E31.8082
G1 X28.801 Y109.279 E31.83219
G1 X28.901 Y108.827 E31.8559
G1 X28.932 Y108.387 E31.8785
G1 X28.901 Y107.946 E31.90114
G1 X28.801 Y107.493 E31.9249
G1 X28.626 Y107.056 E31.94901
G1 X28.563 Y106.95 E31.95533
G1 X28.374 Y106.654 E31.97332
G1 X28.319 Y106.588 E31.97772
G1 X28.268 Y106.528 E31.98175
G1 X28.123 Y106.406 E31.99146
G1 X27.941 Y106.22 E32.00479
G1 X27.798 Y106.125 E32.01358
G1 X27.946 Y106.134 E32.01402
G1 X28.14 Y106.146 E32.01738
G1 X28.291 Y106.156 E32.021
G1 X28.369 Y106.16 E32.02471
G1 X49.073 Y107.466 E33.08729
G1 X49.37 Y106.453 E33.14136
G1 X37.729 Y99.986 E33.82345
G1 X28.96 Y102.658 E34.29299
G1 X28.726 Y102.729 E34.30552
G1 X28.682 Y102.489 E34.31336
G1 X28.113 Y99.444 E34.47202
G1 X36.225 Y96.257 E34.91844
G1 X36.516 Y96.143 E34.93445
G1 X36.31 Y95.908 E34.9439
G1 X31.073 Y89.957 E35.34994
G1 X31.771 Y86.474 E35.53189
G1 X31.842 Y86.12 E35.55038
G1 X32.124 Y86.346 E35.56098
G1 X59.19 Y108.103 E37.3397
G1 X65.983 Y108.532 E37.68833
G1 X100.55 Y68.58 E40.39433
G1 X100.55 Y30.915 E42.32356
G1 X100.532 Y30.39 E42.35046
G1 X100.473 Y29.841 E42.37874
G1 X100.371 Y29.284 E42.40775
G1 X100.221 Y28.727 E42.43729
G1 X100.026 Y28.179 E42.46709
G1 X99.784 Y27.648 E42.49698
G1 X99.496 Y27.143 E42.52675
G1 X99.163 Y26.671 E42.55634
G1 X98.792 Y26.243 E42.58535
G1 X98.385 Y25.865 E42.6138
G1 X97.953 Y25.542 E42.64143
G1 X97.499 Y25.277 E42.66836
G1 X97.031 Y25.074 E42.69449
G1 X96.56 Y24.933 E42.71967
G1 X96.091 Y24.85 E42.74407
G1 X95.651 Y24.825 E42.76664
G1 X58.828 Y24.825 E44.65274
G1 X58.382 Y24.812 E44.67559
G1 X57.983 Y24.778 E44.6961
G1 X57.554 Y24.716 E44.7183
G1 X57.134 Y24.63 E44.74026
G1 X56.69 Y24.51 E44.76382
G1 X56.261 Y24.367 E44.78698
G1 X55.837 Y24.199 E44.81034
G1 X55.379 Y23.983 E44.83628
G1 X54.982 Y23.767 E44.85943
G1 X54.543 Y23.495 E44.88588
G1 X54.118 Y23.196 E44.9125
G1 X53.719 Y22.881 E44.93854
G1 X53.309 Y22.519 E44.96655
G1 X52.93 Y22.146 E44.99379
G1 X52.552 Y21.732 E45.0225
G1 X52.202 Y21.308 E45.05066
G1 X51.856 Y20.842 E45.08039
G1 X51.529 Y20.353 E45.11052
G1 X51.228 Y19.853 E45.14042
G1 X50.953 Y19.344 E45.17005
G1 X50.698 Y18.815 E45.20013
G1 X50.461 Y18.264 E45.23085
G1 X50.253 Y17.716 E45.26087
G1 X50.06 Y17.134 E45.29228
G1 X49.898 Y16.569 E45.32239
G1 X49.758 Y15.999 E45.35245
G1 X49.638 Y15.41 E45.38324
G1 X49.547 Y14.852 E45.4122
G1 X49.473 Y14.263 E45.4426
G1 X49.423 Y13.705 E45.4713
G1 X49.411 Y13.488 E45.48243
G1 X49.41 Y13.487 E45.4825
G1 X49.4 Y13.257 E45.49429
G1 X49.63 Y13.257 E45.50182
G1 X49.631 Y13.257 E45.50188
G1 X105.811 Y13.257 E48.37945
G1 X105.811 Y29.456 E49.20917
G1 X110.129 Y29.456 E49.43034
G1 X110.129 Y26.941 E49.55916
G1 X111.047 Y26.941 E49.60618
G1 X111.047 Y34.94 E50.0159
G1 X105.811 Y34.94 E50.28409
G1 X105.811 Y43.209 E50.70763
G1 X103.373 Y43.209 E50.83251
G1 X103.373 Y55.369 E51.45535
G1 X105.811 Y55.369 E51.58023
G1 X105.811 Y65.816 E52.11533
G1 X110.129 Y65.816 E52.3365
G1 X110.129 Y63.3 E52.46537
G1 X111.047 Y63.3 E52.51239
G1 X111.047 Y71.299 E52.9221
G1 X105.811 Y71.299 E53.19029
G1 X105.811 Y79.568 E53.61384
G1 X103.373 Y79.568 E53.73871
G1 X103.373 Y91.728 E54.36156
G1 X105.811 Y91.728 E54.48643
G1 X105.811 Y95.511 E54.6802
G1 X105.701 Y95.623 E54.68824
G1 X93.012 Y108.53 E55.61532
G1 X93.199 Y109.571 E55.66949
G1 X99.548 Y144.938 E57.50997
G1 X99.608 Y145.275 E57.5275
G1 X99.69 Y145.731 E57.55124
G1 X99.768 Y146.162 E57.57367
G1 X99.797 Y146.327 E57.58225
G1 X102.708 Y162.535 E58.42572
G1 X102.722 Y162.616 E58.42993
G1 X102.804 Y163.072 E58.45366
G1 X102.886 Y163.528 E58.47739
G1 X102.964 Y163.961 E58.49993
G1 X103.032 Y164.343 E58.5198
G1 X103.661 Y167.842 E58.70189
G1 X99.285 Y169.126 E58.93549
G1 X99.05 Y169.194 E58.94802
G1 X99.007 Y168.953 E58.95589
G1 X98.453 Y165.863 E59.11669
G1 X98.447 Y165.827 E59.11856
G1 X98.39 Y165.509 E59.1351
G1 X98.369 Y165.394 E59.14109
G1 X98.288 Y164.942 E59.16461
G1 X98.206 Y164.487 E59.18829
G1 X98.128 Y164.052 E59.21093
G1 X98.052 Y163.631 E59.23284
G1 X97.985 Y163.254 E59.25245
G1 X95.894 Y151.618 E59.858
G1 X94.876 Y151.54 E59.9103
G1 X94.492 Y152.659 E59.9709
G1 X85.712 Y178.152 E61.35194
G1 X85.627 Y178.4 E61.36536
G1 X85.398 Y178.272 E61.37365
G1 X84.032 Y177.503 E61.45394
G1 X94.678 Y146.588 E63.12869
G1 X94.694 Y146.54 E63.13128
G1 X94.827 Y146.156 E63.15209
G1 X94.884 Y145.993 E63.16094
G1 X94.856 Y145.834 E63.16921
G1 X94.781 Y145.414 E63.19106
G1 X94.772 Y145.36 E63.19386
G1 X94.745 Y145.215 E63.20142
G1 X92.428 Y132.31 E63.87299
G1 X91.512 Y132.154 E63.92058
G1 X76.53 Y158.937 E65.49247
G1 X84.102 Y201.911 E67.72753
G1 X82.666 Y202.325 E67.80408
G1 X82.432 Y202.392 E67.81655
G1 X82.39 Y202.152 E67.82438
G1 X79.906 Y188.053 E68.55766
G1 X78.952 Y187.921 E68.60699
G1 X70.202 Y206.13 E69.64176
G1 X70.084 Y206.376 E69.65029
G1 F2700 E64.65029
G0 F6000 X69.267 Y207.419
G0 X46.466 Y201.677
G0 X45.214 Y201.246
G1 F2700 E69.65029
G1 F1200 X44.985 Y201.118 E69.66373
G1 X43.62 Y200.35 E69.74395
G1 X48.64 Y185.765 E70.53402
G1 X48.356 Y185.455 E70.55555
G1 X48.265 Y185.355 E70.56248
G1 X48.112 Y185.187 E70.57412
G1 X48.014 Y185.21 E70.57927
G1 X46.856 Y185.494 E70.64034
G1 X39.293 Y187.349 E71.03921
G1 X39.059 Y187.406 E71.05154
G1 X39.024 Y187.168 E71.05931
G1 X38.675 Y184.844 E71.17968
G1 X47.299 Y181.306 E71.65713
G1 X47.526 Y181.213 E71.6697
G1 X47.639 Y181.166 E71.67597
G1 X47.791 Y181.103 E71.68439
G1 X47.847 Y181.08 E71.6875
G1 X47.808 Y181.143
G1 X47.692 Y181.293 E71.69022
G1 X47.614 Y181.427 E71.69424
G1 X47.523 Y181.655 E71.70406
G1 X47.44 Y181.863 E71.71554
G1 X47.34 Y182.314 E71.7392
G1 X47.309 Y182.754 E71.76179
G1 X47.34 Y183.195 E71.78443
G1 X47.44 Y183.648 E71.8082
G1 X47.615 Y184.083 E71.83221
G1 X47.677 Y184.19 E71.83855
G1 X47.867 Y184.487 E71.85661
G1 X47.973 Y184.613 E71.86504
G1 X48.121 Y184.738 E71.87496
G1 X48.23 Y184.851 E71.883
G1 X48.3 Y184.923 E71.88815
G1 X48.555 Y185.09 E71.90124
G1 X48.675 Y185.153 E71.90781
G1 X48.679 Y185.155 E71.90804
G1 X48.995 Y185.271 E71.92528
G1 X49.137 Y185.301 E71.93271
G1 X49.463 Y185.335 E71.9495
G1 X49.597 Y185.324 E71.95639
G1 X49.815 Y185.299 E71.96763
G1 X49.958 Y185.267 E71.97513
G1 X50.192 Y185.181 E71.9879
G1 X50.368 Y185.103 E71.99776
G1 X50.562 Y184.975 E72.00967
G1 X50.677 Y184.899 E72.01673
G1 X50.783 Y184.805 E72.02398
G1 X50.923 Y184.66 E72.03431
G1 X50.864 Y184.832 E72.03493
G1 X50.824 Y184.949 E72.03774
G1 X50.728 Y185.225 E72.04763
G1 X45.299 Y200.998 E72.90205
G1 X45.214 Y201.246 E72.91033
G1 F2700 E67.91033
G0 F6000 X46.466 Y201.677
G0 X56.726 Y187.777
G0 X62.097 Y180.502
G0 X62.149 Y180.433
G0 X62.261 Y181.754
G1 F2700 E72.91033
G1 F1200 X62.48 Y181.728 E72.92163
G1 X62.621 Y181.697 E72.92902
G1 X62.856 Y181.612 E72.94182
G1 X63.035 Y181.534 E72.95182
G1 X63.34 Y181.329 E72.97065
G1 X63.447 Y181.238 E72.97784
G1 X63.663 Y181.013 E72.99382
G1 X63.804 Y180.791 E73.00729
G1 X63.916 Y180.644 E73.01646
G1 X63.994 Y180.511 E73.02385
G1 X64.079 Y180.297 E73.03525
G1 X64.168 Y180.076 E73.04745
G1 X64.268 Y179.624 E73.07116
G1 X64.299 Y179.184 E73.09375
G1 X64.268 Y178.743 E73.1164
G1 X64.168 Y178.29 E73.14016
G1 X63.993 Y177.853 E73.16427
G1 X63.93 Y177.747 E73.17059
G1 X63.741 Y177.451 E73.18857
G1 X63.635 Y177.325 E73.19701
G1 X63.487 Y177.2 E73.20693
G1 X63.308 Y177.015 E73.22012
G1 X63.048 Y176.844 E73.23606
G1 X62.922 Y176.782 E73.24325
G1 X62.613 Y176.668 E73.26012
G1 X62.471 Y176.638 E73.26755
G1 X62.149 Y176.604 E73.28414
G1 X62.013 Y176.614 E73.29112
G1 X61.792 Y176.64 E73.30252
G1 X61.65 Y176.672 E73.30998
G1 X61.418 Y176.757 E73.32263
G1 X61.24 Y176.835 E73.33259
G1 X60.935 Y177.038 E73.35135
G1 X60.827 Y177.13 E73.35862
G1 X60.611 Y177.355 E73.37459
G1 X60.466 Y177.583 E73.38843
G1 X60.358 Y177.724 E73.39753
G1 X60.282 Y177.856 E73.40533
G1 X60.106 Y178.291 E73.42937
G1 X60.006 Y178.744 E73.45313
G1 X59.975 Y179.184 E73.47572
G1 X60.006 Y179.625 E73.49837
G1 X60.106 Y180.078 E73.52213
G1 X60.282 Y180.515 E73.54626
G1 X60.344 Y180.62 E73.5525
G1 X60.533 Y180.919 E73.57062
G1 X60.643 Y181.046 E73.57923
G1 X60.776 Y181.157 E73.5881
G1 X60.966 Y181.353 E73.60208
G1 X61.221 Y181.52 E73.6177
G1 X61.346 Y181.586 E73.62494
G1 X61.662 Y181.7 E73.64214
G1 X61.803 Y181.73 E73.64953
G1 X62.125 Y181.764 E73.66611
G1 X62.261 Y181.754 E73.6731
G1 F2700 E68.6731
G0 F6000 X62.252 Y180.422
G0 X63.002 Y179.11
G0 X68.939 Y168.739
G0 X68.981 Y168.668
G0 X69.097 Y169.988
G1 F2700 E73.6731
G1 F1200 X69.315 Y169.963 E73.68434
G1 X69.458 Y169.931 E73.69184
G1 X69.692 Y169.845 E73.70461
G1 X69.868 Y169.767 E73.71447
G1 X70.037 Y169.655 E73.72486
G1 X70.177 Y169.563 E73.73266
G1 X70.283 Y169.469 E73.73895
G1 X70.496 Y169.248 E73.74958
G1 X70.639 Y169.023 E73.75677
G1 X70.749 Y168.88 E73.76155
G1 X70.826 Y168.746 E73.765
G1 X71.002 Y168.31 E73.77714
G1 X71.102 Y167.859 E73.79439
G1 X71.11 Y167.735 E73.80036
G1 X71.133 Y167.419 E73.81659
G1 X71.102 Y166.978 E73.83923
G1 X71.002 Y166.525 E73.86299
G1 X70.826 Y166.088 E73.88712
G1 X70.763 Y165.982 E73.89344
G1 X70.574 Y165.686 E73.91143
G1 X70.468 Y165.56 E73.91986
G1 X70.33 Y165.443 E73.92913
G1 X70.142 Y165.25 E73.94293
G1 X69.887 Y165.083 E73.95854
G1 X69.763 Y165.018 E73.96571
G1 X69.447 Y164.902 E73.98295
G1 X69.305 Y164.872 E73.99039
G1 X68.979 Y164.838 E74.00718
