;FLAVOR:Marlin
;TIME:12875
;Filament used: 10.5021m
;Layer height: 0.28
;MINX:9.278
;MINY:9.335
;MINZ:0.28
;MAXX:210.722
;MAXY:211.01
;MAXZ:2.8
;Generated with Cura_SteamEngine 4.2.1
M140 S50
M105
M190 S50
M104 S200
M105
M109 S200
M82 ;absolute extrusion mode
M201 X500.00 Y500.00 Z100.00 E5000.00 ;Setup machine max acceleration
M203 X500.00 Y500.00 Z10.00 E50.00 ;Setup machine max feedrate
M204 P500.00 R1000.00 T500.00 ;Setup Print/Retract/Travel acceleration
M205 X8.00 Y8.00 Z0.40 E5.00 ;Setup Jerk
M220 S100 ;Reset Feedrate
M221 S100 ;Reset Flowrate

G28 ;Home

G92 E0 ;Reset Extruder
G1 Z2.0 F3000 ;Move Z Axis up
G1 X10.1 Y20 Z0.28 F5000.0 ;Move to start position
G1 X10.1 Y200.0 Z0.28 F1500.0 E15 ;Draw the first line
G1 X10.4 Y200.0 Z0.28 F5000.0 ;Move to side a little
G1 X10.4 Y20 Z0.28 F1500.0 E30 ;Draw the second line
G92 E0 ;Reset Extruder
G1 Z2.0 F3000 ;Move Z Axis up

M141 S28
G92 E0
G92 E0
G1 F2700 E-5
;LAYER_COUNT:10
;LAYER:0
M107
;MESH:jewelry_tree_2.stl
G0 F6000 X146.667 Y208.973 Z0.28
;TYPE:WALL-INNER
G1 F2700 E0
G1 F1200 X146.549 Y208.727 E0.01397
G1 X137.799 Y190.517 E1.04879
G1 X136.845 Y190.649 E1.09812
G1 X134.361 Y204.749 E1.83145
G1 X134.319 Y204.989 E1.84393
G1 X134.085 Y204.922 E1.85176
G1 X132.649 Y204.508 E1.92831
G1 X140.203 Y161.632 E4.15826
G1 X126.098 Y101.34 E7.32984
G1 X122.784 Y87.172 E8.07512
G1 X122.551 Y86.905 E8.09327
G1 X117.06 Y80.557 E8.52319
G1 X116.201 Y80.878 E8.57016
G1 X116.201 Y145.252 E11.86743
G1 X131.602 Y149.028 E12.67964
G1 X131.265 Y151.269 E12.79572
G1 X131.23 Y151.507 E12.80804
G1 X130.996 Y151.45 E12.81582
G1 X122.179 Y149.288 E13.28081
G1 X121.649 Y149.866 E13.32097
G1 X126.669 Y164.45 E14.11099
G1 X125.218 Y165.266 E14.19626
G1 X125.01 Y165.383 E14.20848
G1 X124.911 Y165.166 E14.21619
G1 X117.275 Y148.457 E15.15718
G1 X116.381 Y148.502 E15.20302
G1 X112.68 Y159.356 E15.7904
G1 X112.602 Y159.586 E15.80284
G1 X112.382 Y159.485 E15.81063
G1 X112.381 Y159.484 E15.8107
G1 X110.486 Y158.602 E15.91777
G1 X112.614 Y146.793 E16.53237
G1 X112.602 Y146.151 E16.56526
G1 X111.921 Y108.667 E18.48553
G1 X111.113 Y108.34 E18.53018
G1 X102.393 Y116.983 E19.15905
G1 X102.422 Y117.936 E19.20788
G1 X103.756 Y163.056 E21.51997
G1 X103.756 Y163.069 E21.52063
G1 X103.767 Y163.433 E21.53928
G1 X103.781 Y163.901 E21.56327
G1 X103.792 Y164.259 E21.58161
G1 X103.805 Y164.673 E21.60283
G1 X103.819 Y165.129 E21.62619
G1 X103.825 Y165.344 E21.63721
G1 X104.025 Y172.055 E21.98111
G1 X104.026 Y172.056 E21.98118
G1 X104.035 Y172.416 E21.99962
G1 X103.71 Y172.259 E22.01021
G1 X100.165 Y170.543 E22.21195
G1 X99.368 Y166.09 E22.44366
G1 X99.353 Y166.005 E22.44808
G1 X99.294 Y165.681 E22.46495
G1 X99.273 Y165.567 E22.47088
G1 X99.206 Y165.193 E22.49034
G1 X99.146 Y164.859 E22.50773
G1 X99.12 Y164.717 E22.51512
G1 X99.058 Y164.373 E22.53302
G1 X98.987 Y163.978 E22.55358
G1 X98.921 Y163.605 E22.57298
G1 X96.936 Y152.556 E23.14798
G1 X95.883 Y152.508 E23.20197
G1 X91.239 Y169.475 E24.103
G1 X91.238 Y169.476 E24.10307
G1 X91.165 Y169.746 E24.11739
G1 X90.921 Y169.609 E24.12606
G1 X89.593 Y168.862 E24.20411
G1 X95.91 Y146.985 E25.37044
G1 X95.762 Y134.963 E25.98626
G1 X94.778 Y134.715 E26.03824
G1 X94.255 Y135.654 E26.09329
G1 X82.624 Y156.446 E27.31358
G1 X82.719 Y157.395 E27.36243
G1 X87.393 Y204.496 E29.78682
G1 X85.915 Y204.922 E29.8656
G1 X85.681 Y204.989 E29.87807
G1 X85.639 Y204.749 E29.8859
G1 X83.155 Y190.649 E30.61924
G1 X82.201 Y190.517 E30.66857
G1 X73.451 Y208.727 E31.70338
G1 X73.333 Y208.973 E31.71736
G1 X73.119 Y208.805 E31.72586
G1 X73.118 Y208.804 E31.72593
G1 X71.824 Y207.788 E31.8102
G1 X82.324 Y185.936 E33.05198
G1 X82.204 Y185.258 E33.08725
G1 X78.686 Y165.285 E34.12603
G1 X77.769 Y165.129 E34.17367
G1 X61.09 Y194.948 E35.92371
G1 X60.955 Y195.189 E35.93786
G1 X60.751 Y195.003 E35.94647
G1 X59.499 Y193.859 E36.03333
G1 X64.201 Y185.452 E36.52672
G1 X63.679 Y184.762 E36.57104
G1 X56.34 Y186.56 E36.95806
G1 X56.277 Y186.575 E36.96138
G1 X55.827 Y186.686 E36.98512
G1 X55.641 Y186.732 E36.99493
G1 X55.532 Y186.759 E37.00068
G1 X55.368 Y186.8 E37.00934
G1 X55.206 Y186.839 E37.01788
G1 X54.233 Y187.079 E37.06921
G1 X53.977 Y187.822 E37.10946
G1 X48.548 Y203.594 E37.96383
G1 X48.463 Y203.842 E37.97726
G1 X48.234 Y203.714 E37.98554
G1 X46.869 Y202.946 E38.06577
G1 X51.889 Y188.361 E38.85583
G1 X51.359 Y187.783 E38.896
G1 X42.542 Y189.946 E39.361
G1 X42.308 Y190.003 E39.37334
G1 X42.273 Y189.765 E39.3811
G1 X41.917 Y187.394 E39.50391
G1 X66.477 Y174.703 E40.91991
G1 X68.167 Y170.716 E41.14172
G1 X68.17 Y170.707 E41.1422
G1 X68.278 Y170.452 E41.15639
G1 X68.325 Y170.342 E41.16251
G1 X68.447 Y170.054 E41.17853
G1 X68.471 Y170.403 E41.18289
G1 X68.498 Y170.545 E41.18655
G1 X68.568 Y170.876 E41.20029
G1 X68.571 Y170.885 E41.20078
G1 X68.703 Y171.236 E41.21999
G1 X68.755 Y171.345 E41.22617
G1 X68.93 Y171.648 E41.24409
G1 X69.254 Y172.034 E41.26991
G1 X69.631 Y172.32 E41.29414
G1 X69.904 Y172.453 E41.3097
G1 X70.071 Y172.512 E41.31877
G1 X70.358 Y172.578 E41.33385
G1 X70.642 Y172.592 E41.34842
G1 X70.817 Y172.581 E41.3574
G1 X70.929 Y172.563 E41.36321
G1 X71.115 Y172.524 E41.37294
G1 X71.545 Y172.343 E41.39684
G1 X71.747 Y172.21 E41.40923
G1 X71.935 Y172.053 E41.42177
G1 X72.08 Y171.879 E41.43338
G1 X72.217 Y171.74 E41.44337
G1 X72.299 Y171.62 E41.45082
G1 X72.475 Y171.316 E41.46881
G1 X72.653 Y170.858 E41.49398
G1 X72.746 Y170.391 E41.51837
G1 X72.767 Y169.979 E41.5395
G1 X72.744 Y169.628 E41.55752
G1 X72.717 Y169.485 E41.56497
G1 X72.647 Y169.154 E41.5823
G1 X72.512 Y168.794 E41.60199
G1 X72.46 Y168.685 E41.60818
G1 X72.285 Y168.382 E41.6261
G1 X71.961 Y167.996 E41.65191
G1 X71.583 Y167.709 E41.67622
G1 X71.313 Y167.578 E41.69159
G1 X71.147 Y167.518 E41.70063
G1 X70.857 Y167.452 E41.71587
G1 X70.571 Y167.438 E41.73054
G1 X70.392 Y167.45 E41.73972
G1 X70.108 Y167.504 E41.75453
G1 X69.971 Y167.559 E41.76209
G1 X69.903 Y167.586 E41.76584
G1 X69.664 Y167.692 E41.77923
G1 X69.469 Y167.822 E41.79124
G1 X69.352 Y167.918 E41.79899
G1 X69.404 Y167.795 E41.7993
G1 X69.48 Y167.614 E41.80201
G1 X69.554 Y167.44 E41.80946
G1 X69.582 Y167.372 E41.81298
G1 X91.955 Y114.589 E44.7494
G1 X95.342 Y97.986 E45.61733
G1 X94.496 Y97.515 E45.66692
G1 X81.904 Y109.464 E46.55607
G1 X81.551 Y110.244 E46.59992
G1 X75.03 Y124.62 E47.40848
G1 X75.012 Y124.66 E47.41073
G1 X74.899 Y124.908 E47.42469
G1 X74.849 Y125.018 E47.43087
G1 X74.758 Y125.217 E47.44208
G1 X74.742 Y124.969 E47.44473
G1 X74.715 Y124.826 E47.44784
G1 X74.645 Y124.494 E47.46053
G1 X74.63 Y124.452 E47.46272
G1 X74.508 Y124.129 E47.48041
G1 X74.455 Y124.022 E47.48652
G1 X74.282 Y123.724 E47.50417
G1 X73.96 Y123.338 E47.52992
G1 X73.579 Y123.049 E47.55442
G1 X73.309 Y122.919 E47.56976
G1 X73.144 Y122.859 E47.57876
G1 X72.855 Y122.793 E47.59394
G1 X72.569 Y122.779 E47.60861
G1 X72.39 Y122.791 E47.6178
G1 X72.107 Y122.845 E47.63255
G1 X71.901 Y122.927 E47.64391
G1 X71.662 Y123.032 E47.65728
G1 X71.464 Y123.163 E47.66944
G1 X71.28 Y123.317 E47.68173
G1 X71.131 Y123.492 E47.6935
G1 X71.026 Y123.6 E47.70122
G1 X70.996 Y123.63 E47.70339
G1 X70.912 Y123.75 E47.7109
G1 X70.738 Y124.056 E47.72893
G1 X70.56 Y124.513 E47.75405
G1 X70.467 Y124.978 E47.77834
G1 X70.462 Y125.073 E47.78321
G1 X70.445 Y125.39 E47.79947
G1 X70.468 Y125.743 E47.81759
G1 X70.495 Y125.886 E47.82504
G1 X70.565 Y126.218 E47.84242
G1 X70.702 Y126.583 E47.86239
G1 X70.755 Y126.69 E47.86851
G1 X70.922 Y126.977 E47.88551
G1 X71.016 Y127.101 E47.89348
G1 X71.254 Y127.377 E47.91215
G1 X71.629 Y127.661 E47.93625
G1 X71.9 Y127.794 E47.95171
G1 X72.068 Y127.853 E47.96083
G1 X72.355 Y127.919 E47.97591
G1 X72.641 Y127.933 E47.99058
G1 X72.812 Y127.922 E47.99936
G1 X72.924 Y127.905 E48.00516
G1 X73.08 Y127.871 E48.01334
G1 X73.108 Y127.865 E48.0148
G1 X73.31 Y127.785 E48.02593
G1 X73.546 Y127.68 E48.03916
G1 X73.681 Y127.593 E48.04739
G1 X73.626 Y127.715 E48.04769
G1 X73.546 Y127.892 E48.05106
G1 X73.482 Y128.033 E48.05484
G1 X73.471 Y128.059 E48.05624
G1 X68.994 Y137.932 E48.6115
G1 X68.9 Y138.139 E48.62315
G1 X68.709 Y138.559 E48.64678
G1 X68.506 Y139.006 E48.67193
G1 X68.362 Y139.323 E48.68976
G1 X68.301 Y139.456 E48.69725
G1 X68.226 Y139.62 E48.70649
G1 X68.135 Y139.819 E48.7177
G1 X68.104 Y139.888 E48.72157
G1 X56.882 Y164.621 E50.11272
G1 X56.881 Y164.622 E50.11279
G1 X56.779 Y164.849 E50.12554
G1 X56.567 Y164.717 E50.13351
G1 X55.165 Y163.842 E50.21816
G1 X55.396 Y163.24 E50.25119
G1 X64.171 Y140.294 E51.5095
G1 X63.544 Y139.688 E51.55417
G1 X52.341 Y144.419 E52.17706
G1 X47.474 Y157.7 E52.90156
G1 X47.383 Y157.948 E52.91509
G1 X47.156 Y157.812 E52.92342
G1 X45.802 Y157.002 E53.00424
G1 X49.685 Y146.401 E53.58251
G1 X49.059 Y145.804 E53.62681
G1 X43.005 Y148.362 E53.96345
G1 X42.771 Y148.46 E53.97644
G1 X42.708 Y148.214 E53.98451
G1 X42.143 Y146.027 E54.10021
G1 X67.416 Y131.808 E55.58553
G1 X70.05 Y124.92 E55.96325
G1 X70.083 Y124.832 E55.9679
G1 X70.251 Y124.394 E55.98813
G1 X70.426 Y123.937 E56.00703
G1 X70.55 Y123.612 E56.02186
G1 X70.601 Y123.479 E56.02877
G1 X70.616 Y123.439 E56.03092
G1 X73.274 Y116.491 E56.41195
G1 X73.38 Y116.212 E56.42724
G1 X73.082 Y116.194 E56.43637
G1 X53.208 Y114.942 E57.45635
G1 X53.033 Y114.931 E57.46533
G1 X52.945 Y114.925 E57.46985
G1 X53.045 Y114.749 E57.47506
G1 X53.108 Y114.585 E57.48194
G1 X53.223 Y114.292 E57.49806
G1 X53.316 Y113.827 E57.52235
G1 X53.338 Y113.415 E57.54348
G1 X53.315 Y113.062 E57.5616
G1 X53.288 Y112.919 E57.56905
G1 X53.217 Y112.587 E57.58644
G1 X53.081 Y112.227 E57.60616
G1 X53.031 Y112.12 E57.61221
G1 X52.855 Y111.817 E57.63015
G1 X52.533 Y111.431 E57.6559
G1 X52.154 Y111.143 E57.68028
G1 X51.881 Y111.011 E57.69581
G1 X51.714 Y110.952 E57.70489
G1 X51.428 Y110.886 E57.71992
G1 X51.142 Y110.872 E57.73459
G1 X50.971 Y110.883 E57.74336
G1 X50.859 Y110.9 E57.74917
G1 X50.67 Y110.94 E57.75906
G1 X50.239 Y111.122 E57.78302
G1 X50.037 Y111.256 E57.79544
G1 X49.852 Y111.41 E57.80777
G1 X49.702 Y111.587 E57.81965
G1 X49.568 Y111.725 E57.82951
G1 X49.485 Y111.844 E57.83694
G1 X49.317 Y112.138 E57.85428
G1 X49.256 Y112.278 E57.8621
G1 X49.132 Y112.611 E57.8803
G1 X49.04 Y113.071 E57.90433
G1 X49.018 Y113.483 E57.92547
G1 X49.041 Y113.842 E57.94389
G1 X49.13 Y114.268 E57.96618
G1 X49.138 Y114.308 E57.96827
G1 X49.284 Y114.694 E57.98941
G1 X49.115 Y114.684 E57.99065
G1 X49.075 Y114.682 E57.99258
G1 X46.822 Y114.539 E58.10821
G1 X46.326 Y115.224 E58.15153
G1 X42.731 Y120.205 E58.46617
G1 X42.719 Y120.222 E58.46724
G1 X42.594 Y120.395 E58.47817
G1 X42.544 Y120.464 E58.48253
G1 X42.518 Y120.34 E58.48455
G1 X42.383 Y119.98 E58.49846
G1 X42.374 Y119.961 E58.4995
G1 X42.331 Y119.872 E58.50457
G1 X42.161 Y119.576 E58.52205
G1 X42.064 Y119.453 E58.53007
G1 X41.829 Y119.18 E58.54853
G1 X41.454 Y118.895 E58.57265
G1 X41.184 Y118.764 E58.58802
G1 X41.018 Y118.704 E58.59706
G1 X40.728 Y118.638 E58.6123
G1 X40.444 Y118.624 E58.62686
G1 X40.269 Y118.635 E58.63584
G1 X40.157 Y118.653 E58.64165
G1 X39.971 Y118.692 E58.65139
G1 X39.538 Y118.875 E58.67546
G1 X39.34 Y119.008 E58.68768
G1 X39.154 Y119.162 E58.70005
G1 X39.003 Y119.339 E58.71197
G1 X38.869 Y119.477 E58.72182
G1 X38.787 Y119.596 E58.72922
G1 X38.617 Y119.889 E58.74657
G1 X38.556 Y120.03 E58.75444
G1 X38.432 Y120.363 E58.77264
G1 X38.34 Y120.824 E58.79672
G1 X38.319 Y121.237 E58.8179
G1 X38.342 Y121.594 E58.83623
G1 X38.439 Y122.06 E58.86061
G1 X38.574 Y122.422 E58.8804
G1 X38.626 Y122.531 E58.88658
G1 X38.801 Y122.834 E58.9045
G1 X39.125 Y123.22 E58.93032
G1 X39.502 Y123.506 E58.95456
G1 X39.748 Y123.626 E58.96857
G1 X39.775 Y123.639 E58.97011
G1 X39.942 Y123.698 E58.97918
G1 X40.171 Y123.751 E58.99122
G1 X40.119 Y123.824
G1 X40.09 Y123.864
G1 X40.072 Y123.889 E58.99273
G1 X34.44 Y131.692 E59.48563
G1 X34.471 Y132.527 E59.52843
G1 X35.269 Y153.269 E60.59164
G1 X35.271 Y153.321 E60.5943
G1 X35.287 Y153.717 E60.6146
G1 X35.294 Y153.873 E60.6226
G1 X35.206 Y153.719 E60.62413
G1 X34.882 Y153.335 E60.64202
G1 X34.84 Y153.303 E60.64459
G1 X34.505 Y153.049 E60.66612
G1 X34.232 Y152.916 E60.68167
G1 X34.067 Y152.857 E60.69065
G1 X33.781 Y152.79 E60.7057
G1 X33.493 Y152.776 E60.72046
G1 X33.308 Y152.788 E60.72996
G1 X33.032 Y152.842 E60.74436
G1 X32.826 Y152.924 E60.75572
G1 X32.586 Y153.029 E60.76914
G1 X32.388 Y153.16 E60.7813
G1 X32.205 Y153.313 E60.79352
G1 X32.204 Y153.314 E60.79359
G1 X32.055 Y153.489 E60.80536
G1 X31.92 Y153.627 E60.81525
G1 X31.824 Y153.767 E60.82395
G1 X31.808 Y153.643 E60.82421
G1 X31.792 Y153.524 E60.82622
G1 X31.771 Y153.373 E60.83032
G1 X31.771 Y153.372 E60.83037
G1 X31.618 Y152.249 E60.88843
G1 X30.616 Y152.117 E60.94019
G1 X21.412 Y174.265 E62.16868
G1 X21.309 Y174.513 E62.18244
G1 X21.087 Y174.362 E62.19085
G1 X19.756 Y173.459 E62.27324
G1 X30.868 Y146.728 E63.756
G1 X30.799 Y146.217 E63.78241
G1 X29.818 Y139 E64.15547
G1 X29.062 Y138.73 E64.19659
G1 X27.555 Y140.13 E64.30195
G1 X27.429 Y140.247 E64.31076
G1 X27.184 Y140.475 E64.3279
G1 X27.08 Y140.571 E64.33515
G1 X26.94 Y140.701 E64.34493
G1 X26.77 Y140.859 E64.35682
G1 X26.593 Y141.024 E64.36922
G1 X26.423 Y141.182 E64.3811
G1 X26.243 Y141.349 E64.39368
G1 X26.09 Y141.491 E64.40437
G1 X26.047 Y141.531 E64.40738
G1 X23.694 Y143.717 E64.57189
G1 X23.653 Y143.755 E64.57475
G1 X23.37 Y144.018 E64.59454
G1 X23.196 Y144.18 E64.60672
G1 X23.291 Y143.934 E64.60933
G1 X23.384 Y143.468 E64.62479
G1 X23.386 Y143.411 E64.62757
G1 X23.405 Y143.056 E64.64578
G1 X23.382 Y142.7 E64.66405
G1 X23.285 Y142.234 E64.68843
G1 X23.15 Y141.871 E64.70827
G1 X23.098 Y141.763 E64.71441
G1 X22.928 Y141.467 E64.73189
G1 X22.83 Y141.344 E64.73994
G1 X22.596 Y141.072 E64.75832
G1 X22.222 Y140.787 E64.78241
G1 X21.949 Y140.655 E64.79794
G1 X21.783 Y140.596 E64.80696
G1 X21.497 Y140.529 E64.82201
G1 X21.209 Y140.515 E64.83678
G1 X21.026 Y140.527 E64.84617
G1 X20.852 Y140.561 E64.85525
G1 X20.749 Y140.58 E64.86062
G1 X20.542 Y140.663 E64.87204
G1 X20.302 Y140.769 E64.88548
G1 X20.093 Y140.911 E64.89842
G1 X20.226 Y140.718 E64.89943
G1 X20.353 Y140.533 E64.90329
G1 X20.457 Y140.381 E64.9084
G1 X20.516 Y140.295 E64.91325
G1 X38.132 Y114.661 E66.50639
G1 X37.796 Y113.97 E66.54574
G1 X36.799 Y113.906 E66.59692
G1 X31.218 Y113.555 E66.88334
G1 X31.136 Y113.55 E66.88755
G1 X30.948 Y113.538 E66.8972
G1 X30.716 Y113.523 E66.90911
G1 X30.52 Y113.51 E66.91917
G1 X30.461 Y113.506 E66.9222
G1 X30.522 Y113.493
G1 X30.723 Y113.413 E66.92446
G1 X30.962 Y113.308 E66.9303
G1 X31.16 Y113.177 E66.9392
G1 X31.223 Y113.124 E66.94312
G1 X31.344 Y113.023 E66.9512
G1 X31.493 Y112.848 E66.96297
G1 X31.628 Y112.71 E66.97286
G1 X31.712 Y112.59 E66.98036
G1 X31.886 Y112.284 E66.99839
G1 X32.064 Y111.827 E67.02351
G1 X32.157 Y111.362 E67.0478
G1 X32.179 Y110.95 E67.06893
G1 X32.156 Y110.597 E67.08705
G1 X32.129 Y110.454 E67.09451
G1 X32.059 Y110.122 E67.11189
G1 X31.922 Y109.757 E67.13185
G1 X31.869 Y109.65 E67.13797
G1 X31.702 Y109.363 E67.15498
G1 X31.608 Y109.239 E67.16295
G1 X31.37 Y108.963 E67.18162
G1 X30.994 Y108.678 E67.20578
G1 X30.725 Y108.546 E67.22113
G1 X30.722 Y108.545 E67.22129
G1 X30.557 Y108.488 E67.23023
G1 X30.267 Y108.421 E67.24548
G1 X29.983 Y108.407 E67.26004
G1 X29.804 Y108.419 E67.26923
G1 X29.515 Y108.473 E67.28429
G1 X29.449 Y108.501 E67.28796
G1 X29.08 Y108.657 E67.30848
G1 X28.878 Y108.791 E67.3209
G1 X28.693 Y108.945 E67.33323
G1 X28.546 Y109.119 E67.3449
G1 X28.409 Y109.26 E67.35497
G1 X28.327 Y109.379 E67.36237
G1 X28.152 Y109.683 E67.38033
G1 X27.974 Y110.142 E67.40555
G1 X27.881 Y110.606 E67.42979
G1 X27.859 Y111.018 E67.45092
G1 X27.882 Y111.37 E67.46899
G1 X27.909 Y111.513 E67.47644
G1 X27.979 Y111.846 E67.49387
G1 X28.116 Y112.211 E67.51384
G1 X28.169 Y112.318 E67.51996
G1 X28.336 Y112.605 E67.53697
G1 X28.431 Y112.729 E67.54497
G1 X28.629 Y112.959 E67.56051
G1 X28.669 Y113.006 E67.56367
G1 X29.043 Y113.288 E67.58767
G1 X29.311 Y113.42 E67.60297
G1 X29.357 Y113.437 E67.60548
G1 X29.31 Y113.435
G1 X29.036 Y113.418 E67.6075
G1 X28.646 Y113.393 E67.62071
G1 X28.585 Y113.39 E67.62366
G1 X23.875 Y113.091 E67.8654
G1 X15.348 Y127.455 E68.721
G1 X15.207 Y127.694 E68.73522
G1 X15.008 Y127.501 E68.74384
G1 X13.776 Y126.306 E68.83175
