; generated by Slic3r Prusa Edition 1.41.3+ on 2019-03-26 at 10:53:19

; 

; external perimeters extrusion width = 0.45mm
; perimeters extrusion width = 0.45mm
; infill extrusion width = 0.45mm
; solid infill extrusion width = 0.45mm
; top infill extrusion width = 0.40mm
; first layer extrusion width = 0.42mm

M73 P0 R26
M73 Q0 S26
M201 X1000 Y1000 Z1000 E5000 ; sets maximum accelerations, mm/sec^2
M203 X200 Y200 Z12 E120 ; sets maximum feedrates, mm/sec
M204 P1250 R1250 T1250 ; sets acceleration (P, T) and retract acceleration (R), mm/sec^2
M205 X8.00 Y8.00 Z0.40 E1.50 ; sets the jerk limits, mm/sec
M205 S0 T0 ; sets the minimum extruding and travel feed rate, mm/sec
M107
M115 U3.6.0 ; tell printer latest fw version
M83  ; extruder relative mode
M104 S220 ; set extruder temp
M140 S65 ; set bed temp
M190 S65 ; wait for bed temp
M109 S220 ; wait for extruder temp
G28 W ; home all without mesh bed level
G80 ; mesh bed leveling
G1 Y-3.0 F1000.0 ; go outside print area
G92 E0.0
G1 X60.0 E9.0  F1000.0 ; intro line
M73 Q0 S26
M73 P0 R25
G1 X100.0 E12.5  F1000.0 ; intro line
G92 E0.0
M221 S95
M900 K30; Filament gcode
G21 ; set units to millimeters
G90 ; use absolute coordinates
M83 ; use relative distances for extrusion
;BEFORE_LAYER_CHANGE
G92 E0.0
;0.2


G1 E-0.80000 F2100.00000
G1 Z0.600 F10800.000
;AFTER_LAYER_CHANGE
;0.2
G1 X149.838 Y84.524
G1 Z0.200
G1 E0.80000 F2100.00000
M204 S1000
G1 F1200
G1 X157.404 Y88.867 E0.27354
G1 X158.533 Y89.593 E0.04208
G1 X160.611 Y91.268 E0.08369
G1 X162.414 Y93.202 E0.08289
G1 X163.940 Y95.391 E0.08369
G1 X168.262 Y102.892 E0.27145
G1 X168.437 Y103.728 E0.02676
G1 X168.435 Y106.341 E0.08195
G1 X168.300 Y107.012 E0.02146
G1 X163.599 Y115.159 E0.29490
G1 X162.426 Y116.784 E0.06285
G1 X161.085 Y118.274 E0.06285
G1 X159.605 Y119.604 E0.06239
G1 X157.974 Y120.781 E0.06308
G1 X150.157 Y125.327 E0.28352
G1 X149.617 Y125.545 E0.01828
G1 X149.144 Y125.612 E0.01498
G1 X103.743 Y127.013 E1.42417
G1 X101.546 Y126.920 E0.06897
G1 X99.386 Y126.611 E0.06840
G1 X97.877 Y126.263 E0.04855
G1 X95.808 Y125.597 E0.06817
G1 X94.399 Y125.009 E0.04788
G1 X92.463 Y124.002 E0.06839
G1 X90.634 Y122.807 E0.06851
G1 X89.417 Y121.855 E0.04844
G1 X87.839 Y120.392 E0.06748
G1 X86.796 Y119.247 E0.04856
G1 X85.468 Y117.517 E0.06839
G1 X84.318 Y115.663 E0.06840
G1 X83.616 Y114.283 E0.04855
G1 X82.795 Y112.262 E0.06840
G1 X82.344 Y110.811 E0.04765
G1 X81.873 Y108.681 E0.06839
G1 X81.662 Y107.068 E0.05101
G1 X81.563 Y105.000 E0.06491
G1 X81.672 Y102.818 E0.06851
G1 X81.879 Y101.283 E0.04856
G1 X82.354 Y99.154 E0.06839
G1 X83.037 Y97.082 E0.06840
G1 X83.644 Y95.658 E0.04855
G1 X84.650 Y93.759 E0.06737
G1 X85.489 Y92.453 E0.04868
G1 X86.817 Y90.727 E0.06827
G1 X87.842 Y89.605 E0.04765
G1 X89.442 Y88.124 E0.06839
G1 X90.637 Y87.191 E0.04753
G1 X92.463 Y85.998 E0.06839
G1 X94.402 Y84.990 E0.06851
G1 X95.832 Y84.394 E0.04856
G1 X97.909 Y83.729 E0.06839
G1 X100.042 Y83.272 E0.06840
G1 X101.578 Y83.078 E0.04855
G1 X103.747 Y82.987 E0.06806
G1 X149.145 Y84.388 E1.42411
G1 X149.779 Y84.513 E0.02025
; PURGING FINISHED
G1 F8640
G1 X152.637 Y86.145 E-0.76000
G1 E-0.04000 F2100.00000
G1 Z0.800 F10800.000
G1 X103.330 Y106.808
G1 Z0.200
G1 E0.80000 F2100.00000
G1 F1200
G1 X103.314 Y107.526 E0.02250
G1 X103.216 Y108.268 E0.02346
G1 X103.039 Y108.981 E0.02303
G1 X102.764 Y109.716 E0.02463
G1 X102.402 Y110.409 E0.02452
G1 X102.172 Y110.761 E0.01316
G1 X101.888 Y111.135 E0.01475
G1 X101.598 Y111.464 E0.01375
G1 X101.209 Y111.841 E0.01696
G1 X100.833 Y112.149 E0.01526
G1 X100.267 Y112.533 E0.02142
G1 X99.509 Y112.926 E0.02680
G1 X98.957 Y113.143 E0.01860
G1 X98.454 Y113.297 E0.01647
G1 X97.936 Y113.418 E0.01668
G1 X97.338 Y113.514 E0.01900
G1 X96.581 Y113.576 E0.02383
G1 X96.171 Y113.585 E0.01286
G1 X95.310 Y113.547 E0.02702
G1 X94.864 Y113.499 E0.01408
G1 X94.059 Y113.361 E0.02559
G1 X93.339 Y113.178 E0.02330
G1 X92.521 Y112.901 E0.02709
G1 X91.894 Y112.633 E0.02137
G1 X91.393 Y112.380 E0.01760
G1 X90.904 Y112.096 E0.01774
G1 X90.112 Y111.547 E0.03020
G1 X89.509 Y111.037 E0.02476
G1 X89.186 Y110.725 E0.01407
G1 X88.583 Y110.045 E0.02851
G1 X88.276 Y109.637 E0.01599
G1 X88.012 Y109.242 E0.01490
G1 X87.669 Y108.647 E0.02154
G1 X87.473 Y108.248 E0.01393
G1 X87.178 Y107.530 E0.02435
G1 X86.951 Y106.798 E0.02402
G1 X86.790 Y106.081 E0.02304
G1 X86.659 Y105.082 E0.03161
G1 X86.626 Y104.289 E0.02488
G1 X86.675 Y103.286 E0.03146
G1 X86.779 Y102.557 E0.02310
G1 X86.946 Y101.836 E0.02321
G1 X87.184 Y101.121 E0.02364
G1 X87.488 Y100.444 E0.02327
G1 X87.901 Y99.743 E0.02550
G1 X88.317 Y99.187 E0.02178
G1 X88.819 Y98.645 E0.02316
G1 X89.381 Y98.160 E0.02329
G1 X89.949 Y97.763 E0.02173
G1 X90.687 Y97.357 E0.02641
G1 X91.136 Y97.160 E0.01538
G1 X91.570 Y97.001 E0.01448
G1 X92.046 Y96.859 E0.01559
G1 X92.501 Y96.751 E0.01466
G1 X93.090 Y96.651 E0.01872
G1 X93.522 Y96.603 E0.01363
G1 X94.300 Y96.570 E0.02442
G1 X95.287 Y96.610 E0.03097
G1 X95.970 Y96.692 E0.02157
G1 X96.615 Y96.814 E0.02058
G1 X97.426 Y97.038 E0.02640
G1 X97.833 Y97.182 E0.01351
G1 X98.393 Y97.415 E0.01904
G1 X99.220 Y97.837 E0.02911
G1 X99.802 Y98.172 E0.02103
G1 X99.791 Y98.198 E0.00088
G1 X100.259 Y98.478 E0.01710
G1 X100.665 Y98.763 E0.01554
G1 X101.163 Y99.149 E0.01977
G1 X101.908 Y99.819 E0.03141
G1 X102.547 Y100.498 E0.02922
G1 X102.950 Y100.987 E0.01989
G1 X103.321 Y101.487 E0.01950
G1 X103.615 Y101.944 E0.01707
G1 X103.932 Y101.165 E0.02639
G1 X104.250 Y100.548 E0.02174
G1 X104.667 Y99.883 E0.02464
G1 X105.110 Y99.295 E0.02308
G1 X105.622 Y98.726 E0.02401
G1 X106.177 Y98.206 E0.02384
G1 X106.811 Y97.711 E0.02522
G1 X107.528 Y97.252 E0.02668
G1 X108.265 Y96.874 E0.02599
G1 X108.981 Y96.585 E0.02421
G1 X109.670 Y96.374 E0.02258
G1 X110.282 Y96.237 E0.01968
G1 X111.105 Y96.121 E0.02603
G1 X111.932 Y96.086 E0.02595
G1 X112.429 Y96.100 E0.01561
G1 X113.297 Y96.195 E0.02737
G1 X114.120 Y96.367 E0.02637
G1 X114.976 Y96.637 E0.02813
G1 X115.685 Y96.937 E0.02413
G1 X116.267 Y97.240 E0.02057
G1 X116.903 Y97.640 E0.02357
G1 X117.506 Y98.095 E0.02367
G1 X118.058 Y98.591 E0.02328
G1 X118.508 Y99.064 E0.02048
G1 X119.006 Y99.682 E0.02488
G1 X119.446 Y100.344 E0.02492
G1 X119.739 Y100.869 E0.01885
G1 X120.065 Y101.583 E0.02459
G1 X120.309 Y102.264 E0.02268
G1 X120.502 Y102.990 E0.02357
G1 X120.625 Y103.678 E0.02190
G1 X120.696 Y104.410 E0.02306
G1 X120.706 Y105.100 E0.02164
G1 X120.657 Y105.833 E0.02304
G1 X120.547 Y106.564 E0.02319
G1 X120.385 Y107.250 E0.02210
G1 X120.149 Y107.974 E0.02388
G1 X119.843 Y108.692 E0.02445
G1 X119.486 Y109.361 E0.02378
G1 X119.151 Y109.883 E0.01946
G1 X118.652 Y110.539 E0.02584
G1 X118.191 Y111.048 E0.02152
G1 X117.553 Y111.638 E0.02726
G1 X116.944 Y112.103 E0.02402
G1 X116.463 Y112.416 E0.01800
G1 X115.759 Y112.798 E0.02512
G1 X115.210 Y113.043 E0.01884
G1 X114.340 Y113.343 E0.02886
G1 X113.597 Y113.523 E0.02398
G1 X112.775 Y113.643 E0.02604
G1 X111.903 Y113.686 E0.02738
G1 X111.179 Y113.655 E0.02270
G1 X110.504 Y113.572 E0.02135
G1 X110.074 Y113.491 E0.01370
G1 X109.607 Y113.377 E0.01508
G1 X108.838 Y113.131 E0.02532
G1 X108.277 Y112.899 E0.01903
G1 X107.713 Y112.619 E0.01974
G1 X107.185 Y112.307 E0.01924
G1 X106.682 Y111.962 E0.01913
G1 X105.980 Y111.386 E0.02847
G1 X105.313 Y110.708 E0.02981
G1 X105.007 Y110.341 E0.01497
G1 X104.671 Y109.888 E0.01769
G1 X104.174 Y109.080 E0.02975
G1 X103.827 Y108.365 E0.02492
G1 X103.520 Y107.543 E0.02750
G1 X103.345 Y106.866 E0.02191
G1 F8640
G1 X103.314 Y107.526 E-0.15245
G1 X103.216 Y108.268 E-0.17277
G1 X103.039 Y108.981 E-0.16958
G1 X102.764 Y109.716 E-0.18139
G1 X102.596 Y110.038 E-0.08382
G1 E-0.04000 F2100.00000
G1 Z0.800 F10800.000
G1 X99.135 Y109.174
G1 Z0.200
G1 E0.80000 F2100.00000
G1 F1200
G1 X98.555 Y109.221 E0.01825
G1 X97.204 Y109.467 E0.04306
G1 X96.720 Y109.470 E0.01516
G1 X96.211 Y109.414 E0.01606
G1 X95.581 Y109.266 E0.02030
G1 X95.045 Y109.070 E0.01790
G1 X94.572 Y108.842 E0.01645
G1 X94.120 Y108.573 E0.01650
G1 X93.555 Y108.163 E0.02189
G1 X93.052 Y107.726 E0.02090
G1 X92.552 Y107.201 E0.02271
G1 X92.238 Y106.794 E0.01612
G1 X91.956 Y106.360 E0.01624
G1 X91.680 Y105.842 E0.01842
G1 X91.491 Y105.405 E0.01491
G1 X91.267 Y104.729 E0.02233
G1 X91.164 Y104.301 E0.01382
G1 X91.076 Y103.746 E0.01761
G1 X91.045 Y103.365 E0.01197
G1 X91.050 Y102.792 E0.01796
G1 X91.103 Y102.368 E0.01341
G1 X91.220 Y101.926 E0.01435
G1 X91.424 Y101.508 E0.01457
G1 X91.624 Y101.260 E0.00999
G1 X91.855 Y101.081 E0.00916
G1 X92.109 Y100.971 E0.00868
G1 X92.368 Y100.936 E0.00820
G1 X92.699 Y100.976 E0.01044
G1 X93.019 Y101.075 E0.01050
G1 X93.539 Y101.324 E0.01808
G1 X94.162 Y101.721 E0.02317
G1 X94.873 Y102.277 E0.02828
G1 X95.412 Y102.764 E0.02278
G1 X96.064 Y103.447 E0.02961
G1 X95.913 Y102.659 E0.02514
G1 X95.860 Y102.247 E0.01303
G1 X95.855 Y101.991 E0.00805
G1 X95.887 Y101.733 E0.00814
G1 X95.970 Y101.495 E0.00789
G1 X96.059 Y101.352 E0.00528
G1 X96.216 Y101.195 E0.00695
G1 X96.427 Y101.070 E0.00769
G1 X96.682 Y100.988 E0.00842
G1 X96.984 Y100.944 E0.00955
G1 X97.465 Y100.943 E0.01511
G1 X97.784 Y100.965 E0.01000
G1 X98.304 Y101.042 E0.01650
G1 X98.609 Y101.110 E0.00978
G1 X99.351 Y101.356 E0.02452
G1 X99.934 Y101.638 E0.02030
G1 X100.542 Y102.030 E0.02269
G1 X101.115 Y102.516 E0.02355
G1 X101.587 Y103.030 E0.02188
G1 X101.861 Y103.396 E0.01433
G1 X102.062 Y103.705 E0.01156
G1 X102.424 Y104.400 E0.02458
G1 X102.685 Y105.104 E0.02355
G1 X102.850 Y105.784 E0.02192
G1 X102.941 Y106.491 E0.02235
G1 X102.959 Y106.967 E0.01493
G1 X102.938 Y107.494 E0.01653
G1 X102.844 Y108.197 E0.02226
G1 X102.679 Y108.869 E0.02169
G1 X102.419 Y109.562 E0.02321
G1 X102.076 Y110.218 E0.02322
G1 X101.864 Y110.543 E0.01217
G1 X101.596 Y110.896 E0.01389
G1 X101.325 Y111.203 E0.01285
G1 X100.958 Y111.559 E0.01601
G1 X100.607 Y111.847 E0.01423
G1 X100.074 Y112.208 E0.02019
G1 X99.353 Y112.583 E0.02548
G1 X98.832 Y112.786 E0.01752
G1 X98.356 Y112.933 E0.01562
G1 X97.863 Y113.047 E0.01586
G1 X97.293 Y113.140 E0.01813
G1 X96.562 Y113.200 E0.02300
G1 X96.175 Y113.207 E0.01212
G1 X95.338 Y113.171 E0.02626
G1 X94.916 Y113.125 E0.01333
G1 X94.137 Y112.991 E0.02477
G1 X93.441 Y112.815 E0.02251
G1 X93.067 Y112.698 E0.01230
G1 X92.659 Y112.550 E0.01361
G1 X92.053 Y112.291 E0.02066
G1 X91.573 Y112.048 E0.01688
G1 X91.106 Y111.777 E0.01692
G1 X90.342 Y111.247 E0.02917
G1 X89.762 Y110.757 E0.02380
G1 X89.459 Y110.464 E0.01322
G1 X88.875 Y109.806 E0.02759
G1 X88.584 Y109.419 E0.01518
G1 X88.333 Y109.043 E0.01417
G1 X88.002 Y108.469 E0.02077
G1 X87.817 Y108.093 E0.01314
G1 X87.534 Y107.402 E0.02343
G1 X87.315 Y106.701 E0.02303
G1 X87.161 Y106.015 E0.02202
G1 X87.035 Y105.049 E0.03055
G1 X87.003 Y104.290 E0.02382
G1 X87.051 Y103.322 E0.03038
G1 X87.150 Y102.626 E0.02204
G1 X87.309 Y101.938 E0.02214
G1 X87.536 Y101.258 E0.02249
G1 X87.823 Y100.617 E0.02202
G1 X88.215 Y99.952 E0.02420
G1 X88.607 Y99.429 E0.02050
G1 X89.081 Y98.917 E0.02188
G1 X89.612 Y98.457 E0.02203
G1 X90.148 Y98.083 E0.02048
G1 X90.854 Y97.695 E0.02524
G1 X91.277 Y97.510 E0.01448
G1 X91.689 Y97.359 E0.01377
G1 X92.144 Y97.223 E0.01488
G1 X92.576 Y97.121 E0.01393
G1 X93.142 Y97.025 E0.01800
G1 X93.551 Y96.979 E0.01289
G1 X94.300 Y96.947 E0.02352
G1 X95.257 Y96.987 E0.03002
G1 X95.912 Y97.064 E0.02070
G1 X96.529 Y97.182 E0.01968
G1 X97.313 Y97.398 E0.02551
G1 X97.697 Y97.534 E0.01278
G1 X98.235 Y97.758 E0.01826
G1 X99.041 Y98.169 E0.02835
G1 X100.053 Y98.795 E0.03734
G1 X100.441 Y99.066 E0.01483
G1 X100.921 Y99.439 E0.01905
G1 X101.644 Y100.089 E0.03050
G1 X102.264 Y100.747 E0.02834
G1 X102.653 Y101.220 E0.01920
G1 X103.011 Y101.701 E0.01880
G1 X103.564 Y102.560 E0.03203
G1 X103.734 Y102.879 E0.01133
G1 X103.782 Y102.664 E0.00689
G1 X103.990 Y102.011 E0.02148
G1 X104.274 Y101.323 E0.02334
G1 X104.578 Y100.735 E0.02075
G1 X104.978 Y100.097 E0.02363
G1 X105.402 Y99.535 E0.02206
G1 X105.892 Y98.990 E0.02299
G1 X106.423 Y98.493 E0.02281
G1 X107.029 Y98.019 E0.02413
G1 X107.716 Y97.579 E0.02555
G1 X108.422 Y97.217 E0.02488
G1 X109.107 Y96.941 E0.02318
G1 X109.767 Y96.739 E0.02162
G1 X110.350 Y96.608 E0.01875
G1 X111.139 Y96.497 E0.02498
G1 X111.934 Y96.463 E0.02495
G1 X112.403 Y96.477 E0.01471
G1 X113.238 Y96.568 E0.02632
G1 X114.025 Y96.733 E0.02521
G1 X114.846 Y96.991 E0.02698
G1 X115.524 Y97.278 E0.02310
G1 X116.079 Y97.567 E0.01961
G1 X116.689 Y97.951 E0.02259
G1 X117.266 Y98.386 E0.02266
G1 X117.795 Y98.861 E0.02231
G1 X118.224 Y99.313 E0.01952
G1 X118.701 Y99.905 E0.02386
G1 X119.124 Y100.541 E0.02392
G1 X119.402 Y101.040 E0.01791
G1 X119.715 Y101.725 E0.02362
G1 X119.949 Y102.376 E0.02168
G1 X120.133 Y103.072 E0.02258
G1 X120.251 Y103.729 E0.02093
G1 X120.319 Y104.430 E0.02210
G1 X120.328 Y105.090 E0.02068
G1 X120.282 Y105.792 E0.02207
G1 X120.176 Y106.493 E0.02221
G1 X120.022 Y107.148 E0.02112
G1 X119.795 Y107.842 E0.02287
G1 X119.502 Y108.529 E0.02342
G1 X119.160 Y109.170 E0.02279
G1 X118.842 Y109.667 E0.01851
G1 X118.362 Y110.298 E0.02485
G1 X117.923 Y110.782 E0.02049
G1 X117.310 Y111.349 E0.02618
G1 X116.726 Y111.794 E0.02302
G1 X116.269 Y112.092 E0.01709
G1 X115.592 Y112.460 E0.02419
G1 X115.067 Y112.694 E0.01799
G1 X114.239 Y112.980 E0.02748
G1 X113.525 Y113.152 E0.02304
G1 X112.734 Y113.268 E0.02507
G1 X112.320 Y113.299 E0.01300
G1 X111.906 Y113.309 E0.01298
G1 X111.211 Y113.279 E0.02183
G1 X110.562 Y113.199 E0.02050
G1 X109.709 Y113.014 E0.02734
G1 X108.968 Y112.776 E0.02442
G1 X108.433 Y112.556 E0.01814
G1 X107.893 Y112.287 E0.01891
G1 X107.387 Y111.989 E0.01841
G1 X106.909 Y111.660 E0.01821
G1 X106.235 Y111.107 E0.02734
G1 X105.593 Y110.454 E0.02871
G1 X105.304 Y110.108 E0.01415
G1 X104.984 Y109.676 E0.01684
G1 X104.505 Y108.898 E0.02865
G1 X104.174 Y108.216 E0.02377
G1 X103.880 Y107.430 E0.02632
G1 X103.649 Y106.534 E0.02900
G1 X103.521 Y105.645 E0.02816
G1 X103.393 Y105.239 E0.01336
G1 X103.144 Y104.574 E0.02225
G1 X102.845 Y103.916 E0.02266
G1 X102.494 Y103.263 E0.02325
G1 X102.084 Y102.617 E0.02400
G1 X101.590 Y101.951 E0.02599
G1 X101.022 Y101.297 E0.02716
G1 X100.587 Y100.856 E0.01942
G1 X100.240 Y100.537 E0.01479
G1 X99.453 Y99.899 E0.03176
G1 X98.715 Y99.393 E0.02807
G1 X97.908 Y98.933 E0.02911
G1 X96.982 Y98.663 E0.03026
G1 X96.181 Y98.500 E0.02562
G1 X95.625 Y98.429 E0.01757
G1 X95.237 Y98.404 E0.01218
G1 X94.327 Y98.429 E0.02855
G1 X93.858 Y98.480 E0.01479
G1 X93.434 Y98.552 E0.01351
G1 X92.712 Y98.739 E0.02337
G1 X92.153 Y98.950 E0.01876
G1 X91.886 Y99.077 E0.00926
G1 X91.275 Y99.442 E0.02233
G1 X90.930 Y99.706 E0.01360
G1 X90.676 Y99.935 E0.01074
G1 X90.417 Y100.205 E0.01173
G1 X90.133 Y100.554 E0.01409
G1 X89.955 Y100.811 E0.00982
G1 X89.733 Y101.183 E0.01358
G1 X89.485 Y101.702 E0.01802
G1 X89.342 Y102.075 E0.01254
G1 X89.224 Y102.454 E0.01244
G1 X89.098 Y102.985 E0.01711
G1 X88.990 Y103.725 E0.02345
G1 X88.951 Y104.529 E0.02523
G1 X88.964 Y105.019 E0.01538
G1 X89.023 Y105.684 E0.02093
G1 X89.111 Y106.231 E0.01737
G1 X89.200 Y106.632 E0.01288
G1 X89.380 Y107.251 E0.02020
G1 X89.525 Y107.641 E0.01304
G1 X89.820 Y108.282 E0.02214
G1 X90.194 Y108.914 E0.02301
G1 X90.665 Y109.538 E0.02453
G1 X91.159 Y110.055 E0.02241
G1 X91.750 Y110.544 E0.02405
G1 X92.317 Y110.916 E0.02126
G1 X93.010 Y111.267 E0.02437
G1 X93.649 Y111.508 E0.02141
G1 X94.474 Y111.721 E0.02672
G1 X95.076 Y111.815 E0.01910
G1 X95.666 Y111.863 E0.01854
G1 X96.058 Y111.872 E0.01229
G1 X96.832 Y111.833 E0.02430
G1 X97.543 Y111.723 E0.02256
G1 X98.234 Y111.534 E0.02247
G1 X98.706 Y111.349 E0.01589
G1 X99.272 Y111.050 E0.02005
G1 X99.553 Y110.863 E0.01060
G1 X100.044 Y110.454 E0.02004
G1 X100.351 Y110.126 E0.01409
G1 X100.697 Y109.651 E0.01844
G1 X100.937 Y109.215 E0.01559
G1 X101.131 Y108.739 E0.01611
G1 X101.294 Y108.144 E0.01935
G1 X101.361 Y107.754 E0.01241
G1 X101.409 Y107.150 E0.01900
G1 X101.397 Y106.485 E0.02084
G1 X101.327 Y105.853 E0.01996
G1 X101.185 Y105.199 E0.02096
G1 X101.034 Y104.738 E0.01522
G1 X100.828 Y104.272 E0.01598
G1 X100.542 Y103.787 E0.01765
G1 X100.289 Y103.457 E0.01304
G1 X99.870 Y103.038 E0.01858
G1 X99.591 Y102.825 E0.01100
G1 X99.316 Y102.658 E0.01010
G1 X99.023 Y102.522 E0.01011
G1 X98.589 Y102.391 E0.01422
G1 X98.190 Y102.343 E0.01260
G1 X98.010 Y102.354 E0.00565
