;FLAVOR:Marlin
;TIME:4529
;Filament used: 4.76339m
;Layer height: 0.3
;Generated with Cura_SteamEngine 4.0.0
M82 ;absolute extrusion mode
G21 ; set units to millimeters
G90 ; use absolute positioning
M82 ; absolute extrusion mode
M104 S200 ; set extruder temp
M140 S60 ; set bed temp
M190 S60 ; wait for bed temp
M109 S200 ; wait for extruder temp
G28 W ; home all without mesh bed level
G80 ; mesh bed leveling
G92 E0.0 ; reset extruder distance position
G1 Y-3.0 F1000.0 ; go outside print area
G1 X60.0 E9.0 F1000.0 ; intro line
G1 X100.0 E21.5 F1000.0 ; intro line
G92 E0.0 ; reset extruder distance position
G92 E0
G1 F2100 E-0.8
;LAYER_COUNT:89
;LAYER:0
M107
G0 F3600 X14.684 Y21.06 Z0.15
;TYPE:SKIRT
G1 F2100 E0
G1 F1350 X15.117 Y20.798 E0.01262
G1 X15.585 Y20.608 E0.02522
G1 X16.078 Y20.493 E0.03785
G1 X16.552 Y20.458 E0.04971
G1 X87.474 Y20.444 E1.81887
G1 X87.978 Y20.484 E1.83148
G1 X88.47 Y20.603 E1.8441
G1 X88.936 Y20.797 E1.8567
G1 X89.367 Y21.063 E1.86933
G1 X89.749 Y21.393 E1.88192
G1 X90.076 Y21.779 E1.89454
G1 X90.337 Y22.212 E1.90715
G1 X90.527 Y22.681 E1.91978
G1 X90.64 Y23.173 E1.93237
G1 X90.675 Y23.644 E1.94415
G1 X90.674 Y45.671 E2.49362
G1 X90.666 Y45.9 E2.49933
G1 X89.121 Y67.476 E3.03893
G1 X89.112 Y67.577 E3.04145
G1 X88.45 Y73.954 E3.20138
G1 X88.358 Y74.452 E3.21402
G1 X88.189 Y74.928 E3.22662
G1 X87.947 Y75.372 E3.23923
G1 X87.639 Y75.772 E3.25182
G1 X87.271 Y76.119 E3.26444
G1 X86.853 Y76.404 E3.27706
G1 X86.395 Y76.619 E3.28968
G1 X85.909 Y76.759 E3.3023
G1 X85.266 Y76.824 E3.31842
G1 X18.751 Y76.793 E4.97764
G1 X18.247 Y76.753 E4.99026
G1 X17.755 Y76.634 E5.00288
G1 X17.289 Y76.439 E5.01548
G1 X16.859 Y76.173 E5.0281
G1 X16.476 Y75.842 E5.04072
G1 X16.15 Y75.456 E5.05333
G1 X15.889 Y75.023 E5.06594
G1 X15.7 Y74.554 E5.07855
G1 X15.568 Y73.911 E5.09493
G1 X14.751 Y65.73 E5.30002
G1 X14.743 Y65.637 E5.30235
G1 X14.089 Y56.359 E5.53436
G1 X13.399 Y46.546 E5.77975
G1 X13.391 Y46.326 E5.78524
G1 X13.353 Y23.663 E6.35058
G1 X13.392 Y23.159 E6.36319
G1 X13.51 Y22.668 E6.37578
G1 X13.704 Y22.201 E6.3884
G1 X13.969 Y21.77 E6.40102
G1 X14.299 Y21.387 E6.41363
G1 X14.684 Y21.06 E6.42623
G1 F2100 E5.62623
;MESH:X_Changer-Filler-Piece_032119.stl
G0 F3600 X15.879 Y28.968
G0 X17.159 Y28.968
G0 X42.823 Y31.246
G0 X42.893 Y31.176
;TYPE:WALL-INNER
G1 F2100 E6.42623
G1 F1350 X61.135 Y31.176 E6.88128
G1 X61.135 Y28.954 E6.93671
G1 X86.883 Y28.954 E7.57899
G1 X86.883 Y32.754 E7.67378
G1 X17.344 Y32.754 E9.40844
G1 X17.144 Y32.754 E9.41343
G1 X17.144 Y32.554 E9.41666
G1 X17.145 Y28.954 E9.50646
G1 X42.893 Y28.954 E10.14875
G1 X42.893 Y31.176 E10.20418
G0 F3600 X43.293 Y30.776
;TYPE:WALL-OUTER
G1 F1350 X60.735 Y30.776 E10.63927
G1 X60.735 Y28.554 E10.6947
G1 X87.283 Y28.554 E11.35694
G1 X87.283 Y33.154 E11.47169
G1 X16.944 Y33.154 E13.2263
G1 X16.744 Y33.154 E13.23129
G1 X16.744 Y32.954 E13.23452
G1 X16.745 Y28.554 E13.34428
G1 X43.293 Y28.554 E14.00652
G1 X43.293 Y30.776 E14.06195
G0 F3600 X43.493 Y30.776
G0 X43.493 Y31.276
G0 X42.503 Y31.566
;TYPE:SKIN
G1 F1350 X61.525 Y31.566 E14.53646
G1 X61.525 Y29.344 E14.59188
G1 X86.493 Y29.344 E15.21471
G1 X86.493 Y32.364 E15.29005
G1 X17.534 Y32.364 E17.01024
G1 X17.535 Y29.344 E17.08557
G1 X42.503 Y29.344 E17.7084
G1 X42.503 Y31.566 E17.76383
G0 F3600 X18.041 Y32.183
G1 F1350 X17.714 Y31.856 E17.77536
G0 F3600 X17.714 Y31.29
G1 F1350 X18.606 Y32.183 E17.80685
G0 F3600 X19.172 Y32.183
G1 F1350 X17.714 Y30.725 E17.85828
G0 F3600 X17.714 Y30.159
G1 F1350 X19.738 Y32.183 E17.92969
G0 F3600 X20.303 Y32.183
G1 F1350 X17.714 Y29.593 E18.02104
G0 F3600 X18.21 Y29.523
G1 F1350 X20.869 Y32.183 E18.11486
G0 F3600 X21.435 Y32.183
G1 F1350 X18.775 Y29.523 E18.2087
G0 F3600 X19.341 Y29.523
G1 F1350 X22 Y32.183 E18.30252
G0 F3600 X22.566 Y32.183
G1 F1350 X19.907 Y29.523 E18.39634
G0 F3600 X20.472 Y29.523
G1 F1350 X23.132 Y32.183 E18.49018
G0 F3600 X23.697 Y32.183
G1 F1350 X21.038 Y29.523 E18.584
G0 F3600 X21.604 Y29.523
G1 F1350 X24.263 Y32.183 E18.67782
G0 F3600 X24.829 Y32.183
G1 F1350 X22.169 Y29.523 E18.77166
G0 F3600 X22.735 Y29.523
G1 F1350 X25.395 Y32.183 E18.8655
G0 F3600 X25.96 Y32.183
G1 F1350 X23.301 Y29.523 E18.95932
G0 F3600 X23.866 Y29.523
G1 F1350 X26.526 Y32.183 E19.05316
G0 F3600 X27.092 Y32.183
G1 F1350 X24.432 Y29.523 E19.147
G0 F3600 X24.998 Y29.523
G1 F1350 X27.657 Y32.183 E19.24082
G0 F3600 X28.223 Y32.183
G1 F1350 X25.564 Y29.523 E19.33464
G0 F3600 X26.129 Y29.523
G1 F1350 X28.789 Y32.183 E19.42848
G0 F3600 X29.354 Y32.183
G1 F1350 X26.695 Y29.523 E19.5223
G0 F3600 X27.261 Y29.523
G1 F1350 X29.92 Y32.183 E19.61612
G0 F3600 X30.486 Y32.183
G1 F1350 X27.826 Y29.523 E19.70996
G0 F3600 X28.392 Y29.523
G1 F1350 X31.051 Y32.183 E19.80378
G0 F3600 X31.617 Y32.183
G1 F1350 X28.958 Y29.523 E19.8976
G0 F3600 X29.523 Y29.523
G1 F1350 X32.183 Y32.183 E19.99144
G0 F3600 X32.748 Y32.183
G1 F1350 X30.089 Y29.523 E20.08526
G0 F3600 X30.655 Y29.523
G1 F1350 X33.314 Y32.183 E20.17908
G0 F3600 X33.88 Y32.183
G1 F1350 X31.22 Y29.523 E20.27292
G0 F3600 X31.786 Y29.523
G1 F1350 X34.445 Y32.183 E20.36674
G0 F3600 X35.011 Y32.183
G1 F1350 X32.352 Y29.523 E20.46056
G0 F3600 X32.917 Y29.523
G1 F1350 X35.577 Y32.183 E20.5544
G0 F3600 X36.143 Y32.183
G1 F1350 X33.483 Y29.523 E20.64824
G0 F3600 X34.049 Y29.523
G1 F1350 X36.708 Y32.183 E20.74206
G0 F3600 X37.274 Y32.183
G1 F1350 X34.614 Y29.523 E20.8359
G0 F3600 X35.18 Y29.523
G1 F1350 X37.84 Y32.183 E20.92974
G0 F3600 X38.405 Y32.183
G1 F1350 X35.746 Y29.523 E21.02356
G0 F3600 X36.312 Y29.523
G1 F1350 X38.971 Y32.183 E21.11738
G0 F3600 X39.537 Y32.183
G1 F1350 X36.877 Y29.523 E21.21122
G0 F3600 X37.443 Y29.523
G1 F1350 X40.102 Y32.183 E21.30504
G0 F3600 X40.668 Y32.183
G1 F1350 X38.009 Y29.523 E21.39886
G0 F3600 X38.574 Y29.523
G1 F1350 X41.234 Y32.183 E21.4927
G0 F3600 X41.799 Y32.183
G1 F1350 X39.14 Y29.523 E21.58652
G0 F3600 X39.706 Y29.523
G1 F1350 X42.365 Y32.183 E21.68034
G0 F3600 X42.493 Y31.745
G1 F1350 X42.931 Y32.183 E21.69579
G0 F3600 X43.059 Y31.745
G1 F1350 X43.496 Y32.183 E21.71123
G0 F3600 X43.624 Y31.745
G1 F1350 X44.062 Y32.183 E21.72668
G0 F3600 X44.19 Y31.745
G1 F1350 X44.628 Y32.183 E21.74213
G0 F3600 X44.756 Y31.745
G1 F1350 X45.194 Y32.183 E21.75758
G0 F3600 X45.322 Y31.745
G1 F1350 X45.759 Y32.183 E21.77301
G0 F3600 X45.887 Y31.745
G1 F1350 X46.325 Y32.183 E21.78847
G0 F3600 X46.453 Y31.745
G1 F1350 X46.891 Y32.183 E21.80392
G0 F3600 X47.019 Y31.745
G1 F1350 X47.456 Y32.183 E21.81935
G0 F3600 X47.584 Y31.745
G1 F1350 X48.022 Y32.183 E21.8348
G0 F3600 X48.15 Y31.745
G1 F1350 X48.588 Y32.183 E21.85026
G0 F3600 X48.716 Y31.745
G1 F1350 X49.153 Y32.183 E21.86569
G0 F3600 X49.281 Y31.745
G1 F1350 X49.719 Y32.183 E21.88114
G0 F3600 X49.847 Y31.745
G1 F1350 X50.285 Y32.183 E21.89659
G0 F3600 X50.413 Y31.745
G1 F1350 X50.85 Y32.183 E21.91203
G0 F3600 X50.978 Y31.745
G1 F1350 X51.416 Y32.183 E21.92748
G0 F3600 X51.544 Y31.745
G1 F1350 X51.982 Y32.183 E21.94293
G0 F3600 X52.11 Y31.745
G1 F1350 X52.548 Y32.183 E21.95838
G0 F3600 X52.675 Y31.745
G1 F1350 X53.114 Y32.183 E21.97385
G0 F3600 X53.241 Y31.745
G1 F1350 X53.68 Y32.183 E21.98932
G0 F3600 X53.807 Y31.745
G1 F1350 X54.245 Y32.183 E22.00477
G0 F3600 X54.372 Y31.745
G1 F1350 X54.811 Y32.183 E22.02024
G0 F3600 X54.938 Y31.745
G1 F1350 X55.377 Y32.183 E22.03571
G0 F3600 X55.504 Y31.745
G1 F1350 X55.942 Y32.183 E22.05116
G0 F3600 X56.07 Y31.745
G1 F1350 X56.508 Y32.183 E22.06661
G0 F3600 X56.635 Y31.745
G1 F1350 X57.074 Y32.183 E22.08208
G0 F3600 X57.201 Y31.745
G1 F1350 X57.639 Y32.183 E22.09753
G0 F3600 X57.767 Y31.745
G1 F1350 X58.205 Y32.183 E22.11299
G0 F3600 X58.332 Y31.745
G1 F1350 X58.771 Y32.183 E22.12846
G0 F3600 X58.898 Y31.745
G1 F1350 X59.336 Y32.183 E22.14391
G0 F3600 X59.464 Y31.745
G1 F1350 X59.902 Y32.183 E22.15936
G0 F3600 X60.029 Y31.745
G1 F1350 X60.468 Y32.183 E22.17483
G0 F3600 X60.595 Y31.745
G1 F1350 X61.033 Y32.183 E22.19028
G0 F3600 X61.161 Y31.745
G1 F1350 X61.599 Y32.183 E22.20573
G0 F3600 X61.704 Y31.722
G1 F1350 X62.165 Y32.183 E22.22199
G0 F3600 X62.73 Y32.183
G1 F1350 X61.704 Y31.157 E22.25819
G0 F3600 X61.704 Y30.591
G1 F1350 X63.296 Y32.183 E22.31435
G0 F3600 X63.862 Y32.183
G1 F1350 X61.704 Y30.025 E22.39048
G0 F3600 X61.768 Y29.524
G1 F1350 X64.428 Y32.183 E22.4843
G0 F3600 X64.993 Y32.183
G1 F1350 X62.334 Y29.524 E22.57811
G0 F3600 X62.899 Y29.524
G1 F1350 X65.559 Y32.183 E22.67193
G0 F3600 X66.125 Y32.183
G1 F1350 X63.465 Y29.524 E22.76575
G0 F3600 X64.031 Y29.524
G1 F1350 X66.69 Y32.183 E22.85955
G0 F3600 X67.256 Y32.183
G1 F1350 X64.597 Y29.524 E22.95335
G0 F3600 X65.162 Y29.524
G1 F1350 X67.822 Y32.183 E23.04718
G0 F3600 X68.387 Y32.183
G1 F1350 X65.728 Y29.524 E23.14098
G0 F3600 X66.294 Y29.524
G1 F1350 X68.953 Y32.183 E23.23478
G0 F3600 X69.519 Y32.183
G1 F1350 X66.859 Y29.524 E23.3286
G0 F3600 X67.425 Y29.524
G1 F1350 X70.084 Y32.183 E23.42241
G0 F3600 X70.65 Y32.183
G1 F1350 X67.991 Y29.524 E23.51621
G0 F3600 X68.556 Y29.524
G1 F1350 X71.216 Y32.183 E23.61003
G0 F3600 X71.781 Y32.183
G1 F1350 X69.122 Y29.524 E23.70383
G0 F3600 X69.688 Y29.524
G1 F1350 X72.347 Y32.183 E23.79764
G0 F3600 X72.913 Y32.183
G1 F1350 X70.253 Y29.524 E23.89146
G0 F3600 X70.819 Y29.524
G1 F1350 X73.479 Y32.183 E23.98528
G0 F3600 X74.044 Y32.183
G1 F1350 X71.385 Y29.524 E24.07908
G0 F3600 X71.95 Y29.524
G1 F1350 X74.61 Y32.183 E24.1729
G0 F3600 X75.176 Y32.183
G1 F1350 X72.516 Y29.524 E24.26673
G0 F3600 X73.082 Y29.524
G1 F1350 X75.741 Y32.183 E24.36053
G0 F3600 X76.307 Y32.183
G1 F1350 X73.647 Y29.524 E24.45435
G0 F3600 X74.213 Y29.524
G1 F1350 X76.873 Y32.183 E24.54817
G0 F3600 X77.438 Y32.183
G1 F1350 X74.779 Y29.524 E24.64197
G0 F3600 X75.345 Y29.524
G1 F1350 X78.004 Y32.183 E24.73578
G0 F3600 X78.57 Y32.183
G1 F1350 X75.91 Y29.524 E24.8296
G0 F3600 X76.476 Y29.524
G1 F1350 X79.135 Y32.183 E24.9234
G0 F3600 X79.701 Y32.183
G1 F1350 X77.042 Y29.524 E25.01721
G0 F3600 X77.607 Y29.524
G1 F1350 X80.267 Y32.183 E25.11103
G0 F3600 X80.832 Y32.183
G1 F1350 X78.173 Y29.524 E25.20483
G0 F3600 X78.739 Y29.524
G1 F1350 X81.398 Y32.183 E25.29863
G0 F3600 X81.964 Y32.183
G1 F1350 X79.304 Y29.524 E25.39245
G0 F3600 X79.87 Y29.524
G1 F1350 X82.529 Y32.183 E25.48626
G0 F3600 X83.095 Y32.183
G1 F1350 X80.436 Y29.524 E25.58006
G0 F3600 X81.001 Y29.524
G1 F1350 X83.661 Y32.183 E25.67388
G0 F3600 X84.227 Y32.183
G1 F1350 X81.567 Y29.524 E25.7677
G0 F3600 X82.133 Y29.524
G1 F1350 X84.792 Y32.183 E25.86151
G0 F3600 X85.358 Y32.183
G1 F1350 X82.698 Y29.524 E25.95533
G0 F3600 X83.264 Y29.524
G1 F1350 X85.924 Y32.183 E26.04915
G0 F3600 X86.312 Y32.006
G1 F1350 X83.83 Y29.524 E26.13671
G0 F3600 X84.396 Y29.524
G1 F1350 X86.312 Y31.44 E26.2043
G0 F3600 X86.312 Y30.875
G1 F1350 X84.961 Y29.524 E26.25196
G0 F3600 X85.527 Y29.524
G1 F1350 X86.312 Y30.309 E26.27965
G0 F3600 X86.312 Y29.743
G1 F1350 X86.093 Y29.524 E26.28738
G0 F3600 X61.163 Y31.204
G0 X42.865 Y31.204
G0 X42.322 Y29.877
G1 F1350 X41.968 Y29.523 E26.29987
G0 F3600 X41.403 Y29.523
G1 F1350 X42.322 Y30.443 E26.33231
G0 F3600 X42.322 Y31.008
G1 F1350 X40.837 Y29.523 E26.38469
G0 F3600 X40.271 Y29.523
G1 F1350 X42.322 Y31.574 E26.45705
G1 X42.392 Y31.644
G1 F2100 E25.65705
G0 F3600 X42.823 Y32.734
G0 X42.823 Y34.53
G0 X42.823 Y36.802
G0 X42.893 Y36.732
;TYPE:WALL-INNER
G1 F2100 E26.45705
G1 F1350 X61.135 Y36.732 E26.9121
G1 X61.135 Y34.51 E26.96752
G1 X86.883 Y34.51 E27.60981
G1 X86.883 Y38.311 E27.70463
G1 X17.344 Y38.311 E29.43928
G1 X17.144 Y38.311 E29.44427
G1 X17.144 Y38.111 E29.4475
G1 X17.145 Y34.51 E29.53733
G1 X42.893 Y34.51 E30.17962
G1 X42.893 Y36.732 E30.23505
G0 F3600 X43.293 Y36.332
;TYPE:WALL-OUTER
G1 F1350 X60.735 Y36.332 E30.67014
G1 X60.735 Y34.11 E30.72557
G1 X87.283 Y34.11 E31.38781
G1 X87.283 Y38.711 E31.50258
G1 X16.944 Y38.711 E33.25719
G1 X16.744 Y38.711 E33.26218
G1 X16.744 Y38.511 E33.26541
G1 X16.745 Y34.11 E33.3752
G1 X43.293 Y34.11 E34.03744
G1 X43.293 Y36.332 E34.09287
G0 F3600 X43.493 Y36.332
G0 X43.493 Y36.832
G0 X42.503 Y37.122
;TYPE:SKIN
G1 F1350 X61.525 Y37.122 E34.56737
G1 X61.525 Y34.9 E34.6228
G1 X86.493 Y34.9 E35.24563
G1 X86.493 Y37.921 E35.32099
G1 X17.534 Y37.921 E37.04118
G1 X17.535 Y34.9 E37.11654
G1 X42.503 Y34.9 E37.73937
G1 X42.503 Y37.122 E37.7948
G0 F3600 X17.941 Y37.74
G1 F1350 X17.713 Y37.512 E37.80284
G0 F3600 X17.713 Y36.947
G1 F1350 X18.507 Y37.74 E37.83083
G0 F3600 X19.072 Y37.74
G1 F1350 X17.714 Y36.382 E37.87874
G0 F3600 X17.714 Y35.816
G1 F1350 X19.638 Y37.74 E37.94661
G0 F3600 X20.204 Y37.74
G1 F1350 X17.714 Y35.25 E38.03445
G0 F3600 X18.109 Y35.079
G1 F1350 X20.769 Y37.74 E38.12831
G0 F3600 X21.335 Y37.74
G1 F1350 X18.674 Y35.079 E38.22218
G0 F3600 X19.24 Y35.079
G1 F1350 X21.901 Y37.74 E38.31606
G0 F3600 X22.466 Y37.74
G1 F1350 X19.806 Y35.079 E38.40991
G0 F3600 X20.371 Y35.079
G1 F1350 X23.032 Y37.74 E38.50379
G0 F3600 X23.598 Y37.74
G1 F1350 X20.937 Y35.079 E38.59766
G0 F3600 X21.503 Y35.079
G1 F1350 X24.163 Y37.74 E38.69152
G0 F3600 X24.729 Y37.74
G1 F1350 X22.068 Y35.079 E38.78539
G0 F3600 X22.634 Y35.079
G1 F1350 X25.295 Y37.74 E38.87927
G0 F3600 X25.861 Y37.74
G1 F1350 X23.2 Y35.079 E38.97314
G0 F3600 X23.765 Y35.079
G1 F1350 X26.426 Y37.74 E39.06701
G0 F3600 X26.992 Y37.74
G1 F1350 X24.331 Y35.079 E39.16089
G0 F3600 X24.897 Y35.079
G1 F1350 X27.558 Y37.74 E39.25476
G0 F3600 X28.123 Y37.74
G1 F1350 X25.462 Y35.079 E39.34864
G0 F3600 X26.028 Y35.079
G1 F1350 X28.689 Y37.74 E39.44251
G0 F3600 X29.255 Y37.74
G1 F1350 X26.594 Y35.079 E39.53638
G0 F3600 X27.159 Y35.079
G1 F1350 X29.82 Y37.74 E39.63026
G0 F3600 X30.386 Y37.74
G1 F1350 X27.725 Y35.079 E39.72413
G0 F3600 X28.291 Y35.079
G1 F1350 X30.952 Y37.74 E39.81801
G0 F3600 X31.517 Y37.74
G1 F1350 X28.857 Y35.079 E39.91186
G0 F3600 X29.422 Y35.079
G1 F1350 X32.083 Y37.74 E40.00574
G0 F3600 X32.649 Y37.74
G1 F1350 X29.988 Y35.079 E40.09961
G0 F3600 X30.554 Y35.08
G1 F1350 X33.214 Y37.74 E40.19345
G0 F3600 X33.78 Y37.74
G1 F1350 X31.12 Y35.08 E40.28729
G0 F3600 X31.686 Y35.08
G1 F1350 X34.346 Y37.74 E40.38113
G0 F3600 X34.911 Y37.74
G1 F1350 X32.251 Y35.08 E40.47497
G0 F3600 X32.817 Y35.08
G1 F1350 X35.477 Y37.74 E40.5688
G0 F3600 X36.043 Y37.74
G1 F1350 X33.383 Y35.08 E40.66264
G0 F3600 X33.948 Y35.08
G1 F1350 X36.609 Y37.74 E40.7565
G0 F3600 X37.174 Y37.74
G1 F1350 X34.514 Y35.08 E40.85034
G0 F3600 X35.08 Y35.08
G1 F1350 X37.74 Y37.74 E40.94418
G0 F3600 X38.306 Y37.74
G1 F1350 X35.645 Y35.08 E41.03803
G0 F3600 X36.211 Y35.08
G1 F1350 X38.871 Y37.74 E41.13187
G0 F3600 X39.437 Y37.74
G1 F1350 X36.777 Y35.08 E41.22571
G0 F3600 X37.343 Y35.08
G1 F1350 X40.003 Y37.74 E41.31955
G0 F3600 X40.568 Y37.74
G1 F1350 X37.908 Y35.08 E41.41339
G0 F3600 X38.474 Y35.08
G1 F1350 X41.134 Y37.74 E41.50723
G0 F3600 X41.7 Y37.74
G1 F1350 X39.04 Y35.08 E41.60107
G0 F3600 X39.605 Y35.08
G1 F1350 X42.265 Y37.74 E41.6949
G0 F3600 X42.393 Y37.302
G1 F1350 X42.831 Y37.74 E41.71036
G0 F3600 X42.958 Y37.302
G1 F1350 X43.397 Y37.74 E41.72582
G0 F3600 X43.524 Y37.302
G1 F1350 X43.962 Y37.74 E41.74128
G0 F3600 X44.09 Y37.302
G1 F1350 X44.528 Y37.74 E41.75673
G0 F3600 X44.655 Y37.302
G1 F1350 X45.094 Y37.74 E41.7722
G0 F3600 X45.221 Y37.302
G1 F1350 X45.66 Y37.74 E41.78767
G0 F3600 X45.787 Y37.302
G1 F1350 X46.225 Y37.74 E41.80312
G0 F3600 X46.352 Y37.302
G1 F1350 X46.791 Y37.74 E41.81859
G0 F3600 X46.918 Y37.302
G1 F1350 X47.357 Y37.74 E41.83406
G0 F3600 X47.484 Y37.302
G1 F1350 X47.922 Y37.74 E41.84951
G0 F3600 X48.05 Y37.302
G1 F1350 X48.488 Y37.74 E41.86496
G0 F3600 X48.615 Y37.302
G1 F1350 X49.054 Y37.74 E41.88043
G0 F3600 X49.181 Y37.302
G1 F1350 X49.619 Y37.74 E41.89588
G0 F3600 X49.747 Y37.302
G1 F1350 X50.185 Y37.74 E41.91133
G0 F3600 X50.312 Y37.302
G1 F1350 X50.751 Y37.74 E41.9268
G0 F3600 X50.878 Y37.302
G1 F1350 X51.316 Y37.74 E41.94225
G0 F3600 X51.444 Y37.302
G1 F1350 X51.882 Y37.74 E41.95771
G0 F3600 X52.009 Y37.302
G1 F1350 X52.448 Y37.74 E41.97317
G0 F3600 X52.575 Y37.302
G1 F1350 X53.013 Y37.74 E41.98863
G0 F3600 X53.141 Y37.302
G1 F1350 X53.579 Y37.74 E42.00408
G0 F3600 X53.706 Y37.302
G1 F1350 X54.145 Y37.74 E42.01955
G0 F3600 X54.272 Y37.302
G1 F1350 X54.71 Y37.74 E42.035
G0 F3600 X54.838 Y37.302
