;FLAVOR:Marlin
;TIME:4550
;Filament used: 4.76291m
;Layer height: 0.3
;Generated with Cura_SteamEngine 4.0.0
M82 ;absolute extrusion mode
G21 ; set units to millimeters
G90 ; use absolute positioning
M82 ; absolute extrusion mode
M104 S200 ; set extruder temp
M140 S60 ; set bed temp
M190 S60 ; wait for bed temp
M109 S200 ; wait for extruder temp
G28 W ; home all without mesh bed level
G80 ; mesh bed leveling
G92 E0.0 ; reset extruder distance position
G1 Y-3.0 F1000.0 ; go outside print area
G1 X60.0 E9.0 F1000.0 ; intro line
G1 X100.0 E21.5 F1000.0 ; intro line
G92 E0.0 ; reset extruder distance position
G92 E0
G1 F2100 E-0.8
;LAYER_COUNT:89
;LAYER:0
M107
G0 F3600 X87.285 Y77.753 Z0.15
;TYPE:SKIRT
G1 F2100 E0
G1 F1350 X87.67 Y77.426 E0.0126
G1 X88.103 Y77.164 E0.02523
G1 X88.571 Y76.974 E0.03782
G1 X89.064 Y76.859 E0.05045
G1 X89.538 Y76.824 E0.06231
G1 X160.46 Y76.81 E1.83147
G1 X160.964 Y76.85 E1.84408
G1 X161.456 Y76.969 E1.8567
G1 X161.922 Y77.163 E1.8693
G1 X162.353 Y77.429 E1.88193
G1 X162.735 Y77.759 E1.89452
G1 X163.062 Y78.145 E1.90714
G1 X163.323 Y78.578 E1.91975
G1 X163.513 Y79.047 E1.93238
G1 X163.626 Y79.539 E1.94497
G1 X163.661 Y80.01 E1.95675
G1 X163.66 Y102.037 E2.50622
G1 X163.652 Y102.265 E2.51191
G1 X162.108 Y123.841 E3.0515
G1 X162.097 Y123.957 E3.05441
G1 X161.407 Y130.336 E3.21446
G1 X161.314 Y130.833 E3.22707
G1 X161.143 Y131.309 E3.23969
G1 X160.899 Y131.752 E3.2523
G1 X160.588 Y132.151 E3.26492
G1 X160.219 Y132.496 E3.27752
G1 X159.8 Y132.778 E3.29012
G1 X159.341 Y132.991 E3.30275
G1 X158.855 Y133.13 E3.31536
G1 X158.226 Y133.192 E3.33112
G1 X91.742 Y133.19 E4.98957
G1 X91.238 Y133.15 E5.00218
G1 X90.747 Y133.031 E5.01479
G1 X90.28 Y132.836 E5.02741
G1 X89.85 Y132.571 E5.04001
G1 X89.467 Y132.24 E5.05264
G1 X89.141 Y131.854 E5.06524
G1 X88.88 Y131.421 E5.07785
G1 X88.69 Y130.953 E5.09045
G1 X88.558 Y130.308 E5.10688
G1 X87.743 Y122.158 E5.31119
G1 X87.735 Y122.066 E5.3135
G1 X87.467 Y118.283 E5.4081
G1 X87.467 Y118.282 E5.40812
G1 X86.385 Y102.912 E5.79248
G1 X86.377 Y102.692 E5.79797
G1 X86.339 Y80.029 E6.3633
G1 X86.378 Y79.525 E6.37591
G1 X86.496 Y79.034 E6.38851
G1 X86.69 Y78.567 E6.40112
G1 X86.955 Y78.136 E6.41375
G1 X87.285 Y77.753 E6.42636
G1 F2100 E5.62636
;MESH:X_Changer-Filler-Piece_032119.stl
G0 F3600 X88.865 Y85.334
G0 X90.145 Y85.334
G0 X115.809 Y87.612
G0 X115.879 Y87.542
;TYPE:WALL-INNER
G1 F2100 E6.42636
G1 F1350 X134.121 Y87.542 E6.88141
G1 X134.121 Y85.32 E6.93683
G1 X159.869 Y85.32 E7.57912
G1 X159.869 Y89.12 E7.67391
G1 X90.33 Y89.12 E9.40857
G1 X90.13 Y89.12 E9.41356
G1 X90.13 Y88.92 E9.41679
G1 X90.131 Y85.32 E9.50659
G1 X115.879 Y85.32 E10.14888
G1 X115.879 Y87.542 E10.2043
G0 F3600 X116.279 Y87.142
;TYPE:WALL-OUTER
G1 F1350 X133.721 Y87.142 E10.6394
G1 X133.721 Y84.92 E10.69483
G1 X160.269 Y84.92 E11.35707
G1 X160.269 Y89.52 E11.47182
G1 X89.93 Y89.52 E13.22643
G1 X89.73 Y89.52 E13.23142
G1 X89.73 Y89.32 E13.23465
G1 X89.731 Y84.92 E13.34441
G1 X116.279 Y84.92 E14.00665
G1 X116.279 Y87.142 E14.06208
G0 F3600 X116.479 Y87.142
G0 X116.479 Y87.642
G0 X115.489 Y87.932
;TYPE:SKIN
G1 F1350 X134.511 Y87.932 E14.53658
G1 X134.511 Y85.71 E14.59201
G1 X159.479 Y85.71 E15.21484
G1 X159.479 Y88.73 E15.29017
G1 X90.52 Y88.73 E17.01036
G1 X90.521 Y85.71 E17.0857
G1 X115.489 Y85.71 E17.70853
G1 X115.489 Y87.932 E17.76396
G0 F3600 X90.812 Y88.549
G1 F1350 X90.699 Y88.436 E17.76794
G0 F3600 X90.699 Y87.87
G1 F1350 X91.377 Y88.549 E17.79188
G0 F3600 X91.943 Y88.549
G1 F1350 X90.699 Y87.305 E17.83576
G0 F3600 X90.699 Y86.739
G1 F1350 X92.509 Y88.549 E17.89962
G0 F3600 X93.075 Y88.549
G1 F1350 X90.699 Y86.173 E17.98344
G0 F3600 X90.981 Y85.89
G1 F1350 X93.64 Y88.549 E18.07724
G0 F3600 X94.206 Y88.549
G1 F1350 X91.546 Y85.89 E18.17106
G0 F3600 X92.112 Y85.89
G1 F1350 X94.772 Y88.549 E18.26488
G0 F3600 X95.337 Y88.549
G1 F1350 X92.678 Y85.89 E18.35868
G0 F3600 X93.244 Y85.89
G1 F1350 X95.903 Y88.549 E18.45249
G0 F3600 X96.469 Y88.549
G1 F1350 X93.809 Y85.89 E18.54631
G0 F3600 X94.375 Y85.89
G1 F1350 X97.034 Y88.549 E18.64011
G0 F3600 X97.6 Y88.549
G1 F1350 X94.941 Y85.89 E18.73392
G0 F3600 X95.506 Y85.89
G1 F1350 X98.166 Y88.549 E18.82774
G0 F3600 X98.731 Y88.549
G1 F1350 X96.072 Y85.89 E18.92154
G0 F3600 X96.638 Y85.89
G1 F1350 X99.297 Y88.549 E19.01534
G0 F3600 X99.863 Y88.549
G1 F1350 X97.203 Y85.89 E19.10916
G0 F3600 X97.769 Y85.89
G1 F1350 X100.428 Y88.549 E19.20297
G0 F3600 X100.994 Y88.549
G1 F1350 X98.335 Y85.89 E19.29677
G0 F3600 X98.9 Y85.89
G1 F1350 X101.56 Y88.549 E19.39059
G0 F3600 X102.126 Y88.549
G1 F1350 X99.466 Y85.89 E19.48441
G0 F3600 X100.032 Y85.89
G1 F1350 X102.691 Y88.549 E19.57822
G0 F3600 X103.257 Y88.549
G1 F1350 X100.597 Y85.89 E19.67204
G0 F3600 X101.163 Y85.89
G1 F1350 X103.823 Y88.549 E19.76586
G0 F3600 X104.388 Y88.549
G1 F1350 X101.729 Y85.89 E19.85966
G0 F3600 X102.295 Y85.89
G1 F1350 X104.954 Y88.549 E19.95347
G0 F3600 X105.52 Y88.549
G1 F1350 X102.86 Y85.89 E20.04729
G0 F3600 X103.426 Y85.89
G1 F1350 X106.085 Y88.549 E20.14109
G0 F3600 X106.651 Y88.549
G1 F1350 X103.992 Y85.89 E20.23489
G0 F3600 X104.557 Y85.89
G1 F1350 X107.217 Y88.549 E20.32871
G0 F3600 X107.782 Y88.549
G1 F1350 X105.123 Y85.89 E20.42252
G0 F3600 X105.689 Y85.89
G1 F1350 X108.348 Y88.549 E20.51632
G0 F3600 X108.914 Y88.549
G1 F1350 X106.254 Y85.89 E20.61014
G0 F3600 X106.82 Y85.89
G1 F1350 X109.479 Y88.549 E20.70395
G0 F3600 X110.045 Y88.549
G1 F1350 X107.386 Y85.89 E20.79775
G0 F3600 X107.951 Y85.89
G1 F1350 X110.611 Y88.549 E20.89157
G0 F3600 X111.176 Y88.549
G1 F1350 X108.517 Y85.89 E20.98537
G0 F3600 X109.083 Y85.89
G1 F1350 X111.742 Y88.549 E21.07918
G0 F3600 X112.308 Y88.549
G1 F1350 X109.648 Y85.89 E21.173
G0 F3600 X110.214 Y85.89
G1 F1350 X112.874 Y88.549 E21.26682
G0 F3600 X113.439 Y88.549
G1 F1350 X110.78 Y85.89 E21.36062
G0 F3600 X111.345 Y85.89
G1 F1350 X114.005 Y88.549 E21.45444
G0 F3600 X114.571 Y88.549
G1 F1350 X111.911 Y85.89 E21.54826
G0 F3600 X112.477 Y85.89
G1 F1350 X115.136 Y88.549 E21.64207
G0 F3600 X115.702 Y88.549
G1 F1350 X113.043 Y85.89 E21.73587
G0 F3600 X113.608 Y85.89
G1 F1350 X115.308 Y87.59 E21.79584
G0 F3600 X115.308 Y87.024
G1 F1350 X114.174 Y85.89 E21.83585
G0 F3600 X114.74 Y85.89
G1 F1350 X115.308 Y86.458 E21.85589
G1 X115.378 Y86.528
G0 F3600 X115.83 Y88.111
G1 F1350 X116.268 Y88.549 E21.87134
G0 F3600 X116.396 Y88.111
G1 F1350 X116.833 Y88.549 E21.88677
G0 F3600 X116.961 Y88.111
G1 F1350 X117.399 Y88.549 E21.90222
G0 F3600 X117.527 Y88.111
G1 F1350 X117.965 Y88.549 E21.91768
G0 F3600 X118.093 Y88.111
G1 F1350 X118.53 Y88.549 E21.93311
G0 F3600 X118.658 Y88.111
G1 F1350 X119.096 Y88.549 E21.94856
G0 F3600 X119.224 Y88.111
G1 F1350 X119.662 Y88.549 E21.96401
G0 F3600 X119.79 Y88.111
G1 F1350 X120.227 Y88.549 E21.97945
G0 F3600 X120.355 Y88.111
G1 F1350 X120.793 Y88.549 E21.9949
G0 F3600 X120.921 Y88.111
G1 F1350 X121.359 Y88.549 E22.01035
G0 F3600 X121.487 Y88.111
G1 F1350 X121.925 Y88.549 E22.0258
G0 F3600 X122.052 Y88.111
G1 F1350 X122.49 Y88.549 E22.04125
G0 F3600 X122.618 Y88.111
G1 F1350 X123.056 Y88.549 E22.0567
G0 F3600 X123.184 Y88.111
G1 F1350 X123.622 Y88.549 E22.07216
G0 F3600 X123.75 Y88.111
G1 F1350 X124.187 Y88.549 E22.08759
G0 F3600 X124.315 Y88.111
G1 F1350 X124.753 Y88.549 E22.10304
G0 F3600 X124.881 Y88.111
G1 F1350 X125.319 Y88.549 E22.11849
G0 F3600 X125.447 Y88.111
G1 F1350 X125.884 Y88.549 E22.13393
G0 F3600 X126.012 Y88.111
G1 F1350 X126.45 Y88.549 E22.14938
G0 F3600 X126.578 Y88.111
G1 F1350 X127.016 Y88.549 E22.16483
G0 F3600 X127.144 Y88.111
G1 F1350 X127.581 Y88.549 E22.18026
G0 F3600 X127.709 Y88.111
G1 F1350 X128.147 Y88.549 E22.19572
G0 F3600 X128.275 Y88.111
G1 F1350 X128.713 Y88.549 E22.21117
G0 F3600 X128.841 Y88.111
G1 F1350 X129.278 Y88.549 E22.2266
G0 F3600 X129.406 Y88.111
G1 F1350 X129.844 Y88.549 E22.24205
G0 F3600 X129.972 Y88.111
G1 F1350 X130.41 Y88.549 E22.25751
G0 F3600 X130.538 Y88.111
G1 F1350 X130.975 Y88.549 E22.27294
G0 F3600 X131.103 Y88.111
G1 F1350 X131.541 Y88.549 E22.28839
G0 F3600 X131.669 Y88.111
G1 F1350 X132.107 Y88.549 E22.30384
G0 F3600 X132.235 Y88.111
G1 F1350 X132.673 Y88.549 E22.31929
G0 F3600 X132.801 Y88.111
G1 F1350 X133.238 Y88.549 E22.33473
G0 F3600 X133.366 Y88.111
G1 F1350 X133.804 Y88.549 E22.35018
G0 F3600 X133.932 Y88.111
G1 F1350 X134.37 Y88.549 E22.36563
G0 F3600 X134.498 Y88.111
G1 F1350 X134.935 Y88.549 E22.38107
G0 F3600 X135.501 Y88.549
G1 F1350 X134.69 Y87.738 E22.40968
G0 F3600 X134.69 Y87.172
G1 F1350 X136.067 Y88.549 E22.45825
G0 F3600 X136.632 Y88.549
G1 F1350 X134.69 Y86.607 E22.52676
G0 F3600 X134.69 Y86.041
G1 F1350 X137.198 Y88.549 E22.61524
G0 F3600 X137.764 Y88.549
G1 F1350 X135.104 Y85.89 E22.70906
G0 F3600 X135.67 Y85.89
G1 F1350 X138.329 Y88.549 E22.80286
G0 F3600 X138.895 Y88.549
G1 F1350 X136.236 Y85.89 E22.89667
G0 F3600 X136.801 Y85.89
G1 F1350 X139.461 Y88.549 E22.99049
G0 F3600 X140.026 Y88.549
G1 F1350 X137.367 Y85.89 E23.08429
G0 F3600 X137.933 Y85.89
G1 F1350 X140.592 Y88.549 E23.17809
G0 F3600 X141.158 Y88.549
G1 F1350 X138.498 Y85.89 E23.27192
G0 F3600 X139.064 Y85.89
G1 F1350 X141.723 Y88.549 E23.36572
G0 F3600 X142.289 Y88.549
G1 F1350 X139.63 Y85.89 E23.45952
G0 F3600 X140.195 Y85.89
G1 F1350 X142.855 Y88.549 E23.55334
G0 F3600 X143.421 Y88.549
G1 F1350 X140.761 Y85.89 E23.64716
G0 F3600 X141.327 Y85.89
G1 F1350 X143.986 Y88.549 E23.74097
G0 F3600 X144.552 Y88.549
G1 F1350 X141.892 Y85.89 E23.83479
G0 F3600 X142.458 Y85.89
G1 F1350 X145.118 Y88.549 E23.92861
G0 F3600 X145.683 Y88.549
G1 F1350 X143.024 Y85.89 E24.02241
G0 F3600 X143.59 Y85.89
G1 F1350 X146.249 Y88.549 E24.11622
G0 F3600 X146.815 Y88.549
G1 F1350 X144.155 Y85.89 E24.21004
G0 F3600 X144.721 Y85.89
G1 F1350 X147.38 Y88.549 E24.30384
G0 F3600 X147.946 Y88.549
G1 F1350 X145.287 Y85.89 E24.39764
G0 F3600 X145.852 Y85.89
G1 F1350 X148.512 Y88.549 E24.49147
G0 F3600 X149.077 Y88.549
G1 F1350 X146.418 Y85.89 E24.58527
G0 F3600 X146.984 Y85.89
G1 F1350 X149.643 Y88.549 E24.67907
G0 F3600 X150.209 Y88.549
G1 F1350 X147.549 Y85.89 E24.77289
G0 F3600 X148.115 Y85.89
G1 F1350 X150.774 Y88.549 E24.8667
G0 F3600 X151.34 Y88.549
G1 F1350 X148.681 Y85.89 E24.9605
G0 F3600 X149.246 Y85.89
G1 F1350 X151.906 Y88.549 E25.05432
G0 F3600 X152.472 Y88.549
G1 F1350 X149.812 Y85.89 E25.14814
G0 F3600 X150.378 Y85.89
G1 F1350 X153.037 Y88.549 E25.24195
G0 F3600 X153.603 Y88.549
G1 F1350 X150.943 Y85.89 E25.33577
G0 F3600 X151.509 Y85.89
G1 F1350 X154.169 Y88.549 E25.42959
G0 F3600 X154.734 Y88.549
G1 F1350 X152.075 Y85.89 E25.52339
G0 F3600 X152.641 Y85.89
G1 F1350 X155.3 Y88.549 E25.61719
G0 F3600 X155.866 Y88.549
G1 F1350 X153.206 Y85.89 E25.71102
G0 F3600 X153.772 Y85.89
G1 F1350 X156.431 Y88.549 E25.80482
G0 F3600 X156.997 Y88.549
G1 F1350 X154.338 Y85.89 E25.89862
G0 F3600 X154.903 Y85.89
G1 F1350 X157.563 Y88.549 E25.99244
G0 F3600 X158.128 Y88.549
G1 F1350 X155.469 Y85.89 E26.08625
G0 F3600 X156.035 Y85.89
G1 F1350 X158.694 Y88.549 E26.18005
G0 F3600 X159.26 Y88.549
G1 F1350 X156.6 Y85.89 E26.27387
G0 F3600 X157.166 Y85.89
G1 F1350 X159.298 Y88.022 E26.34908
G0 F3600 X159.298 Y87.456
G1 F1350 X157.732 Y85.89 E26.40433
G0 F3600 X158.297 Y85.89
G1 F1350 X159.298 Y86.89 E26.43962
G0 F3600 X159.298 Y86.325
G1 F1350 X158.863 Y85.89 E26.45497
G1 F2100 E25.65497
G0 F3600 X115.809 Y89.1
G0 X115.809 Y90.896
G0 X115.809 Y93.168
G0 X115.879 Y93.098
;TYPE:WALL-INNER
G1 F2100 E26.45497
G1 F1350 X134.121 Y93.098 E26.91002
G1 X134.121 Y90.876 E26.96545
G1 X159.869 Y90.876 E27.60773
G1 X159.869 Y94.677 E27.70255
G1 X90.33 Y94.677 E29.43721
G1 X90.13 Y94.677 E29.4422
G1 X90.13 Y94.477 E29.44543
G1 X90.131 Y90.876 E29.53525
G1 X115.879 Y90.876 E30.17754
G1 X115.879 Y93.098 E30.23297
G0 F3600 X116.279 Y92.698
;TYPE:WALL-OUTER
G1 F1350 X133.721 Y92.698 E30.66806
G1 X133.721 Y90.476 E30.72349
G1 X160.269 Y90.476 E31.38573
G1 X160.269 Y95.077 E31.5005
G1 X89.93 Y95.077 E33.25512
G1 X89.73 Y95.077 E33.26011
G1 X89.73 Y94.877 E33.26334
G1 X89.731 Y90.476 E33.37312
G1 X116.279 Y90.476 E34.03536
G1 X116.279 Y92.698 E34.09079
G0 F3600 X116.479 Y92.698
G0 X116.479 Y93.198
G0 X115.489 Y93.488
;TYPE:SKIN
G1 F1350 X134.511 Y93.488 E34.5653
G1 X134.511 Y91.266 E34.62072
G1 X159.479 Y91.266 E35.24355
G1 X159.479 Y94.287 E35.31891
G1 X90.52 Y94.287 E37.0391
G1 X90.521 Y91.266 E37.11446
G1 X115.489 Y91.266 E37.73729
G1 X115.489 Y93.488 E37.79272
G0 F3600 X91.278 Y94.106
G1 F1350 X90.699 Y93.528 E37.81313
G0 F3600 X90.699 Y92.962
G1 F1350 X91.843 Y94.106 E37.85348
G0 F3600 X92.409 Y94.106
G1 F1350 X90.7 Y92.397 E37.91377
G0 F3600 X90.7 Y91.831
G1 F1350 X92.975 Y94.106 E37.99403
G0 F3600 X93.541 Y94.106
G1 F1350 X90.88 Y91.445 E38.0879
G0 F3600 X91.445 Y91.445
G1 F1350 X94.106 Y94.106 E38.18178
G0 F3600 X94.672 Y94.106
G1 F1350 X92.011 Y91.445 E38.27565
G0 F3600 X92.577 Y91.445
G1 F1350 X95.238 Y94.106 E38.36953
G0 F3600 X95.803 Y94.106
G1 F1350 X93.142 Y91.445 E38.4634
G0 F3600 X93.708 Y91.445
G1 F1350 X96.369 Y94.106 E38.55727
G0 F3600 X96.935 Y94.106
G1 F1350 X94.274 Y91.445 E38.65115
G0 F3600 X94.839 Y91.445
G1 F1350 X97.5 Y94.106 E38.74502
G0 F3600 X98.066 Y94.106
G1 F1350 X95.405 Y91.445 E38.8389
G0 F3600 X95.971 Y91.445
G1 F1350 X98.632 Y94.106 E38.93277
G0 F3600 X99.197 Y94.106
G1 F1350 X96.537 Y91.445 E39.02663
G0 F3600 X97.102 Y91.445
G1 F1350 X99.763 Y94.106 E39.1205
G0 F3600 X100.329 Y94.106
G1 F1350 X97.668 Y91.445 E39.21437
G0 F3600 X98.234 Y91.445
G1 F1350 X100.894 Y94.106 E39.30823
G0 F3600 X101.46 Y94.106
G1 F1350 X98.799 Y91.445 E39.4021
G0 F3600 X99.365 Y91.445
G1 F1350 X102.026 Y94.106 E39.49598
G0 F3600 X102.592 Y94.106
G1 F1350 X99.931 Y91.445 E39.58985
G0 F3600 X100.496 Y91.445
G1 F1350 X103.157 Y94.106 E39.68373
G0 F3600 X103.723 Y94.106
G1 F1350 X101.062 Y91.445 E39.7776
G0 F3600 X101.628 Y91.445
G1 F1350 X104.289 Y94.106 E39.87147
G0 F3600 X104.854 Y94.106
G1 F1350 X102.193 Y91.445 E39.96535
G0 F3600 X102.759 Y91.445
G1 F1350 X105.42 Y94.106 E40.05922
G0 F3600 X105.986 Y94.106
G1 F1350 X103.325 Y91.445 E40.1531
G0 F3600 X103.89 Y91.445
G1 F1350 X106.551 Y94.106 E40.24697
G0 F3600 X107.117 Y94.106
G1 F1350 X104.456 Y91.445 E40.34084
G0 F3600 X105.022 Y91.445
G1 F1350 X107.683 Y94.106 E40.43472
G0 F3600 X108.248 Y94.106
G1 F1350 X105.588 Y91.445 E40.52857
G0 F3600 X106.153 Y91.445
G1 F1350 X108.814 Y94.106 E40.62245
G0 F3600 X109.38 Y94.106
G1 F1350 X106.719 Y91.445 E40.71632
G0 F3600 X107.285 Y91.445
G1 F1350 X109.945 Y94.106 E40.81018
G0 F3600 X110.511 Y94.106
G1 F1350 X107.85 Y91.445 E40.90405
G0 F3600 X108.416 Y91.445
G1 F1350 X111.077 Y94.106 E40.99793
G0 F3600 X111.642 Y94.106
G1 F1350 X108.982 Y91.445 E41.09178
G0 F3600 X109.547 Y91.445
G1 F1350 X112.208 Y94.106 E41.18566
G0 F3600 X112.774 Y94.106
G1 F1350 X110.113 Y91.445 E41.27953
G0 F3600 X110.679 Y91.445
G1 F1350 X113.34 Y94.106 E41.3734
G0 F3600 X113.905 Y94.106
G1 F1350 X111.244 Y91.445 E41.46728
G0 F3600 X111.81 Y91.445
G1 F1350 X114.471 Y94.106 E41.56115
G0 F3600 X115.037 Y94.106
G1 F1350 X112.376 Y91.445 E41.65503
G0 F3600 X112.941 Y91.445
G1 F1350 X115.602 Y94.106 E41.7489
G0 F3600 X115.73 Y93.668
G1 F1350 X116.168 Y94.106 E41.76435
G0 F3600 X116.295 Y93.668
G1 F1350 X116.734 Y94.106 E41.77982
G0 F3600 X116.861 Y93.668
G1 F1350 X117.299 Y94.106 E41.79527
G0 F3600 X117.427 Y93.668
G1 F1350 X117.865 Y94.106 E41.81072
G0 F3600 X117.992 Y93.668
G1 F1350 X118.431 Y94.106 E41.82619
G0 F3600 X118.558 Y93.668
G1 F1350 X118.996 Y94.106 E41.84165
G0 F3600 X119.124 Y93.668
G1 F1350 X119.562 Y94.106 E41.8571
G0 F3600 X119.689 Y93.668
G1 F1350 X120.128 Y94.106 E41.87257
G0 F3600 X120.255 Y93.668
G1 F1350 X120.693 Y94.106 E41.88802
G0 F3600 X120.821 Y93.668
G1 F1350 X121.259 Y94.106 E41.90347
G0 F3600 X121.386 Y93.668
G1 F1350 X121.825 Y94.106 E41.91894
G0 F3600 X121.952 Y93.668
G1 F1350 X122.39 Y94.106 E41.93439
G0 F3600 X122.518 Y93.668
G1 F1350 X122.956 Y94.106 E41.94984
G0 F3600 X123.083 Y93.668
G1 F1350 X123.522 Y94.106 E41.96531
G0 F3600 X123.649 Y93.668
G1 F1350 X124.088 Y94.106 E41.98078
G0 F3600 X124.215 Y93.668
G1 F1350 X124.653 Y94.106 E41.99623
G0 F3600 X124.781 Y93.668
G1 F1350 X125.219 Y94.106 E42.01168
