;FLAVOR:Marlin
;TIME:5176
;Filament used: 5.5106m
;Layer height: 0.3
;Generated with Cura_SteamEngine 4.0.0
M82 ;absolute extrusion mode
G21 ; set units to millimeters
G90 ; use absolute positioning
M82 ; absolute extrusion mode
M104 S200 ; set extruder temp
M140 S60 ; set bed temp
M190 S60 ; wait for bed temp
M109 S200 ; wait for extruder temp
G28 W ; home all without mesh bed level
G80 ; mesh bed leveling
G92 E0.0 ; reset extruder distance position
G1 Y-3.0 F1000.0 ; go outside print area
G1 X60.0 E9.0 F1000.0 ; intro line
G1 X100.0 E21.5 F1000.0 ; intro line
G92 E0.0 ; reset extruder distance position
G92 E0
G1 F2100 E-0.8
;LAYER_COUNT:89
;LAYER:0
M107
G0 F3600 X87.285 Y85.253 Z0.15
;TYPE:SKIRT
G1 F2100 E0
G1 F1350 X87.67 Y84.926 E0.0126
G1 X88.103 Y84.664 E0.02523
G1 X88.571 Y84.474 E0.03782
G1 X89.064 Y84.359 E0.05045
G1 X89.538 Y84.324 E0.06231
G1 X160.46 Y84.31 E1.83147
G1 X160.964 Y84.35 E1.84408
G1 X161.456 Y84.469 E1.8567
G1 X161.922 Y84.663 E1.8693
G1 X162.353 Y84.929 E1.88193
G1 X162.735 Y85.259 E1.89452
G1 X163.062 Y85.645 E1.90714
G1 X163.323 Y86.078 E1.91975
G1 X163.513 Y86.547 E1.93238
G1 X163.626 Y87.039 E1.94497
G1 X163.661 Y87.51 E1.95675
G1 X163.66 Y109.537 E2.50622
G1 X163.652 Y109.765 E2.51191
G1 X162.108 Y131.341 E3.0515
G1 X162.099 Y131.445 E3.0541
G1 X161.434 Y137.823 E3.21407
G1 X161.342 Y138.32 E3.22667
G1 X161.173 Y138.796 E3.23927
G1 X160.931 Y139.24 E3.25189
G1 X160.622 Y139.64 E3.2645
G1 X160.253 Y139.987 E3.27713
G1 X159.835 Y140.271 E3.28974
G1 X159.378 Y140.486 E3.30234
G1 X158.892 Y140.626 E3.31495
G1 X158.249 Y140.691 E3.33107
G1 X91.736 Y140.658 E4.99025
G1 X91.232 Y140.618 E5.00286
G1 X90.741 Y140.499 E5.01546
G1 X90.275 Y140.304 E5.02806
G1 X89.845 Y140.038 E5.04068
G1 X89.462 Y139.707 E5.0533
G1 X89.136 Y139.321 E5.06591
G1 X88.875 Y138.888 E5.07852
G1 X88.686 Y138.419 E5.09113
G1 X88.555 Y137.788 E5.10721
G1 X87.888 Y131.358 E5.26847
G1 X87.879 Y131.257 E5.271
G1 X86.385 Y110.416 E5.79221
G1 X86.377 Y110.192 E5.7978
G1 X86.339 Y87.529 E6.36313
G1 X86.378 Y87.025 E6.37574
G1 X86.496 Y86.534 E6.38834
G1 X86.69 Y86.067 E6.40095
G1 X86.955 Y85.636 E6.41358
G1 X87.285 Y85.253 E6.42619
G1 F2100 E5.62619
;MESH:CORRECTED_X_Changer_Filler_Piece.stl
G0 F3600 X88.866 Y92.834
G0 X90.145 Y92.834
G0 X115.809 Y95.112
G0 X115.879 Y95.042
;TYPE:WALL-INNER
G1 F2100 E6.42619
G1 F1350 X134.121 Y95.042 E6.88123
G1 X134.121 Y92.82 E6.93666
G1 X159.869 Y92.82 E7.57895
G1 X159.869 Y96.62 E7.67374
G1 X90.131 Y96.62 E9.41336
G1 X90.131 Y92.82 E9.50815
G1 X115.879 Y92.82 E10.15044
G1 X115.879 Y95.042 E10.20587
G0 F3600 X116.279 Y94.642
;TYPE:WALL-OUTER
G1 F1350 X133.721 Y94.642 E10.64096
G1 X133.721 Y92.42 E10.69639
G1 X160.269 Y92.42 E11.35863
G1 X160.269 Y97.02 E11.47338
G1 X89.731 Y97.02 E13.23296
G1 X89.731 Y92.42 E13.3477
G1 X116.279 Y92.42 E14.00995
G1 X116.279 Y94.642 E14.06537
G0 F3600 X116.479 Y94.642
G0 X116.479 Y95.142
G0 X115.489 Y95.432
;TYPE:SKIN
G1 F1350 X134.511 Y95.432 E14.53988
G1 X134.511 Y93.21 E14.59531
G1 X159.479 Y93.21 E15.21814
G1 X159.479 Y96.23 E15.29347
G1 X90.521 Y96.23 E17.01364
G1 X90.521 Y93.21 E17.08897
G1 X115.489 Y93.21 E17.7118
G1 X115.489 Y95.432 E17.76723
G0 F3600 X90.957 Y96.049
G1 F1350 X90.7 Y95.791 E17.77631
G0 F3600 X90.7 Y95.226
G1 F1350 X91.523 Y96.049 E17.80534
G0 F3600 X92.089 Y96.049
G1 F1350 X90.7 Y94.66 E17.85435
G0 F3600 X90.7 Y94.094
G1 F1350 X92.655 Y96.049 E17.92331
G0 F3600 X93.22 Y96.049
G1 F1350 X90.7 Y93.529 E18.01221
G0 F3600 X91.126 Y93.389
G1 F1350 X93.786 Y96.049 E18.10605
G0 F3600 X94.352 Y96.049
G1 F1350 X91.692 Y93.389 E18.19989
G0 F3600 X92.258 Y93.389
G1 F1350 X94.917 Y96.049 E18.29371
G0 F3600 X95.483 Y96.049
G1 F1350 X92.824 Y93.389 E18.38753
G0 F3600 X93.389 Y93.389
G1 F1350 X96.049 Y96.049 E18.48137
G0 F3600 X96.614 Y96.049
G1 F1350 X93.955 Y93.389 E18.57519
G0 F3600 X94.521 Y93.389
G1 F1350 X97.18 Y96.049 E18.66901
G0 F3600 X97.746 Y96.049
G1 F1350 X95.086 Y93.389 E18.76285
G0 F3600 X95.652 Y93.389
G1 F1350 X98.311 Y96.049 E18.85667
G0 F3600 X98.877 Y96.049
G1 F1350 X96.218 Y93.389 E18.95049
G0 F3600 X96.783 Y93.389
G1 F1350 X99.443 Y96.049 E19.04433
G0 F3600 X100.008 Y96.049
G1 F1350 X97.349 Y93.389 E19.13815
G0 F3600 X97.915 Y93.389
G1 F1350 X100.574 Y96.049 E19.23197
G0 F3600 X101.14 Y96.049
G1 F1350 X98.48 Y93.389 E19.32581
G0 F3600 X99.046 Y93.389
G1 F1350 X101.705 Y96.049 E19.41963
G0 F3600 X102.271 Y96.049
G1 F1350 X99.612 Y93.389 E19.51346
G0 F3600 X100.177 Y93.389
G1 F1350 X102.837 Y96.049 E19.60729
G0 F3600 X103.403 Y96.049
G1 F1350 X100.743 Y93.389 E19.70113
G0 F3600 X101.309 Y93.389
G1 F1350 X103.968 Y96.049 E19.79495
G0 F3600 X104.534 Y96.049
G1 F1350 X101.874 Y93.389 E19.88879
G0 F3600 X102.44 Y93.389
G1 F1350 X105.1 Y96.049 E19.98263
G0 F3600 X105.665 Y96.049
G1 F1350 X103.006 Y93.389 E20.07645
G0 F3600 X103.572 Y93.389
G1 F1350 X106.231 Y96.049 E20.17027
G0 F3600 X106.797 Y96.049
G1 F1350 X104.137 Y93.389 E20.26411
G0 F3600 X104.703 Y93.389
G1 F1350 X107.362 Y96.049 E20.35793
G0 F3600 X107.928 Y96.049
G1 F1350 X105.269 Y93.389 E20.45175
G0 F3600 X105.834 Y93.389
G1 F1350 X108.494 Y96.049 E20.54559
G0 F3600 X109.059 Y96.049
G1 F1350 X106.4 Y93.389 E20.63941
G0 F3600 X106.966 Y93.389
G1 F1350 X109.625 Y96.049 E20.73324
G0 F3600 X110.191 Y96.049
G1 F1350 X107.531 Y93.389 E20.82707
G0 F3600 X108.097 Y93.389
G1 F1350 X110.756 Y96.049 E20.92089
G0 F3600 X111.322 Y96.049
G1 F1350 X108.663 Y93.389 E21.01472
G0 F3600 X109.228 Y93.389
G1 F1350 X111.888 Y96.049 E21.10855
G0 F3600 X112.454 Y96.049
G1 F1350 X109.794 Y93.389 E21.20239
G0 F3600 X110.36 Y93.389
G1 F1350 X113.019 Y96.049 E21.29621
G0 F3600 X113.585 Y96.049
G1 F1350 X110.925 Y93.389 E21.39005
G0 F3600 X111.491 Y93.389
G1 F1350 X114.151 Y96.049 E21.48389
G0 F3600 X114.716 Y96.049
G1 F1350 X112.057 Y93.389 E21.57771
G0 F3600 X112.623 Y93.389
G1 F1350 X115.282 Y96.049 E21.67153
G0 F3600 X115.411 Y95.612
G1 F1350 X115.848 Y96.049 E21.68695
G0 F3600 X115.976 Y95.612
G1 F1350 X116.413 Y96.049 E21.70237
G0 F3600 X116.542 Y95.612
G1 F1350 X116.979 Y96.049 E21.71778
G0 F3600 X117.108 Y95.612
G1 F1350 X117.545 Y96.049 E21.7332
G0 F3600 X117.673 Y95.612
G1 F1350 X118.11 Y96.049 E21.74862
G0 F3600 X118.239 Y95.612
G1 F1350 X118.676 Y96.049 E21.76403
G0 F3600 X118.805 Y95.612
G1 F1350 X119.242 Y96.049 E21.77945
G0 F3600 X119.37 Y95.612
G1 F1350 X119.807 Y96.049 E21.79486
G0 F3600 X119.936 Y95.612
G1 F1350 X120.373 Y96.049 E21.81028
G0 F3600 X120.502 Y95.612
G1 F1350 X120.939 Y96.049 E21.8257
G0 F3600 X121.067 Y95.612
G1 F1350 X121.504 Y96.049 E21.84111
G0 F3600 X121.633 Y95.612
G1 F1350 X122.07 Y96.049 E21.85653
G0 F3600 X122.199 Y95.612
G1 F1350 X122.636 Y96.049 E21.87195
G0 F3600 X122.765 Y95.612
G1 F1350 X123.202 Y96.049 E21.88736
G0 F3600 X123.33 Y95.612
G1 F1350 X123.767 Y96.049 E21.90278
G0 F3600 X123.896 Y95.612
G1 F1350 X124.333 Y96.049 E21.9182
G0 F3600 X124.462 Y95.612
G1 F1350 X124.899 Y96.049 E21.93361
G0 F3600 X125.027 Y95.612
G1 F1350 X125.465 Y96.049 E21.94905
G0 F3600 X125.593 Y95.612
G1 F1350 X126.031 Y96.049 E21.96448
G0 F3600 X126.159 Y95.612
G1 F1350 X126.596 Y96.049 E21.9799
G0 F3600 X126.724 Y95.612
G1 F1350 X127.162 Y96.049 E21.99533
G0 F3600 X127.29 Y95.612
G1 F1350 X127.728 Y96.049 E22.01076
G0 F3600 X127.856 Y95.612
G1 F1350 X128.293 Y96.049 E22.02618
G0 F3600 X128.421 Y95.612
G1 F1350 X128.859 Y96.049 E22.04161
G0 F3600 X128.987 Y95.612
G1 F1350 X129.425 Y96.049 E22.05705
G0 F3600 X129.553 Y95.612
G1 F1350 X129.99 Y96.049 E22.07246
G0 F3600 X130.118 Y95.612
G1 F1350 X130.556 Y96.049 E22.0879
G0 F3600 X130.684 Y95.612
G1 F1350 X131.122 Y96.049 E22.10333
G0 F3600 X131.25 Y95.612
G1 F1350 X131.688 Y96.049 E22.11877
G0 F3600 X131.816 Y95.612
G1 F1350 X132.253 Y96.049 E22.13418
G0 F3600 X132.381 Y95.612
G1 F1350 X132.819 Y96.049 E22.14962
G0 F3600 X132.947 Y95.612
G1 F1350 X133.385 Y96.049 E22.16505
G0 F3600 X133.513 Y95.612
G1 F1350 X133.95 Y96.049 E22.18047
G0 F3600 X134.078 Y95.612
G1 F1350 X134.516 Y96.049 E22.1959
G0 F3600 X134.644 Y95.612
G1 F1350 X135.082 Y96.049 E22.21134
G0 F3600 X135.647 Y96.049
G1 F1350 X134.69 Y95.092 E22.2451
G0 F3600 X134.69 Y94.526
G1 F1350 X136.213 Y96.049 E22.29882
G0 F3600 X136.779 Y96.049
G1 F1350 X134.69 Y93.961 E22.3725
G0 F3600 X134.69 Y93.395
G1 F1350 X137.344 Y96.049 E22.46613
G0 F3600 X137.91 Y96.049
G1 F1350 X135.251 Y93.39 E22.55993
G0 F3600 X135.816 Y93.39
G1 F1350 X138.476 Y96.049 E22.65375
G0 F3600 X139.041 Y96.049
G1 F1350 X136.382 Y93.39 E22.74756
G0 F3600 X136.948 Y93.39
G1 F1350 X139.607 Y96.049 E22.84136
G0 F3600 X140.173 Y96.049
G1 F1350 X137.513 Y93.39 E22.93518
G0 F3600 X138.079 Y93.39
G1 F1350 X140.738 Y96.049 E23.02898
G0 F3600 X141.304 Y96.049
G1 F1350 X138.645 Y93.39 E23.12279
G0 F3600 X139.21 Y93.39
G1 F1350 X141.87 Y96.049 E23.21661
G0 F3600 X142.436 Y96.049
G1 F1350 X139.776 Y93.39 E23.31043
G0 F3600 X140.342 Y93.39
G1 F1350 X143.001 Y96.049 E23.40423
G0 F3600 X143.567 Y96.049
G1 F1350 X140.907 Y93.39 E23.49805
G0 F3600 X141.473 Y93.39
G1 F1350 X144.133 Y96.049 E23.59188
G0 F3600 X144.698 Y96.049
G1 F1350 X142.039 Y93.39 E23.68568
G0 F3600 X142.605 Y93.39
G1 F1350 X145.264 Y96.049 E23.77948
G0 F3600 X145.83 Y96.049
G1 F1350 X143.17 Y93.39 E23.8733
G0 F3600 X143.736 Y93.39
G1 F1350 X146.395 Y96.049 E23.96711
G0 F3600 X146.961 Y96.049
G1 F1350 X144.302 Y93.39 E24.06091
G0 F3600 X144.867 Y93.39
G1 F1350 X147.527 Y96.049 E24.15473
G0 F3600 X148.092 Y96.049
G1 F1350 X145.433 Y93.39 E24.24853
G0 F3600 X145.999 Y93.39
G1 F1350 X148.658 Y96.049 E24.34234
G0 F3600 X149.224 Y96.049
G1 F1350 X146.564 Y93.39 E24.43616
G0 F3600 X147.13 Y93.39
G1 F1350 X149.789 Y96.049 E24.52996
G0 F3600 X150.355 Y96.049
G1 F1350 X147.696 Y93.39 E24.62377
G0 F3600 X148.261 Y93.39
G1 F1350 X150.921 Y96.049 E24.71759
G0 F3600 X151.487 Y96.049
G1 F1350 X148.827 Y93.39 E24.81141
G0 F3600 X149.393 Y93.39
G1 F1350 X152.052 Y96.049 E24.90521
G0 F3600 X152.618 Y96.049
G1 F1350 X149.958 Y93.39 E24.99903
G0 F3600 X150.524 Y93.39
G1 F1350 X153.184 Y96.049 E25.09285
G0 F3600 X153.749 Y96.049
G1 F1350 X151.09 Y93.39 E25.18666
G0 F3600 X151.656 Y93.39
G1 F1350 X154.315 Y96.049 E25.28046
G0 F3600 X154.881 Y96.049
G1 F1350 X152.221 Y93.39 E25.37428
G0 F3600 X152.787 Y93.39
G1 F1350 X155.446 Y96.049 E25.46808
G0 F3600 X156.012 Y96.049
G1 F1350 X153.353 Y93.39 E25.56189
G0 F3600 X153.918 Y93.39
G1 F1350 X156.578 Y96.049 E25.65571
G0 F3600 X157.143 Y96.049
G1 F1350 X154.484 Y93.39 E25.74951
G0 F3600 X155.05 Y93.39
G1 F1350 X157.709 Y96.049 E25.84332
G0 F3600 X158.275 Y96.049
G1 F1350 X155.615 Y93.39 E25.93714
G0 F3600 X156.181 Y93.39
G1 F1350 X158.84 Y96.049 E26.03094
G0 F3600 X159.298 Y95.941
G1 F1350 X156.747 Y93.39 E26.12093
G0 F3600 X157.312 Y93.39
G1 F1350 X159.298 Y95.375 E26.19098
G0 F3600 X159.298 Y94.81
G1 F1350 X157.878 Y93.39 E26.24107
G0 F3600 X158.444 Y93.39
G1 F1350 X159.298 Y94.244 E26.2712
G0 F3600 X159.298 Y93.678
G1 F1350 X159.009 Y93.39 E26.28138
G0 F3600 X134.149 Y95.07
G0 X115.851 Y95.07
G0 X115.308 Y93.812
G1 F1350 X114.885 Y93.389 E26.2963
G0 F3600 X114.32 Y93.389
G1 F1350 X115.308 Y94.378 E26.33117
G0 F3600 X115.308 Y94.943
G1 F1350 X113.754 Y93.389 E26.38599
G0 F3600 X113.188 Y93.389
G1 F1350 X115.308 Y95.509 E26.46078
G1 X115.378 Y95.579
G1 F2100 E25.66078
G0 F3600 X115.809 Y96.6
G0 X115.809 Y98.396
G0 X115.809 Y100.668
G0 X115.879 Y100.598
;TYPE:WALL-INNER
G1 F2100 E26.46078
G1 F1350 X134.121 Y100.598 E26.91583
G1 X134.121 Y98.376 E26.97126
G1 X159.869 Y98.376 E27.61354
G1 X159.87 Y101.977 E27.70337
G1 X159.87 Y102.177 E27.70836
G1 X159.67 Y102.177 E27.71159
G1 X90.33 Y102.177 E29.44128
G1 X90.13 Y102.177 E29.44627
G1 X90.13 Y101.977 E29.4495
G1 X90.131 Y98.376 E29.53933
G1 X115.879 Y98.376 E30.18162
G1 X115.879 Y100.598 E30.23705
G0 F3600 X116.279 Y100.198
;TYPE:WALL-OUTER
G1 F1350 X133.721 Y100.198 E30.67214
G1 X133.721 Y97.976 E30.72757
G1 X160.269 Y97.976 E31.38981
G1 X160.27 Y102.377 E31.49959
G1 X160.27 Y102.577 E31.50458
G1 X160.07 Y102.577 E31.50781
G1 X89.93 Y102.577 E33.25746
G1 X89.73 Y102.577 E33.26245
G1 X89.73 Y102.377 E33.26568
G1 X89.731 Y97.976 E33.37546
G1 X116.279 Y97.976 E34.03771
G1 X116.279 Y100.198 E34.09313
G0 F3600 X116.479 Y100.198
G0 X116.479 Y100.698
G0 X115.489 Y100.988
;TYPE:SKIN
G1 F1350 X134.511 Y100.988 E34.56764
G1 X134.511 Y98.766 E34.62307
G1 X159.479 Y98.766 E35.2459
G1 X159.48 Y101.787 E35.32126
G1 X90.52 Y101.787 E37.04147
G1 X90.521 Y98.766 E37.11683
G1 X115.489 Y98.766 E37.73966
G1 X115.489 Y100.988 E37.79509
G0 F3600 X90.858 Y101.606
G1 F1350 X90.699 Y101.447 E37.8007
G0 F3600 X90.699 Y100.882
G1 F1350 X91.423 Y101.606 E37.82624
G0 F3600 X91.989 Y101.606
G1 F1350 X90.699 Y100.316 E37.87175
G0 F3600 X90.699 Y99.75
G1 F1350 X92.555 Y101.606 E37.93722
G0 F3600 X93.121 Y101.606
G1 F1350 X90.699 Y99.185 E38.02265
G0 F3600 X91.026 Y98.946
G1 F1350 X93.686 Y101.606 E38.11648
G0 F3600 X94.252 Y101.606
G1 F1350 X91.592 Y98.946 E38.21032
G0 F3600 X92.157 Y98.946
G1 F1350 X94.818 Y101.606 E38.30418
G0 F3600 X95.383 Y101.606
G1 F1350 X92.723 Y98.946 E38.39802
G0 F3600 X93.289 Y98.946
G1 F1350 X95.949 Y101.606 E38.49186
G0 F3600 X96.515 Y101.606
G1 F1350 X93.854 Y98.946 E38.58571
G0 F3600 X94.42 Y98.946
G1 F1350 X97.08 Y101.606 E38.67955
G0 F3600 X97.646 Y101.606
G1 F1350 X94.986 Y98.946 E38.77339
G0 F3600 X95.552 Y98.946
G1 F1350 X98.212 Y101.606 E38.86723
G0 F3600 X98.777 Y101.606
G1 F1350 X96.117 Y98.946 E38.96107
G0 F3600 X96.683 Y98.946
G1 F1350 X99.343 Y101.606 E39.05491
G0 F3600 X99.909 Y101.606
G1 F1350 X97.249 Y98.946 E39.14875
G0 F3600 X97.814 Y98.946
G1 F1350 X100.474 Y101.606 E39.24258
G0 F3600 X101.04 Y101.606
G1 F1350 X98.38 Y98.946 E39.33642
G0 F3600 X98.946 Y98.946
G1 F1350 X101.606 Y101.606 E39.43026
G0 F3600 X102.171 Y101.606
G1 F1350 X99.511 Y98.946 E39.5241
G0 F3600 X100.077 Y98.946
G1 F1350 X102.737 Y101.606 E39.61794
G0 F3600 X103.303 Y101.606
G1 F1350 X100.643 Y98.946 E39.71178
G0 F3600 X101.208 Y98.946
G1 F1350 X103.869 Y101.606 E39.80563
G0 F3600 X104.434 Y101.606
G1 F1350 X101.774 Y98.946 E39.89947
G0 F3600 X102.34 Y98.946
G1 F1350 X105 Y101.606 E39.99331
G0 F3600 X105.566 Y101.606
G1 F1350 X102.905 Y98.946 E40.08717
G0 F3600 X103.471 Y98.946
G1 F1350 X106.131 Y101.606 E40.18101
G0 F3600 X106.697 Y101.606
G1 F1350 X104.037 Y98.946 E40.27485
G0 F3600 X104.603 Y98.946
G1 F1350 X107.263 Y101.606 E40.36868
G0 F3600 X107.828 Y101.606
G1 F1350 X105.168 Y98.946 E40.46252
G0 F3600 X105.734 Y98.946
G1 F1350 X108.394 Y101.606 E40.55636
G0 F3600 X108.96 Y101.606
G1 F1350 X106.3 Y98.946 E40.6502
G0 F3600 X106.865 Y98.946
G1 F1350 X109.525 Y101.606 E40.74404
G0 F3600 X110.091 Y101.606
G1 F1350 X107.431 Y98.946 E40.83788
G0 F3600 X107.997 Y98.946
G1 F1350 X110.657 Y101.606 E40.93172
G0 F3600 X111.222 Y101.606
G1 F1350 X108.562 Y98.946 E41.02555
G0 F3600 X109.128 Y98.946
G1 F1350 X111.788 Y101.606 E41.11939
G0 F3600 X112.354 Y101.606
G1 F1350 X109.694 Y98.946 E41.21323
G0 F3600 X110.259 Y98.946
G1 F1350 X112.92 Y101.606 E41.30709
G0 F3600 X113.485 Y101.606
G1 F1350 X110.825 Y98.946 E41.40093
G0 F3600 X111.391 Y98.946
G1 F1350 X114.051 Y101.606 E41.49477
G0 F3600 X114.617 Y101.606
G1 F1350 X111.956 Y98.946 E41.58862
G0 F3600 X112.522 Y98.946
G1 F1350 X115.182 Y101.606 E41.68246
G0 F3600 X115.748 Y101.606
G1 F1350 X115.31 Y101.167 E41.69793
G0 F3600 X115.308 Y101.166
G1 F1350 X113.088 Y98.946 E41.77625
G0 F3600 X113.653 Y98.946
G1 F1350 X115.308 Y100.6 E41.83461
G0 F3600 X115.308 Y100.035
G1 F1350 X114.219 Y98.946 E41.87303
G0 F3600 X114.785 Y98.946
G1 F1350 X115.308 Y99.469 E41.89148
G0 F3600 X115.875 Y101.167
G1 F1350 X116.314 Y101.606 E41.90697
G0 F3600 X116.441 Y101.167
G1 F1350 X116.879 Y101.606 E41.92244
G0 F3600 X117.007 Y101.167
G1 F1350 X117.445 Y101.606 E41.93791
G0 F3600 X117.572 Y101.167
G1 F1350 X118.011 Y101.606 E41.95339
G0 F3600 X118.138 Y101.167
G1 F1350 X118.576 Y101.606 E41.96886
G0 F3600 X118.704 Y101.167
G1 F1350 X119.142 Y101.606 E41.98433
G0 F3600 X119.269 Y101.167
G1 F1350 X119.708 Y101.606 E41.99982
G0 F3600 X119.835 Y101.167
G1 F1350 X120.273 Y101.606 E42.01529
G0 F3600 X120.401 Y101.167
G1 F1350 X120.839 Y101.606 E42.03076
