;FLAVOR:Marlin
;TIME:7576
;Filament used: 7.53375m
;Layer height: 0.2
;Generated with Cura_SteamEngine 3.6.0
M82 ;absolute extrusion mode
G21 ; set units to millimeters
G90 ; use absolute positioning
M82 ; absolute extrusion mode
M104 S200 ; set extruder temp
M140 S60 ; set bed temp
M190 S60 ; wait for bed temp
M109 S200 ; wait for extruder temp
G28 W ; home all without mesh bed level
G80 ; mesh bed leveling
G92 E0.0 ; reset extruder distance position
G1 Y-3.0 F1000.0 ; go outside print area
G1 X60.0 E9.0 F1000.0 ; intro line
G1 X100.0 E21.5 F1000.0 ; intro line
G92 E0.0 ; reset extruder distance position
G92 E0
G1 F2100 E-0.8
;LAYER_COUNT:151
;LAYER:0
M107
G0 F3600 X74.68 Y69.922 Z0.15
;TYPE:SKIRT
G1 F2100 E0
G1 F1800 X75.223 Y69.349 E0.01969
G1 X75.822 Y68.834 E0.0394
G1 X76.47 Y68.383 E0.05909
G1 X77.161 Y67.999 E0.07881
G1 X77.886 Y67.687 E0.0985
G1 X78.639 Y67.45 E0.11819
G1 X79.413 Y67.291 E0.1379
G1 X80.198 Y67.21 E0.15759
G1 X80.6 Y67.2 E0.16762
G1 X169.4 Y67.2 E2.38274
G1 X170.189 Y67.24 E2.40245
G1 X170.969 Y67.359 E2.42213
G1 X171.734 Y67.557 E2.44185
G1 X172.474 Y67.831 E2.46153
G1 X173.183 Y68.179 E2.48123
G1 X173.854 Y68.597 E2.50095
G1 X174.478 Y69.08 E2.52064
G1 X175.051 Y69.623 E2.54033
G1 X175.566 Y70.222 E2.56003
G1 X176.017 Y70.87 E2.57973
G1 X176.401 Y71.561 E2.59945
G1 X176.713 Y72.286 E2.61914
G1 X176.95 Y73.039 E2.63883
G1 X177.109 Y73.813 E2.65854
G1 X177.19 Y74.598 E2.67822
G1 X177.2 Y75 E2.68826
G1 X177.2 Y135 E4.18496
G1 X177.16 Y135.789 E4.20467
G1 X177.041 Y136.569 E4.22435
G1 X176.843 Y137.334 E4.24406
G1 X176.569 Y138.074 E4.26375
G1 X176.221 Y138.783 E4.28345
G1 X175.803 Y139.454 E4.30317
G1 X175.32 Y140.078 E4.32285
G1 X174.777 Y140.651 E4.34255
G1 X174.178 Y141.166 E4.36225
G1 X173.53 Y141.617 E4.38194
G1 X172.839 Y142.001 E4.40166
G1 X172.114 Y142.313 E4.42135
G1 X171.361 Y142.55 E4.44105
G1 X170.587 Y142.709 E4.46076
G1 X169.802 Y142.79 E4.48044
G1 X169.4 Y142.8 E4.49047
G1 X80.6 Y142.8 E6.7056
G1 X79.811 Y142.76 E6.7253
G1 X79.031 Y142.641 E6.74499
G1 X78.266 Y142.443 E6.7647
G1 X77.526 Y142.169 E6.78438
G1 X76.817 Y141.821 E6.80408
G1 X76.146 Y141.403 E6.82381
G1 X75.522 Y140.92 E6.84349
G1 X74.949 Y140.377 E6.86318
G1 X74.434 Y139.778 E6.88289
G1 X73.983 Y139.13 E6.90258
G1 X73.599 Y138.439 E6.9223
G1 X73.287 Y137.714 E6.94199
G1 X73.05 Y136.961 E6.96168
G1 X72.891 Y136.187 E6.98139
G1 X72.81 Y135.402 E7.00108
G1 X72.8 Y135 E7.01111
G1 X72.8 Y75 E8.50782
G1 X72.84 Y74.211 E8.52752
G1 X72.959 Y73.431 E8.5472
G1 X73.157 Y72.666 E8.56692
G1 X73.431 Y71.926 E8.5866
G1 X73.779 Y71.217 E8.6063
G1 X74.197 Y70.546 E8.62602
G1 X74.68 Y69.922 E8.64571
G0 F3600 X75.075 Y70.077
G1 F1800 X75.616 Y69.53 E8.6649
G1 X76.211 Y69.042 E8.68409
G1 X76.853 Y68.619 E8.70327
G1 X77.536 Y68.264 E8.72247
G1 X78.251 Y67.983 E8.74164
G1 X78.993 Y67.777 E8.76085
G1 X79.751 Y67.649 E8.78002
G1 X80.6 Y67.6 E8.80124
G1 X169.4 Y67.6 E11.01636
G1 X170.168 Y67.64 E11.03554
G1 X170.928 Y67.759 E11.05473
G1 X171.671 Y67.957 E11.07392
G1 X172.39 Y68.231 E11.09311
G1 X173.076 Y68.578 E11.11229
G1 X173.723 Y68.994 E11.13147
G1 X174.323 Y69.475 E11.15066
G1 X174.87 Y70.016 E11.16985
G1 X175.358 Y70.611 E11.18904
G1 X175.781 Y71.253 E11.20822
G1 X176.136 Y71.936 E11.22742
G1 X176.417 Y72.651 E11.24659
G1 X176.623 Y73.393 E11.2658
G1 X176.751 Y74.151 E11.28497
G1 X176.8 Y75 E11.30619
G1 X176.8 Y135 E12.80289
G1 X176.76 Y135.768 E12.82208
G1 X176.641 Y136.528 E12.84127
G1 X176.443 Y137.271 E12.86045
G1 X176.169 Y137.99 E12.87964
G1 X175.822 Y138.676 E12.89882
G1 X175.406 Y139.323 E12.91801
G1 X174.925 Y139.923 E12.93719
G1 X174.384 Y140.47 E12.95638
G1 X173.789 Y140.958 E12.97558
G1 X173.147 Y141.381 E12.99475
G1 X172.464 Y141.736 E13.01395
G1 X171.749 Y142.017 E13.03312
G1 X171.007 Y142.223 E13.05233
G1 X170.249 Y142.351 E13.0715
G1 X169.4 Y142.4 E13.09272
G1 X80.6 Y142.4 E15.30784
G1 X79.832 Y142.36 E15.32703
G1 X79.072 Y142.241 E15.34622
G1 X78.329 Y142.043 E15.3654
G1 X77.61 Y141.769 E15.38459
G1 X76.924 Y141.422 E15.40377
G1 X76.277 Y141.006 E15.42296
G1 X75.677 Y140.525 E15.44214
G1 X75.13 Y139.984 E15.46133
G1 X74.642 Y139.389 E15.48053
G1 X74.219 Y138.747 E15.4997
G1 X73.864 Y138.064 E15.51891
G1 X73.583 Y137.349 E15.53807
G1 X73.377 Y136.607 E15.55728
G1 X73.249 Y135.849 E15.57645
G1 X73.2 Y135 E15.59767
G1 X73.2 Y75 E17.09437
G1 X73.24 Y74.232 E17.11356
G1 X73.359 Y73.472 E17.13275
G1 X73.557 Y72.729 E17.15193
G1 X73.831 Y72.01 E17.17112
G1 X74.178 Y71.324 E17.1903
G1 X74.594 Y70.677 E17.20949
G1 X75.075 Y70.077 E17.22867
G0 F3600 X75.471 Y70.237
G1 F1800 X76.008 Y69.716 E17.24733
G1 X76.598 Y69.257 E17.26598
G1 X77.234 Y68.862 E17.28466
G1 X77.908 Y68.538 E17.30331
G1 X78.613 Y68.288 E17.32197
G1 X79.341 Y68.114 E17.34064
G1 X80.083 Y68.019 E17.3593
G1 X80.6 Y68 E17.37221
G1 X169.4 Y68 E19.58733
G1 X170.147 Y68.04 E19.60599
G1 X170.885 Y68.159 E19.62464
G1 X171.607 Y68.357 E19.64332
G1 X172.303 Y68.63 E19.66197
G1 X172.966 Y68.977 E19.68063
G1 X173.589 Y69.392 E19.69931
G1 X174.163 Y69.871 E19.71795
G1 X174.684 Y70.408 E19.73662
G1 X175.143 Y70.998 E19.75527
G1 X175.538 Y71.634 E19.77394
G1 X175.862 Y72.308 E19.7926
G1 X176.112 Y73.013 E19.81126
G1 X176.286 Y73.741 E19.82993
G1 X176.381 Y74.483 E19.84859
G1 X176.4 Y75 E19.86149
G1 X176.4 Y135 E21.3582
G1 X176.36 Y135.747 E21.37686
G1 X176.241 Y136.485 E21.39551
G1 X176.043 Y137.207 E21.41418
G1 X175.77 Y137.903 E21.43283
G1 X175.423 Y138.566 E21.4515
G1 X175.008 Y139.189 E21.47017
G1 X174.529 Y139.763 E21.48882
G1 X173.992 Y140.284 E21.50748
G1 X173.402 Y140.743 E21.52613
G1 X172.766 Y141.138 E21.54481
G1 X172.092 Y141.462 E21.56346
G1 X171.387 Y141.712 E21.58212
G1 X170.659 Y141.886 E21.60079
G1 X169.917 Y141.981 E21.61945
G1 X169.4 Y142 E21.63236
G1 X80.6 Y142 E23.84748
G1 X79.853 Y141.96 E23.86614
G1 X79.115 Y141.841 E23.88479
G1 X78.393 Y141.643 E23.90347
G1 X77.697 Y141.37 E23.92212
G1 X77.034 Y141.023 E23.94078
G1 X76.411 Y140.608 E23.95946
G1 X75.837 Y140.129 E23.97811
G1 X75.316 Y139.592 E23.99677
G1 X74.857 Y139.002 E24.01542
G1 X74.462 Y138.366 E24.03409
G1 X74.138 Y137.692 E24.05275
G1 X73.888 Y136.987 E24.07141
G1 X73.714 Y136.259 E24.09008
G1 X73.619 Y135.517 E24.10874
G1 X73.6 Y135 E24.12164
G1 X73.6 Y75 E25.61835
G1 X73.64 Y74.253 E25.63701
G1 X73.759 Y73.515 E25.65566
G1 X73.957 Y72.793 E25.67433
G1 X74.23 Y72.097 E25.69298
G1 X74.577 Y71.434 E25.71165
G1 X74.992 Y70.811 E25.73032
G1 X75.471 Y70.237 E25.74897
G0 F3600 X75.389 Y70.95
G1 F1800 X75.865 Y70.402 E25.76708
G1 X76.399 Y69.909 E25.78521
G1 X76.984 Y69.479 E25.80332
G1 X77.613 Y69.115 E25.82145
G1 X78.278 Y68.822 E25.83957
G1 X78.971 Y68.604 E25.8577
G1 X79.683 Y68.464 E25.8758
G1 X80.6 Y68.4 E25.89873
G1 X169.4 Y68.4 E28.11385
G1 X170.125 Y68.44 E28.13197
G1 X170.842 Y68.559 E28.1501
G1 X171.541 Y68.757 E28.16822
G1 X172.214 Y69.03 E28.18634
G1 X172.853 Y69.375 E28.20445
G1 X173.45 Y69.789 E28.22257
G1 X173.998 Y70.265 E28.24068
G1 X174.491 Y70.799 E28.25881
G1 X174.921 Y71.384 E28.27692
G1 X175.285 Y72.013 E28.29505
G1 X175.578 Y72.678 E28.31318
G1 X175.796 Y73.371 E28.3313
G1 X175.936 Y74.083 E28.3494
G1 X176 Y75 E28.37233
G1 X176 Y135 E29.86904
G1 X175.96 Y135.725 E29.88715
G1 X175.841 Y136.442 E29.90528
G1 X175.643 Y137.141 E29.9234
G1 X175.37 Y137.814 E29.94152
G1 X175.025 Y138.453 E29.95963
G1 X174.611 Y139.05 E29.97776
G1 X174.135 Y139.598 E29.99586
G1 X173.601 Y140.091 E30.01399
G1 X173.016 Y140.521 E30.0321
G1 X172.387 Y140.885 E30.05023
G1 X171.722 Y141.178 E30.06836
G1 X171.029 Y141.396 E30.08648
G1 X170.317 Y141.536 E30.10458
G1 X169.4 Y141.6 E30.12751
G1 X80.6 Y141.6 E32.34264
G1 X79.875 Y141.56 E32.36075
G1 X79.158 Y141.441 E32.37888
G1 X78.459 Y141.243 E32.397
G1 X77.786 Y140.97 E32.41512
G1 X77.147 Y140.625 E32.43323
G1 X76.55 Y140.211 E32.45136
G1 X76.002 Y139.735 E32.46946
G1 X75.509 Y139.201 E32.48759
G1 X75.079 Y138.616 E32.5057
G1 X74.715 Y137.987 E32.52383
G1 X74.422 Y137.322 E32.54196
G1 X74.204 Y136.629 E32.56008
G1 X74.064 Y135.917 E32.57818
G1 X74 Y135 E32.60111
G1 X74 Y75 E34.09782
G1 X74.04 Y74.275 E34.11593
G1 X74.159 Y73.558 E34.13406
G1 X74.357 Y72.859 E34.15218
G1 X74.63 Y72.186 E34.1703
G1 X74.975 Y71.547 E34.18842
G1 X75.389 Y70.95 E34.20654
G0 F3600 X75.785 Y71.094
G1 F1800 X76.259 Y70.573 E34.22411
G1 X76.789 Y70.109 E34.24168
G1 X77.368 Y69.709 E34.25924
G1 X77.989 Y69.377 E34.2768
G1 X78.643 Y69.117 E34.29436
G1 X79.323 Y68.933 E34.31193
G1 X80.019 Y68.827 E34.32949
G1 X80.6 Y68.8 E34.344
G1 X169.4 Y68.8 E36.55913
G1 X170.103 Y68.84 E36.57669
G1 X170.797 Y68.959 E36.59425
G1 X171.472 Y69.157 E36.6118
G1 X172.121 Y69.429 E36.62936
G1 X172.735 Y69.774 E36.64692
G1 X173.306 Y70.185 E36.66447
G1 X173.827 Y70.659 E36.68204
G1 X174.291 Y71.189 E36.69962
G1 X174.691 Y71.768 E36.71717
G1 X175.023 Y72.389 E36.73474
G1 X175.283 Y73.043 E36.75229
G1 X175.467 Y73.723 E36.76987
G1 X175.573 Y74.419 E36.78743
G1 X175.6 Y75 E36.80194
G1 X175.6 Y135 E38.29864
G1 X175.56 Y135.703 E38.31621
G1 X175.441 Y136.397 E38.33377
G1 X175.243 Y137.072 E38.35132
G1 X174.971 Y137.721 E38.36887
G1 X174.626 Y138.335 E38.38644
G1 X174.215 Y138.906 E38.40399
G1 X173.741 Y139.427 E38.42156
G1 X173.211 Y139.891 E38.43913
G1 X172.632 Y140.291 E38.45669
G1 X172.011 Y140.623 E38.47425
G1 X171.357 Y140.883 E38.49181
G1 X170.677 Y141.067 E38.50938
G1 X169.981 Y141.173 E38.52694
G1 X169.4 Y141.2 E38.54145
G1 X80.6 Y141.2 E40.75658
G1 X79.897 Y141.16 E40.77414
G1 X79.203 Y141.041 E40.79171
G1 X78.528 Y140.843 E40.80925
G1 X77.879 Y140.571 E40.82681
G1 X77.265 Y140.226 E40.84438
G1 X76.694 Y139.815 E40.86193
G1 X76.173 Y139.341 E40.8795
G1 X75.709 Y138.811 E40.89707
G1 X75.309 Y138.232 E40.91462
G1 X74.977 Y137.611 E40.93219
G1 X74.717 Y136.957 E40.94974
G1 X74.533 Y136.277 E40.96732
G1 X74.427 Y135.581 E40.98488
G1 X74.4 Y135 E40.99939
G1 X74.4 Y75 E42.49609
G1 X74.44 Y74.297 E42.51366
G1 X74.559 Y73.603 E42.53122
G1 X74.757 Y72.928 E42.54877
G1 X75.029 Y72.279 E42.56632
G1 X75.374 Y71.665 E42.58389
G1 X75.785 Y71.094 E42.60144
G0 F3600 X76.182 Y71.242
G1 F1800 X76.653 Y70.751 E42.61841
G1 X77.178 Y70.317 E42.63541
G1 X77.75 Y69.948 E42.65239
G1 X78.362 Y69.649 E42.66938
G1 X79.004 Y69.424 E42.68635
G1 X79.669 Y69.275 E42.70335
G1 X80.6 Y69.2 E42.72665
G1 X169.4 Y69.2 E44.94177
G1 X170.08 Y69.24 E44.95876
G1 X170.75 Y69.359 E44.97574
G1 X171.402 Y69.556 E44.99273
G1 X172.026 Y69.828 E45.00971
G1 X172.614 Y70.172 E45.0267
G1 X173.158 Y70.582 E45.04369
G1 X173.649 Y71.053 E45.06067
G1 X174.083 Y71.578 E45.07766
G1 X174.452 Y72.15 E45.09464
G1 X174.751 Y72.762 E45.11163
G1 X174.976 Y73.404 E45.1286
G1 X175.125 Y74.069 E45.1456
G1 X175.2 Y75 E45.1689
G1 X175.2 Y135 E46.6656
G1 X175.16 Y135.68 E46.6826
G1 X175.041 Y136.35 E46.69957
G1 X174.844 Y137.002 E46.71656
G1 X174.572 Y137.626 E46.73354
G1 X174.228 Y138.214 E46.75054
G1 X173.818 Y138.758 E46.76753
G1 X173.347 Y139.249 E46.7845
G1 X172.822 Y139.683 E46.80149
G1 X172.25 Y140.052 E46.81847
G1 X171.638 Y140.351 E46.83546
G1 X170.996 Y140.576 E46.85243
G1 X170.331 Y140.725 E46.86943
G1 X169.4 Y140.8 E46.89273
G1 X80.6 Y140.8 E49.10786
G1 X79.92 Y140.76 E49.12485
G1 X79.25 Y140.641 E49.14182
G1 X78.598 Y140.444 E49.15881
G1 X77.974 Y140.172 E49.17579
G1 X77.386 Y139.828 E49.19279
G1 X76.842 Y139.418 E49.20978
G1 X76.351 Y138.947 E49.22675
G1 X75.917 Y138.422 E49.24374
G1 X75.548 Y137.85 E49.26072
G1 X75.249 Y137.238 E49.27772
G1 X75.024 Y136.596 E49.29468
G1 X74.875 Y135.931 E49.31168
G1 X74.8 Y135 E49.33498
G1 X74.8 Y75 E50.83169
G1 X74.84 Y74.32 E50.84868
G1 X74.959 Y73.65 E50.86566
G1 X75.156 Y72.998 E50.88265
G1 X75.428 Y72.374 E50.89963
G1 X75.772 Y71.786 E50.91662
G1 X76.182 Y71.242 E50.93361
G0 F3600 X76.578 Y71.397
G1 F1800 X77.045 Y70.935 E50.95
G1 X77.565 Y70.534 E50.96638
G1 X78.129 Y70.198 E50.98276
G1 X78.731 Y69.934 E50.99915
G1 X79.36 Y69.744 E51.01555
G1 X80.007 Y69.633 E51.03192
G1 X80.6 Y69.6 E51.04674
G1 X169.4 Y69.6 E53.26186
G1 X170.056 Y69.64 E53.27826
G1 X170.702 Y69.759 E53.29464
G1 X171.329 Y69.956 E53.31104
G1 X171.927 Y70.228 E53.32742
G1 X172.488 Y70.57 E53.34381
G1 X173.003 Y70.978 E53.3602
G1 X173.465 Y71.445 E53.37659
G1 X173.866 Y71.965 E53.39297
G1 X174.202 Y72.529 E53.40935
G1 X174.466 Y73.131 E53.42574
G1 X174.656 Y73.76 E53.44213
G1 X174.767 Y74.407 E53.45851
G1 X174.8 Y75 E53.47332
G1 X174.8 Y135 E54.97003
G1 X174.76 Y135.656 E54.98643
G1 X174.641 Y136.302 E55.00281
G1 X174.444 Y136.929 E55.01921
G1 X174.172 Y137.527 E55.03559
G1 X173.83 Y138.088 E55.05198
G1 X173.422 Y138.603 E55.06837
G1 X172.955 Y139.065 E55.08476
G1 X172.435 Y139.466 E55.10114
G1 X171.871 Y139.802 E55.11752
G1 X171.269 Y140.066 E55.13391
G1 X170.64 Y140.256 E55.1503
G1 X169.993 Y140.367 E55.16668
G1 X169.4 Y140.4 E55.18149
G1 X80.6 Y140.4 E57.39662
G1 X79.944 Y140.36 E57.41301
G1 X79.298 Y140.241 E57.4294
G1 X78.671 Y140.044 E57.44579
G1 X78.073 Y139.772 E57.46218
G1 X77.512 Y139.43 E57.47857
G1 X76.997 Y139.022 E57.49496
G1 X76.535 Y138.555 E57.51135
G1 X76.134 Y138.035 E57.52773
G1 X75.798 Y137.471 E57.5441
G1 X75.534 Y136.869 E57.5605
G1 X75.344 Y136.24 E57.57689
G1 X75.233 Y135.593 E57.59327
G1 X75.2 Y135 E57.60808
G1 X75.2 Y75 E59.10479
G1 X75.24 Y74.344 E59.12118
G1 X75.359 Y73.698 E59.13757
G1 X75.556 Y73.071 E59.15396
G1 X75.828 Y72.473 E59.17035
G1 X76.17 Y71.912 E59.18674
G1 X76.578 Y71.397 E59.20313
G0 F3600 X76.973 Y71.559
G1 F1800 X77.436 Y71.129 E59.21889
G1 X77.95 Y70.76 E59.23468
G1 X78.506 Y70.46 E59.25044
G1 X79.095 Y70.232 E59.26619
G1 X79.709 Y70.08 E59.28197
G1 X80.6 Y70 E59.30429
G1 X169.4 Y70 E61.51941
G1 X170.031 Y70.04 E61.53518
G1 X170.652 Y70.159 E61.55096
G1 X171.252 Y70.356 E61.56671
G1 X171.824 Y70.627 E61.5825
G1 X172.356 Y70.967 E61.59825
G1 X172.841 Y71.373 E61.61403
G1 X173.271 Y71.836 E61.62979
G1 X173.64 Y72.35 E61.64557
G1 X173.94 Y72.906 E61.66133
G1 X174.168 Y73.495 E61.67709
G1 X174.32 Y74.109 E61.69286
G1 X174.4 Y75 E61.71518
G1 X174.4 Y135 E63.21189
G1 X174.36 Y135.631 E63.22766
G1 X174.241 Y136.252 E63.24343
G1 X174.044 Y136.852 E63.25918
G1 X173.773 Y137.424 E63.27497
G1 X173.433 Y137.956 E63.29072
G1 X173.027 Y138.441 E63.3065
G1 X172.564 Y138.871 E63.32226
G1 X172.05 Y139.24 E63.33805
G1 X171.494 Y139.54 E63.35381
G1 X170.905 Y139.768 E63.36956
G1 X170.291 Y139.92 E63.38534
G1 X169.4 Y140 E63.40766
G1 X80.6 Y140 E65.62278
G1 X79.969 Y139.96 E65.63855
G1 X79.348 Y139.841 E65.65432
G1 X78.748 Y139.644 E65.67008
G1 X78.176 Y139.373 E65.68587
G1 X77.644 Y139.033 E65.70162
G1 X77.159 Y138.627 E65.71739
G1 X76.729 Y138.164 E65.73316
G1 X76.36 Y137.65 E65.74894
G1 X76.06 Y137.094 E65.7647
G1 X75.832 Y136.505 E65.78045
G1 X75.68 Y135.891 E65.79623
G1 X75.6 Y135 E65.81855
G1 X75.6 Y75 E67.31526
G1 X75.64 Y74.369 E67.33103
G1 X75.759 Y73.748 E67.3468
G1 X75.956 Y73.148 E67.36255
G1 X76.227 Y72.576 E67.37834
G1 X76.567 Y72.044 E67.39409
G1 X76.973 Y71.559 E67.40987
G0 F3600 X76.965 Y72.181
G1 F1800 X77.367 Y71.728 E67.42498
G1 X77.825 Y71.331 E67.4401
G1 X78.332 Y70.998 E67.45523
G1 X78.878 Y70.734 E67.47036
G1 X79.454 Y70.545 E67.48548
G1 X80.05 Y70.433 E67.50061
G1 X80.6 Y70.4 E67.51435
G1 X169.4 Y70.4 E69.72948
G1 X170.005 Y70.44 E69.7446
G1 X170.599 Y70.559 E69.75971
G1 X171.173 Y70.755 E69.77484
G1 X171.716 Y71.026 E69.78998
G1 X172.219 Y71.365 E69.80511
G1 X172.672 Y71.767 E69.82022
G1 X173.069 Y72.225 E69.83534
G1 X173.402 Y72.732 E69.85047
G1 X173.666 Y73.278 E69.8656
G1 X173.855 Y73.854 E69.88072
G1 X173.967 Y74.45 E69.89585
G1 X174 Y75 E69.90959
G1 X174 Y135 E71.4063
G1 X173.96 Y135.605 E71.42142
G1 X173.841 Y136.199 E71.43654
G1 X173.645 Y136.773 E71.45167
G1 X173.374 Y137.316 E71.4668
G1 X173.035 Y137.819 E71.48194
G1 X172.633 Y138.272 E71.49704
G1 X172.175 Y138.669 E71.51216
G1 X171.668 Y139.002 E71.52729
G1 X171.122 Y139.266 E71.54242
G1 X170.546 Y139.455 E71.55755
G1 X169.95 Y139.567 E71.57267
G1 X169.4 Y139.6 E71.58642
G1 X80.6 Y139.6 E73.80154
G1 X79.995 Y139.56 E73.81667
G1 X79.401 Y139.441 E73.83178
G1 X78.827 Y139.245 E73.84691
G1 X78.284 Y138.974 E73.86205
G1 X77.781 Y138.635 E73.87718
G1 X77.328 Y138.233 E73.89229
G1 X76.931 Y137.775 E73.90741
