; generated by Slic3r Prusa Edition 1.41.3+ on 2019-03-26 at 15:00:57

; 

; external perimeters extrusion width = 0.45mm
; perimeters extrusion width = 0.45mm
; infill extrusion width = 0.45mm
; solid infill extrusion width = 0.45mm
; top infill extrusion width = 0.40mm
; first layer extrusion width = 0.42mm

M73 P0 R25
M73 Q0 S26
M201 X1000 Y1000 Z1000 E5000 ; sets maximum accelerations, mm/sec^2
M203 X200 Y200 Z12 E120 ; sets maximum feedrates, mm/sec
M204 P1250 R1250 T1250 ; sets acceleration (P, T) and retract acceleration (R), mm/sec^2
M205 X8.00 Y8.00 Z0.40 E1.50 ; sets the jerk limits, mm/sec
M205 S0 T0 ; sets the minimum extruding and travel feed rate, mm/sec
M107
M115 U3.6.0 ; tell printer latest fw version
M83  ; extruder relative mode
M104 S220 ; set extruder temp
M140 S65 ; set bed temp
M190 S65 ; wait for bed temp
M109 S220 ; wait for extruder temp
G28 W ; home all without mesh bed level
G80 ; mesh bed leveling
G1 Y-3.0 F1000.0 ; go outside print area
G92 E0.0
G1 X60.0 E9.0  F1000.0 ; intro line
M73 Q0 S25
M73 P0 R25
G1 X100.0 E12.5  F1000.0 ; intro line
G92 E0.0
M221 S95
M900 K30; Filament gcode
G21 ; set units to millimeters
G90 ; use absolute coordinates
M83 ; use relative distances for extrusion
;BEFORE_LAYER_CHANGE
G92 E0.0
;0.2


G1 E-0.80000 F2100.00000
G1 Z0.600 F10800.000
;AFTER_LAYER_CHANGE
;0.2
G1 X149.838 Y84.524
G1 Z0.200
G1 E0.80000 F2100.00000
M204 S1000
G1 F1200
G1 X157.404 Y88.867 E0.27354
G1 X158.533 Y89.593 E0.04208
G1 X160.611 Y91.268 E0.08369
G1 X162.414 Y93.202 E0.08289
G1 X163.940 Y95.391 E0.08369
G1 X168.262 Y102.892 E0.27145
G1 X168.437 Y103.728 E0.02676
G1 X168.435 Y106.341 E0.08195
G1 X168.300 Y107.012 E0.02146
G1 X163.599 Y115.159 E0.29490
G1 X162.426 Y116.784 E0.06285
G1 X161.085 Y118.274 E0.06285
G1 X159.605 Y119.604 E0.06239
G1 X157.974 Y120.781 E0.06308
G1 X150.157 Y125.327 E0.28352
G1 X149.617 Y125.545 E0.01828
G1 X149.144 Y125.612 E0.01498
G1 X103.747 Y127.013 E1.42405
G1 X101.546 Y126.920 E0.06909
G1 X99.386 Y126.611 E0.06840
G1 X97.877 Y126.263 E0.04855
G1 X95.808 Y125.597 E0.06817
G1 X94.399 Y125.009 E0.04788
G1 X92.463 Y124.002 E0.06839
G1 X90.637 Y122.809 E0.06840
G1 X89.417 Y121.855 E0.04855
G1 X87.839 Y120.392 E0.06748
G1 X86.796 Y119.247 E0.04856
G1 X85.468 Y117.517 E0.06839
G1 X84.318 Y115.663 E0.06840
G1 X83.616 Y114.283 E0.04855
G1 X82.795 Y112.262 E0.06840
G1 X82.344 Y110.811 E0.04765
G1 X81.873 Y108.681 E0.06839
G1 X81.616 Y106.515 E0.06840
G1 X81.563 Y104.997 E0.04763
G1 X81.671 Y102.821 E0.06829
G1 X81.879 Y101.283 E0.04868
G1 X82.353 Y99.158 E0.06827
G1 X82.998 Y97.186 E0.06504
G1 X83.641 Y95.664 E0.05180
G1 X84.650 Y93.759 E0.06760
G1 X85.487 Y92.456 E0.04855
G1 X86.817 Y90.727 E0.06840
G1 X87.842 Y89.605 E0.04765
G1 X89.442 Y88.124 E0.06839
G1 X91.182 Y86.808 E0.06840
G1 X92.466 Y85.996 E0.04763
G1 X94.399 Y84.991 E0.06829
G1 X95.832 Y84.394 E0.04868
G1 X97.909 Y83.729 E0.06839
G1 X100.042 Y83.272 E0.06840
G1 X101.578 Y83.078 E0.04855
G1 X103.747 Y82.987 E0.06806
G1 X149.145 Y84.388 E1.42411
G1 X149.779 Y84.513 E0.02025
; PURGING FINISHED
G1 F8640
G1 X152.637 Y86.145 E-0.76000
G1 E-0.04000 F2100.00000
G1 Z0.800 F10800.000
G1 X121.486 Y97.000
G1 Z0.200
G1 E0.80000 F2100.00000
G1 F1200
G1 X121.967 Y98.181 E0.03999
G1 X122.398 Y99.476 E0.04276
G1 X122.572 Y100.107 E0.02055
G1 X122.858 Y101.396 E0.04138
G1 X123.050 Y102.657 E0.03999
G1 X123.167 Y104.010 E0.04259
G1 X123.189 Y105.330 E0.04138
G1 X123.122 Y106.647 E0.04138
G1 X123.056 Y107.300 E0.02055
G1 X122.857 Y108.606 E0.04143
G1 X122.726 Y109.248 E0.02055
G1 X122.397 Y110.526 E0.04138
G1 X121.997 Y111.737 E0.03999
G1 X121.746 Y112.391 E0.02194
G1 X121.207 Y113.597 E0.04142
G1 X120.592 Y114.758 E0.04121
G1 X119.896 Y115.882 E0.04143
G1 X119.524 Y116.421 E0.02055
G1 X118.718 Y117.469 E0.04143
G1 X118.293 Y117.968 E0.02055
G1 X117.388 Y118.928 E0.04138
G1 X116.453 Y119.796 E0.03999
G1 X115.918 Y120.246 E0.02194
G1 X114.863 Y121.042 E0.04142
G1 X114.321 Y121.411 E0.02055
G1 X113.230 Y122.074 E0.04005
G1 X112.025 Y122.702 E0.04259
G1 X110.816 Y123.230 E0.04138
G1 X109.574 Y123.676 E0.04138
G1 X108.946 Y123.866 E0.02055
G1 X107.707 Y124.174 E0.04005
G1 X107.020 Y124.310 E0.02194
G1 X105.713 Y124.498 E0.04142
G1 X105.060 Y124.559 E0.02055
G1 X103.784 Y124.613 E0.04005
G1 X103.082 Y124.609 E0.02200
G1 X102.426 Y124.581 E0.02060
G1 X101.110 Y124.459 E0.04143
G1 X100.461 Y124.366 E0.02055
G1 X99.164 Y124.112 E0.04143
G1 X98.528 Y123.954 E0.02055
G1 X97.263 Y123.571 E0.04143
G1 X96.646 Y123.350 E0.02055
G1 X95.469 Y122.860 E0.03999
G1 X94.248 Y122.255 E0.04271
G1 X93.147 Y121.612 E0.03999
G1 X92.561 Y121.230 E0.02194
G1 X91.528 Y120.478 E0.04004
G1 X90.486 Y119.607 E0.04259
G1 X89.532 Y118.693 E0.04143
G1 X89.082 Y118.216 E0.02055
G1 X88.226 Y117.211 E0.04138
G1 X87.466 Y116.187 E0.03999
G1 X86.729 Y115.046 E0.04259
G1 X86.091 Y113.889 E0.04143
G1 X85.804 Y113.300 E0.02055
G1 X85.286 Y112.084 E0.04143
G1 X85.059 Y111.469 E0.02055
G1 X84.666 Y110.209 E0.04138
G1 X84.368 Y108.969 E0.03999
G1 X84.238 Y108.281 E0.02194
G1 X84.066 Y107.016 E0.04004
G1 X84.006 Y106.317 E0.02200
G1 X83.973 Y105.661 E0.02060
G1 X83.973 Y104.339 E0.04143
G1 X84.006 Y103.685 E0.02055
G1 X84.139 Y102.370 E0.04143
G1 X84.238 Y101.722 E0.02055
G1 X84.502 Y100.427 E0.04143
G1 X84.666 Y99.792 E0.02055
G1 X85.059 Y98.531 E0.04143
G1 X85.286 Y97.916 E0.02055
G1 X85.785 Y96.742 E0.03999
G1 X86.402 Y95.526 E0.04276
G1 X86.728 Y94.957 E0.02055
G1 X87.441 Y93.847 E0.04138
G1 X88.201 Y92.822 E0.03999
G1 X89.080 Y91.787 E0.04259
G1 X90.002 Y90.841 E0.04143
G1 X90.483 Y90.395 E0.02055
G1 X91.495 Y89.548 E0.04138
G1 X92.525 Y88.796 E0.03999
G1 X93.110 Y88.411 E0.02194
G1 X94.212 Y87.766 E0.04004
G1 X94.832 Y87.442 E0.02194
G1 X95.993 Y86.911 E0.04004
G1 X96.645 Y86.651 E0.02200
G1 X97.263 Y86.429 E0.02060
G1 X98.528 Y86.046 E0.04143
G1 X99.164 Y85.888 E0.02055
G1 X100.459 Y85.634 E0.04138
G1 X101.725 Y85.473 E0.03999
G1 X102.424 Y85.419 E0.02200
G1 X103.081 Y85.391 E0.02060
G1 X104.356 Y85.401 E0.03999
G1 X105.716 Y85.502 E0.04276
G1 X106.366 Y85.584 E0.02055
G1 X107.667 Y85.816 E0.04143
G1 X108.306 Y85.964 E0.02055
G1 X109.575 Y86.325 E0.04138
G1 X110.776 Y86.755 E0.03999
G1 X111.424 Y87.023 E0.02200
G1 X112.022 Y87.296 E0.02060
G1 X113.193 Y87.904 E0.04138
G1 X114.284 Y88.566 E0.03999
G1 X114.865 Y88.959 E0.02200
G1 X115.396 Y89.346 E0.02060
G1 X116.422 Y90.176 E0.04138
G1 X117.358 Y91.043 E0.03999
G1 X117.848 Y91.544 E0.02200
G1 X118.291 Y92.030 E0.02060
G1 X119.130 Y93.048 E0.04138
G1 X119.873 Y94.085 E0.03999
G1 X120.254 Y94.674 E0.02200
G1 X120.590 Y95.239 E0.02060
G1 X121.209 Y96.406 E0.04143
G1 X121.461 Y96.946 E0.01867
G1 X121.250 Y97.323 F10800.000
G1 F8640
G1 X121.967 Y98.181 E-0.30833
G1 X122.398 Y99.476 E-0.31493
G1 X122.555 Y100.047 E-0.13673
G1 E-0.04000 F2100.00000
G1 Z0.800 F10800.000
G1 X99.604 Y100.486
G1 Z0.200
G1 E0.80000 F2100.00000
G1 F1200
G1 X98.604 Y100.404 E0.03145
G1 X97.239 Y100.156 E0.04351
G1 X96.701 Y100.153 E0.01687
G1 X96.147 Y100.214 E0.01746
G1 X95.480 Y100.370 E0.02148
G1 X95.173 Y100.473 E0.01017
G1 X94.637 Y100.701 E0.01826
G1 X93.917 Y101.109 E0.02593
G1 X93.299 Y101.559 E0.02398
G1 X92.817 Y101.978 E0.02001
G1 X92.493 Y102.298 E0.01430
G1 X92.119 Y102.735 E0.01803
G1 X91.737 Y103.274 E0.02072
G1 X91.467 Y103.741 E0.01693
G1 X91.142 Y104.449 E0.02442
G1 X90.979 Y104.914 E0.01544
G1 X90.795 Y105.620 E0.02288
G1 X90.700 Y106.216 E0.01891
G1 X90.662 Y106.885 E0.02100
G1 X90.705 Y107.539 E0.02057
G1 X90.813 Y108.047 E0.01628
G1 X90.999 Y108.511 E0.01566
G1 X91.118 Y108.714 E0.00739
G1 X91.348 Y108.997 E0.01142
G1 X91.519 Y109.147 E0.00714
G1 X91.813 Y109.322 E0.01073
G1 X92.027 Y109.398 E0.00712
G1 X92.372 Y109.445 E0.01092
G1 X92.784 Y109.395 E0.01301
G1 X93.347 Y109.197 E0.01872
G1 X93.909 Y108.898 E0.01996
G1 X94.537 Y108.473 E0.02376
G1 X95.120 Y108.008 E0.02339
G1 X95.490 Y107.667 E0.01579
G1 X95.478 Y108.028 E0.01134
G1 X95.518 Y108.353 E0.01027
G1 X95.636 Y108.692 E0.01126
G1 X95.886 Y109.025 E0.01304
G1 X96.178 Y109.231 E0.01120
G1 X96.478 Y109.350 E0.01013
G1 X96.726 Y109.406 E0.00798
G1 X97.203 Y109.442 E0.01499
G1 X97.812 Y109.411 E0.01912
G1 X98.124 Y109.373 E0.00985
G1 X98.669 Y109.264 E0.01743
G1 X99.254 Y109.086 E0.01920
G1 X99.797 Y108.858 E0.01845
G1 X100.273 Y108.602 E0.01694
G1 X100.770 Y108.271 E0.01875
G1 X101.235 Y107.877 E0.01911
G1 X100.770 Y108.421 E0.02247
G1 X100.329 Y108.868 E0.01967
G1 X99.615 Y109.498 E0.02985
G1 X98.784 Y110.112 E0.03240
G1 X98.325 Y110.405 E0.01708
G1 X97.758 Y110.719 E0.02031
G1 X96.892 Y110.971 E0.02830
G1 X96.123 Y111.127 E0.02458
G1 X95.395 Y111.210 E0.02300
G1 X94.812 Y111.219 E0.01827
G1 X94.360 Y111.195 E0.01418
G1 X93.910 Y111.147 E0.01419
G1 X93.513 Y111.079 E0.01265
G1 X92.827 Y110.901 E0.02222
G1 X92.300 Y110.703 E0.01765
G1 X92.059 Y110.588 E0.00838
G1 X91.638 Y110.347 E0.01520
G1 X91.329 Y110.130 E0.01183
G1 X91.043 Y109.892 E0.01169
G1 X90.818 Y109.674 E0.00982
G1 X90.511 Y109.318 E0.01474
G1 X90.274 Y108.988 E0.01274
G1 X89.946 Y108.402 E0.02105
G1 X89.796 Y108.061 E0.01169
G1 X89.614 Y107.535 E0.01745
G1 X89.521 Y107.185 E0.01135
G1 X89.410 Y106.599 E0.01870
G1 X89.365 Y106.241 E0.01131
G1 X89.332 Y105.698 E0.01706
G1 X89.337 Y105.066 E0.01982
G1 X89.360 Y104.719 E0.01088
G1 X89.433 Y104.115 E0.01910
G1 X89.502 Y103.737 E0.01203
G1 X89.630 Y103.216 E0.01684
G1 X89.874 Y102.501 E0.02368
G1 X90.101 Y101.996 E0.01738
G1 X90.282 Y101.658 E0.01200
G1 X90.503 Y101.302 E0.01317
G1 X90.958 Y100.701 E0.02363
G1 X91.175 Y100.460 E0.01015
G1 X91.543 Y100.106 E0.01601
G1 X92.140 Y99.642 E0.02371
G1 X92.506 Y99.411 E0.01357
G1 X92.955 Y99.173 E0.01593
G1 X93.483 Y98.949 E0.01797
G1 X94.026 Y98.773 E0.01793
G1 X94.540 Y98.651 E0.01656
G1 X95.390 Y98.532 E0.02690
G1 X96.310 Y98.510 E0.02884
G1 X96.794 Y98.542 E0.01521
G1 X97.231 Y98.602 E0.01386
G1 X97.900 Y98.757 E0.02151
G1 X98.556 Y98.998 E0.02191
G1 X98.929 Y99.186 E0.01310
G1 X99.216 Y99.362 E0.01057
G1 X99.481 Y99.554 E0.01026
G1 X99.775 Y99.811 E0.01225
G1 X100.167 Y100.248 E0.01840
G1 X100.379 Y100.551 E0.01159
G1 X100.524 Y100.805 E0.00917
G1 X100.670 Y101.112 E0.01065
G1 X100.821 Y101.528 E0.01389
G1 X100.929 Y101.951 E0.01370
G1 X101.014 Y102.541 E0.01869
G1 X101.035 Y103.037 E0.01555
G1 X101.020 Y103.487 E0.01411
G1 X100.954 Y104.091 E0.01907
G1 X100.866 Y104.529 E0.01400
G1 X100.743 Y104.954 E0.01387
G1 X100.554 Y105.427 E0.01596
G1 X100.312 Y105.875 E0.01599
G1 X100.136 Y106.130 E0.00970
G1 X99.864 Y106.451 E0.01320
G1 X99.505 Y106.771 E0.01508
G1 X99.265 Y106.936 E0.00912
G1 X98.874 Y107.131 E0.01370
G1 X98.634 Y107.210 E0.00791
G1 X98.223 Y107.275 E0.01307
G1 X98.223 Y107.050 E0.00706
G1 X98.306 Y106.440 E0.01931
G1 X98.686 Y104.550 E0.06044
G1 X99.107 Y102.603 E0.06247
G1 X99.590 Y100.544 E0.06629
G1 F8640
G1 X98.604 Y100.404 E-0.22994
G1 X97.239 Y100.156 E-0.32041
G1 X96.701 Y100.153 E-0.12422
G1 X96.333 Y100.193 E-0.08543
G1 E-0.04000 F2100.00000
G1 Z0.800 F10800.000
G1 X91.082 Y90.385
G1 Z0.200
G1 E0.80000 F2100.00000
G1 F1200
G1 X91.727 Y89.845 E0.02639
G1 X92.740 Y89.106 E0.03931
G1 X93.309 Y88.732 E0.02135
G1 X94.394 Y88.096 E0.03944
G1 X94.998 Y87.781 E0.02135
G1 X96.142 Y87.258 E0.03944
G1 X97.382 Y86.787 E0.04158
G1 X98.628 Y86.410 E0.04084
G1 X99.246 Y86.256 E0.01996
G1 X100.519 Y86.007 E0.04069
G1 X101.763 Y85.849 E0.03931
G1 X102.447 Y85.795 E0.02150
G1 X103.087 Y85.768 E0.02010
G1 X104.341 Y85.778 E0.03930
G1 X105.679 Y85.877 E0.04207
G1 X106.310 Y85.957 E0.01994
G1 X107.592 Y86.186 E0.04084
G1 X108.212 Y86.329 E0.01996
G1 X109.460 Y86.684 E0.04069
G1 X110.640 Y87.107 E0.03931
G1 X111.857 Y87.635 E0.04158
G1 X113.008 Y88.233 E0.04069
G1 X114.080 Y88.884 E0.03931
G1 X115.166 Y89.645 E0.04158
G1 X116.175 Y90.461 E0.04069
G1 X117.095 Y91.313 E0.03931
G1 X118.006 Y92.277 E0.04158
G1 X118.831 Y93.278 E0.04069
G1 X119.561 Y94.297 E0.03931
G1 X120.261 Y95.424 E0.04158
G1 X120.871 Y96.574 E0.04084
G1 X121.140 Y97.151 E0.01996
G1 X121.614 Y98.312 E0.03930
G1 X122.037 Y99.585 E0.04207
G1 X122.206 Y100.198 E0.01994
G1 X122.487 Y101.465 E0.04069
G1 X122.676 Y102.705 E0.03931
G1 X122.747 Y103.387 E0.02150
G1 X122.790 Y104.026 E0.02009
G1 X122.811 Y105.323 E0.04068
G1 X122.746 Y106.619 E0.04068
G1 X122.682 Y107.252 E0.01996
G1 X122.486 Y108.540 E0.04084
G1 X122.358 Y109.163 E0.01996
G1 X122.035 Y110.420 E0.04069
G1 X121.642 Y111.611 E0.03931
G1 X121.398 Y112.246 E0.02134
G1 X120.867 Y113.434 E0.04082
G1 X120.266 Y114.568 E0.04022
G1 X119.581 Y115.675 E0.04084
G1 X119.219 Y116.199 E0.01996
G1 X118.425 Y117.232 E0.04084
G1 X118.012 Y117.716 E0.01996
G1 X117.122 Y118.660 E0.04069
G1 X116.203 Y119.513 E0.03931
G1 X115.682 Y119.951 E0.02134
G1 X114.644 Y120.736 E0.04082
G1 X114.117 Y121.093 E0.01996
G1 X113.042 Y121.747 E0.03946
G1 X111.866 Y122.360 E0.04158
G1 X110.676 Y122.880 E0.04068
G1 X109.455 Y123.318 E0.04068
G1 X108.846 Y123.502 E0.01996
G1 X107.625 Y123.806 E0.03946
G1 X106.957 Y123.938 E0.02134
G1 X105.668 Y124.124 E0.04082
G1 X105.034 Y124.182 E0.01996
G1 X103.777 Y124.236 E0.03946
G1 X102.451 Y124.205 E0.04158
G1 X101.154 Y124.085 E0.04084
G1 X100.524 Y123.994 E0.01996
G1 X99.246 Y123.744 E0.04084
G1 X98.628 Y123.590 E0.01996
G1 X97.382 Y123.213 E0.04084
G1 X96.783 Y122.998 E0.01996
G1 X95.625 Y122.517 E0.03930
G1 X94.427 Y121.923 E0.04192
G1 X93.345 Y121.291 E0.03929
G1 X92.775 Y120.919 E0.02135
G1 X91.758 Y120.178 E0.03944
G1 X91.224 Y119.748 E0.02150
G1 X90.740 Y119.329 E0.02009
G1 X89.800 Y118.427 E0.04084
G1 X89.363 Y117.964 E0.01996
G1 X88.522 Y116.976 E0.04069
G1 X87.774 Y115.970 E0.03931
G1 X87.055 Y114.855 E0.04158
G1 X86.426 Y113.715 E0.04084
G1 X86.147 Y113.143 E0.01996
G1 X85.636 Y111.945 E0.04084
G1 X85.416 Y111.348 E0.01996
G1 X85.030 Y110.109 E0.04069
G1 X84.737 Y108.890 E0.03931
G1 X84.610 Y108.221 E0.02135
G1 X84.441 Y106.974 E0.03944
G1 X84.350 Y105.651 E0.04158
G1 X84.350 Y104.349 E0.04084
G1 X84.382 Y103.713 E0.01996
G1 X84.513 Y102.417 E0.04084
G1 X84.609 Y101.788 E0.01996
G1 X84.870 Y100.512 E0.04084
G1 X85.028 Y99.896 E0.01996
G1 X85.416 Y98.652 E0.04084
G1 X85.636 Y98.055 E0.01996
G1 X86.127 Y96.902 E0.03930
G1 X86.734 Y95.705 E0.04207
G1 X87.050 Y95.153 E0.01994
G1 X87.752 Y94.061 E0.04069
G1 X88.498 Y93.054 E0.03931
G1 X89.356 Y92.043 E0.04158
G1 X90.266 Y91.111 E0.04084
G1 X91.036 Y90.424 E0.03236
G1 F8640
G1 X91.727 Y89.845 E-0.20822
G1 X92.740 Y89.106 E-0.28948
G1 X93.309 Y88.732 E-0.15722
G1 X93.701 Y88.502 E-0.10509
G1 E-0.04000 F2100.00000
G1 Z0.800 F10800.000
G1 X99.137 Y100.826
G1 Z0.200
G1 E0.80000 F2100.00000
G1 F1200
G1 X98.739 Y102.520 E0.05455
G1 X98.317 Y104.473 E0.06266
G1 X97.934 Y106.377 E0.06090
G1 X97.845 Y107.025 E0.02048
G1 X97.846 Y107.432 E0.01276
G1 X97.904 Y107.595 E0.00543
G1 X98.004 Y107.646 E0.00352
G1 X98.080 Y107.657 E0.00240
G1 X98.319 Y107.650 E0.00749
G1 X98.727 Y107.577 E0.01302
G1 X99.018 Y107.480 E0.00960
G1 X99.456 Y107.261 E0.01536
G1 X99.738 Y107.069 E0.01070
G1 X100.134 Y106.715 E0.01666
G1 X100.436 Y106.360 E0.01461
G1 X100.634 Y106.072 E0.01093
G1 X100.897 Y105.587 E0.01731
G1 X101.100 Y105.076 E0.01724
G1 X101.233 Y104.618 E0.01494
G1 X101.327 Y104.149 E0.01501
G1 X101.397 Y103.513 E0.02005
G1 X101.412 Y103.035 E0.01501
G1 X101.389 Y102.506 E0.01658
G1 X101.299 Y101.878 E0.01991
G1 X101.182 Y101.417 E0.01492
G1 X101.018 Y100.966 E0.01503
G1 X100.859 Y100.630 E0.01168
G1 X100.697 Y100.349 E0.01015
G1 X100.463 Y100.014 E0.01283
G1 X100.041 Y99.543 E0.01984
G1 X99.716 Y99.259 E0.01351
G1 X99.426 Y99.048 E0.01125
G1 X99.113 Y98.856 E0.01152
G1 X98.706 Y98.652 E0.01427
G1 X98.008 Y98.395 E0.02332
G1 X97.300 Y98.231 E0.02280
G1 X96.832 Y98.167 E0.01481
G1 X96.321 Y98.132 E0.01606
G1 X95.352 Y98.157 E0.03039
G1 X94.471 Y98.280 E0.02790
G1 X93.928 Y98.409 E0.01747
G1 X93.346 Y98.597 E0.01918
G1 X92.793 Y98.832 E0.01885
G1 X92.317 Y99.084 E0.01689
G1 X91.928 Y99.329 E0.01442
G1 X91.601 Y99.568 E0.01268
G1 X91.292 Y99.825 E0.01262
G1 X90.904 Y100.198 E0.01686
G1 X90.667 Y100.460 E0.01108
G1 X90.192 Y101.088 E0.02469
G1 X89.955 Y101.470 E0.01408
G1 X89.763 Y101.829 E0.01279
G1 X89.525 Y102.358 E0.01820
