; generated by Slic3r Prusa Edition 1.41.2+ on 2019-01-18 at 08:58:49

; 

; external perimeters extrusion width = 0.45mm
; perimeters extrusion width = 0.45mm
; infill extrusion width = 0.45mm
; solid infill extrusion width = 0.45mm
; top infill extrusion width = 0.40mm
; first layer extrusion width = 0.42mm

M73 P0 R54
M73 Q0 S54
M201 X1000 Y1000 Z1000 E5000 ; sets maximum accelerations, mm/sec^2
M203 X200 Y200 Z12 E120 ; sets maximum feedrates, mm/sec
M204 P1250 R1250 T1250 ; sets acceleration (P, T) and retract acceleration (R), mm/sec^2
M205 X8.00 Y8.00 Z0.40 E1.50 ; sets the jerk limits, mm/sec
M205 S0 T0 ; sets the minimum extruding and travel feed rate, mm/sec
M107
M115 U3.5.1 ; tell printer latest fw version
M83  ; extruder relative mode
M104 S215 ; set extruder temp
M140 S60 ; set bed temp
M190 S60 ; wait for bed temp
M109 S215 ; wait for extruder temp
G28 W ; home all without mesh bed level
G80 ; mesh bed leveling
G1 Y-3.0 F1000.0 ; go outside print area
G92 E0.0
G1 X60.0 E9.0  F1000.0 ; intro line
M73 Q0 S54
M73 P0 R54
G1 X100.0 E12.5  F1000.0 ; intro line
G92 E0.0
M221 S95
M900 K30; Filament gcode
G21 ; set units to millimeters
G90 ; use absolute coordinates
M83 ; use relative distances for extrusion
;BEFORE_LAYER_CHANGE
G92 E0.0
;0.2


G1 E-0.80000 F2100.00000
G1 Z0.600 F10800.000
;AFTER_LAYER_CHANGE
;0.2
G1 X133.893 Y77.033
G1 Z0.200
G1 E0.80000 F2100.00000
M204 S1000
G1 F1200
G1 X139.169 Y78.116 E0.16889
G1 X140.368 Y78.510 E0.03957
G1 X141.106 Y78.890 E0.02601
G1 X142.283 Y79.795 E0.04657
G1 X143.169 Y80.862 E0.04349
G1 X143.645 Y81.709 E0.03046
G1 X144.109 Y83.066 E0.04496
G1 X144.263 Y84.466 E0.04417
G1 X144.263 Y124.758 E1.26332
G1 X144.141 Y125.781 E0.03231
G1 X143.810 Y126.701 E0.03065
G1 X143.186 Y127.653 E0.03568
G1 X142.393 Y128.379 E0.03372
G1 X141.437 Y128.899 E0.03411
G1 X140.438 Y129.165 E0.03242
G1 X111.642 Y132.956 E0.91067
G1 X110.033 Y132.793 E0.05073
G1 X108.771 Y132.302 E0.04244
G1 X107.615 Y131.487 E0.04433
G1 X107.252 Y131.134 E0.01589
G1 X106.487 Y130.102 E0.04028
G1 X105.953 Y128.829 E0.04326
G1 X105.751 Y127.528 E0.04130
G1 X105.749 Y127.046 E0.01510
G1 X105.931 Y125.804 E0.03937
G1 X106.401 Y124.624 E0.03983
G1 X128.964 Y79.877 E1.57128
G1 X129.867 Y78.700 E0.04651
G1 X131.045 Y77.796 E0.04656
G1 X132.417 Y77.227 E0.04656
G1 X133.833 Y77.041 E0.04479
; PURGING FINISHED
G1 F8640
G1 X137.060 Y77.691 E-0.76000
G1 E-0.04000 F2100.00000
G1 Z0.800 F10800.000
G1 X112.496 Y125.423
G1 Z0.200
G1 E0.80000 F2100.00000
G1 F1200
G1 X112.940 Y125.764 E0.01753
G1 X113.281 Y126.207 E0.01753
G1 X113.495 Y126.724 E0.01753
G1 X113.568 Y127.278 E0.01753
G1 X113.495 Y127.833 E0.01753
G1 X113.281 Y128.350 E0.01753
G1 X112.983 Y128.738 E0.01535
G1 X112.506 Y129.130 E0.01936
G1 X111.980 Y129.348 E0.01785
G1 X111.425 Y129.421 E0.01753
G1 X110.871 Y129.348 E0.01753
G1 X110.354 Y129.134 E0.01753
G1 X109.911 Y128.793 E0.01753
G1 X109.570 Y128.350 E0.01753
G1 X109.356 Y127.833 E0.01753
G1 X109.283 Y127.276 E0.01761
G1 X109.362 Y126.709 E0.01794
G1 X109.570 Y126.207 E0.01703
G1 X109.911 Y125.764 E0.01753
G1 X110.354 Y125.423 E0.01753
G1 X110.871 Y125.209 E0.01753
G1 X111.410 Y125.138 E0.01703
G1 X111.978 Y125.208 E0.01794
G1 X112.441 Y125.400 E0.01573
G1 X112.297 Y125.749 F10800.000
G1 F1200
G1 X112.671 Y126.033 E0.01473
G1 X112.951 Y126.398 E0.01442
G1 X113.127 Y126.822 E0.01442
G1 X113.187 Y127.278 E0.01442
G1 X113.127 Y127.734 E0.01442
G1 X112.951 Y128.159 E0.01442
G1 X112.710 Y128.474 E0.01243
G1 X112.310 Y128.803 E0.01624
G1 X111.881 Y128.980 E0.01453
G1 X111.425 Y129.040 E0.01442
G1 X110.969 Y128.980 E0.01442
G1 X110.544 Y128.804 E0.01442
G1 X110.180 Y128.524 E0.01442
G1 X109.900 Y128.159 E0.01442
G1 X109.724 Y127.734 E0.01442
G1 X109.663 Y127.278 E0.01445
G1 X109.729 Y126.809 E0.01483
G1 X109.900 Y126.398 E0.01397
G1 X110.180 Y126.033 E0.01442
G1 X110.544 Y125.753 E0.01442
G1 X110.969 Y125.577 E0.01442
G1 X111.411 Y125.519 E0.01397
G1 X111.881 Y125.576 E0.01483
G1 X112.241 Y125.726 E0.01224
G1 X112.642 Y125.547 F10800.000
G1 F8640
G1 X112.671 Y126.033 E-0.12196
G1 X112.951 Y126.398 E-0.10620
G1 X113.127 Y126.822 E-0.10620
G1 X113.187 Y127.278 E-0.10620
G1 X113.127 Y127.734 E-0.10620
G1 X112.951 Y128.159 E-0.10620
G1 X112.710 Y128.474 E-0.09156
G1 X112.658 Y128.517 E-0.01549
G1 E-0.04000 F2100.00000
G1 Z0.800 F10800.000
G1 X136.089 Y121.054
G1 Z0.200
G1 E0.80000 F2100.00000
G1 F1200
G1 X136.016 Y120.498 E0.01761
G1 X136.095 Y119.931 E0.01794
G1 X136.303 Y119.429 E0.01703
G1 X136.643 Y118.985 E0.01753
G1 X137.087 Y118.645 E0.01753
G1 X137.604 Y118.431 E0.01753
G1 X138.142 Y118.360 E0.01703
G1 X138.710 Y118.430 E0.01794
G1 X139.229 Y118.645 E0.01761
G1 X139.673 Y118.985 E0.01753
G1 X140.013 Y119.429 E0.01753
G1 X140.227 Y119.946 E0.01753
G1 X140.301 Y120.502 E0.01761
G1 X140.221 Y121.069 E0.01794
G1 X140.013 Y121.571 E0.01703
G1 X139.673 Y122.015 E0.01753
G1 X139.229 Y122.355 E0.01753
G1 X138.712 Y122.569 E0.01753
G1 X138.158 Y122.642 E0.01753
G1 X137.604 Y122.569 E0.01753
G1 X137.087 Y122.355 E0.01753
G1 X136.643 Y122.015 E0.01753
G1 X136.303 Y121.571 E0.01753
G1 X136.112 Y121.110 E0.01565
G1 X136.460 Y120.966 F10800.000
G1 F1200
G1 X136.396 Y120.499 E0.01476
G1 X136.462 Y120.031 E0.01483
G1 X136.632 Y119.619 E0.01397
G1 X136.912 Y119.254 E0.01442
G1 X137.277 Y118.974 E0.01442
G1 X137.702 Y118.798 E0.01442
G1 X138.144 Y118.740 E0.01397
G1 X138.613 Y118.798 E0.01483
G1 X139.039 Y118.974 E0.01445
G1 X139.404 Y119.254 E0.01442
G1 X139.684 Y119.619 E0.01442
G1 X139.860 Y120.044 E0.01442
G1 X139.920 Y120.501 E0.01445
G1 X139.854 Y120.969 E0.01483
G1 X139.684 Y121.381 E0.01397
G1 X139.404 Y121.746 E0.01442
G1 X139.039 Y122.026 E0.01442
G1 X138.614 Y122.202 E0.01442
G1 X138.158 Y122.262 E0.01442
G1 X137.702 Y122.202 E0.01442
G1 X137.277 Y122.026 E0.01442
G1 X136.912 Y121.746 E0.01442
G1 X136.632 Y121.381 E0.01442
G1 X136.483 Y121.021 E0.01221
G1 X136.073 Y120.864 F10800.000
G1 F8640
G1 X136.396 Y120.499 E-0.12217
G1 X136.462 Y120.031 E-0.10921
G1 X136.632 Y119.619 E-0.10288
G1 X136.912 Y119.254 E-0.10620
G1 X137.277 Y118.974 E-0.10620
G1 X137.702 Y118.798 E-0.10620
G1 X138.144 Y118.740 E-0.10287
G1 X138.162 Y118.742 E-0.00427
G1 E-0.04000 F2100.00000
G1 Z0.800 F10800.000
G1 X138.158 Y91.642
G1 Z0.200
G1 E0.80000 F2100.00000
G1 F1200
G1 X137.604 Y91.569 E0.01753
G1 X137.087 Y91.355 E0.01753
G1 X136.643 Y91.015 E0.01753
G1 X136.303 Y90.571 E0.01753
G1 X136.089 Y90.054 E0.01753
G1 X136.016 Y89.500 E0.01753
G1 X136.089 Y88.946 E0.01753
G1 X136.303 Y88.429 E0.01753
G1 X136.643 Y87.985 E0.01753
G1 X137.087 Y87.645 E0.01753
G1 X137.604 Y87.431 E0.01753
G1 X138.158 Y87.358 E0.01753
G1 X138.712 Y87.431 E0.01753
G1 X139.229 Y87.645 E0.01753
G1 X139.673 Y87.985 E0.01753
G1 X140.013 Y88.429 E0.01753
G1 X140.227 Y88.946 E0.01753
G1 X140.300 Y89.500 E0.01753
G1 X140.227 Y90.054 E0.01753
G1 X140.013 Y90.571 E0.01753
G1 X139.673 Y91.015 E0.01753
G1 X139.229 Y91.355 E0.01753
G1 X138.712 Y91.569 E0.01753
G1 X138.218 Y91.634 E0.01565
G1 X138.168 Y91.260 F10800.000
G1 F1200
G1 X137.702 Y91.202 E0.01473
G1 X137.277 Y91.026 E0.01442
G1 X136.912 Y90.746 E0.01442
G1 X136.632 Y90.381 E0.01442
G1 X136.456 Y89.956 E0.01442
G1 X136.396 Y89.500 E0.01442
G1 X136.456 Y89.044 E0.01442
G1 X136.632 Y88.619 E0.01442
G1 X136.912 Y88.254 E0.01442
G1 X137.277 Y87.974 E0.01442
G1 X137.702 Y87.798 E0.01442
G1 X138.158 Y87.738 E0.01442
G1 X138.614 Y87.798 E0.01442
G1 X139.039 Y87.974 E0.01442
G1 X139.404 Y88.254 E0.01442
G1 X139.684 Y88.619 E0.01442
G1 X139.860 Y89.044 E0.01442
G1 X139.920 Y89.500 E0.01442
G1 X139.860 Y89.956 E0.01442
G1 X139.684 Y90.381 E0.01442
G1 X139.404 Y90.746 E0.01442
G1 X139.039 Y91.026 E0.01442
G1 X138.614 Y91.202 E0.01442
G1 X138.228 Y91.253 E0.01222
G1 X137.970 Y91.608 F10800.000
G1 F8640
G1 X137.702 Y91.202 E-0.12196
G1 X137.277 Y91.026 E-0.10620
G1 X136.912 Y90.746 E-0.10620
G1 X136.632 Y90.381 E-0.10620
G1 X136.456 Y89.956 E-0.10620
G1 X136.396 Y89.500 E-0.10620
G1 X136.456 Y89.044 E-0.10620
G1 X136.458 Y89.041 E-0.00085
G1 E-0.04000 F2100.00000
G1 Z0.800 F10800.000
G1 X134.962 Y84.577
G1 Z0.200
G1 E0.80000 F2100.00000
G1 F1200
G1 X134.445 Y84.791 E0.01753
G1 X133.891 Y84.864 E0.01753
G1 X133.336 Y84.791 E0.01753
G1 X132.834 Y84.583 E0.01703
G1 X132.377 Y84.238 E0.01794
G1 X132.036 Y83.793 E0.01761
G1 X131.822 Y83.276 E0.01753
G1 X131.749 Y82.722 E0.01753
G1 X131.822 Y82.167 E0.01753
G1 X132.009 Y81.715 E0.01535
G1 X132.368 Y81.213 E0.01936
G1 X132.820 Y80.866 E0.01785
G1 X133.336 Y80.652 E0.01753
G1 X133.875 Y80.581 E0.01703
G1 X134.443 Y80.651 E0.01794
G1 X134.962 Y80.866 E0.01761
G1 X135.407 Y81.208 E0.01761
G1 X135.752 Y81.665 E0.01794
G1 X135.960 Y82.167 E0.01703
G1 X136.033 Y82.724 E0.01761
G1 X135.954 Y83.291 E0.01794
G1 X135.746 Y83.793 E0.01703
G1 X135.405 Y84.236 E0.01753
G1 X135.009 Y84.540 E0.01565
G1 X134.780 Y84.241 F10800.000
G1 F1200
G1 X134.347 Y84.423 E0.01473
G1 X133.891 Y84.483 E0.01442
G1 X133.435 Y84.423 E0.01442
G1 X133.023 Y84.253 E0.01397
G1 X132.645 Y83.968 E0.01483
G1 X132.365 Y83.602 E0.01445
G1 X132.189 Y83.178 E0.01442
G1 X132.129 Y82.722 E0.01442
G1 X132.189 Y82.266 E0.01442
G1 X132.341 Y81.899 E0.01243
G1 X132.642 Y81.478 E0.01624
G1 X133.010 Y81.196 E0.01453
G1 X133.435 Y81.020 E0.01442
G1 X133.876 Y80.962 E0.01397
G1 X134.346 Y81.019 E0.01483
G1 X134.772 Y81.196 E0.01445
G1 X135.137 Y81.476 E0.01445
G1 X135.422 Y81.854 E0.01483
G1 X135.592 Y82.266 E0.01397
G1 X135.653 Y82.722 E0.01445
G1 X135.587 Y83.191 E0.01483
G1 X135.416 Y83.602 E0.01397
G1 X135.136 Y83.967 E0.01442
G1 X134.827 Y84.204 E0.01221
G1 X134.782 Y84.641 F10800.000
G1 F8640
G1 X134.347 Y84.423 E-0.12196
G1 X133.891 Y84.483 E-0.10620
G1 X133.435 Y84.423 E-0.10619
G1 X133.023 Y84.253 E-0.10288
G1 X132.645 Y83.968 E-0.10921
G1 X132.365 Y83.602 E-0.10640
G1 X132.189 Y83.178 E-0.10620
G1 X132.188 Y83.173 E-0.00095
G1 E-0.04000 F2100.00000
G1 Z0.800 F10800.000
G1 X133.560 Y85.705
G1 Z0.200
G1 E0.80000 F2100.00000
G1 F1200
G1 X132.437 Y85.240 E0.03810
G1 X131.835 Y84.778 E0.02380
G1 X131.372 Y84.175 E0.02380
G1 X131.082 Y83.474 E0.02380
G1 X130.983 Y82.722 E0.02380
G1 X131.082 Y81.969 E0.02380
G1 X131.372 Y81.268 E0.02380
G1 X131.835 Y80.665 E0.02380
G1 X132.437 Y80.203 E0.02380
G1 X133.138 Y79.913 E0.02380
G1 X133.867 Y79.817 E0.02305
G1 X138.485 Y80.806 E0.14808
G1 X138.915 Y80.920 E0.01394
G1 X139.311 Y81.076 E0.01335
G1 X139.687 Y81.276 E0.01335
G1 X140.038 Y81.518 E0.01335
G1 X140.359 Y81.797 E0.01335
G1 X140.646 Y82.112 E0.01335
G1 X140.896 Y82.457 E0.01335
G1 X141.105 Y82.828 E0.01335
G1 X141.270 Y83.220 E0.01335
G1 X141.390 Y83.629 E0.01335
G1 X141.462 Y84.049 E0.01335
G1 X141.488 Y84.491 E0.01388
G1 X141.488 Y124.708 E1.26099
G1 X141.433 Y125.163 E0.01435
G1 X141.295 Y125.525 E0.01215
G1 X141.066 Y125.859 E0.01270
G1 X140.765 Y126.130 E0.01270
G1 X140.424 Y126.313 E0.01215
G1 X139.980 Y126.427 E0.01435
G1 X111.425 Y130.186 E0.90304
G1 X110.673 Y130.087 E0.02380
G1 X109.971 Y129.797 E0.02380
G1 X109.369 Y129.335 E0.02380
G1 X108.907 Y128.732 E0.02380
G1 X108.617 Y128.031 E0.02380
G1 X108.518 Y127.278 E0.02380
G1 X108.617 Y126.526 E0.02380
G1 X108.907 Y125.825 E0.02380
G1 X109.369 Y125.222 E0.02380
G1 X109.971 Y124.760 E0.02380
G1 X110.673 Y124.470 E0.02380
G1 X111.561 Y124.353 E0.02808
G1 X134.288 Y116.526 E0.75367
G1 X135.050 Y110.179 E0.20045
G1 X133.894 Y96.182 E0.44036
G1 X133.561 Y85.765 E0.32679
G1 X133.190 Y85.960 F10800.000
G1 F1200
G1 X132.247 Y85.569 E0.03203
G1 X131.566 Y85.047 E0.02691
G1 X131.043 Y84.366 E0.02691
G1 X130.715 Y83.573 E0.02691
G1 X130.602 Y82.722 E0.02691
G1 X130.715 Y81.870 E0.02691
G1 X131.043 Y81.077 E0.02691
G1 X131.566 Y80.396 E0.02691
G1 X132.247 Y79.874 E0.02691
G1 X133.040 Y79.545 E0.02691
G1 X133.882 Y79.434 E0.02664
G1 X138.573 Y80.439 E0.15042
G1 X139.033 Y80.562 E0.01491
G1 X139.469 Y80.733 E0.01470
G1 X139.883 Y80.953 E0.01470
G1 X140.269 Y81.219 E0.01470
G1 X140.623 Y81.527 E0.01470
G1 X140.939 Y81.873 E0.01470
G1 X141.214 Y82.253 E0.01470
G1 X141.444 Y82.662 E0.01470
G1 X141.626 Y83.094 E0.01470
G1 X141.758 Y83.544 E0.01470
G1 X141.838 Y84.006 E0.01470
G1 X141.865 Y84.480 E0.01489
G1 X141.865 Y124.731 E1.26204
G1 X141.803 Y125.242 E0.01613
G1 X141.732 Y125.473 E0.00759
G1 X141.630 Y125.699 E0.00778
G1 X141.503 Y125.912 E0.00778
G1 X141.350 Y126.108 E0.00778
G1 X141.176 Y126.285 E0.00778
G1 X140.981 Y126.439 E0.00778
G1 X140.770 Y126.569 E0.00778
G1 X140.550 Y126.670 E0.00758
G1 X140.052 Y126.798 E0.01613
G1 X111.425 Y130.567 E0.90531
G1 X110.574 Y130.455 E0.02691
G1 X109.781 Y130.126 E0.02691
G1 X109.100 Y129.604 E0.02691
G1 X108.578 Y128.923 E0.02691
G1 X108.249 Y128.130 E0.02691
G1 X108.137 Y127.278 E0.02691
G1 X108.249 Y126.427 E0.02691
G1 X108.578 Y125.634 E0.02691
G1 X109.100 Y124.953 E0.02691
G1 X109.781 Y124.431 E0.02691
G1 X110.574 Y124.102 E0.02691
G1 X111.474 Y123.984 E0.02844
G1 X133.942 Y116.247 E0.74507
G1 X134.671 Y110.172 E0.19184
G1 X133.517 Y96.204 E0.43946
G1 X133.192 Y86.020 E0.31946
G1 X133.286 Y85.572 F10800.000
G1 X133.557 Y85.582
G1 F1200
G1 X131.157 Y83.182 E0.10696
G1 X131.695 Y83.183 F10800.000
G1 F1200
G1 X131.273 Y82.761 E0.01881
G1 X131.326 Y82.279 E0.01531
G1 X131.499 Y82.451 E0.00769
G1 X131.546 Y82.093 E0.01137
G1 X131.584 Y82.001 E0.00316
G1 X131.436 Y81.852 E0.00660
G1 X131.593 Y81.473 E0.01293
G1 X131.741 Y81.622 E0.00660
G1 X131.957 Y81.301 E0.01217
G1 X131.813 Y81.157 E0.00641
G1 X132.036 Y80.867 E0.01154
G1 X132.049 Y80.857 E0.00051
G1 X132.187 Y80.995 E0.00615
G1 X132.490 Y80.762 E0.01205
G1 X132.352 Y80.624 E0.00615
G1 X132.579 Y80.450 E0.00902
G1 X132.675 Y80.411 E0.00325
G1 X132.823 Y80.559 E0.00660
G1 X133.202 Y80.402 E0.01293
G1 X133.054 Y80.254 E0.00660
G1 X133.212 Y80.188 E0.00539
G1 X133.488 Y80.152 E0.00877
G1 X133.812 Y80.476 E0.01443
G1 X134.054 Y80.233 F10800.000
G1 F1200
G1 X134.523 Y80.312 E0.01147
G1 X134.628 Y80.509 E0.00538
G1 F8640
G1 X134.523 Y80.312 E-0.05154
G1 X134.054 Y80.233 E-0.11003
G1 E-0.63843 F2100.00000
G1 Z0.800 F10800.000
G1 X139.425 Y81.265
G1 Z0.200
G1 E0.80000 F2100.00000
G1 F1200
G1 X140.959 Y82.798 E0.06833
G1 X141.280 Y83.656 F10800.000
G1 F1200
G1 X138.809 Y81.185 E0.11012
G1 X138.101 Y81.013 E0.02297
G1 X141.182 Y84.093 E0.13731
G1 X141.205 Y84.653 E0.01764
G1 X137.419 Y80.867 E0.16874
G1 X136.737 Y80.721 E0.02198
G1 X141.205 Y85.189 E0.19914
G1 X141.205 Y85.725 E0.01689
G1 X136.055 Y80.574 E0.22954
G1 X135.373 Y80.428 E0.02198
G1 X141.205 Y86.261 E0.25994
G1 X141.205 Y86.797 E0.01689
G1 X136.047 Y81.639 E0.22987
G1 X136.235 Y82.093 E0.01549
G1 X136.276 Y82.404 E0.00989
G1 X141.205 Y87.333 E0.21966
G1 X141.205 Y87.869 E0.01689
G1 X136.287 Y82.951 E0.21919
G1 X136.210 Y83.410 E0.01468
G1 X141.205 Y88.405 E0.22261
G1 X141.205 Y88.941 E0.01689
G1 X136.053 Y83.789 E0.22960
G1 X135.993 Y83.935 E0.00498
G1 X135.850 Y84.122 E0.00741
G1 X138.952 Y87.224 E0.13826
G1 X138.786 Y87.155 E0.00565
G1 X138.281 Y87.089 E0.01607
G1 X135.617 Y84.425 E0.11872
G1 X135.317 Y84.661 E0.01203
G1 X137.778 Y87.123 E0.10972
G1 X137.530 Y87.155 E0.00791
G1 X137.350 Y87.230 E0.00614
G1 X134.991 Y84.871 E0.10515
G1 X134.612 Y85.028 E0.01293
G1 X136.971 Y87.387 E0.10515
G1 X136.662 Y87.614 E0.01208
G1 X134.161 Y85.113 E0.11147
G1 X133.891 Y85.149 E0.00860
G1 X133.626 Y85.114 E0.00842
G1 X136.378 Y87.866 E0.12267
G1 X136.145 Y88.170 E0.01205
G1 X133.848 Y85.872 E0.10241
G1 X133.865 Y86.426 E0.01746
G1 X135.959 Y88.520 E0.09332
G1 X135.809 Y88.905 E0.01305
G1 X133.883 Y86.979 E0.08584
G1 X133.901 Y87.533 E0.01746
G1 X135.747 Y89.379 E0.08227
G1 X135.731 Y89.500 E0.00385
G1 X135.791 Y89.959 E0.01461
G1 X133.918 Y88.087 E0.08347
G1 X133.936 Y88.640 E0.01746
G1 X141.205 Y95.909 E0.32397
G1 X141.205 Y95.373 E0.01689
G1 X137.699 Y91.867 E0.15627
G1 X138.158 Y91.927 E0.01460
G1 X138.279 Y91.911 E0.00385
G1 X141.205 Y94.837 E0.13039
G1 X141.205 Y94.301 E0.01689
G1 X138.753 Y91.849 E0.10928
G1 X139.139 Y91.699 E0.01305
G1 X141.205 Y93.765 E0.09209
G1 X141.205 Y93.229 E0.01689
G1 X139.488 Y91.513 E0.07650
G1 X139.792 Y91.280 E0.01205
G1 X141.205 Y92.693 E0.06298
G1 X141.205 Y92.157 E0.01689
