;FLAVOR:Marlin
;TIME:5298
;Filament used: 3.10546m
;Layer height: 0.2
;MINX:71.5
;MINY:91.637
;MINZ:0.2
;MAXX:163.5
;MAXY:143.369
;MAXZ:29.4
;Generated with Cura_SteamEngine 4.6.1
M140 S50
M105
M190 S50
M104 S210
M105
M109 S210
M82 ;absolute extrusion mode
; Ender 3 Custom Start G-code
G92 E0 ; Reset Extruder
G28 ; Home all axes
G1 Z2.0 F3000 ; Move Z Axis up little to prevent scratching of Heat Bed
G1 X0.1 Y20 Z0.3 F5000.0 ; Move to start position
G1 X0.1 Y200.0 Z0.3 F1500.0 E15 ; Draw the first line
G1 X0.4 Y200.0 Z0.3 F5000.0 ; Move to side a little
G1 X0.4 Y20 Z0.3 F1500.0 E30 ; Draw the second line
G92 E0 ; Reset Extruder
G1 Z2.0 F3000 ; Move Z Axis up little to prevent scratching of Heat Bed
G1 X5 Y20 Z0.3 F5000.0 ; Move over to prevent blob squish
G92 E0
G92 E0
G1 F2700 E-5
;LAYER_COUNT:147
;LAYER:0
M107
G0 F6000 X118.5 Y92.484 Z0.2
;TYPE:SKIRT
G1 F2700 E0
G1 F1200 X119.14 Y92.551 E0.0214
G1 X119.874 Y92.648 E0.04603
G1 X120.537 Y92.748 E0.06833
G1 X121.423 Y92.922 E0.09836
G1 X122.64 Y93.299 E0.14074
G1 X122.861 Y93.383 E0.1486
G1 X123.273 Y93.55 E0.16339
G1 X124 Y93.865 E0.18974
G1 X124.658 Y94.161 E0.21374
G1 X125.303 Y94.479 E0.23765
G1 X127.569 Y95.697 E0.32322
G1 X129.862 Y96.85 E0.40858
G1 X132.127 Y97.91 E0.49176
G1 X134.471 Y98.927 E0.57674
G1 X136.873 Y99.89 E0.66281
G1 X139.195 Y100.743 E0.74509
G1 X141.609 Y101.554 E0.82979
G1 X142.671 Y101.879 E0.86673
G1 X148.099 Y103.572 E1.05584
G1 X148.405 Y103.678 E1.06661
G1 X149.877 Y104.217 E1.11875
G1 X153.64 Y105.667 E1.25288
G1 X154.298 Y105.933 E1.27649
G1 X155.119 Y106.309 E1.30652
G1 X155.904 Y106.755 E1.33655
G1 X156.647 Y107.269 E1.3666
G1 X157.341 Y107.847 E1.39664
G1 X157.981 Y108.484 E1.42667
G1 X158.586 Y109.205 E1.45798
G1 X159.421 Y110.3 E1.50378
G1 X160.549 Y111.759 E1.56512
G1 X161.07 Y112.497 E1.59516
G1 X161.523 Y113.278 E1.62519
G1 X161.905 Y114.096 E1.65522
G1 X162.213 Y114.945 E1.68526
G1 X162.445 Y115.818 E1.7153
G1 X162.599 Y116.708 E1.74534
G1 X162.676 Y117.691 E1.77814
G1 X162.7 Y118.628 E1.80931
G1 X162.699 Y129.211 E2.1613
G1 X162.689 Y129.909 E2.18452
G1 X162.636 Y130.811 E2.21457
G1 X162.504 Y131.704 E2.2446
G1 X162.293 Y132.582 E2.27463
G1 X162.005 Y133.438 E2.30467
G1 X161.643 Y134.265 E2.3347
G1 X161.208 Y135.057 E2.36475
G1 X160.537 Y136.03 E2.40406
G1 X159.915 Y136.829 E2.43774
G1 X158.851 Y138.226 E2.49615
G1 X158.512 Y138.659 E2.51444
G1 X157.925 Y139.345 E2.54447
G1 X157.279 Y139.976 E2.5745
G1 X156.579 Y140.547 E2.60455
G1 X155.832 Y141.055 E2.63459
G1 X155.043 Y141.494 E2.66462
G1 X154.218 Y141.862 E2.69467
G1 X153.364 Y142.155 E2.7247
G1 X152.488 Y142.372 E2.75472
G1 X151.595 Y142.51 E2.78477
G1 X150.694 Y142.569 E2.8148
G1 X149.791 Y142.548 E2.84484
G1 X148.894 Y142.447 E2.87487
G1 X148.009 Y142.267 E2.9049
G1 X147.375 Y142.087 E2.92682
G1 X146.984 Y141.96 E2.9405
G1 X144.922 Y141.266 E3.01286
G1 X142.497 Y140.527 E3.09718
G1 X140.047 Y139.855 E3.18167
G1 X137.571 Y139.25 E3.26645
G1 X135.042 Y138.707 E3.35248
G1 X132.624 Y138.261 E3.43426
G1 X130.055 Y137.861 E3.52074
G1 X127.575 Y137.545 E3.60389
G1 X125.026 Y137.294 E3.68908
G1 X122.504 Y137.118 E3.77316
G1 X119.962 Y137.012 E3.85779
G1 X117.437 Y136.979 E3.94177
G1 X114.897 Y137.018 E4.02626
G1 X112.34 Y137.128 E4.11139
G1 X109.795 Y137.311 E4.19626
G1 X107.309 Y137.56 E4.27935
G1 X104.746 Y137.89 E4.3653
G1 X102.259 Y138.283 E4.44905
G1 X99.758 Y138.75 E4.53367
G1 X97.279 Y139.287 E4.61803
G1 X94.862 Y139.882 E4.70082
G1 X92.36 Y140.572 E4.78715
G1 X89.904 Y141.326 E4.8726
G1 X88.704 Y141.723 E4.91464
G1 X87.791 Y142.032 E4.94669
G1 X86.924 Y142.283 E4.97671
G1 X86.037 Y142.457 E5.00678
G1 X85.139 Y142.551 E5.03681
G1 X84.236 Y142.566 E5.06685
G1 X83.335 Y142.501 E5.09689
G1 X82.444 Y142.356 E5.12692
G1 X81.569 Y142.133 E5.15695
G1 X80.717 Y141.834 E5.18698
G1 X79.895 Y141.46 E5.21702
G1 X79.109 Y141.016 E5.24704
G1 X78.365 Y140.503 E5.2771
G1 X77.67 Y139.927 E5.30712
G1 X77.028 Y139.291 E5.33718
G1 X76.419 Y138.566 E5.36867
G1 X75.769 Y137.716 E5.40426
G1 X74.478 Y136.055 E5.47423
G1 X73.955 Y135.319 E5.50426
G1 X73.498 Y134.539 E5.53433
G1 X73.113 Y133.723 E5.56434
G1 X72.801 Y132.875 E5.59439
G1 X72.566 Y132.003 E5.62443
G1 X72.408 Y131.114 E5.65446
G1 X72.327 Y130.121 E5.6876
G1 X72.306 Y129.489 E5.70863
G1 X72.3 Y129.15 E5.71991
G1 X72.301 Y117.578 E6.1048
G1 X72.311 Y116.88 E6.12801
G1 X72.364 Y115.978 E6.15807
G1 X72.496 Y115.085 E6.18809
G1 X72.707 Y114.207 E6.21812
G1 X72.995 Y113.351 E6.24816
G1 X73.357 Y112.524 E6.27819
G1 X73.792 Y111.732 E6.30824
G1 X74.294 Y110.981 E6.33829
G1 X74.861 Y110.278 E6.36833
G1 X75.719 Y109.415 E6.4088
G1 X76.081 Y109.092 E6.42494
G1 X76.549 Y108.699 E6.44526
G1 X77.674 Y107.81 E6.49295
G1 X78.086 Y107.478 E6.51055
G1 X78.813 Y106.943 E6.54057
G1 X79.585 Y106.474 E6.57062
G1 X80.608 Y105.985 E6.60833
G1 X81.824 Y105.487 E6.65204
G1 X82.415 Y105.259 E6.6731
G1 X83.535 Y104.833 E6.71296
G1 X85.662 Y104.011 E6.7888
G1 X86.45 Y103.725 E6.81668
G1 X87.569 Y103.355 E6.85588
G1 X88.216 Y103.151 E6.87845
G1 X93.622 Y101.479 E7.06666
G1 X95.987 Y100.676 E7.14973
G1 X98.411 Y99.778 E7.2357
G1 X100.763 Y98.828 E7.32007
G1 X103.067 Y97.822 E7.40369
G1 X105.375 Y96.735 E7.48854
G1 X107.628 Y95.595 E7.57252
G1 X109.518 Y94.573 E7.64399
G1 X109.818 Y94.417 E7.65523
G1 X110.194 Y94.232 E7.66917
G1 X110.759 Y93.969 E7.6899
G1 X111.285 Y93.736 E7.70903
G1 X111.791 Y93.519 E7.72735
G1 X112.406 Y93.278 E7.74931
G1 X112.598 Y93.21 E7.75609
G1 X113.462 Y92.947 E7.78613
G1 X114.486 Y92.738 E7.82089
G1 X115.46 Y92.596 E7.85363
G1 X116.19 Y92.506 E7.87809
G1 X117.09 Y92.435 E7.90812
G1 X117.993 Y92.444 E7.93815
G1 X118.5 Y92.484 E7.95507
G0 F6000 X118.542 Y92.087
G1 F1200 X119.182 Y92.154 E7.97647
G1 X119.934 Y92.253 E8.0017
G1 X120.597 Y92.353 E8.024
G1 X121.5 Y92.529 E8.0546
G1 X122.782 Y92.926 E8.09924
G1 X123.003 Y93.01 E8.1071
G1 X123.431 Y93.183 E8.12245
G1 X124.164 Y93.5 E8.14902
G1 X124.822 Y93.796 E8.17301
G1 X125.493 Y94.127 E8.1979
G1 X127.76 Y95.346 E8.28351
G1 X130.004 Y96.474 E8.36704
G1 X132.307 Y97.551 E8.4516
G1 X134.644 Y98.565 E8.53633
G1 X136.994 Y99.507 E8.62054
G1 X139.345 Y100.371 E8.70385
G1 X141.75 Y101.179 E8.78823
G1 X142.788 Y101.497 E8.82434
G1 X148.224 Y103.192 E9.01373
G1 X148.542 Y103.303 E9.02493
G1 X150.021 Y103.843 E9.0773
G1 X153.79 Y105.297 E9.21166
G1 X154.448 Y105.563 E9.23527
G1 X155.286 Y105.944 E9.26588
G1 X156.087 Y106.397 E9.29649
G1 X156.846 Y106.918 E9.32711
G1 X157.557 Y107.503 E9.35773
G1 X158.215 Y108.147 E9.38836
G1 X158.904 Y108.962 E9.42385
G1 X159.733 Y110.049 E9.46932
G1 X160.866 Y111.514 E9.53092
G1 X161.397 Y112.266 E9.56154
G1 X161.861 Y113.061 E9.59215
G1 X162.254 Y113.894 E9.62279
G1 X162.573 Y114.757 E9.65339
G1 X162.816 Y115.645 E9.68401
G1 X162.982 Y116.551 E9.71464
G1 X163.076 Y117.679 E9.75229
G1 X163.1 Y118.628 E9.78387
G1 X163.099 Y129.217 E10.13606
G1 X163.089 Y129.915 E10.15928
G1 X163.036 Y130.834 E10.18989
G1 X162.903 Y131.745 E10.22051
G1 X162.692 Y132.641 E10.25113
G1 X162.404 Y133.515 E10.28174
G1 X162.041 Y134.362 E10.31239
G1 X161.606 Y135.173 E10.343
G1 X160.853 Y136.276 E10.38742
G1 X160.271 Y137.023 E10.41891
G1 X159.166 Y138.472 E10.47952
G1 X158.827 Y138.905 E10.49781
G1 X158.229 Y139.605 E10.52843
G1 X157.572 Y140.25 E10.55905
G1 X156.861 Y140.836 E10.5897
G1 X156.103 Y141.357 E10.62029
G1 X155.302 Y141.811 E10.65091
G1 X154.465 Y142.194 E10.68153
G1 X153.597 Y142.503 E10.71217
G1 X152.706 Y142.735 E10.7428
G1 X151.799 Y142.889 E10.77339
G1 X150.881 Y142.963 E10.80403
G1 X149.96 Y142.958 E10.83466
G1 X149.044 Y142.873 E10.86526
G1 X148.138 Y142.709 E10.89588
G1 X147.253 Y142.468 E10.92639
G1 X146.856 Y142.339 E10.94027
G1 X144.805 Y141.649 E11.01224
G1 X142.389 Y140.912 E11.09626
G1 X139.918 Y140.234 E11.18148
G1 X137.497 Y139.643 E11.26437
G1 X134.984 Y139.104 E11.34985
G1 X132.527 Y138.65 E11.43295
G1 X130.015 Y138.259 E11.51751
G1 X127.522 Y137.942 E11.6011
G1 X124.995 Y137.693 E11.68555
G1 X122.494 Y137.518 E11.76894
G1 X119.942 Y137.412 E11.85389
G1 X117.437 Y137.379 E11.93721
G1 X114.884 Y137.418 E12.02214
G1 X112.387 Y137.526 E12.10527
G1 X109.828 Y137.71 E12.1906
G1 X107.329 Y137.96 E12.27413
G1 X104.823 Y138.283 E12.35817
G1 X102.323 Y138.677 E12.44235
G1 X99.844 Y139.141 E12.52623
G1 X97.387 Y139.673 E12.60984
G1 X94.924 Y140.279 E12.69421
G1 X92.487 Y140.951 E12.77829
G1 X90.008 Y141.712 E12.86454
G1 X88.832 Y142.102 E12.90574
G1 X87.919 Y142.411 E12.9378
G1 X87.035 Y142.668 E12.96842
G1 X86.132 Y142.847 E12.99904
G1 X85.217 Y142.947 E13.02966
G1 X84.296 Y142.968 E13.0603
G1 X83.378 Y142.908 E13.09089
G1 X82.468 Y142.769 E13.12151
G1 X81.573 Y142.552 E13.15214
G1 X80.701 Y142.258 E13.18275
G1 X79.857 Y141.889 E13.21339
G1 X79.049 Y141.448 E13.244
G1 X78.282 Y140.939 E13.27462
G1 X77.562 Y140.365 E13.30525
G1 X76.894 Y139.731 E13.33588
G1 X76.101 Y138.809 E13.37632
G1 X74.9 Y137.246 E13.44188
G1 X74.162 Y136.301 E13.48176
G1 X73.628 Y135.551 E13.51239
G1 X73.161 Y134.758 E13.543
G1 X72.765 Y133.927 E13.57361
G1 X72.442 Y133.064 E13.60426
G1 X72.195 Y132.177 E13.63489
G1 X72.026 Y131.272 E13.66551
G1 X71.927 Y130.134 E13.7035
G1 X71.906 Y129.502 E13.72453
G1 X71.9 Y129.15 E13.73624
G1 X71.901 Y117.572 E14.12133
G1 X71.911 Y116.874 E14.14454
G1 X71.964 Y115.955 E14.17516
G1 X72.097 Y115.044 E14.20578
G1 X72.308 Y114.148 E14.2364
G1 X72.596 Y113.274 E14.26701
G1 X72.959 Y112.427 E14.29765
G1 X73.394 Y111.616 E14.32826
G1 X73.898 Y110.846 E14.35887
G1 X74.467 Y110.122 E14.3895
G1 X75.097 Y109.45 E14.42014
G1 X75.453 Y109.117 E14.43635
G1 X75.815 Y108.794 E14.45249
G1 X76.301 Y108.385 E14.47361
G1 X77.417 Y107.503 E14.52092
G1 X77.834 Y107.167 E14.53874
G1 X78.576 Y106.621 E14.56938
G1 X79.361 Y106.141 E14.59998
G1 X80.455 Y105.615 E14.64035
G1 X81.68 Y105.114 E14.68437
G1 X82.273 Y104.885 E14.70552
G1 X83.393 Y104.459 E14.74537
G1 X85.524 Y103.636 E14.82135
G1 X85.992 Y103.463 E14.83795
G1 X86.324 Y103.346 E14.84965
G1 X87.449 Y102.973 E14.88907
G1 X88.098 Y102.769 E14.9117
G1 X93.491 Y101.101 E15.09946
G1 X95.857 Y100.298 E15.18256
G1 X98.271 Y99.403 E15.26819
G1 X100.59 Y98.467 E15.35137
G1 X102.902 Y97.457 E15.43528
G1 X105.217 Y96.367 E15.52039
G1 X107.436 Y95.244 E15.6031
G1 X109.334 Y94.219 E15.67485
G1 X109.634 Y94.063 E15.68609
G1 X110.024 Y93.87 E15.70057
G1 X110.596 Y93.604 E15.72155
G1 X111.127 Y93.368 E15.74088
G1 X111.633 Y93.151 E15.75919
G1 X112.272 Y92.901 E15.78201
G1 X112.464 Y92.833 E15.78878
G1 X113.345 Y92.564 E15.81942
G1 X114.427 Y92.343 E15.85615
G1 X115.411 Y92.199 E15.88923
G1 X116.141 Y92.109 E15.91369
G1 X117.059 Y92.036 E15.94432
G1 X117.979 Y92.043 E15.97492
G1 X118.542 Y92.087 E15.9937
G1 F2700 E10.9937
G0 F6000 X90.505 Y116.628
G0 X86.228 Y143.237
G1 F2700 E15.9937
G1 F1200 X85.296 Y143.343 E16.0249
G1 X84.358 Y143.369 E16.05611
G1 X83.422 Y143.315 E16.0873
G1 X82.494 Y143.182 E16.11848
G1 X81.58 Y142.97 E16.14968
G1 X80.688 Y142.68 E16.18088
G1 X79.823 Y142.316 E16.21209
G1 X78.993 Y141.88 E16.24328
G1 X78.203 Y141.375 E16.27446
G1 X77.459 Y140.804 E16.30565
G1 X76.766 Y140.172 E16.33685
G1 X76.13 Y139.483 E16.36804
G1 X75.783 Y139.052 E16.38644
G1 X74.584 Y137.492 E16.45188
G1 X73.847 Y136.547 E16.49174
G1 X73.302 Y135.783 E16.52295
G1 X72.825 Y134.976 E16.55413
G1 X72.417 Y134.131 E16.58534
G1 X72.084 Y133.255 E16.61651
G1 X71.826 Y132.353 E16.64772
G1 X71.646 Y131.433 E16.6789
G1 X71.527 Y130.147 E16.72185
G1 X71.506 Y129.515 E16.74288
G1 X71.5 Y129.15 E16.75502
G1 X71.501 Y117.566 E17.14031
G1 X71.511 Y116.868 E17.16353
G1 X71.565 Y115.932 E17.19471
G1 X71.697 Y115.004 E17.22589
G1 X71.909 Y114.09 E17.25709
G1 X72.198 Y113.198 E17.28828
G1 X72.561 Y112.333 E17.31948
G1 X72.997 Y111.503 E17.35066
G1 X73.502 Y110.712 E17.38188
G1 X74.073 Y109.968 E17.41307
G1 X74.705 Y109.275 E17.44427
G1 X75.187 Y108.818 E17.46636
G1 X75.549 Y108.495 E17.48249
G1 X76.053 Y108.071 E17.5044
G1 X77.583 Y106.856 E17.56938
G1 X78.338 Y106.299 E17.60059
G1 X79.137 Y105.808 E17.63178
G1 X80.303 Y105.245 E17.67484
G1 X81.536 Y104.741 E17.71915
G1 X82.13 Y104.512 E17.74032
G1 X83.216 Y104.099 E17.77897
G1 X85.385 Y103.26 E17.85632
G1 X85.853 Y103.087 E17.87291
G1 X86.198 Y102.966 E17.88507
G1 X87.329 Y102.592 E17.92469
G1 X87.98 Y102.387 E17.94739
G1 X93.349 Y100.726 E18.13432
G1 X95.737 Y99.915 E18.2182
G1 X98.118 Y99.033 E18.30265
G1 X100.429 Y98.101 E18.38553
G1 X102.75 Y97.086 E18.46978
G1 X105.031 Y96.013 E18.55362
G1 X107.272 Y94.879 E18.63716
G1 X109.149 Y93.864 E18.70813
G1 X109.449 Y93.708 E18.71938
G1 X109.854 Y93.508 E18.7344
G1 X110.433 Y93.238 E18.75565
G1 X110.969 Y93 E18.77516
G1 X111.475 Y92.783 E18.79347
G1 X112.139 Y92.524 E18.81717
G1 X112.331 Y92.456 E18.82395
G1 X113.227 Y92.181 E18.85512
G1 X114.367 Y91.947 E18.89383
G1 X115.362 Y91.802 E18.92727
G1 X116.092 Y91.712 E18.95174
G1 X117.027 Y91.637 E18.98293
G1 X117.965 Y91.642 E19.01413
G1 X118.583 Y91.689 E19.03475
G1 X119.223 Y91.756 E19.05615
G1 X119.994 Y91.857 E19.08201
G1 X120.657 Y91.957 E19.10431
G1 X121.577 Y92.136 E19.13549
G1 X122.479 Y92.393 E19.16668
G1 X123.145 Y92.636 E19.19026
G1 X123.589 Y92.816 E19.2062
G1 X124.328 Y93.135 E19.23297
G1 X124.986 Y93.431 E19.25696
G1 X125.682 Y93.775 E19.28279
G1 X127.906 Y94.971 E19.36677
G1 X130.204 Y96.126 E19.45232
G1 X132.47 Y97.186 E19.53552
G1 X134.773 Y98.185 E19.61902
G1 X137.173 Y99.148 E19.70503
G1 X139.473 Y99.992 E19.78651
G1 X141.879 Y100.801 E19.87094
G1 X142.905 Y101.115 E19.90663
G1 X148.057 Y102.716 E20.08607
G1 X148.349 Y102.812 E20.09629
G1 X148.679 Y102.927 E20.10791
G1 X150.165 Y103.47 E20.16053
G1 X153.94 Y104.926 E20.29511
G1 X154.598 Y105.192 E20.31871
G1 X155.451 Y105.58 E20.34988
G1 X156.269 Y106.04 E20.38109
G1 X157.044 Y106.567 E20.41227
G1 X157.772 Y107.159 E20.44347
G1 X158.447 Y107.81 E20.47467
G1 X159.222 Y108.72 E20.51442
G1 X160.011 Y109.755 E20.55771
G1 X161.182 Y111.269 E20.62137
G1 X161.724 Y112.035 E20.65258
G1 X162.198 Y112.844 E20.68376
G1 X162.602 Y113.69 E20.71494
G1 X162.932 Y114.568 E20.74614
G1 X163.187 Y115.471 E20.77735
G1 X163.363 Y116.392 E20.80854
G1 X163.476 Y117.667 E20.85111
G1 X163.495 Y118.296 E20.87204
G1 X163.5 Y118.628 E20.88308
G1 X163.499 Y129.223 E21.23548
G1 X163.489 Y129.921 E21.25869
G1 X163.435 Y130.857 E21.28988
G1 X163.303 Y131.785 E21.32105
G1 X163.091 Y132.699 E21.35226
G1 X162.802 Y133.591 E21.38345
G1 X162.439 Y134.456 E21.41465
G1 X162.003 Y135.286 E21.44583
G1 X161.498 Y136.077 E21.47704
G1 X161.168 Y136.522 E21.49547
G1 X160.589 Y137.265 E21.5268
G1 X159.481 Y138.719 E21.5876
G1 X159.142 Y139.152 E21.60589
G1 X158.533 Y139.865 E21.63708
G1 X157.866 Y140.524 E21.66826
G1 X157.144 Y141.123 E21.69947
G1 X156.374 Y141.659 E21.73067
G1 X155.562 Y142.127 E21.76184
G1 X154.712 Y142.525 E21.79306
G1 X153.832 Y142.848 E21.82424
G1 X152.927 Y143.096 E21.85545
G1 X152.005 Y143.265 E21.88662
G1 X151.071 Y143.355 E21.91783
G1 X150.134 Y143.366 E21.949
G1 X149.198 Y143.296 E21.98022
G1 X148.272 Y143.147 E22.01141
G1 X147.132 Y142.849 E22.0506
G1 X146.729 Y142.719 E22.06469
G1 X144.677 Y142.028 E22.1367
G1 X142.24 Y141.285 E22.22144
G1 X139.856 Y140.631 E22.30366
G1 X137.39 Y140.029 E22.38809
G1 X134.899 Y139.494 E22.47283
G1 X132.464 Y139.045 E22.55519
G1 X129.974 Y138.657 E22.639
G1 X127.465 Y138.338 E22.72312
G1 X124.964 Y138.092 E22.80671
G1 X122.449 Y137.916 E22.89056
G1 X119.954 Y137.812 E22.97362
G1 X117.438 Y137.779 E23.05731
G1 X114.907 Y137.818 E23.1415
G1 X112.4 Y137.926 E23.22496
G1 X109.86 Y138.109 E23.30966
G1 X107.383 Y138.357 E23.39246
G1 X104.87 Y138.68 E23.47673
G1 X102.422 Y139.067 E23.55916
G1 X99.896 Y139.539 E23.64463
G1 X97.462 Y140.066 E23.72746
G1 X95.055 Y140.658 E23.8099
G1 X92.565 Y141.345 E23.89582
G1 X90.166 Y142.082 E23.97929
G1 X88.89 Y142.504 E24.02399
G1 X88.047 Y142.789 E24.05358
G1 X87.147 Y143.052 E24.08477
G1 X86.228 Y143.237 E24.11595
G1 F2700 E19.11595
G0 F6000 X90.497 Y116.971
G0 X90.962 Y116.971
G1 F2700 E24.11595
G1 F1200 X91.071 Y116.929 E24.11984
G1 X92.353 Y116.526 E24.16453
G1 X96.104 Y115.368 E24.2951
G1 X99.077 Y114.641 E24.3969
G1 X101.48 Y114.079 E24.47898
G1 X106.703 Y113.193 E24.65518
