;FLAVOR:Marlin
;TIME:15215
;Filament used: 17.9232m
;Layer height: 0.28
;MINX:25.26
;MINY:29.813
;MINZ:0.28
;MAXX:93.167
;MAXY:91.696
;MAXZ:112.84
;Generated with Cura_SteamEngine 4.6.1
M140 S50
M105
M190 S50
M104 S210
M105
M109 S210
M82 ;absolute extrusion mode
; Ender 3 Custom Start G-code
G92 E0 ; Reset Extruder
G28 ; Home all axes
G1 Z2.0 F3000 ; Move Z Axis up little to prevent scratching of Heat Bed
G1 X0.1 Y20 Z0.3 F5000.0 ; Move to start position
G1 X0.1 Y200.0 Z0.3 F1500.0 E15 ; Draw the first line
G1 X0.4 Y200.0 Z0.3 F5000.0 ; Move to side a little
G1 X0.4 Y20 Z0.3 F1500.0 E30 ; Draw the second line
G92 E0 ; Reset Extruder
G1 Z2.0 F3000 ; Move Z Axis up little to prevent scratching of Heat Bed
G1 X5 Y20 Z0.3 F5000.0 ; Move over to prevent blob squish
G92 E0
G92 E0
G1 F2700 E-5
;LAYER_COUNT:403
;LAYER:0
M107
G0 F6000 X58.333 Y90.868 Z0.28
;TYPE:SKIRT
G1 F2700 E0
G1 F1200 X56.228 Y90.896 E0.09803
G1 X52.814 Y90.896 E0.257
G1 X52.173 Y90.887 E0.28685
G1 X51.271 Y90.834 E0.32892
G1 X50.378 Y90.702 E0.37095
G1 X49.5 Y90.491 E0.413
G1 X48.849 Y90.281 E0.44485
G1 X48.683 Y90.221 E0.45307
G1 X47.848 Y89.876 E0.49514
G1 X47.047 Y89.46 E0.53717
G1 X46.331 Y89.005 E0.57667
G1 X45.79 Y88.627 E0.6074
G1 X44.397 Y87.613 E0.68763
G1 X43.152 Y86.741 E0.75841
G1 X41.937 Y85.87 E0.82802
G1 X40.558 Y84.866 E0.90745
G1 X39.328 Y84.003 E0.97741
G1 X38.001 Y83.052 E1.05343
G1 X35.174 Y80.992 E1.21631
G1 X34.657 Y80.605 E1.24638
G1 X33.958 Y80.032 E1.28847
G1 X33.313 Y79.4 E1.33052
G1 X32.727 Y78.713 E1.37256
G1 X32.329 Y78.166 E1.40406
G1 X32.215 Y77.998 E1.41352
G1 X31.741 Y77.229 E1.45558
G1 X31.338 Y76.421 E1.49762
G1 X31.004 Y75.571 E1.54015
G1 X30.768 Y74.878 E1.57424
G1 X30.337 Y73.551 E1.63921
G1 X29.87 Y72.206 E1.7055
G1 X29.247 Y70.317 E1.79812
G1 X28.843 Y69.069 E1.85921
G1 X28.348 Y67.636 E1.9298
G1 X27.777 Y65.903 E2.01476
G1 X26.705 Y62.597 E2.1766
G1 X26.506 Y61.954 E2.20794
G1 X26.277 Y61.08 E2.25001
G1 X26.127 Y60.189 E2.29208
G1 X26.056 Y59.289 E2.33412
G1 X26.059 Y58.511 E2.37035
G1 X26.066 Y58.344 E2.37813
G1 X26.144 Y57.444 E2.42019
G1 X26.301 Y56.555 E2.46223
G1 X26.512 Y55.758 E2.50062
G1 X26.761 Y54.957 E2.53968
G1 X27.163 Y53.72 E2.60024
G1 X27.617 Y52.228 E2.67286
G1 X28.119 Y50.649 E2.75001
G1 X28.597 Y49.174 E2.82221
G1 X29.032 Y47.741 E2.89195
G1 X29.572 Y46.036 E2.97522
G1 X30.652 Y42.714 E3.13788
G1 X30.856 Y42.114 E3.16739
G1 X31.184 Y41.272 E3.20947
G1 X31.586 Y40.463 E3.25153
G1 X32.057 Y39.693 E3.29356
G1 X32.557 Y39.014 E3.33283
G1 X32.695 Y38.842 E3.34309
G1 X33.291 Y38.163 E3.38516
G1 X33.944 Y37.54 E3.42719
G1 X34.477 Y37.106 E3.45919
G1 X35.003 Y36.709 E3.48988
G1 X36.31 Y35.757 E3.56517
G1 X37.47 Y34.881 E3.63286
G1 X38.905 Y33.819 E3.71599
G1 X40.163 Y32.906 E3.78837
G1 X40.758 Y32.485 E3.82231
G1 X41.518 Y31.996 E3.86439
G1 X42.318 Y31.577 E3.90644
G1 X43.152 Y31.23 E3.9485
G1 X44.013 Y30.958 E3.99054
G1 X44.895 Y30.763 E4.03261
G1 X45.79 Y30.647 E4.07463
G1 X46.693 Y30.611 E4.11671
G1 X47.887 Y30.686 E4.17242
G1 X48.352 Y30.743 E4.19423
G1 X50.959 Y31.023 E4.31632
G1 X53.484 Y31.223 E4.43427
G1 X56.035 Y31.353 E4.5532
G1 X58.54 Y31.409 E4.66988
G1 X61.109 Y31.394 E4.7895
G1 X63.633 Y31.308 E4.9071
G1 X66.176 Y31.149 E5.02574
G1 X68.698 Y30.919 E5.14367
G1 X69.974 Y30.767 E5.2035
G1 X70.73 Y30.688 E5.2389
G1 X71.631 Y30.634 E5.28092
G1 X72.534 Y30.66 E5.32299
G1 X73.431 Y30.766 E5.36505
G1 X74.315 Y30.95 E5.40709
G1 X75.179 Y31.213 E5.44915
G1 X76.017 Y31.55 E5.49121
G1 X76.822 Y31.96 E5.53327
G1 X77.621 Y32.464 E5.57726
G1 X79.348 Y33.667 E5.67526
G1 X80.427 Y34.43 E5.7368
G1 X83.254 Y36.49 E5.89968
G1 X83.771 Y36.877 E5.92975
G1 X84.47 Y37.45 E5.97183
G1 X85.115 Y38.082 E6.01388
G1 X85.701 Y38.769 E6.05593
G1 X86.099 Y39.316 E6.08743
G1 X86.213 Y39.484 E6.09688
G1 X86.687 Y40.253 E6.13895
G1 X87.09 Y41.061 E6.18099
G1 X87.424 Y41.911 E6.22352
G1 X87.66 Y42.604 E6.2576
G1 X88.079 Y43.894 E6.32076
G1 X88.558 Y45.276 E6.38887
G1 X89.181 Y47.165 E6.48149
G1 X89.577 Y48.387 E6.5413
G1 X90.068 Y49.815 E6.61162
G1 X90.664 Y51.621 E6.70017
G1 X91.714 Y54.861 E6.85877
G1 X91.92 Y55.526 E6.89118
G1 X92.149 Y56.399 E6.93321
G1 X92.3 Y57.29 E6.97529
G1 X92.371 Y58.19 E7.01733
G1 X92.368 Y58.982 E7.05421
G1 X92.361 Y59.145 E7.0618
G1 X92.282 Y60.044 E7.10383
G1 X92.124 Y60.933 E7.14587
G1 X91.917 Y61.711 E7.18336
G1 X91.651 Y62.573 E7.22536
G1 X91.254 Y63.797 E7.28528
G1 X90.811 Y65.254 E7.35619
G1 X90.309 Y66.833 E7.43334
G1 X89.831 Y68.308 E7.50554
G1 X89.396 Y69.741 E7.57527
G1 X88.856 Y71.446 E7.65855
G1 X87.776 Y74.768 E7.82121
G1 X87.572 Y75.368 E7.85072
G1 X87.244 Y76.21 E7.89279
G1 X86.842 Y77.019 E7.93486
G1 X86.371 Y77.789 E7.97689
G1 X85.871 Y78.468 E8.01615
G1 X85.733 Y78.64 E8.02642
G1 X85.137 Y79.319 E8.06849
G1 X84.484 Y79.942 E8.11052
G1 X83.951 Y80.376 E8.14252
G1 X83.425 Y80.773 E8.17321
G1 X82.107 Y81.733 E8.24913
G1 X80.914 Y82.634 E8.31875
G1 X79.556 Y83.641 E8.39747
G1 X78.387 Y84.491 E8.46477
G1 X77.343 Y85.273 E8.52551
G1 X75.7 Y86.493 E8.6208
G1 X72.931 Y88.506 E8.78021
G1 X72.373 Y88.899 E8.81199
G1 X71.613 Y89.386 E8.85402
G1 X70.812 Y89.804 E8.89609
G1 X69.977 Y90.149 E8.93816
G1 X69.295 Y90.37 E8.97154
G1 X69.123 Y90.419 E8.97987
G1 X68.244 Y90.627 E9.02193
G1 X67.35 Y90.758 E9.064
G1 X66.472 Y90.808 E9.10495
G1 X65.612 Y90.819 E9.145
G1 X64.021 Y90.818 E9.21908
G1 X62.258 Y90.833 E9.30118
G1 X60.726 Y90.858 E9.37253
G1 X58.333 Y90.868 E9.48396
G0 F6000 X58.336 Y91.268
G1 F1200 X56.228 Y91.296 E9.58212
G1 X52.808 Y91.296 E9.74137
G1 X52.167 Y91.287 E9.77122
G1 X51.248 Y91.234 E9.81408
G1 X50.337 Y91.102 E9.85695
G1 X49.441 Y90.891 E9.89981
G1 X48.713 Y90.657 E9.93542
G1 X48.547 Y90.597 E9.94364
G1 X47.695 Y90.247 E9.98653
G1 X46.878 Y89.824 E10.02937
G1 X46.102 Y89.334 E10.0721
G1 X45.555 Y88.95 E10.10322
G1 X44.217 Y87.976 E10.18028
G1 X42.919 Y87.066 E10.2541
G1 X41.702 Y86.193 E10.32384
G1 X40.352 Y85.21 E10.4016
G1 X39.095 Y84.328 E10.4731
G1 X37.766 Y83.375 E10.54925
G1 X34.934 Y81.312 E10.7124
G1 X34.417 Y80.925 E10.74247
G1 X33.705 Y80.342 E10.78532
G1 X33.045 Y79.699 E10.82823
G1 X32.445 Y79.001 E10.87109
G1 X31.998 Y78.391 E10.9063
G1 X31.884 Y78.223 E10.91575
G1 X31.4 Y77.439 E10.95866
G1 X30.987 Y76.617 E11.00149
G1 X30.625 Y75.701 E11.04735
G1 X30.388 Y75.002 E11.08172
G1 X29.975 Y73.73 E11.144
G1 X29.491 Y72.331 E11.21293
G1 X28.866 Y70.44 E11.30567
G1 X28.458 Y69.181 E11.36729
G1 X27.968 Y67.761 E11.43724
G1 X27.397 Y66.028 E11.5222
G1 X26.323 Y62.715 E11.68437
G1 X26.124 Y62.072 E11.71571
G1 X25.89 Y61.181 E11.75861
G1 X25.735 Y60.274 E11.80146
G1 X25.658 Y59.357 E11.84431
G1 X25.659 Y58.494 E11.88449
G1 X25.666 Y58.327 E11.89227
G1 X25.745 Y57.41 E11.93513
G1 X25.903 Y56.503 E11.978
G1 X26.13 Y55.64 E12.01955
G1 X26.381 Y54.833 E12.05891
G1 X26.774 Y53.623 E12.11815
G1 X27.236 Y52.107 E12.19194
G1 X27.739 Y50.525 E12.26924
G1 X28.224 Y49.029 E12.34247
G1 X28.651 Y47.621 E12.41098
G1 X29.191 Y45.913 E12.49439
G1 X30.273 Y42.585 E12.65734
G1 X30.477 Y41.985 E12.68685
G1 X30.811 Y41.127 E12.72972
G1 X31.218 Y40.301 E12.7726
G1 X31.696 Y39.514 E12.81548
G1 X32.245 Y38.764 E12.85876
G1 X32.383 Y38.592 E12.86903
G1 X32.99 Y37.899 E12.91192
G1 X33.655 Y37.262 E12.9548
G1 X34.235 Y36.787 E12.98971
G1 X34.767 Y36.385 E13.02076
G1 X36.12 Y35.399 E13.09872
G1 X37.232 Y34.559 E13.16361
G1 X38.67 Y33.495 E13.2469
G1 X39.932 Y32.579 E13.31952
G1 X40.527 Y32.158 E13.35346
G1 X41.301 Y31.659 E13.39634
G1 X42.116 Y31.23 E13.43922
G1 X42.964 Y30.872 E13.48208
G1 X43.84 Y30.59 E13.52494
G1 X44.738 Y30.385 E13.56783
G1 X45.65 Y30.258 E13.6107
G1 X46.569 Y30.211 E13.65355
G1 X47.936 Y30.289 E13.71731
G1 X48.445 Y30.351 E13.74118
G1 X50.965 Y30.622 E13.8592
G1 X53.534 Y30.826 E13.9792
G1 X56.028 Y30.952 E14.09548
G1 X58.546 Y31.009 E14.21276
G1 X61.093 Y30.994 E14.33136
G1 X63.63 Y30.908 E14.44956
G1 X66.151 Y30.75 E14.56718
G1 X68.647 Y30.523 E14.68389
G1 X69.932 Y30.369 E14.74415
G1 X70.688 Y30.29 E14.77954
G1 X71.607 Y30.235 E14.82241
G1 X72.528 Y30.259 E14.86531
G1 X73.442 Y30.363 E14.90815
G1 X74.345 Y30.545 E14.95104
G1 X75.228 Y30.806 E14.99391
G1 X76.085 Y31.142 E15.03678
G1 X76.91 Y31.551 E15.07965
G1 X77.849 Y32.136 E15.13117
G1 X79.578 Y33.34 E15.22928
G1 X80.662 Y34.107 E15.29111
G1 X83.494 Y36.17 E15.45426
G1 X84.011 Y36.557 E15.48433
G1 X84.723 Y37.14 E15.52718
G1 X85.383 Y37.783 E15.57008
G1 X85.983 Y38.481 E15.61294
G1 X86.43 Y39.091 E15.64816
G1 X86.544 Y39.259 E15.65761
G1 X87.028 Y40.043 E15.70051
G1 X87.441 Y40.865 E15.74335
G1 X87.803 Y41.781 E15.78921
G1 X88.04 Y42.48 E15.82358
G1 X88.453 Y43.752 E15.88585
G1 X88.937 Y45.151 E15.95479
G1 X89.562 Y47.042 E16.04752
G1 X89.961 Y48.275 E16.10787
G1 X90.448 Y49.69 E16.17755
G1 X91.045 Y51.498 E16.26621
G1 X92.096 Y54.742 E16.42499
G1 X92.302 Y55.407 E16.45741
G1 X92.536 Y56.298 E16.50031
G1 X92.692 Y57.205 E16.54316
G1 X92.769 Y58.123 E16.58605
G1 X92.767 Y58.999 E16.62685
G1 X92.76 Y59.162 E16.63444
G1 X92.681 Y60.079 E16.6773
G1 X92.522 Y60.986 E16.72018
G1 X92.3 Y61.829 E16.76077
G1 X92.031 Y62.697 E16.80308
G1 X91.643 Y63.894 E16.86168
G1 X91.192 Y65.375 E16.93376
G1 X90.689 Y66.957 E17.01106
G1 X90.204 Y68.453 E17.08429
G1 X89.777 Y69.861 E17.1528
G1 X89.237 Y71.569 E17.23621
G1 X88.155 Y74.897 E17.39916
G1 X87.951 Y75.497 E17.42867
G1 X87.617 Y76.355 E17.47155
G1 X87.21 Y77.181 E17.51442
G1 X86.732 Y77.968 E17.5573
G1 X86.183 Y78.718 E17.60058
G1 X86.045 Y78.89 E17.61085
G1 X85.438 Y79.583 E17.65375
G1 X84.773 Y80.22 E17.69662
G1 X84.193 Y80.695 E17.73153
G1 X83.661 Y81.097 E17.76258
G1 X82.296 Y82.092 E17.84124
G1 X81.152 Y82.955 E17.90796
G1 X79.791 Y83.964 E17.98685
G1 X78.697 Y84.76 E18.04985
G1 X77.583 Y85.594 E18.11465
G1 X75.936 Y86.817 E18.21017
G1 X73.162 Y88.833 E18.36985
G1 X72.604 Y89.226 E18.40163
G1 X71.829 Y89.723 E18.4445
G1 X71.013 Y90.151 E18.48741
G1 X70.164 Y90.507 E18.53028
G1 X69.404 Y90.754 E18.56749
G1 X69.232 Y90.803 E18.57581
G1 X68.337 Y91.017 E18.61866
G1 X67.426 Y91.152 E18.66155
G1 X66.477 Y91.208 E18.70581
G1 X65.612 Y91.219 E18.74609
G1 X64.025 Y91.218 E18.81999
G1 X62.262 Y91.233 E18.90209
G1 X60.726 Y91.258 E18.97362
G1 X58.336 Y91.268 E19.08491
G0 F6000 X58.338 Y91.668
G1 F1200 X56.228 Y91.696 E19.18317
G1 X52.803 Y91.696 E19.34265
G1 X52.162 Y91.687 E19.3725
G1 X51.225 Y91.634 E19.4162
G1 X50.297 Y91.501 E19.45985
G1 X49.383 Y91.29 E19.50353
G1 X48.577 Y91.033 E19.54293
G1 X48.411 Y90.973 E19.55114
G1 X47.543 Y90.617 E19.59483
G1 X46.709 Y90.188 E19.6385
G1 X45.874 Y89.662 E19.68445
G1 X45.319 Y89.273 E19.71601
G1 X43.984 Y88.302 E19.79288
G1 X42.686 Y87.391 E19.86672
G1 X41.466 Y86.516 E19.93663
G1 X40.108 Y85.528 E20.01483
G1 X38.862 Y84.654 E20.0857
G1 X37.53 Y83.699 E20.16201
G1 X34.694 Y81.632 E20.32542
G1 X34.177 Y81.245 E20.3555
G1 X33.451 Y80.652 E20.39914
G1 X32.778 Y79.998 E20.44284
G1 X32.163 Y79.29 E20.48651
G1 X31.667 Y78.616 E20.52548
G1 X31.553 Y78.448 E20.53493
G1 X31.06 Y77.65 E20.57861
G1 X30.636 Y76.813 E20.6223
G1 X30.247 Y75.83 E20.67152
G1 X30.007 Y75.125 E20.7062
G1 X29.591 Y73.844 E20.76892
G1 X29.111 Y72.456 E20.8373
G1 X28.486 Y70.563 E20.93013
G1 X28.09 Y69.339 E20.99003
G1 X27.588 Y67.886 E21.06161
G1 X27.017 Y66.153 E21.14658
G1 X25.941 Y62.833 E21.30909
G1 X25.742 Y62.19 E21.34043
G1 X25.503 Y61.283 E21.3841
G1 X25.342 Y60.359 E21.42778
G1 X25.261 Y59.425 E21.47143
G1 X25.26 Y58.477 E21.51558
G1 X25.267 Y58.31 E21.52336
G1 X25.346 Y57.376 E21.567
G1 X25.504 Y56.451 E21.6107
G1 X25.748 Y55.522 E21.65543
G1 X26 Y54.709 E21.69506
G1 X26.415 Y53.431 E21.75763
G1 X26.855 Y51.986 E21.82796
G1 X27.358 Y50.402 E21.90535
G1 X27.84 Y48.915 E21.97814
G1 X28.27 Y47.5 E22.047
G1 X28.811 Y45.789 E22.13056
G1 X29.894 Y42.456 E22.29375
G1 X30.098 Y41.856 E22.32325
G1 X30.438 Y40.982 E22.36692
G1 X30.851 Y40.14 E22.41059
G1 X31.334 Y39.336 E22.45427
G1 X31.933 Y38.513 E22.50166
G1 X32.071 Y38.341 E22.51193
G1 X32.689 Y37.635 E22.55562
G1 X33.364 Y36.985 E22.59926
G1 X33.993 Y36.469 E22.63714
G1 X34.531 Y36.062 E22.66855
G1 X35.855 Y35.097 E22.74484
G1 X36.994 Y34.238 E22.81127
G1 X38.435 Y33.172 E22.89473
G1 X39.701 Y32.252 E22.96761
G1 X40.296 Y31.831 E23.00154
G1 X41.084 Y31.323 E23.0452
G1 X41.913 Y30.883 E23.0889
G1 X42.776 Y30.516 E23.13257
G1 X43.667 Y30.223 E23.17625
G1 X44.58 Y30.008 E23.21992
G1 X45.507 Y29.871 E23.26356
G1 X46.443 Y29.813 E23.30722
G1 X47.381 Y29.835 E23.35091
G1 X47.985 Y29.892 E23.37916
G1 X48.47 Y29.951 E23.40191
G1 X51.039 Y30.227 E23.52222
G1 X53.518 Y30.424 E23.63802
G1 X56.057 Y30.553 E23.7564
G1 X58.553 Y30.609 E23.87265
G1 X61.078 Y30.594 E23.99023
G1 X63.626 Y30.507 E24.10894
G1 X66.087 Y30.353 E24.22376
G1 X68.637 Y30.121 E24.34299
G1 X69.891 Y29.972 E24.40179
G1 X70.647 Y29.893 E24.43719
G1 X71.583 Y29.835 E24.48086
G1 X72.52 Y29.857 E24.5245
G1 X73.453 Y29.959 E24.5682
G1 X74.373 Y30.141 E24.61187
G1 X75.274 Y30.399 E24.65551
G1 X76.15 Y30.734 E24.69918
G1 X76.995 Y31.142 E24.74288
G1 X78.078 Y31.807 E24.80205
G1 X79.809 Y33.014 E24.90032
G1 X80.898 Y33.783 E24.96239
G1 X83.734 Y35.85 E25.1258
G1 X84.251 Y36.237 E25.15587
G1 X84.977 Y36.83 E25.19952
G1 X85.65 Y37.484 E25.24322
G1 X86.265 Y38.192 E25.28689
G1 X86.761 Y38.866 E25.32585
G1 X86.875 Y39.034 E25.33531
G1 X87.368 Y39.832 E25.37899
G1 X87.792 Y40.669 E25.42268
G1 X88.181 Y41.652 E25.4719
G1 X88.421 Y42.357 E25.50658
G1 X88.837 Y43.638 E25.56929
G1 X89.317 Y45.026 E25.63768
G1 X89.942 Y46.919 E25.73051
G1 X90.335 Y48.133 E25.78992
G1 X90.828 Y49.565 E25.86045
G1 X91.425 Y51.374 E25.94915
G1 X92.478 Y54.624 E26.10823
G1 X92.684 Y55.289 E26.14064
G1 X92.923 Y56.196 E26.18432
G1 X93.084 Y57.12 E26.22799
G1 X93.166 Y58.054 E26.27165
G1 X93.167 Y59.016 E26.31645
G1 X93.16 Y59.179 E26.32404
G1 X93.08 Y60.113 E26.36769
G1 X92.92 Y61.038 E26.4114
G1 X92.682 Y61.947 E26.45516
G1 X92.412 Y62.82 E26.49771
G1 X92.022 Y64.023 E26.5566
G1 X91.573 Y65.496 E26.6283
G1 X91.07 Y67.08 E26.70569
G1 X90.588 Y68.567 E26.77847
G1 X90.158 Y69.982 E26.84734
G1 X89.617 Y71.693 E26.9309
G1 X88.534 Y75.026 E27.09408
G1 X88.33 Y75.626 E27.12359
G1 X87.99 Y76.5 E27.16726
G1 X87.577 Y77.342 E27.21093
G1 X87.094 Y78.146 E27.2546
G1 X86.495 Y78.969 E27.302
G1 X86.357 Y79.141 E27.31227
G1 X85.739 Y79.847 E27.35596
G1 X85.064 Y80.497 E27.39959
G1 X84.435 Y81.013 E27.43748
G1 X83.897 Y81.42 E27.46889
G1 X82.524 Y82.421 E27.54801
G1 X81.39 Y83.276 E27.61414
G1 X80.026 Y84.288 E27.69323
G1 X78.92 Y85.092 E27.7569
G1 X77.823 Y85.914 E27.82073
G1 X76.171 Y87.14 E27.91652
G1 X73.392 Y89.16 E28.07649
G1 X72.834 Y89.553 E28.10827
G1 X72.045 Y90.06 E28.15195
G1 X71.216 Y90.498 E28.1956
G1 X70.352 Y90.864 E28.2393
G1 X69.514 Y91.139 E28.28036
G1 X69.342 Y91.188 E28.28869
G1 X68.43 Y91.406 E28.33235
G1 X67.502 Y91.546 E28.37606
G1 X66.483 Y91.608 E28.42359
G1 X65.611 Y91.619 E28.4642
G1 X64.027 Y91.618 E28.53796
G1 X62.265 Y91.633 E28.62001
G1 X60.726 Y91.658 E28.69168
G1 X58.338 Y91.668 E28.80287
G1 F2700 E23.80287
;MESH:empire_sniper_pump_handle_-_twisted.stl
G0 F6000 X50.266 Y66.893
G0 X51.018 Y68.199
G0 X50.918 Y68.027
;TYPE:WALL-INNER
G1 F2700 E28.80287
G1 F1200 X51.964 Y66.98 E28.87179
G1 X52.354 Y65.54 E28.94126
G1 X51.972 Y64.111 E29.01013
G1 X50.92 Y63.053 E29.07961
G1 X49.489 Y62.669 E29.1486
G1 X48.047 Y63.051 E29.21806
G1 X47.001 Y64.097 E29.28694
G1 X46.61 Y65.538 E29.35646
G1 X46.993 Y66.968 E29.4254
G1 X48.045 Y68.025 E29.49484
G1 X49.475 Y68.409 E29.56378
G1 X50.918 Y68.027 E29.63329
G0 F6000 X50.711 Y67.668
;TYPE:WALL-OUTER
G1 F1200 X51.606 Y66.773 E29.69223
G1 X51.94 Y65.539 E29.75176
G1 X51.613 Y64.317 E29.81066
G1 X50.712 Y63.411 E29.87016
G1 X49.488 Y63.083 E29.92916
G1 X48.254 Y63.41 E29.98861
G1 X47.359 Y64.305 E30.04754
G1 X47.024 Y65.539 E30.10708
G1 X47.352 Y66.761 E30.166
G1 X48.253 Y67.667 E30.2255
G1 X49.476 Y67.995 E30.28446
G1 X50.711 Y67.668 E30.34395
G0 F6000 X50.93 Y68.049
G1 F2700 E25.34395
G0 F6000 X52.135 Y67.079
G0 X50.834 Y66.324
G0 X56.105 Y64.597
G0 X55.292 Y65.812
G0 X58.079 Y66.591
G0 X59.481 Y66.731
G0 X60.274 Y66.654
G0 X62.299 Y66.333
;TYPE:WALL-INNER
G1 F2700 E30.34395
G1 F1200 X63.567 Y65.655 E30.4109
G1 X64.684 Y64.738 E30.47819
