;FLAVOR:Marlin
;TIME:12680
;Filament used: 8.54105m
;Layer height: 0.2
;MINX:76.188
;MINY:16.541
;MINZ:0.2
;MAXX:143.255
;MAXY:203.459
;MAXZ:8.6
;Generated with Cura_SteamEngine 4.2.1
M140 S65
M105
M190 S65
M104 S210
M105
M109 S210
M82 ;absolute extrusion mode
M201 X500.00 Y500.00 Z100.00 E5000.00 ;Setup machine max acceleration
M203 X500.00 Y500.00 Z10.00 E50.00 ;Setup machine max feedrate
M204 P500.00 R1000.00 T500.00 ;Setup Print/Retract/Travel acceleration
M205 X8.00 Y8.00 Z0.40 E5.00 ;Setup Jerk
M220 S100 ;Reset Feedrate
M221 S100 ;Reset Flowrate

G28 ;Home

G92 E0 ;Reset Extruder
G1 Z2.0 F3000 ;Move Z Axis up
G1 X10.1 Y20 Z0.28 F5000.0 ;Move to start position
G1 X10.1 Y200.0 Z0.28 F1500.0 E15 ;Draw the first line
G1 X10.4 Y200.0 Z0.28 F5000.0 ;Move to side a little
G1 X10.4 Y20 Z0.28 F1500.0 E30 ;Draw the second line
G92 E0 ;Reset Extruder
G1 Z2.0 F3000 ;Move Z Axis up

M141 S28
G92 E0
G92 E0
G1 F2700 E-5
;LAYER_COUNT:43
;LAYER:0
M107
G0 F6000 X79.429 Y54.456 Z0.2
;TYPE:SUPPORT
G1 F2700 E0
G1 F1200 X79.908 Y54.107 E0.02168
G1 X80.512 Y54.107 E0.04378
G1 X81.009 Y54.468 E0.06625
G1 X81.309 Y55.186 E0.09472
G1 X81.004 Y56.586 E0.14715
G1 X81.006 Y57.845 E0.19321
G1 X80.824 Y58.401 E0.21461
G1 X80.997 Y59.447 E0.2534
G1 X80.908 Y60.144 E0.27911
G1 X81.06 Y61.472 E0.32801
G1 X81.261 Y62.36 E0.36132
G1 X81.097 Y62.862 E0.38064
G1 X81.192 Y63.152 E0.39181
G1 X80.827 Y64.086 E0.4285
G1 X80.867 Y65.296 E0.47279
G1 X80.969 Y66.075 E0.50153
G1 X80.733 Y67.443 E0.55232
G1 X80.849 Y67.923 E0.57039
G1 X80.72 Y68.317 E0.58556
G1 X80.869 Y69.11 E0.61508
G1 X80.955 Y70.112 E0.65187
G1 X80.778 Y70.894 E0.68121
G1 X80.887 Y71.227 E0.69403
G1 X80.647 Y71.944 E0.72169
G1 X80.809 Y72.439 E0.74074
G1 X80.671 Y72.862 E0.75702
G1 X80.781 Y73.2 E0.77003
G1 X80.594 Y73.773 E0.79208
G1 X80.105 Y74.129 E0.81421
G1 X79.501 Y74.129 E0.83631
G1 X79.012 Y73.773 E0.85844
G1 X78.825 Y73.2 E0.88049
G1 X78.959 Y72.79 E0.89627
G1 X78.745 Y71.74 E0.93548
G1 X78.969 Y71.051 E0.96198
G1 X78.864 Y70.727 E0.97444
G1 X79.021 Y70.021 E1.0009
G1 X78.94 Y68.911 E1.04162
G1 X78.89 Y67.8 E1.08231
G1 X78.795 Y67.507 E1.09358
G1 X79.083 Y66.363 E1.13674
G1 X78.943 Y65.073 E1.18421
G1 X78.782 Y64.211 E1.2163
G1 X79.153 Y62.883 E1.26674
G1 X79.143 Y61.602 E1.31361
G1 X78.989 Y60.985 E1.33688
G1 X79.058 Y60.316 E1.36148
G1 X78.863 Y59.188 E1.40336
G1 X78.966 Y58.677 E1.42244
G1 X78.842 Y58.298 E1.43703
G1 X79.049 Y57.662 E1.4615
G1 X78.951 Y57.361 E1.47308
G1 X79.144 Y56.768 E1.49589
G1 X79.016 Y56.374 E1.51105
G1 X79.258 Y55.217 E1.5543
G1 X79.429 Y54.456 E1.58283
G1 F2700 E-3.41717
G0 F6000 X78.564 Y54.264
G0 X78.104 Y56.423
G0 X77.914 Y58.298
G0 X76.749 Y75.575
G0 X76.749 Y144.79
G0 X77.265 Y145.306
G0 X79.9 Y145.352
G0 X79.9 Y146.237
G1 F2700 E1.58283
G1 F1200 X80.504 Y146.237 E1.60493
G1 X80.993 Y146.593 E1.62706
G1 X81.179 Y147.164 E1.64903
G1 X80.797 Y148.282 E1.69226
G1 X80.876 Y148.526 E1.70164
G1 X80.596 Y149.271 E1.73076
G1 X80.725 Y149.668 E1.74603
G1 X80.43 Y150.774 E1.78791
G1 X80.215 Y151.778 E1.82547
G1 X80.062 Y152.247 E1.84352
G1 X80.489 Y153.485 E1.89143
G1 X80.574 Y154.458 E1.92717
G1 X80.453 Y155.503 E1.96566
G1 X80.652 Y156.638 E2.00782
G1 X81.037 Y157.883 E2.05549
G1 X81.062 Y158.948 E2.09447
G1 X81.194 Y159.485 E2.1147
G1 X81.008 Y160.053 E2.13657
G1 X81.089 Y161.116 E2.17557
G1 X81.075 Y161.684 E2.19636
G1 X81.224 Y162.707 E2.23418
G1 X81.083 Y163.139 E2.25081
G1 X81.25 Y163.652 E2.27054
G1 X81.12 Y164.049 E2.28583
G1 X81.307 Y165.056 E2.3233
G1 X80.995 Y165.75 E2.35114
G1 X80.496 Y166.113 E2.37371
G1 X79.892 Y166.113 E2.39581
G1 X79.408 Y165.761 E2.41771
G1 X79.159 Y164.855 E2.45208
G1 X79.268 Y164.521 E2.46494
G1 X79.147 Y164.149 E2.47925
G1 X79.3 Y163.679 E2.49733
G1 X79.181 Y163.313 E2.51141
G1 X79.255 Y162.716 E2.53342
G1 X79.102 Y161.639 E2.57322
G1 X79.112 Y161.109 E2.59262
G1 X79.042 Y159.991 E2.6336
G1 X79.242 Y159.375 E2.6573
G1 X79.108 Y158.962 E2.67318
G1 X79.208 Y158.556 E2.68848
G1 X78.781 Y157.049 E2.74578
G1 X78.56 Y156.312 E2.77393
G1 X78.659 Y154.931 E2.82459
G1 X78.456 Y153.665 E2.8715
G1 X78.015 Y152.204 E2.92733
G1 X78.432 Y150.828 E2.97994
G1 X78.801 Y149.464 E3.03163
G1 X78.671 Y149.067 E3.04692
G1 X78.924 Y148.031 E3.08594
G1 X79.409 Y146.594 E3.14142
G1 X79.9 Y146.237 E3.16363
G1 F2700 E-1.83637
;MESH:Element_Brake_Toaster.stl
G0 F6000 X79.9 Y145.352
G0 X80.79 Y145.354
G0 X81.743 Y146.048
G0 X82.11 Y147.171
G0 X81.911 Y147.738
G0 X82.078 Y147.937
G0 X82.244 Y168.975
G0 X78.969 Y170.778
G0 X78.488 Y171.362
G0 X78.716 Y173.26
G0 X79.438 Y176.396
G0 X80.459 Y179.523
G0 X81.719 Y182.459
G0 X82.465 Y183.911
G0 X83.692 Y185.904
G0 X85.335 Y188.001
G0 X86.505 Y189.219
G0 X88.689 Y190.893
G0 X90.542 Y192.157
G0 X92.51 Y193.366
G0 X94.486 Y194.453
G0 X96.52 Y195.447
G0 X98.578 Y196.332
G0 X100.674 Y197.114
G0 X102.809 Y197.795
G0 X104.55 Y198.258
G0 X128.76 Y203.369
G0 X129.378 Y201.695
;TYPE:WALL-INNER
G1 F2700 E3.16363
G1 F1200 X129.122 Y201.641 E3.17321
G1 X105.344 Y196.645 E4.06215
G1 X103.307 Y196.103 E4.13927
G1 X101.246 Y195.445 E4.21842
G1 X99.234 Y194.694 E4.29699
G1 X97.244 Y193.838 E4.37625
G1 X95.315 Y192.895 E4.4548
G1 X93.376 Y191.829 E4.53576
G1 X91.48 Y190.663 E4.61719
G1 X89.733 Y189.47 E4.69459
G1 X87.68 Y187.898 E4.78919
G1 X86.635 Y186.807 E4.84446
G1 X85.88 Y185.898 E4.8877
G1 X85.161 Y184.925 E4.93196
G1 X83.87 Y182.818 E5.02237
G1 X83.308 Y181.692 E5.06841
G1 X82.107 Y178.891 E5.17991
G1 X81.585 Y177.411 E5.23733
G1 X81.131 Y175.904 E5.29491
G1 X80.771 Y174.484 E5.3485
G1 X80.458 Y172.973 E5.40496
G1 X80.421 Y172.671 E5.41609
G1 X80.394 Y172.442 E5.42453
G1 X80.624 Y172.426 E5.42991
G1 X81.73 Y172.348 E5.47047
G1 X82.287 Y172.383 E5.49089
G1 X83.041 Y171.912 E5.52342
G1 X83.484 Y171.286 E5.55148
G1 X83.751 Y170.608 E5.57814
G1 X83.923 Y169.862 E5.60615
G1 X84.008 Y169.06 E5.63565
G1 X83.817 Y146.545 E6.45942
G1 X83.772 Y145.937 E6.48172
G1 X83.625 Y145.29 E6.506
G1 X83.368 Y144.679 E6.53025
G1 X82.971 Y144.133 E6.55495
G1 X82.394 Y143.701 E6.58132
G1 X81.756 Y143.546 E6.60534
G1 X78.51 Y143.545 E6.7241
G1 X78.51 Y76.82 E9.16531
G1 X81.752 Y76.819 E9.28392
G1 X82.365 Y76.675 E9.30696
G1 X82.956 Y76.248 E9.33364
G1 X83.359 Y75.698 E9.35858
G1 X83.613 Y75.101 E9.38232
G1 X83.766 Y74.458 E9.4065
G1 X83.815 Y73.832 E9.42947
G1 X84.011 Y51.366 E10.25145
G1 X83.996 Y50.756 E10.27377
G1 X83.911 Y50.107 E10.29772
G1 X83.752 Y49.495 E10.32085
G1 X83.5 Y48.92 E10.34382
G1 X83.084 Y48.379 E10.36879
G1 X82.514 Y48.068 E10.39255
G1 X80.383 Y47.68 E10.47179
G1 X80.452 Y47.105 E10.49298
G1 X80.455 Y47.027 E10.49584
G1 X80.742 Y45.639 E10.54769
G1 X81.127 Y44.117 E10.60513
G1 X81.577 Y42.613 E10.66257
G1 X82.085 Y41.164 E10.71874
G1 X83.296 Y38.334 E10.83136
G1 X83.86 Y37.2 E10.8777
G1 X83.956 Y37.033 E10.88475
G1 X85.133 Y35.118 E10.96699
G1 X85.851 Y34.138 E11.01143
G1 X86.624 Y33.205 E11.05576
G1 X87.677 Y32.105 E11.11147
G1 X89.716 Y30.543 E11.20545
G1 X91.528 Y29.305 E11.28574
G1 X93.384 Y28.165 E11.36543
G1 X95.25 Y27.138 E11.44335
G1 X97.229 Y26.168 E11.52399
G1 X99.202 Y25.319 E11.60257
G1 X101.212 Y24.566 E11.6811
G1 X103.262 Y23.911 E11.75984
G1 X105.361 Y23.35 E11.83933
G1 X107.461 Y22.899 E11.91791
G1 X129.376 Y18.305 E12.73712
G1 X141.49 Y18.305 E13.18033
G1 X141.49 Y201.695 E19.88986
G1 X129.378 Y201.695 E20.33299
G1 F2700 E15.33299
G0 F6000 X128.76 Y203.369
G0 X128.713 Y203.32
G0 X113.76 Y187.828
G0 X113.707 Y187.773
G0 X111.954 Y189.526
G1 F2700 E20.33299
G1 F1200 X127.146 Y189.526 E20.88881
G1 X127.146 Y166.012 E21.7491
G1 X121.201 Y166.012 E21.9666
G1 X121.2 Y166.012 E21.96664
G1 X120.432 Y166.012 E21.99474
G1 X121.085 Y165.606 E22.00934
G1 X121.362 Y165.433 E22.02129
G1 X121.519 Y165.368 E22.02751
G1 X122.493 Y164.632 E22.07217
G1 X122.598 Y164.53 E22.07753
G1 X122.984 Y164.216 E22.09573
G1 X123.155 Y164.048 E22.1045
G1 X123.427 Y163.802 E22.11792
G1 X123.596 Y163.594 E22.12773
G1 X123.634 Y163.557 E22.12967
G1 X123.808 Y163.448 E22.13718
G1 X124.715 Y162.293 E22.19091
G1 X124.957 Y161.953 E22.20618
G1 X125.388 Y161.52 E22.22853
G1 X125.388 Y161.341 E22.23508
G1 X125.622 Y161.002 E22.25015
G1 X125.752 Y160.696 E22.26231
G1 X126.224 Y159.813 E22.29894
G1 X126.447 Y159.323 E22.31864
G1 X126.641 Y159.094 E22.32962
G1 X126.677 Y158.803 E22.34035
G1 X126.776 Y158.62 E22.34796
G1 X127.002 Y158.037 E22.37084
G1 X127.09 Y157.95 E22.37536
G1 X127.09 Y156.601 E22.42472
G1 X127.13 Y156.601 E22.42618
G1 X127.032 Y153.858 E22.5266
G1 X126.951 Y153.608 E22.53622
G1 X126.883 Y153.318 E22.54711
G1 X126.876 Y153.044 E22.55714
G1 X126.763 Y152.748 E22.56873
G1 X126.759 Y152.674 E22.57144
G1 X126.613 Y152.294 E22.58634
G1 X126.608 Y152.143 E22.59186
G1 X126.245 Y151.298 E22.62551
G1 X126.168 Y151.163 E22.6312
G1 X125.995 Y150.798 E22.64598
G1 X125.655 Y150.268 E22.66901
G1 X125.571 Y150.071 E22.67685
G1 X124.855 Y149.12 E22.7204
G1 X124.771 Y149.044 E22.72455
G1 X124.73 Y148.974 E22.72751
G1 X124.58 Y148.827 E22.7352
G1 X123.322 Y147.655 E22.7981
G1 X123.24 Y147.552 E22.80292
G1 X122.658 Y147.097 E22.82995
G1 X122.513 Y147.037 E22.83569
G1 X122.209 Y146.827 E22.84921
G1 X122.058 Y146.735 E22.85567
G1 X121.822 Y146.56 E22.86642
G1 X120.781 Y145.999 E22.90969
G1 X120.635 Y145.906 E22.91602
G1 X119.187 Y145.271 E22.97387
G1 X118.051 Y144.847 E23.01823
G1 X117.285 Y144.622 E23.04744
G1 X117.158 Y144.569 E23.05248
G1 X116.012 Y144.246 E23.09604
G1 X115.815 Y144.22 E23.10331
G1 X114.575 Y143.937 E23.14984
G1 X114.402 Y143.882 E23.15648
G1 X113.739 Y143.749 E23.18122
G1 X113.234 Y143.667 E23.19994
G1 X110.743 Y143.517 E23.29124
G1 X108.471 Y143.536 E23.37437
G1 X106.331 Y143.72 E23.45295
G1 X104.368 Y144.057 E23.52582
G1 X103.519 Y144.291 E23.55804
G1 X103.242 Y144.367 E23.56855
G1 X103.242 Y144.08 E23.57488
G1 X103.242 Y144.079 E23.57491
G1 X103.242 Y143.203 E23.60696
G1 X117.283 Y139.083 E24.14233
G1 X117.564 Y139.001 E24.15304
G1 X117.564 Y139.293 E24.15945
G1 X117.564 Y139.294 E24.15949
G1 X117.564 Y142.256 E24.26785
G1 X118.863 Y142.256 E24.31538
G1 X127.264 Y142.262 E24.62274
G1 X127.314 Y135.256 E24.87907
G1 X127.314 Y128.926 E25.11066
G1 X103.353 Y121.798 E26.02527
G1 X103.353 Y120.495 E26.07294
G1 X107.721 Y120.495 E26.23275
G1 X107.721 Y116.827 E26.36695
G1 X107.721 Y116.542 E26.37737
G1 X107.721 Y116.286 E26.38674
G1 X107.926 Y116.542 E26.39098
G1 X108.126 Y116.744 E26.39881
G1 X108.919 Y117.542 E26.43997
G1 X109.058 Y117.707 E26.44786
G1 X109.784 Y118.24 E26.48082
G1 X109.877 Y118.357 E26.48628
G1 X110.889 Y118.945 E26.52911
G1 X111.838 Y119.446 E26.56837
G1 X112.44 Y119.709 E26.5924
G1 X114.004 Y119.942 E26.65025
G1 X115.386 Y120.072 E26.70104
G1 X116.706 Y120.115 E26.74936
G1 X117.965 Y120.069 E26.79545
G1 X119.162 Y119.931 E26.83953
G1 X120.294 Y119.7 E26.8818
G1 X121.365 Y119.373 E26.92277
G1 X122.369 Y118.95 E26.96263
G1 X123.303 Y118.425 E27.00183
G1 X124.186 Y117.784 E27.04175
G1 X125.632 Y116.28 E27.11809
G1 X126.763 Y114.403 E27.19826
G1 X127.593 Y112.106 E27.28762
G1 X127.593 Y108.949 E27.40312
G1 X127.441 Y108.672 E27.41468
G1 X127.439 Y108.417 E27.42401
G1 X127.33 Y107.569 E27.45529
G1 X127.282 Y107.518 E27.45785
G1 X127.244 Y107.342 E27.46444
G1 X127.174 Y107.067 E27.47482
G1 X127.169 Y106.922 E27.48013
G1 X127.009 Y106.37 E27.50116
G1 X126.957 Y106.236 E27.50641
G1 X126.898 Y106.016 E27.51475
G1 X126.791 Y105.755 E27.52507
G1 X126.61 Y105.226 E27.54552
G1 X126.398 Y104.794 E27.56313
G1 X126.327 Y104.588 E27.5711
G1 X126.217 Y104.398 E27.57913
G1 X126.134 Y104.195 E27.58716
G1 X125.998 Y104.014 E27.59544
G1 X125.971 Y103.956 E27.59778
G1 X125.745 Y103.6 E27.61321
G1 X125.474 Y102.995 E27.63746
G1 X125.449 Y102.939 E27.63971
G1 X125.331 Y102.741 E27.64814
G1 X125.251 Y102.58 E27.65472
G1 X125.331 Y102.58
G1 X125.449 Y102.58 E27.65585
G1 X125.511 Y102.58 E27.65794
G1 X127.146 Y102.58 E27.71776
G1 X127.146 Y80.326 E28.53195
G1 X127.33 Y80.318 E28.53869
G1 X127.284 Y57.768 E29.36371
G1 X126.98 Y57.768 E29.37483
G1 X127.017 Y48.01 E29.73184
G1 X126.983 Y48.01 E29.73308
G1 X126.911 Y45.565 E29.82258
G1 X126.674 Y44.616 E29.85836
G1 X126.475 Y43.792 E29.88938
G1 X125.345 Y41.618 E29.97902
G1 X124.647 Y40.7 E30.02121
G1 X124.519 Y40.565 E30.02802
G1 X123.471 Y39.692 E30.07792
G1 X122.054 Y38.835 E30.13851
G1 X120.322 Y38.018 E30.20857
G1 X119.299 Y37.648 E30.24837
G1 X118.229 Y37.38 E30.28873
G1 X117.12 Y37.218 E30.32973
G1 X115.979 Y37.159 E30.37153
G1 X114.801 Y37.2 E30.41466
G1 X113.592 Y37.343 E30.4592
G1 X112.351 Y37.584 E30.50545
G1 X111.038 Y37.933 E30.55515
G1 X110.906 Y37.988 E30.56039
G1 X108.795 Y38.916 E30.64475
G1 X108.63 Y39.056 E30.65267
G1 X107.984 Y39.44 E30.68016
G1 X107.724 Y39.557 E30.69059
G1 X107.129 Y39.994 E30.7176
G1 X106.2 Y39.577 E30.75486
G1 X106.094 Y39.484 E30.76002
G1 X103.688 Y38.369 E30.85704
G1 X103.688 Y35.042 E30.97876
G1 X93.353 Y35.042 E31.35688
G1 X93.353 Y45.84 E31.75194
G1 X93.422 Y45.84 E31.75446
G1 X103.614 Y45.84 E32.12735
G1 X103.819 Y45.84 E32.13485
G1 X103.819 Y45.969 E32.1374
G1 X103.819 Y48.055 E32.21372
G1 X103.8 Y48.055 E32.21441
G1 X103.572 Y48.047 E32.22276
G1 X103.614 Y45.969 E32.26174
G1 X93.422 Y45.969 E32.37107
G1 X93.422 Y57.909 E32.80791
G1 X93.408 Y57.909 E32.80842
G1 X93.408 Y80.553 E33.63687
G1 X103.535 Y80.553 E34.00738
G1 X103.535 Y78.168 E34.09464
G1 X103.535 Y77.948 E34.10269
G1 X103.755 Y77.948 E34.10789
G1 X105.708 Y77.949 E34.17935
G1 X116.745 Y77.986 E34.58315
G1 X116.743 Y78.083 E34.5867
G1 X116.742 Y79.065 E34.62263
G1 X111.954 Y79.065 E34.7978
G1 X111.954 Y86.205 E35.05903
G1 X113.197 Y86.205 E35.1045
G1 X117.036 Y86.191 E35.24496
G1 X117.038 Y86.191 E35.24503
G1 X117.259 Y86.191 E35.25312
G1 X117.258 Y86.412 E35.25834
G1 X117.257 Y86.414 E35.25842
G1 X117.254 Y86.666 E35.26764
G1 X103.674 Y86.685 E35.76448
G1 X103.673 Y86.685 E35.76452
G1 X103.451 Y86.685 E35.77264
G1 X103.453 Y86.463 E35.77788
G1 X103.454 Y86.462 E35.77793
G1 X103.467 Y85.498 E35.81321
G1 X103.468 Y85.497 E35.81326
G1 X103.469 Y85.276 E35.82134
G1 X103.248 Y85.276 E35.82657
G1 X103.247 Y85.276 E35.8266
G1 X93.381 Y85.276 E36.18756
G1 X93.381 Y97.169 E36.62268
G1 X103.727 Y97.169 E37.0012
G1 X103.812 Y95.122 E37.07616
G1 X111.816 Y95.115 E37.36899
G1 X111.953 Y95.115 E37.37401
G1 X117.258 Y95.11 E37.5681
G1 X117.257 Y95.256 E37.57344
G1 X111.954 Y95.28 E37.64198
G1 X111.954 Y95.417 E37.64699
G1 X111.954 Y102.338 E37.90021
G1 X111.954 Y102.58 E37.90906
G1 X112.28 Y102.58 E37.92099
G1 X114.313 Y102.58 E37.99537
G1 X114.313 Y104.892 E38.07995
G1 X114.313 Y105.317 E38.0955
G1 X114.313 Y105.662 E38.10813
G1 X114.119 Y105.317 E38.11238
G1 X113.892 Y104.957 E38.12376
G1 X113.808 Y104.824 E38.12952
G1 X113.662 Y104.698 E38.13657
G1 X113.348 Y104.273 E38.15591
G1 X113.256 Y104.123 E38.16234
G1 X112.39 Y103.185 E38.20905
G1 X112.297 Y103.116 E38.21329
G1 X112.276 Y103.08 E38.21481
G1 X112.168 Y102.988 E38.22
G1 X111.919 Y102.778 E38.22887
G1 X111.852 Y102.733 E38.23183
G1 X111.652 Y102.598 E38.23838
G1 X111.219 Y102.305 E38.2575
G1 X111.058 Y102.169 E38.26521
G1 X109.819 Y101.537 E38.3161
G1 X108.602 Y101.106 E38.36334
G1 X106.809 Y100.8 E38.42988
G1 X104.775 Y100.719 E38.50436
G1 X103.737 Y100.796 E38.54244
G1 X103.08 Y100.876 E38.56665
G1 X102.967 Y100.899 E38.57087
G1 X100.507 Y101.409 E38.66279
G1 X100.123 Y101.51 E38.67732
G1 X98.675 Y102.17 E38.73554
G1 X97.11 Y103.411 E38.80861
G1 X96.648 Y103.844 E38.83178
G1 X96.517 Y104.004 E38.83934
G1 X96.423 Y104.086 E38.84391
G1 X95.735 Y104.825 E38.88085
G1 X95.458 Y105.138 E38.89614
G1 X95.037 Y105.762 E38.92368
G1 X94.718 Y106.3 E38.94656
G1 X94.482 Y106.647 E38.96191
G1 X94.185 Y107.261 E38.98687
G1 X94.182 Y107.295 E38.98812
G1 X94.122 Y107.398 E38.99248
G1 X93.88 Y108.006 E39.01642
G1 X93.839 Y108.241 E39.02515
G1 X93.812 Y108.301 E39.02755
G1 X93.752 Y108.509 E39.03548
G1 X93.666 Y108.725 E39.04398
G1 X93.531 Y109.588 E39.07594
G1 X93.426 Y109.755 E39.08316
G1 X93.424 Y110.205 E39.09962
G1 X93.357 Y110.306 E39.10405
G1 X93.425 Y112.195 E39.17321
G1 X93.488 Y112.499 E39.18457
G1 X93.56 Y113.355 E39.216
G1 X93.63 Y113.459 E39.22058
G1 X93.652 Y113.584 E39.22523
G1 X93.689 Y113.738 E39.23102
