;FLAVOR:Marlin
;TIME:2461
;Filament used: 1.22835m
;Layer height: 0.2
;MINX:104.093
;MINY:104.102
;MINZ:0.2
;MAXX:130.908
;MAXY:130.905
;MAXZ:38.8
;Generated with Cura_SteamEngine 4.1.0
M140 S60
M105
M190 S60
M104 S215
M105
M109 S215
M82 ;absolute extrusion mode
; Ender 3 Custom Start G-code
G28 ; Home all axes
G92 E0 ; Reset Extruder
G1 Z2.0 F3000 ; Move Z Axis up little to prevent scratching of Heat Bed
G1 X0.1 Y20 Z0.3 F5000.0 ; Move to start position
G1 X0.1 Y200.0 Z0.3 F1500.0 E15 ; Draw the first line
G1 X0.4 Y200.0 Z0.3 F5000.0 ; Move to side a little
G1 X0.4 Y20 Z0.3 F1500.0 E30 ; Draw the second line
G92 E0 ; Reset Extruder
G1 Z2.0 F3000 ; Move Z Axis up little to prevent scratching of Heat Bed
; End of custom start GCode
G92 E0
G92 E0
G1 F2400 E-5
;LAYER_COUNT:194
;LAYER:0
M107
M204 S500
M205 X10 Y10
G0 F3600 X108.125 Y107.921 Z0.2
;TYPE:SKIRT
G1 F2400 E0
G1 F1800 X108.501 Y107.568 E0.01715
G1 X108.849 Y107.267 E0.03246
G1 X109.011 Y107.132 E0.03947
G1 X109.283 Y106.912 E0.05111
G1 X109.714 Y106.592 E0.06896
G1 X110.103 Y106.328 E0.0846
G1 X110.279 Y106.213 E0.09159
G1 X110.575 Y106.026 E0.10323
G1 X111.028 Y105.765 E0.12062
G1 X111.422 Y105.559 E0.13541
G1 X111.602 Y105.469 E0.1421
G1 X111.902 Y105.324 E0.15319
G1 X112.402 Y105.108 E0.1713
G1 X112.899 Y104.918 E0.189
G1 X113.11 Y104.841 E0.19647
G1 X113.399 Y104.742 E0.20663
G1 X113.899 Y104.594 E0.22397
G1 X114.364 Y104.476 E0.23993
G1 X114.54 Y104.434 E0.24595
G1 X114.884 Y104.357 E0.25767
G1 X115.473 Y104.253 E0.27757
G1 X115.889 Y104.2 E0.29151
G1 X116.031 Y104.184 E0.29627
G1 X116.413 Y104.144 E0.30904
G1 X116.968 Y104.11 E0.32754
G1 X117.426 Y104.102 E0.34277
G1 X117.622 Y104.102 E0.34929
G1 X117.928 Y104.106 E0.35947
G1 X118.471 Y104.136 E0.37756
G1 X119.04 Y104.192 E0.39657
G1 X119.25 Y104.216 E0.4036
G1 X119.538 Y104.254 E0.41326
G1 X120.06 Y104.345 E0.43089
G1 X120.488 Y104.438 E0.44546
G1 X120.686 Y104.484 E0.45222
G1 X121.017 Y104.567 E0.46357
G1 X121.538 Y104.722 E0.48165
G1 X122.042 Y104.895 E0.49937
G1 X122.204 Y104.953 E0.50509
G1 X122.469 Y105.052 E0.5145
G1 X123.011 Y105.283 E0.5341
G1 X123.473 Y105.506 E0.55116
G1 X123.631 Y105.585 E0.55704
G1 X123.921 Y105.735 E0.56789
G1 X124.401 Y106.01 E0.58629
G1 X124.749 Y106.23 E0.59999
G1 X124.906 Y106.333 E0.60623
G1 X125.222 Y106.546 E0.61891
G1 X125.653 Y106.863 E0.6367
G1 X126.024 Y107.161 E0.65253
G1 X126.198 Y107.306 E0.66006
G1 X126.461 Y107.533 E0.67162
G1 X126.842 Y107.891 E0.68901
G1 X127.195 Y108.25 E0.70575
G1 X127.335 Y108.396 E0.71248
G1 X127.539 Y108.617 E0.72248
G1 X127.898 Y109.042 E0.74099
G1 X128.178 Y109.404 E0.75621
G1 X128.268 Y109.524 E0.7612
G1 X128.478 Y109.809 E0.77297
G1 X128.812 Y110.308 E0.79294
G1 X129.056 Y110.714 E0.8087
G1 X129.127 Y110.836 E0.81339
G1 X129.291 Y111.123 E0.82439
G1 X129.562 Y111.652 E0.84416
G1 X129.779 Y112.13 E0.86162
G1 X129.842 Y112.276 E0.86691
G1 X129.957 Y112.547 E0.8767
G1 X130.158 Y113.086 E0.89583
G1 X130.299 Y113.524 E0.91113
G1 X130.359 Y113.72 E0.91795
G1 X130.462 Y114.079 E0.93037
G1 X130.585 Y114.583 E0.94763
G1 X130.67 Y115.006 E0.96198
G1 X130.706 Y115.203 E0.96864
G1 X130.765 Y115.553 E0.98045
G1 X130.832 Y116.091 E0.99848
G1 X130.874 Y116.6 E1.01546
G1 X130.888 Y116.797 E1.02203
G1 X130.904 Y117.108 E1.03239
G1 X130.908 Y117.666 E1.05095
G1 X130.892 Y118.112 E1.06579
G1 X130.883 Y118.283 E1.07149
G1 X130.86 Y118.65 E1.08372
G1 X130.801 Y119.208 E1.10238
G1 X130.732 Y119.664 E1.11772
G1 X130.703 Y119.837 E1.12356
G1 X130.645 Y120.16 E1.13447
G1 X130.519 Y120.719 E1.15353
G1 X130.381 Y121.223 E1.17091
G1 X130.329 Y121.402 E1.17711
G1 X130.238 Y121.7 E1.18747
G1 X130.053 Y122.224 E1.20596
G1 X129.878 Y122.658 E1.22152
G1 X129.802 Y122.839 E1.22805
G1 X129.661 Y123.16 E1.23971
G1 X129.418 Y123.653 E1.25799
G1 X129.216 Y124.023 E1.27201
G1 X129.128 Y124.18 E1.278
G1 X128.935 Y124.511 E1.29074
G1 X128.636 Y124.975 E1.3091
G1 X128.361 Y125.365 E1.32497
G1 X128.249 Y125.52 E1.33133
G1 X128.053 Y125.781 E1.34219
G1 X127.704 Y126.207 E1.36051
G1 X127.371 Y126.579 E1.37711
G1 X127.243 Y126.717 E1.38337
G1 X127.035 Y126.936 E1.39342
G1 X126.637 Y127.32 E1.41181
G1 X126.252 Y127.661 E1.42892
G1 X126.102 Y127.79 E1.4355
G1 X125.864 Y127.988 E1.4458
G1 X125.471 Y128.29 E1.46228
G1 X125.128 Y128.533 E1.47626
G1 X124.94 Y128.661 E1.48383
G1 X124.617 Y128.873 E1.49668
G1 X124.119 Y129.169 E1.51594
G1 X123.677 Y129.405 E1.53261
G1 X123.517 Y129.488 E1.5386
G1 X123.244 Y129.624 E1.54875
G1 X122.757 Y129.841 E1.56648
G1 X122.252 Y130.042 E1.58456
G1 X122.039 Y130.123 E1.59214
G1 X121.776 Y130.217 E1.60143
G1 X121.271 Y130.374 E1.61902
G1 X120.821 Y130.494 E1.63451
G1 X120.662 Y130.534 E1.63996
G1 X120.311 Y130.618 E1.65197
G1 X119.74 Y130.728 E1.67131
G1 X119.292 Y130.793 E1.68636
G1 X119.101 Y130.817 E1.69277
G1 X118.743 Y130.858 E1.70475
G1 X118.049 Y130.9 E1.72788
G1 X117.117 Y130.905 E1.75887
G1 X116.424 Y130.871 E1.78195
G1 X115.893 Y130.816 E1.79971
G1 X115.642 Y130.785 E1.80812
G1 X115.308 Y130.737 E1.81934
G1 X114.769 Y130.636 E1.83758
G1 X114.313 Y130.53 E1.85315
G1 X114.126 Y130.483 E1.85956
G1 X113.812 Y130.4 E1.87037
G1 X113.287 Y130.237 E1.88865
G1 X112.802 Y130.063 E1.90579
G1 X112.614 Y129.992 E1.91247
G1 X112.315 Y129.874 E1.92316
G1 X111.824 Y129.656 E1.94103
G1 X111.414 Y129.453 E1.95625
G1 X111.234 Y129.361 E1.96297
G1 X110.95 Y129.209 E1.97369
G1 X110.484 Y128.933 E1.9917
G1 X110.016 Y128.629 E2.01026
G1 X109.838 Y128.509 E2.0174
G1 X109.596 Y128.34 E2.02722
G1 X109.172 Y128.017 E2.04495
G1 X108.848 Y127.748 E2.05895
G1 X108.725 Y127.644 E2.06431
G1 X108.456 Y127.409 E2.07619
G1 X108.035 Y127.005 E2.0956
G1 X107.688 Y126.641 E2.11232
G1 X107.556 Y126.499 E2.11877
G1 X107.329 Y126.246 E2.13008
G1 X106.982 Y125.823 E2.14827
G1 X106.713 Y125.466 E2.16314
G1 X106.61 Y125.326 E2.16892
G1 X106.405 Y125.038 E2.18068
G1 X106.095 Y124.558 E2.19969
G1 X105.854 Y124.146 E2.21556
G1 X105.777 Y124.011 E2.22073
G1 X105.625 Y123.736 E2.23118
G1 X105.365 Y123.21 E2.2507
G1 X105.151 Y122.722 E2.26842
G1 X105.08 Y122.555 E2.27445
G1 X104.969 Y122.281 E2.28429
G1 X104.782 Y121.753 E2.30292
G1 X104.642 Y121.296 E2.31881
G1 X104.589 Y121.113 E2.32515
G1 X104.498 Y120.781 E2.3366
G1 X104.377 Y120.257 E2.35449
G1 X104.297 Y119.826 E2.36907
G1 X104.265 Y119.638 E2.37541
G1 X104.21 Y119.283 E2.38736
G1 X104.149 Y118.732 E2.4058
G1 X104.114 Y118.211 E2.42316
G1 X104.105 Y118.036 E2.42899
G1 X104.093 Y117.734 E2.43905
G1 X104.095 Y117.174 E2.45767
G1 X104.115 Y116.756 E2.47159
G1 X104.128 Y116.559 E2.47816
G1 X104.159 Y116.166 E2.49127
G1 X104.222 Y115.639 E2.50892
G1 X104.298 Y115.173 E2.52463
G1 X104.333 Y114.98 E2.53115
G1 X104.392 Y114.677 E2.54142
G1 X104.525 Y114.126 E2.56027
G1 X104.669 Y113.627 E2.57754
G1 X104.718 Y113.464 E2.5832
G1 X104.812 Y113.168 E2.59353
G1 X105.014 Y112.621 E2.61293
G1 X105.206 Y112.165 E2.62938
G1 X105.268 Y112.021 E2.6346
G1 X105.404 Y111.719 E2.64561
G1 X105.669 Y111.196 E2.66512
G1 X105.889 Y110.807 E2.67998
G1 X105.967 Y110.673 E2.68514
G1 X106.15 Y110.367 E2.69699
G1 X106.464 Y109.892 E2.71593
G1 X106.729 Y109.527 E2.73094
G1 X106.841 Y109.377 E2.73716
G1 X107.064 Y109.088 E2.7493
G1 X107.419 Y108.667 E2.76762
G1 X107.737 Y108.321 E2.78325
G1 X107.886 Y108.164 E2.79045
G1 X108.125 Y107.921 E2.80178
G0 F3600 X108.41 Y108.202
G1 F1800 X108.763 Y107.871 E2.81788
G1 X109.111 Y107.57 E2.83318
G1 X109.263 Y107.443 E2.83977
G1 X109.535 Y107.223 E2.85141
G1 X109.939 Y106.923 E2.86814
G1 X110.328 Y106.659 E2.88378
G1 X110.492 Y106.551 E2.89031
G1 X110.788 Y106.364 E2.90196
G1 X111.213 Y106.12 E2.91826
G1 X111.607 Y105.914 E2.93304
G1 X111.776 Y105.829 E2.93933
G1 X112.076 Y105.684 E2.95042
G1 X112.544 Y105.482 E2.96737
G1 X113.041 Y105.292 E2.98507
G1 X113.24 Y105.22 E2.99211
G1 X113.529 Y105.121 E3.00227
G1 X113.997 Y104.981 E3.01851
G1 X114.462 Y104.863 E3.03447
G1 X114.627 Y104.824 E3.04011
G1 X114.971 Y104.747 E3.05183
G1 X115.524 Y104.65 E3.07051
G1 X115.94 Y104.597 E3.08446
G1 X116.073 Y104.582 E3.08891
G1 X116.455 Y104.542 E3.10168
G1 X116.975 Y104.51 E3.11901
G1 X117.433 Y104.502 E3.13425
G1 X117.616 Y104.502 E3.14033
G1 X117.922 Y104.506 E3.15051
G1 X118.432 Y104.534 E3.1675
G1 X119.001 Y104.59 E3.18652
G1 X119.198 Y104.613 E3.19311
G1 X119.486 Y104.651 E3.20277
G1 X119.975 Y104.736 E3.21928
G1 X120.403 Y104.829 E3.23385
G1 X120.588 Y104.872 E3.24017
G1 X120.919 Y104.955 E3.25152
G1 X121.408 Y105.1 E3.26848
G1 X121.912 Y105.273 E3.2862
G1 X122.064 Y105.327 E3.29157
G1 X122.329 Y105.426 E3.30098
G1 X122.837 Y105.644 E3.31936
G1 X123.299 Y105.867 E3.33643
G1 X123.448 Y105.941 E3.34196
G1 X123.738 Y106.091 E3.35282
G1 X124.187 Y106.348 E3.37003
G1 X124.535 Y106.568 E3.38372
G1 X124.683 Y106.665 E3.38961
G1 X124.999 Y106.878 E3.40228
G1 X125.402 Y107.175 E3.41893
G1 X125.773 Y107.473 E3.43476
G1 X125.936 Y107.609 E3.44182
G1 X126.199 Y107.836 E3.45337
G1 X126.557 Y108.171 E3.46968
G1 X126.91 Y108.53 E3.48643
G1 X127.041 Y108.667 E3.49273
G1 X127.245 Y108.888 E3.50274
G1 X127.582 Y109.287 E3.52011
G1 X127.862 Y109.649 E3.53533
G1 X127.946 Y109.761 E3.53998
G1 X128.156 Y110.046 E3.55176
G1 X128.469 Y110.514 E3.57048
G1 X128.713 Y110.92 E3.58624
G1 X128.779 Y111.034 E3.59062
G1 X128.943 Y111.321 E3.60162
G1 X129.197 Y111.818 E3.62018
G1 X129.414 Y112.296 E3.63764
G1 X129.474 Y112.432 E3.64258
G1 X129.589 Y112.703 E3.65237
G1 X129.777 Y113.208 E3.6703
G1 X129.918 Y113.646 E3.6856
G1 X129.974 Y113.83 E3.692
G1 X130.077 Y114.189 E3.70442
G1 X130.192 Y114.662 E3.72061
G1 X130.277 Y115.085 E3.73496
G1 X130.312 Y115.27 E3.74122
G1 X130.371 Y115.62 E3.75303
G1 X130.434 Y116.124 E3.76992
G1 X130.476 Y116.633 E3.78691
G1 X130.488 Y116.818 E3.79308
G1 X130.504 Y117.129 E3.80343
G1 X130.508 Y117.652 E3.82083
G1 X130.492 Y118.098 E3.83567
G1 X130.484 Y118.258 E3.841
G1 X130.461 Y118.625 E3.85323
G1 X130.405 Y119.148 E3.87072
G1 X130.336 Y119.604 E3.88606
G1 X130.31 Y119.766 E3.89152
G1 X130.252 Y120.089 E3.90244
G1 X130.133 Y120.614 E3.92034
G1 X129.995 Y121.118 E3.93772
G1 X129.946 Y121.285 E3.94351
G1 X129.855 Y121.583 E3.95387
G1 X129.682 Y122.075 E3.97122
G1 X129.507 Y122.509 E3.98678
G1 X129.435 Y122.678 E3.99289
G1 X129.294 Y122.999 E4.00455
G1 X129.067 Y123.461 E4.02167
G1 X128.865 Y123.831 E4.0357
G1 X128.782 Y123.978 E4.04131
G1 X128.589 Y124.309 E4.05405
G1 X128.31 Y124.745 E4.07127
G1 X128.035 Y125.135 E4.08714
G1 X127.929 Y125.28 E4.09312
G1 X127.733 Y125.541 E4.10397
G1 X127.406 Y125.94 E4.12113
G1 X127.073 Y126.312 E4.13774
G1 X126.952 Y126.442 E4.14364
G1 X126.744 Y126.661 E4.15369
G1 X126.372 Y127.021 E4.17091
G1 X125.987 Y127.362 E4.18801
G1 X125.846 Y127.483 E4.19419
G1 X125.608 Y127.681 E4.20449
G1 X125.24 Y127.964 E4.21993
G1 X124.897 Y128.207 E4.23391
G1 X124.72 Y128.327 E4.24102
G1 X124.397 Y128.539 E4.25387
G1 X123.931 Y128.816 E4.2719
G1 X123.489 Y129.052 E4.28857
G1 X123.338 Y129.129 E4.29421
G1 X123.065 Y129.265 E4.30435
G1 X122.609 Y129.47 E4.32098
G1 X122.104 Y129.671 E4.33906
G1 X121.904 Y129.746 E4.34616
G1 X121.641 Y129.84 E4.35545
G1 X121.168 Y129.987 E4.37193
G1 X120.718 Y130.107 E4.38742
G1 X120.568 Y130.145 E4.39256
G1 X120.217 Y130.229 E4.40457
G1 X119.683 Y130.332 E4.42266
G1 X119.235 Y130.397 E4.43771
G1 X119.056 Y130.42 E4.44371
G1 X118.698 Y130.461 E4.4557
G1 X118.047 Y130.5 E4.47739
G1 X117.115 Y130.505 E4.50839
G1 X116.465 Y130.473 E4.53003
G1 X115.934 Y130.418 E4.54779
G1 X115.698 Y130.389 E4.5557
G1 X115.364 Y130.341 E4.56692
G1 X114.859 Y130.246 E4.58401
G1 X114.403 Y130.14 E4.59958
G1 X114.229 Y130.097 E4.60555
G1 X113.915 Y130.014 E4.61635
G1 X113.422 Y129.861 E4.63352
G1 X112.937 Y129.687 E4.65065
G1 X112.76 Y129.62 E4.65695
G1 X112.461 Y129.502 E4.66764
G1 X112.002 Y129.298 E4.68435
G1 X111.592 Y129.095 E4.69956
G1 X111.423 Y129.008 E4.70589
G1 X111.139 Y128.856 E4.7166
G1 X110.702 Y128.598 E4.73348
G1 X110.234 Y128.294 E4.75204
G1 X110.067 Y128.181 E4.75875
G1 X109.825 Y128.012 E4.76856
G1 X109.427 Y127.709 E4.7852
G1 X109.103 Y127.44 E4.79921
G1 X108.989 Y127.343 E4.80418
G1 X108.72 Y127.108 E4.81607
G1 X108.324 Y126.729 E4.8343
G1 X107.977 Y126.365 E4.85102
G1 X107.854 Y126.232 E4.85705
G1 X107.627 Y125.979 E4.86835
G1 X107.301 Y125.583 E4.88541
G1 X107.032 Y125.226 E4.90028
G1 X106.936 Y125.094 E4.90571
G1 X106.731 Y124.806 E4.91747
G1 X106.44 Y124.356 E4.93529
G1 X106.199 Y123.944 E4.95117
G1 X106.127 Y123.818 E4.95599
G1 X105.975 Y123.543 E4.96644
G1 X105.731 Y123.05 E4.98474
G1 X105.517 Y122.562 E5.00246
G1 X105.451 Y122.405 E5.00813
G1 X105.34 Y122.131 E5.01796
G1 X105.164 Y121.635 E5.03546
G1 X105.024 Y121.178 E5.05136
G1 X104.974 Y121.007 E5.05729
G1 X104.883 Y120.675 E5.06874
G1 X104.771 Y120.184 E5.08549
G1 X104.691 Y119.753 E5.10007
G1 X104.661 Y119.577 E5.10601
G1 X104.606 Y119.222 E5.11795
G1 X104.548 Y118.705 E5.13526
G1 X104.513 Y118.184 E5.15262
G1 X104.505 Y118.02 E5.15809
G1 X104.493 Y117.718 E5.16814
G1 X104.495 Y117.193 E5.1856
G1 X104.515 Y116.775 E5.19952
G1 X104.527 Y116.59 E5.20568
G1 X104.558 Y116.197 E5.2188
G1 X104.617 Y115.703 E5.23534
G1 X104.693 Y115.237 E5.25105
G1 X104.726 Y115.056 E5.25717
G1 X104.785 Y114.753 E5.26743
G1 X104.909 Y114.236 E5.28512
G1 X105.053 Y113.737 E5.30239
G1 X105.099 Y113.585 E5.30767
G1 X105.193 Y113.289 E5.318
G1 X105.382 Y112.777 E5.33616
G1 X105.574 Y112.321 E5.35261
G1 X105.633 Y112.185 E5.35754
G1 X105.769 Y111.883 E5.36856
G1 X106.017 Y111.393 E5.38682
G1 X106.237 Y111.004 E5.40169
G1 X106.311 Y110.878 E5.40655
G1 X106.494 Y110.572 E5.41841
G1 X106.788 Y110.127 E5.43615
G1 X107.053 Y109.762 E5.45115
G1 X107.158 Y109.622 E5.45697
G1 X107.381 Y109.333 E5.46911
G1 X107.713 Y108.938 E5.48627
G1 X108.031 Y108.592 E5.5019
G1 X108.171 Y108.445 E5.50865
G1 X108.41 Y108.202 E5.51999
G0 F3600 X108.695 Y108.482
G1 F1800 X109.025 Y108.174 E5.535
G1 X109.373 Y107.873 E5.55031
G1 X109.514 Y107.754 E5.55644
G1 X109.786 Y107.534 E5.56808
G1 X110.163 Y107.254 E5.5837
G1 X110.552 Y106.99 E5.59934
G1 X110.706 Y106.89 E5.60544
G1 X111.002 Y106.703 E5.61709
G1 X111.398 Y106.474 E5.6323
G1 X111.792 Y106.268 E5.64709
G1 X111.95 Y106.189 E5.65297
G1 X112.25 Y106.044 E5.66405
G1 X112.687 Y105.855 E5.67988
G1 X113.184 Y105.665 E5.69758
G1 X113.369 Y105.598 E5.70412
G1 X113.658 Y105.499 E5.71429
G1 X114.096 Y105.369 E5.72948
G1 X114.561 Y105.251 E5.74544
G1 X114.715 Y105.214 E5.75071
G1 X115.059 Y105.137 E5.76243
G1 X115.574 Y105.047 E5.77982
G1 X115.99 Y104.994 E5.79377
G1 X116.115 Y104.979 E5.79795
G1 X116.497 Y104.939 E5.81073
G1 X116.982 Y104.91 E5.82689
G1 X117.44 Y104.902 E5.84212
G1 X117.611 Y104.901 E5.84781
G1 X117.917 Y104.905 E5.85799
G1 X118.392 Y104.932 E5.87381
G1 X118.961 Y104.988 E5.89283
G1 X119.146 Y105.009 E5.89902
G1 X119.434 Y105.047 E5.90869
G1 X119.89 Y105.127 E5.92408
G1 X120.318 Y105.22 E5.93865
G1 X120.491 Y105.26 E5.94456
G1 X120.822 Y105.343 E5.95591
G1 X121.278 Y105.478 E5.97172
G1 X121.782 Y105.651 E5.98945
G1 X121.924 Y105.702 E5.99447
G1 X122.189 Y105.801 E6.00387
G1 X122.663 Y106.004 E6.02102
G1 X123.125 Y106.227 E6.03809
G1 X123.264 Y106.296 E6.04325
G1 X123.554 Y106.446 E6.05411
G1 X123.973 Y106.687 E6.07018
G1 X124.321 Y106.907 E6.08388
G1 X124.459 Y106.996 E6.08934
G1 X124.775 Y107.209 E6.10201
G1 X125.152 Y107.487 E6.11759
G1 X125.523 Y107.785 E6.13342
G1 X125.675 Y107.912 E6.14001
G1 X125.938 Y108.139 E6.15156
G1 X126.272 Y108.452 E6.16679
G1 X126.625 Y108.811 E6.18353
G1 X126.747 Y108.939 E6.18942
G1 X126.951 Y109.16 E6.19942
G1 X127.266 Y109.532 E6.21563
G1 X127.546 Y109.894 E6.23085
G1 X127.624 Y109.998 E6.23518
G1 X127.834 Y110.283 E6.24695
G1 X128.126 Y110.72 E6.26443
G1 X128.37 Y111.126 E6.28019
G1 X128.432 Y111.233 E6.2843
G1 X128.596 Y111.52 E6.29529
G1 X128.833 Y111.983 E6.31259
G1 X129.05 Y112.461 E6.33005
G1 X129.106 Y112.588 E6.33467
G1 X129.221 Y112.859 E6.34446
G1 X129.397 Y113.331 E6.36122
G1 X129.538 Y113.769 E6.37652
G1 X129.59 Y113.941 E6.3825
G1 X129.693 Y114.3 E6.39492
G1 X129.8 Y114.741 E6.41001
G1 X129.885 Y115.164 E6.42436
G1 X129.917 Y115.336 E6.43018
G1 X129.976 Y115.686 E6.44199
G1 X130.035 Y116.156 E6.45774
G1 X130.077 Y116.665 E6.47473
