;FLAVOR:Marlin
;TIME:10297
;Filament used: 7.35698m
;Layer height: 0.2
;MINX:57.283
;MINY:93.396
;MINZ:0.2
;MAXX:135.716
;MAXY:140.737
;MAXZ:25
;Generated with Cura_SteamEngine 4.1.0
M140 S60
M105
M190 S60
M104 S200
M105
M109 S200
M82 ;absolute extrusion mode
; Ender 3 Custom Start G-code
G28 ; Home all axes
G92 E0 ; Reset Extruder
G1 Z2.0 F3000 ; Move Z Axis up little to prevent scratching of Heat Bed
G1 X0.1 Y20 Z0.3 F5000.0 ; Move to start position
G1 X0.1 Y200.0 Z0.3 F1500.0 E15 ; Draw the first line
G1 X0.4 Y200.0 Z0.3 F5000.0 ; Move to side a little
G1 X0.4 Y20 Z0.3 F1500.0 E30 ; Draw the second line
G92 E0 ; Reset Extruder
G1 Z2.0 F3000 ; Move Z Axis up little to prevent scratching of Heat Bed
; End of custom start GCode
G92 E0
G92 E0
G1 F2400 E-5
;LAYER_COUNT:125
;LAYER:0
M107
M204 S500
M205 X10 Y10
;MESH:Flash_light_for_mask_strap_v3.stl
G0 F3600 X62.137 Y114.192 Z0.2
;TYPE:WALL-INNER
G1 F2400 E0
G1 F1800 X62.951 Y114.468 E0.02859
G1 X65.809 Y110.744 E0.18472
G1 X69.158 Y108.169 E0.32523
G1 X71.088 Y107.369 E0.39472
G1 X71.705 Y107.042 E0.41794
G1 X72.274 Y106.591 E0.44209
G1 X72.747 Y106.046 E0.46609
G1 X73.116 Y105.421 E0.49023
G1 X73.364 Y104.738 E0.5144
G1 X73.405 Y104.49 E0.52276
G1 X74.813 Y104.489 E0.56959
G1 X75.013 Y104.489 E0.57624
G1 X75.013 Y104.689 E0.58055
G1 X75.013 Y109.276 E0.73311
G1 X73.862 Y109.427 E0.77172
G1 X70.743 Y110.719 E0.88401
G1 X68.065 Y112.774 E0.99628
G1 X66.02 Y115.44 E1.10804
G1 X64.724 Y118.557 E1.22031
G1 X64.281 Y121.901 E1.33251
G1 X64.715 Y125.248 E1.44476
G1 X66.004 Y128.368 E1.55704
G1 X68.055 Y131.047 E1.66926
G1 X70.743 Y133.114 E1.78204
G1 X73.862 Y134.406 E1.89433
G1 X77.208 Y134.846 E2.00657
G1 X80.554 Y134.406 E2.11882
G1 X83.673 Y133.114 E2.2311
G1 X86.35 Y131.059 E2.34335
G1 X88.396 Y128.393 E2.45513
G1 X89.691 Y125.276 E2.56739
G1 X90.134 Y121.931 E2.67962
G1 X89.7 Y118.585 E2.79184
G1 X88.412 Y115.465 E2.9041
G1 X86.36 Y112.786 E3.01634
G1 X83.673 Y110.719 E3.1291
G1 X80.554 Y109.427 E3.24138
G1 X79.403 Y109.276 E3.27999
G1 X79.403 Y104.49 E3.43918
G1 X81.003 Y104.489 E3.49239
G1 X81.155 Y105.077 E3.51259
G1 X81.465 Y105.736 E3.53681
G1 X81.889 Y106.325 E3.56095
G1 X82.415 Y106.83 E3.5852
G1 X83.022 Y107.227 E3.60933
G1 X85.257 Y108.168 E3.68998
G1 X88.597 Y110.731 E3.83001
G1 X91.141 Y114.048 E3.96905
G1 X92.756 Y117.932 E4.10895
G1 X93.309 Y122.098 E4.24873
G1 X92.767 Y126.266 E4.38852
G1 X91.162 Y130.151 E4.52833
G1 X88.606 Y133.489 E4.66817
G1 X85.233 Y136.082 E4.80967
G1 X83.199 Y137.16 E4.88624
G1 X81.068 Y138.096 E4.96365
G1 X78.877 Y138.872 E5.04096
G1 X76.604 Y139.496 E5.11935
G1 X74.344 Y139.941 E5.19597
G1 X72.021 Y140.223 E5.2738
G1 X69.679 Y140.337 E5.35178
G1 X67.351 Y140.278 E5.42924
G1 X65.032 Y140.05 E5.50674
G1 X62.736 Y139.653 E5.58424
G1 X60.465 Y139.086 E5.66209
G1 X60.134 Y138.979 E5.67366
G1 X58.662 Y138.655 E5.72379
G1 X58.215 Y138.502 E5.73951
G1 X57.797 Y138.191 E5.75683
G1 X57.685 Y137.836 E5.76922
G1 X57.683 Y95.401 E7.18061
G1 X57.71 Y95.142 E7.18927
G1 X57.767 Y94.976 E7.19511
G1 X57.871 Y94.839 E7.20083
G1 X58.013 Y94.736 E7.20666
G1 X58.179 Y94.679 E7.2125
G1 X58.381 Y94.672 E7.21922
G1 X58.688 Y94.734 E7.22964
G1 X58.801 Y94.79 E7.23384
G1 X58.895 Y94.873 E7.23801
G1 X58.968 Y94.984 E7.24242
G1 X59.009 Y95.105 E7.24667
G1 X59.017 Y95.232 E7.25091
G1 X58.991 Y95.358 E7.25519
G1 X58.937 Y95.466 E7.2592
G1 X58.61 Y95.81 E7.27499
G1 X58.61 Y133.944 E8.54333
G1 X58.829 Y134.484 E8.56271
G1 X59.372 Y134.842 E8.58434
G1 X60.011 Y134.957 E8.60594
G1 X60.554 Y134.809 E8.62466
G1 X60.966 Y134.397 E8.64404
G1 X61.099 Y133.907 E8.66092
G1 X61.099 Y101.39 E9.74244
G1 X61.126 Y101.094 E9.75233
G1 X61.172 Y100.981 E9.75639
G1 X61.255 Y100.873 E9.76092
G1 X61.361 Y100.793 E9.76533
G1 X61.487 Y100.74 E9.76988
G1 X61.622 Y100.722 E9.77441
G1 X61.752 Y100.74 E9.77878
G1 X61.87 Y100.789 E9.78303
G1 X61.981 Y100.874 E9.78768
G1 X62.064 Y100.983 E9.79223
G1 X62.114 Y101.104 E9.79659
G1 X62.137 Y101.278 E9.80242
G1 X62.137 Y114.192 E10.23195
G0 F3600 X62.808 Y113.997
;TYPE:WALL-OUTER
G1 F1800 X62.909 Y113.865 E10.23747
G1 X65.524 Y110.459 E10.38029
G1 X68.954 Y107.821 E10.52422
G1 X70.917 Y107.007 E10.5949
G1 X71.485 Y106.706 E10.61628
G1 X71.996 Y106.301 E10.63796
G1 X72.421 Y105.811 E10.65954
G1 X72.753 Y105.25 E10.68122
G1 X72.975 Y104.636 E10.70293
G1 X73.066 Y104.09 E10.72134
G1 X75.213 Y104.089 E10.79275
G1 X75.413 Y104.089 E10.79941
G1 X75.413 Y104.289 E10.80371
G1 X75.413 Y109.448 E10.9753
G1 X75.247 Y109.649 E10.98397
G1 X73.966 Y109.817 E11.02694
G1 X70.945 Y111.068 E11.1357
G1 X68.35 Y113.059 E11.24448
G1 X66.369 Y115.642 E11.35275
G1 X65.114 Y118.662 E11.46153
G1 X64.684 Y121.902 E11.57023
G1 X65.105 Y125.144 E11.67897
G1 X66.354 Y128.167 E11.78776
G1 X68.341 Y130.762 E11.89646
G1 X70.945 Y132.765 E12.00573
G1 X73.966 Y134.016 E12.11448
G1 X77.208 Y134.443 E12.22324
G1 X80.45 Y134.016 E12.33201
G1 X83.471 Y132.765 E12.44076
G1 X86.065 Y130.774 E12.54952
G1 X88.047 Y128.191 E12.65781
G1 X89.301 Y125.171 E12.76657
G1 X89.731 Y121.93 E12.87531
G1 X89.31 Y118.689 E12.98401
G1 X88.062 Y115.666 E13.09279
G1 X86.074 Y113.071 E13.20151
G1 X83.471 Y111.068 E13.31075
G1 X80.45 Y109.817 E13.41951
G1 X79.162 Y109.648 E13.46271
G1 X79.003 Y109.466 E13.47075
G1 X79.003 Y104.09 E13.64956
G1 X81.35 Y104.089 E13.72762
G1 X81.371 Y104.316 E13.7352
G1 X81.533 Y104.941 E13.75668
G1 X81.811 Y105.532 E13.7784
G1 X82.192 Y106.062 E13.80011
G1 X82.665 Y106.515 E13.82189
G1 X83.211 Y106.872 E13.84359
G1 X85.459 Y107.819 E13.92472
G1 X88.88 Y110.444 E14.06814
G1 X91.491 Y113.848 E14.21083
G1 X93.146 Y117.83 E14.35426
G1 X93.713 Y122.098 E14.49746
G1 X93.157 Y126.37 E14.64074
G1 X91.512 Y130.352 E14.78404
G1 X88.892 Y133.774 E14.92739
G1 X85.453 Y136.418 E15.07167
G1 X83.369 Y137.522 E15.1501
G1 X81.212 Y138.469 E15.22846
G1 X78.995 Y139.255 E15.30669
G1 X76.706 Y139.883 E15.38564
G1 X74.401 Y140.337 E15.46377
G1 X72.047 Y140.623 E15.54264
G1 X69.688 Y140.737 E15.6212
G1 X67.329 Y140.678 E15.69968
G1 X64.979 Y140.447 E15.77822
G1 X62.652 Y140.044 E15.85677
G1 X60.362 Y139.473 E15.93527
G1 X60.029 Y139.365 E15.94691
G1 X58.559 Y139.042 E15.99697
G1 X58.025 Y138.859 E16.01574
G1 X57.499 Y138.468 E16.03754
G1 X57.442 Y138.393 E16.04068
G1 X57.285 Y137.897 E16.05798
G1 X57.283 Y95.38 E17.4721
G1 X57.316 Y95.057 E17.4829
G1 X57.41 Y94.783 E17.49253
G1 X57.588 Y94.55 E17.50229
G1 X57.828 Y94.377 E17.51213
G1 X58.108 Y94.281 E17.52197
G1 X58.412 Y94.271 E17.53209
G1 X58.818 Y94.352 E17.54586
G1 X59.028 Y94.456 E17.55365
G1 X59.201 Y94.61 E17.56136
G1 X59.33 Y94.805 E17.56913
G1 X59.405 Y95.027 E17.57693
G1 X59.419 Y95.262 E17.58476
G1 X59.372 Y95.491 E17.59253
G1 X59.269 Y95.697 E17.60019
G1 X59.01 Y95.97 E17.61271
G1 X59.01 Y133.866 E18.87313
G1 X59.153 Y134.219 E18.8858
G1 X59.523 Y134.463 E18.90054
G1 X59.993 Y134.547 E18.91642
G1 X60.346 Y134.451 E18.92859
G1 X60.608 Y134.189 E18.94091
G1 X60.699 Y133.854 E18.95246
G1 X60.699 Y101.376 E20.03268
G1 X60.733 Y100.997 E20.04534
G1 X60.822 Y100.78 E20.05314
G1 X60.971 Y100.586 E20.06128
G1 X61.158 Y100.444 E20.06908
G1 X61.384 Y100.35 E20.07723
G1 X61.619 Y100.319 E20.08511
G1 X61.857 Y100.351 E20.0931
G1 X62.074 Y100.441 E20.10091
G1 X62.266 Y100.589 E20.10897
G1 X62.412 Y100.779 E20.11694
G1 X62.505 Y101.003 E20.12501
G1 X62.537 Y101.249 E20.13326
G1 X62.537 Y113.738 E20.54865
G1 X62.537 Y113.905 E20.55345
G1 X62.808 Y113.997 E20.56297
G0 F3600 X62.909 Y113.865
G0 X62.929 Y113.839
G0 X63.325 Y114.143
G0 X63.09 Y114.927
;TYPE:SKIN
G1 F1800 X66.088 Y111.023 E20.72669
G1 X69.358 Y108.508 E20.8639
G1 X71.254 Y107.722 E20.93216
G1 X71.919 Y107.37 E20.95719
G1 X72.545 Y106.874 E20.98375
G1 X73.065 Y106.275 E21.01014
G1 X73.471 Y105.588 E21.03668
G1 X73.727 Y104.88 E21.06172
G1 X74.623 Y104.879 E21.09152
G1 X74.623 Y108.935 E21.22642
G1 X73.76 Y109.047 E21.25537
G1 X70.546 Y110.378 E21.37107
G1 X67.786 Y112.496 E21.48678
G1 X65.679 Y115.243 E21.60193
G1 X64.344 Y118.455 E21.71762
G1 X63.887 Y121.901 E21.83324
G1 X64.335 Y125.349 E21.94888
G1 X65.663 Y128.565 E22.06461
G1 X67.776 Y131.324 E22.18019
G1 X70.546 Y133.455 E22.29643
G1 X73.76 Y134.786 E22.41213
G1 X77.208 Y135.24 E22.5278
G1 X80.656 Y134.786 E22.64348
G1 X83.87 Y133.455 E22.75918
G1 X86.629 Y131.337 E22.87486
G1 X88.737 Y128.59 E22.99003
G1 X90.071 Y125.378 E23.10571
G1 X90.528 Y121.931 E23.22136
G1 X90.08 Y118.484 E23.33697
G1 X88.753 Y115.268 E23.45268
G1 X86.639 Y112.509 E23.56829
G1 X83.87 Y110.378 E23.6845
G1 X80.656 Y109.047 E23.80021
G1 X79.793 Y108.935 E23.82915
G1 X79.793 Y104.88 E23.96402
G1 X80.701 Y104.879 E23.99422
G1 X80.787 Y105.21 E24.00559
G1 X81.128 Y105.935 E24.03224
G1 X81.593 Y106.582 E24.05874
G1 X82.171 Y107.136 E24.08537
G1 X82.838 Y107.572 E24.11187
G1 X85.056 Y108.506 E24.19192
G1 X88.318 Y111.01 E24.32869
G1 X90.802 Y114.248 E24.46443
G1 X92.377 Y118.037 E24.60091
G1 X92.917 Y122.098 E24.73716
G1 X92.389 Y126.16 E24.8734
G1 X90.821 Y129.954 E25.00995
G1 X88.327 Y133.21 E25.14636
G1 X85.019 Y135.753 E25.28514
G1 X83.019 Y136.813 E25.36042
G1 X80.93 Y137.731 E25.43632
G1 X78.754 Y138.501 E25.51309
G1 X76.51 Y139.117 E25.59048
G1 X74.297 Y139.553 E25.6655
G1 X71.982 Y139.833 E25.74306
G1 X69.67 Y139.947 E25.82005
G1 X67.373 Y139.888 E25.89648
G1 X65.08 Y139.663 E25.97311
G1 X62.814 Y139.271 E26.04959
G1 X60.578 Y138.713 E26.12625
G1 X60.236 Y138.602 E26.1382
G1 X58.766 Y138.279 E26.18826
G1 X58.398 Y138.153 E26.2012
G1 X58.131 Y137.954 E26.21228
G1 X58.075 Y137.776 E26.21848
G1 X58.073 Y95.422 E27.62718
G1 X58.094 Y95.227 E27.63371
G1 X58.117 Y95.16 E27.63606
G1 X58.147 Y95.12 E27.63772
G1 X58.193 Y95.086 E27.63963
G1 X58.249 Y95.067 E27.64159
G1 X58.35 Y95.064 E27.64495
G1 X58.56 Y95.106 E27.65208
G1 X58.582 Y95.117 E27.6529
G1 X58.598 Y95.131 E27.6536
G1 X58.622 Y95.177 E27.65533
G1 X58.624 Y95.208 E27.65636
G1 X58.613 Y95.24 E27.65749
G1 X58.22 Y95.654 E27.67647
G1 X58.22 Y134.02 E28.95253
G1 X58.513 Y134.743 E28.97848
G1 X59.224 Y135.212 E29.00681
G1 X60.029 Y135.357 E29.03401
G1 X60.757 Y135.158 E29.05911
G1 X61.315 Y134.6 E29.08536
G1 X61.489 Y133.959 E29.10745
G1 X61.489 Y101.403 E30.19027
G1 X61.508 Y101.188 E30.19745
G1 X61.534 Y101.151 E30.19895
G1 X61.557 Y101.133 E30.19992
G1 X61.588 Y101.12 E30.20104
G1 X61.623 Y101.116 E30.20221
G1 X61.647 Y101.119 E30.20302
G1 X61.673 Y101.129 E30.20394
G1 X61.704 Y101.153 E30.20525
G1 X61.724 Y101.18 E30.20637
G1 X61.735 Y101.207 E30.20734
G1 X61.747 Y101.297 E30.21036
G1 X61.747 Y114.471 E30.64852
G1 X63.09 Y114.927 E30.6957
G0 F3600 X61.138 Y133.913
G0 X58.254 Y137.45
G1 F1800 X58.935 Y138.131 E30.72773
G0 F3600 X59.66 Y138.29
G1 F1800 X58.254 Y136.885 E30.79384
G0 F3600 X58.254 Y136.319
G1 F1800 X60.401 Y138.465 E30.8948
G1 X60.471 Y138.535
G0 F3600 X61.177 Y138.676
G1 F1800 X58.254 Y135.753 E31.03229
G0 F3600 X58.254 Y135.188
G1 F1800 X61.931 Y138.864 E31.20522
G0 F3600 X62.685 Y139.053
G1 F1800 X58.742 Y135.11 E31.39069
G1 X58.672 Y135.04
G0 F3600 X59.673 Y135.475
G1 F1800 X63.385 Y139.186 E31.56527
G0 F3600 X64.068 Y139.304
G1 F1800 X60.247 Y135.483 E31.745
G0 F3600 X60.692 Y135.362
G1 F1800 X64.753 Y139.423 E31.93601
G0 F3600 X65.409 Y139.514
G1 F1800 X61.032 Y135.137 E32.14189
G0 F3600 X61.315 Y134.854
G1 F1800 X66.035 Y139.575 E32.36393
G0 F3600 X66.663 Y139.636
G1 F1800 X61.528 Y134.501 E32.60547
G0 F3600 X61.649 Y134.056
G1 F1800 X67.29 Y139.698 E32.87083
G0 F3600 X67.877 Y139.719
G1 F1800 X61.668 Y133.51 E33.16288
G0 F3600 X61.668 Y132.945
G1 F1800 X68.458 Y139.734 E33.48224
G0 F3600 X69.039 Y139.749
G1 F1800 X61.668 Y132.379 E33.82892
G0 F3600 X61.668 Y131.813
G1 F1800 X69.619 Y139.764 E34.20291
G0 F3600 X70.161 Y139.741
G1 F1800 X61.668 Y131.248 E34.6024
G0 F3600 X61.668 Y130.682
G1 F1800 X70.7 Y139.714 E35.02723
G0 F3600 X71.239 Y139.687
G1 F1800 X61.668 Y130.116 E35.47742
G0 F3600 X61.668 Y129.551
G1 F1800 X71.778 Y139.66 E35.95294
G0 F3600 X72.295 Y139.611
G1 F1800 X61.668 Y128.985 E36.45278
G0 F3600 X61.668 Y128.419
G1 F1800 X72.8 Y139.551 E36.9764
G0 F3600 X73.305 Y139.49
G1 F1800 X61.668 Y127.854 E37.52374
G0 F3600 X61.668 Y127.288
G1 F1800 X73.809 Y139.429 E38.09482
G0 F3600 X74.311 Y139.365
G1 F1800 X61.668 Y126.722 E38.68951
G0 F3600 X61.668 Y126.157
G1 F1800 X74.784 Y139.272 E39.30642
G0 F3600 X75.256 Y139.179
G1 F1800 X61.668 Y125.591 E39.94556
G0 F3600 X61.668 Y125.025
G1 F1800 X66.185 Y129.541 E40.158
G1 X66.255 Y129.611
G0 F3600 X65.253 Y128.044
G1 F1800 X61.668 Y124.459 E40.32663
G0 F3600 X61.668 Y123.894
G1 F1800 X64.855 Y127.08 E40.47651
G1 X64.925 Y127.15
G0 F3600 X64.457 Y126.117
G1 F1800 X61.668 Y123.328 E40.6077
G0 F3600 X61.668 Y122.762
G1 F1800 X64.138 Y125.232 E40.72388
G0 F3600 X64.054 Y124.583
G1 F1800 X61.668 Y122.197 E40.83611
G0 F3600 X61.668 Y121.631
G1 F1800 X63.969 Y123.932 E40.94434
G0 F3600 X63.885 Y123.282
G1 F1800 X61.668 Y121.065 E41.04862
G0 F3600 X61.668 Y120.5
G1 F1800 X63.8 Y122.632 E41.1489
G0 F3600 X63.715 Y121.981
G1 F1800 X61.668 Y119.934 E41.24519
G0 F3600 X61.668 Y119.368
G1 F1800 X63.764 Y121.463 E41.34375
G0 F3600 X63.829 Y120.964
G1 F1800 X61.668 Y118.803 E41.4454
G0 F3600 X61.668 Y118.237
G1 F1800 X63.896 Y120.464 E41.55018
G0 F3600 X63.962 Y119.965
G1 F1800 X61.668 Y117.671 E41.65808
G0 F3600 X61.668 Y117.106
G1 F1800 X64.029 Y119.466 E41.76911
G0 F3600 X64.094 Y118.966
G1 F1800 X61.668 Y116.54 E41.88322
G0 F3600 X61.668 Y115.974
G1 F1800 X64.161 Y118.467 E42.00048
G0 F3600 X64.314 Y118.055
G1 F1800 X61.668 Y115.409 E42.12494
G0 F3600 X61.668 Y114.843
G1 F1800 X64.481 Y117.655 E42.25723
G0 F3600 X64.647 Y117.255
G1 F1800 X62.207 Y114.816 E42.37198
G1 X62.137 Y114.746
G0 F3600 X63.064 Y115.107
G1 F1800 X64.813 Y116.856 E42.45425
G0 F3600 X64.978 Y116.456
G1 F1800 X63.374 Y114.851 E42.52972
G0 F3600 X63.619 Y114.531
G1 F1800 X65.145 Y116.056 E42.60147
G0 F3600 X65.311 Y115.657
G1 F1800 X63.865 Y114.211 E42.66949
G0 F3600 X64.111 Y113.891
G1 F1800 X65.476 Y115.256 E42.7337
G0 F3600 X65.701 Y114.916
G1 F1800 X64.357 Y113.571 E42.79694
G0 F3600 X64.602 Y113.251
G1 F1800 X65.947 Y114.596 E42.8602
G0 F3600 X66.192 Y114.276
G1 F1800 X64.848 Y112.932 E42.92342
G0 F3600 X65.094 Y112.611
G1 F1800 X66.438 Y113.955 E42.98664
G0 F3600 X66.684 Y113.636
G1 F1800 X65.34 Y112.292 E43.04985
G0 F3600 X65.585 Y111.971
G1 F1800 X66.929 Y113.315 E43.11307
G0 F3600 X67.175 Y112.995
G1 F1800 X65.831 Y111.652 E43.17627
G0 F3600 X66.077 Y111.331
G1 F1800 X67.42 Y112.675 E43.23946
G0 F3600 X67.667 Y112.357
G1 F1800 X66.355 Y111.044 E43.3012
G0 F3600 X66.675 Y110.798
G1 F1800 X67.988 Y112.111 E43.36296
G0 F3600 X68.308 Y111.866
G1 F1800 X66.995 Y110.553 E43.42471
G0 F3600 X67.315 Y110.307
G1 F1800 X68.628 Y111.621 E43.4865
G0 F3600 X68.948 Y111.374
G1 F1800 X67.634 Y110.061 E43.54828
G0 F3600 X67.954 Y109.815
G1 F1800 X69.268 Y111.129 E43.61009
G0 F3600 X69.589 Y110.884
G1 F1800 X68.274 Y109.569 E43.67194
G0 F3600 X68.594 Y109.323
G1 F1800 X69.908 Y110.638 E43.73377
G0 F3600 X70.229 Y110.392
G1 F1800 X68.913 Y109.077 E43.79565
G0 F3600 X69.233 Y108.831
G1 F1800 X70.572 Y110.17 E43.85863
G0 F3600 X70.973 Y110.005
G1 F1800 X69.579 Y108.611 E43.9242
G0 F3600 X69.979 Y108.446
G1 F1800 X71.372 Y109.839 E43.98972
G0 F3600 X71.772 Y109.673
G1 F1800 X70.379 Y108.279 E44.05527
G0 F3600 X70.778 Y108.113
G1 F1800 X72.172 Y109.508 E44.12086
G0 F3600 X72.572 Y109.342
G1 F1800 X71.178 Y107.948 E44.18643
G0 F3600 X71.559 Y107.763
G1 F1800 X72.972 Y109.176 E44.25289
G0 F3600 X73.372 Y109.011
G1 F1800 X71.929 Y107.567 E44.32079
G0 F3600 X72.258 Y107.331
G1 F1800 X73.788 Y108.86 E44.39273
G0 F3600 X74.289 Y108.796
G1 F1800 X72.573 Y107.08 E44.47345
G0 F3600 X72.852 Y106.793
G1 F1800 X74.443 Y108.384 E44.54829
G0 F3600 X74.443 Y107.818
G1 F1800 X73.114 Y106.49 E44.61077
G0 F3600 X73.344 Y106.154
G1 F1800 X74.443 Y107.253 E44.66247
G0 F3600 X74.443 Y106.687
G1 F1800 X73.554 Y105.798 E44.70428
G0 F3600 X73.727 Y105.405
G1 F1800 X74.443 Y106.121 E44.73796
G0 F3600 X74.443 Y105.556
G1 F1800 X73.946 Y105.059 E44.76134
G0 F3600 X65.986 Y115.42
G0 X64.685 Y118.55
G0 X64.24 Y121.901
G0 X64.676 Y125.257
G0 X65.969 Y128.386
G0 X68.027 Y131.074
