;FLAVOR:Marlin
;TIME:1705
;Filament used: 1.82223m
;Layer height: 0.28
;MINX:70.96
;MINY:23.911
;MINZ:0.28
;MAXX:149.04
;MAXY:68.991
;MAXZ:4.76
;Generated with Cura_SteamEngine 4.2.1
M140 S50
M105
M190 S50
M104 S200
M105
M109 S200
M82 ;absolute extrusion mode
M201 X500.00 Y500.00 Z100.00 E5000.00 ;Setup machine max acceleration
M203 X500.00 Y500.00 Z10.00 E50.00 ;Setup machine max feedrate
M204 P500.00 R1000.00 T500.00 ;Setup Print/Retract/Travel acceleration
M205 X8.00 Y8.00 Z0.40 E5.00 ;Setup Jerk
M220 S100 ;Reset Feedrate
M221 S100 ;Reset Flowrate

G28 ;Home

G92 E0 ;Reset Extruder
G1 Z2.0 F3000 ;Move Z Axis up
G1 X10.1 Y20 Z0.28 F5000.0 ;Move to start position
G1 X10.1 Y200.0 Z0.28 F1500.0 E15 ;Draw the first line
G1 X10.4 Y200.0 Z0.28 F5000.0 ;Move to side a little
G1 X10.4 Y20 Z0.28 F1500.0 E30 ;Draw the second line
G92 E0 ;Reset Extruder
G1 Z2.0 F3000 ;Move Z Axis up

M141 S28
G92 E0
G92 E0
G1 F2700 E-5
;LAYER_COUNT:17
;LAYER:0
M107
G0 F6000 X72.461 Y33.598 Z0.28
;TYPE:SKIRT
G1 F2700 E0
G1 F1200 X72.808 Y32.885 E0.04062
G1 X73.003 Y32.518 E0.0619
G1 X73.681 Y31.401 E0.12883
G1 X74.036 Y30.884 E0.16095
G1 X74.684 Y30.028 E0.21594
G1 X75.014 Y29.632 E0.24235
G1 X75.659 Y28.921 E0.29152
G1 X76.034 Y28.557 E0.31829
G1 X76.431 Y28.189 E0.34601
G1 X77.139 Y27.584 E0.39371
G1 X77.449 Y27.34 E0.41392
G1 X78.513 Y26.595 E0.48045
G1 X79.106 Y26.228 E0.51617
G1 X79.99 Y25.734 E0.56804
G1 X80.278 Y25.589 E0.58456
G1 X81.019 Y25.248 E0.62634
G1 X81.256 Y25.149 E0.63949
G1 X81.978 Y24.875 E0.67905
G1 X82.318 Y24.759 E0.69745
G1 X83.035 Y24.54 E0.73585
G1 X83.346 Y24.456 E0.75235
G1 X84.143 Y24.271 E0.79426
G1 X84.399 Y24.221 E0.80762
G1 X85.151 Y24.1 E0.84663
G1 X85.543 Y24.05 E0.86687
G1 X86.305 Y23.978 E0.90608
G1 X86.701 Y23.954 E0.9264
G1 X87.18 Y23.935 E0.95095
G1 X88.234 Y23.915 E1.00495
G1 X88.452 Y23.913 E1.01611
G1 X131.678 Y23.911 E3.23017
G1 X131.859 Y23.912 E3.23945
G1 X132.822 Y23.927 E3.28878
G1 X133.568 Y23.963 E3.32703
G1 X134.003 Y23.998 E3.34939
G1 X134.763 Y24.085 E3.38857
G1 X135.088 Y24.133 E3.40539
G1 X135.856 Y24.273 E3.44538
G1 X136.288 Y24.367 E3.46803
G1 X137.253 Y24.621 E3.51914
G1 X137.469 Y24.688 E3.53072
G1 X138.014 Y24.872 E3.56018
G1 X138.364 Y25 E3.57927
G1 X139.102 Y25.3 E3.62008
G1 X139.353 Y25.412 E3.63415
G1 X140.066 Y25.759 E3.67477
G1 X140.433 Y25.954 E3.69606
G1 X141.55 Y26.632 E3.76299
G1 X142.067 Y26.987 E3.79511
G1 X142.923 Y27.635 E3.8501
G1 X143.319 Y27.965 E3.8765
G1 X144.03 Y28.61 E3.92567
G1 X144.397 Y28.988 E3.95266
G1 X144.761 Y29.381 E3.9801
G1 X145.351 Y30.07 E4.02656
G1 X145.599 Y30.384 E4.04705
G1 X146.353 Y31.46 E4.11435
G1 X146.716 Y32.046 E4.14966
G1 X147.207 Y32.92 E4.20101
G1 X147.356 Y33.215 E4.21793
G1 X147.703 Y33.97 E4.26049
G1 X147.802 Y34.207 E4.27365
G1 X148.076 Y34.929 E4.3132
G1 X148.192 Y35.269 E4.3316
G1 X148.402 Y35.955 E4.36835
G1 X148.482 Y36.248 E4.38391
G1 X148.671 Y37.049 E4.42606
G1 X148.725 Y37.322 E4.44032
G1 X148.851 Y38.097 E4.48053
G1 X148.901 Y38.488 E4.50072
G1 X148.973 Y39.256 E4.54023
G1 X148.998 Y39.67 E4.56148
G1 X149.017 Y40.144 E4.58578
G1 X149.036 Y41.131 E4.63634
G1 X149.038 Y41.351 E4.64761
G1 X149.04 Y51.632 E5.17421
G1 X149.039 Y51.814 E5.18353
G1 X149.024 Y52.773 E5.23266
G1 X148.988 Y53.519 E5.27091
G1 X148.953 Y53.954 E5.29327
G1 X148.866 Y54.714 E5.33245
G1 X148.818 Y55.039 E5.34927
G1 X148.678 Y55.807 E5.38926
G1 X148.584 Y56.239 E5.41191
G1 X148.33 Y57.204 E5.46302
G1 X148.263 Y57.42 E5.4746
G1 X148.074 Y57.977 E5.50473
G1 X147.947 Y58.323 E5.52361
G1 X147.664 Y59.022 E5.56223
G1 X147.551 Y59.277 E5.57652
G1 X147.197 Y60.007 E5.61807
G1 X147.003 Y60.373 E5.63929
G1 X146.318 Y61.504 E5.70702
G1 X145.962 Y62.022 E5.73921
G1 X145.316 Y62.874 E5.79398
G1 X144.986 Y63.27 E5.82038
G1 X144.341 Y63.981 E5.86955
G1 X143.966 Y64.345 E5.89632
G1 X143.569 Y64.713 E5.92405
G1 X142.861 Y65.318 E5.97175
G1 X142.551 Y65.562 E5.99196
G1 X141.487 Y66.307 E6.05849
G1 X140.894 Y66.674 E6.09421
G1 X140.01 Y67.168 E6.14608
G1 X139.722 Y67.313 E6.16259
G1 X138.981 Y67.654 E6.20437
G1 X138.744 Y67.753 E6.21753
G1 X138.022 Y68.027 E6.25708
G1 X137.682 Y68.143 E6.27548
G1 X136.965 Y68.362 E6.31388
G1 X136.654 Y68.446 E6.33038
G1 X135.857 Y68.631 E6.37229
G1 X135.601 Y68.681 E6.38565
G1 X134.849 Y68.802 E6.42467
G1 X134.457 Y68.852 E6.44491
G1 X133.695 Y68.924 E6.48411
G1 X133.299 Y68.948 E6.50443
G1 X132.82 Y68.967 E6.52899
G1 X131.766 Y68.987 E6.58298
G1 X131.548 Y68.989 E6.59415
G1 X88.322 Y68.991 E8.80821
G1 X88.141 Y68.99 E8.81748
G1 X87.178 Y68.975 E8.86681
G1 X86.432 Y68.939 E8.90507
G1 X85.997 Y68.904 E8.92742
G1 X85.237 Y68.817 E8.9666
G1 X84.912 Y68.769 E8.98343
G1 X84.144 Y68.629 E9.02342
G1 X83.712 Y68.535 E9.04606
G1 X82.747 Y68.281 E9.09717
G1 X82.531 Y68.214 E9.10876
G1 X81.986 Y68.03 E9.13822
G1 X81.636 Y67.902 E9.15731
G1 X80.868 Y67.589 E9.19979
G1 X80.61 Y67.473 E9.21428
G1 X79.933 Y67.142 E9.25287
G1 X79.573 Y66.951 E9.27375
G1 X78.446 Y66.268 E9.34125
G1 X77.928 Y65.912 E9.37344
G1 X77.078 Y65.268 E9.42806
G1 X76.683 Y64.939 E9.45439
G1 X75.972 Y64.294 E9.50356
G1 X75.607 Y63.918 E9.53041
G1 X75.238 Y63.52 E9.5582
G1 X74.629 Y62.808 E9.60619
G1 X74.386 Y62.499 E9.62633
G1 X73.647 Y61.443 E9.69235
G1 X73.279 Y60.849 E9.72814
G1 X72.775 Y59.946 E9.78111
G1 X72.631 Y59.659 E9.79755
G1 X72.297 Y58.932 E9.83853
G1 X72.198 Y58.695 E9.85169
G1 X71.924 Y57.973 E9.89124
G1 X71.808 Y57.633 E9.90964
G1 X71.589 Y56.916 E9.94804
G1 X71.505 Y56.605 E9.96455
G1 X71.32 Y55.808 E10.00645
G1 X71.27 Y55.552 E10.01981
G1 X71.149 Y54.8 E10.05883
G1 X71.099 Y54.408 E10.07907
G1 X71.026 Y53.632 E10.11899
G1 X71.001 Y53.211 E10.14059
G1 X70.983 Y52.751 E10.16417
G1 X70.964 Y51.773 E10.21428
G1 X70.962 Y51.551 E10.22565
G1 X70.96 Y41.249 E10.75332
G1 X70.961 Y41.063 E10.76285
G1 X70.976 Y40.123 E10.811
G1 X71.013 Y39.377 E10.84926
G1 X71.048 Y38.944 E10.87151
G1 X71.134 Y38.188 E10.91048
G1 X71.182 Y37.863 E10.92731
G1 X71.322 Y37.095 E10.9673
G1 X71.416 Y36.663 E10.98994
G1 X71.67 Y35.698 E11.04105
G1 X71.737 Y35.482 E11.05264
G1 X71.921 Y34.937 E11.0821
G1 X72.049 Y34.587 E11.10119
G1 X72.349 Y33.849 E11.14199
G1 X72.461 Y33.598 E11.15607
G0 F6000 X72.862 Y33.777
G1 F1200 X73.197 Y33.092 E11.19513
G1 X73.392 Y32.725 E11.21641
G1 X74.044 Y31.65 E11.28081
G1 X74.399 Y31.133 E11.31294
G1 X75.022 Y30.31 E11.36581
G1 X75.352 Y29.914 E11.39221
G1 X75.985 Y29.216 E11.44047
G1 X76.333 Y28.879 E11.46529
G1 X76.73 Y28.511 E11.49301
G1 X77.411 Y27.93 E11.53886
G1 X77.721 Y27.686 E11.55907
G1 X78.745 Y26.969 E11.6231
G1 X79.338 Y26.602 E11.65882
G1 X80.187 Y26.127 E11.70865
G1 X80.475 Y25.982 E11.72517
G1 X81.189 Y25.654 E11.76541
G1 X81.426 Y25.555 E11.77857
G1 X82.12 Y25.292 E11.81658
G1 X82.46 Y25.176 E11.83498
G1 X83.15 Y24.965 E11.87194
G1 X83.461 Y24.881 E11.88844
G1 X84.227 Y24.703 E11.92872
G1 X84.483 Y24.653 E11.94208
G1 X85.207 Y24.536 E11.97965
G1 X85.599 Y24.486 E11.99989
G1 X86.332 Y24.417 E12.0376
G1 X86.728 Y24.393 E12.05792
G1 X87.188 Y24.375 E12.0815
G1 X88.242 Y24.355 E12.13549
G1 X88.452 Y24.353 E12.14625
G1 X131.678 Y24.351 E14.36031
G1 X131.852 Y24.352 E14.36923
G1 X132.815 Y24.367 E14.41856
G1 X133.532 Y24.402 E14.45533
G1 X133.967 Y24.437 E14.47768
G1 X134.699 Y24.52 E14.51541
G1 X135.024 Y24.568 E14.53224
G1 X135.762 Y24.703 E14.57067
G1 X136.194 Y24.797 E14.59331
G1 X137.122 Y25.041 E14.64246
G1 X137.338 Y25.108 E14.65404
G1 X137.862 Y25.285 E14.68237
G1 X138.212 Y25.413 E14.70146
G1 X138.923 Y25.701 E14.74075
G1 X139.174 Y25.813 E14.75483
G1 X139.859 Y26.148 E14.79389
G1 X140.226 Y26.343 E14.81518
G1 X141.301 Y26.995 E14.87957
G1 X141.818 Y27.35 E14.9117
G1 X142.641 Y27.973 E14.96457
G1 X143.037 Y28.303 E14.99097
G1 X143.735 Y28.936 E15.03924
G1 X144.075 Y29.287 E15.06427
G1 X144.439 Y29.68 E15.0917
G1 X145.006 Y30.343 E15.13639
G1 X145.254 Y30.657 E15.15688
G1 X145.979 Y31.692 E15.22161
G1 X146.342 Y32.278 E15.25692
G1 X146.814 Y33.119 E15.30631
G1 X146.963 Y33.414 E15.32324
G1 X147.297 Y34.14 E15.36417
G1 X147.396 Y34.377 E15.37733
G1 X147.659 Y35.071 E15.41534
G1 X147.775 Y35.411 E15.43374
G1 X147.978 Y36.071 E15.46911
G1 X148.058 Y36.364 E15.48467
G1 X148.239 Y37.134 E15.52518
G1 X148.293 Y37.407 E15.53944
G1 X148.414 Y38.153 E15.57815
G1 X148.464 Y38.544 E15.59834
G1 X148.534 Y39.283 E15.63636
G1 X148.559 Y39.697 E15.6576
G1 X148.577 Y40.152 E15.68093
G1 X148.596 Y41.139 E15.73149
G1 X148.598 Y41.351 E15.74235
G1 X148.6 Y51.632 E16.26895
G1 X148.599 Y51.808 E16.27796
G1 X148.584 Y52.767 E16.32709
G1 X148.549 Y53.483 E16.36381
G1 X148.514 Y53.918 E16.38616
G1 X148.431 Y54.65 E16.4239
G1 X148.383 Y54.975 E16.44072
G1 X148.248 Y55.713 E16.47915
G1 X148.154 Y56.145 E16.5018
G1 X147.91 Y57.073 E16.55094
G1 X147.843 Y57.289 E16.56253
G1 X147.661 Y57.826 E16.59157
G1 X147.534 Y58.172 E16.61045
G1 X147.262 Y58.844 E16.64758
G1 X147.149 Y59.099 E16.66187
G1 X146.808 Y59.8 E16.7018
G1 X146.614 Y60.166 E16.72301
G1 X145.955 Y61.255 E16.78821
G1 X145.599 Y61.773 E16.82041
G1 X144.978 Y62.592 E16.87305
G1 X144.648 Y62.988 E16.89945
G1 X144.015 Y63.686 E16.94772
G1 X143.667 Y64.023 E16.97253
G1 X143.27 Y64.391 E17.00026
G1 X142.589 Y64.972 E17.04611
G1 X142.279 Y65.216 E17.06632
G1 X141.255 Y65.933 E17.13034
G1 X140.662 Y66.3 E17.16606
G1 X139.813 Y66.775 E17.21589
G1 X139.525 Y66.92 E17.23241
G1 X138.811 Y67.248 E17.27266
G1 X138.574 Y67.347 E17.28581
G1 X137.88 Y67.61 E17.32383
G1 X137.54 Y67.726 E17.34223
G1 X136.85 Y67.937 E17.37918
G1 X136.539 Y68.021 E17.39568
G1 X135.773 Y68.199 E17.43596
G1 X135.517 Y68.249 E17.44933
G1 X134.793 Y68.366 E17.48689
G1 X134.401 Y68.416 E17.50713
G1 X133.668 Y68.485 E17.54484
G1 X133.272 Y68.509 E17.56516
G1 X132.812 Y68.527 E17.58874
G1 X131.758 Y68.547 E17.64274
G1 X131.548 Y68.549 E17.6535
G1 X88.322 Y68.551 E19.86756
G1 X88.148 Y68.55 E19.87647
G1 X87.185 Y68.535 E19.9258
G1 X86.468 Y68.5 E19.96257
G1 X86.033 Y68.465 E19.98492
G1 X85.301 Y68.382 E20.02266
G1 X84.976 Y68.334 E20.03948
G1 X84.238 Y68.199 E20.07791
G1 X83.806 Y68.105 E20.10056
G1 X82.878 Y67.861 E20.14971
G1 X82.662 Y67.794 E20.16129
G1 X82.138 Y67.617 E20.18962
G1 X81.788 Y67.489 E20.20871
G1 X81.048 Y67.188 E20.24963
G1 X80.79 Y67.072 E20.26411
G1 X80.14 Y66.753 E20.3012
G1 X79.78 Y66.562 E20.32208
G1 X78.695 Y65.905 E20.38704
G1 X78.177 Y65.549 E20.41924
G1 X77.36 Y64.93 E20.47174
G1 X76.965 Y64.601 E20.49807
G1 X76.267 Y63.968 E20.54634
G1 X75.929 Y63.619 E20.57122
G1 X75.56 Y63.221 E20.59902
G1 X74.975 Y62.536 E20.64516
G1 X74.732 Y62.227 E20.66529
G1 X74.021 Y61.211 E20.72881
G1 X73.653 Y60.617 E20.7646
G1 X73.168 Y59.749 E20.81553
G1 X73.024 Y59.462 E20.83198
G1 X72.703 Y58.762 E20.87142
G1 X72.604 Y58.525 E20.88458
G1 X72.341 Y57.831 E20.92259
G1 X72.225 Y57.491 E20.94099
G1 X72.014 Y56.801 E20.97795
G1 X71.93 Y56.49 E20.99445
G1 X71.752 Y55.724 E21.03473
G1 X71.702 Y55.468 E21.04809
G1 X71.585 Y54.744 E21.08566
G1 X71.535 Y54.352 E21.1059
G1 X71.466 Y53.606 E21.14427
G1 X71.441 Y53.185 E21.16587
G1 X71.423 Y52.743 E21.18853
G1 X71.404 Y51.765 E21.23864
G1 X71.402 Y51.551 E21.2496
G1 X71.4 Y41.249 E21.77727
G1 X71.401 Y41.07 E21.78644
G1 X71.416 Y40.13 E21.83459
G1 X71.451 Y39.413 E21.87136
G1 X71.486 Y38.98 E21.89361
G1 X71.569 Y38.252 E21.93114
G1 X71.617 Y37.927 E21.94797
G1 X71.752 Y37.189 E21.9864
G1 X71.846 Y36.757 E22.00904
G1 X72.09 Y35.829 E22.05819
G1 X72.157 Y35.613 E22.06978
G1 X72.334 Y35.089 E22.09811
G1 X72.462 Y34.739 E22.11719
G1 X72.75 Y34.028 E22.15649
G1 X72.862 Y33.777 E22.17056
G0 F6000 X73.264 Y33.956
G1 F1200 X73.585 Y33.298 E22.20806
G1 X73.78 Y32.931 E22.22935
G1 X74.406 Y31.899 E22.29118
G1 X74.761 Y31.382 E22.3233
G1 X75.36 Y30.592 E22.37408
G1 X75.69 Y30.196 E22.40048
G1 X76.632 Y29.202 E22.47063
G1 X77.029 Y28.834 E22.49835
G1 X77.683 Y28.275 E22.54242
G1 X77.993 Y28.031 E22.56263
G1 X78.976 Y27.344 E22.62406
G1 X79.569 Y26.977 E22.65978
G1 X80.385 Y26.52 E22.70768
G1 X80.673 Y26.375 E22.7242
G1 X81.358 Y26.06 E22.76281
G1 X81.595 Y25.961 E22.77597
G1 X82.262 Y25.708 E22.81251
G1 X82.602 Y25.592 E22.83091
G1 X83.264 Y25.39 E22.86636
G1 X83.575 Y25.306 E22.88286
G1 X84.312 Y25.135 E22.92161
G1 X84.568 Y25.085 E22.93497
G1 X85.262 Y24.973 E22.97098
G1 X85.654 Y24.923 E22.99122
G1 X86.358 Y24.857 E23.02744
G1 X86.754 Y24.833 E23.04776
G1 X87.197 Y24.815 E23.07047
G1 X88.251 Y24.795 E23.12447
G1 X88.453 Y24.793 E23.13481
G1 X131.679 Y24.791 E25.34888
G1 X131.845 Y24.792 E25.35738
G1 X132.808 Y24.807 E25.40671
G1 X133.497 Y24.84 E25.44204
G1 X133.932 Y24.875 E25.46439
G1 X134.635 Y24.955 E25.50063
G1 X134.96 Y25.003 E25.51746
G1 X135.669 Y25.133 E25.55438
G1 X136.101 Y25.227 E25.57703
G1 X136.992 Y25.462 E25.62423
G1 X137.208 Y25.529 E25.63581
G1 X137.711 Y25.699 E25.663
G1 X138.061 Y25.827 E25.68209
G1 X138.744 Y26.103 E25.71983
G1 X138.995 Y26.215 E25.7339
G1 X139.653 Y26.536 E25.7714
G1 X140.02 Y26.731 E25.79269
G1 X141.052 Y27.357 E25.85451
G1 X141.569 Y27.712 E25.88664
G1 X142.359 Y28.311 E25.93742
G1 X142.755 Y28.641 E25.96382
G1 X143.752 Y29.586 E26.03418
G1 X144.116 Y29.979 E26.06162
G1 X144.66 Y30.616 E26.10453
G1 X144.908 Y30.93 E26.12502
G1 X145.605 Y31.923 E26.18716
G1 X145.968 Y32.509 E26.22247
G1 X146.421 Y33.317 E26.26992
G1 X146.57 Y33.612 E26.28684
G1 X146.891 Y34.309 E26.32615
G1 X146.99 Y34.546 E26.33931
G1 X147.243 Y35.213 E26.37584
G1 X147.359 Y35.553 E26.39425
G1 X147.554 Y36.187 E26.42822
G1 X147.634 Y36.48 E26.44378
G1 X147.807 Y37.22 E26.4827
G1 X147.861 Y37.493 E26.49696
G1 X147.978 Y38.209 E26.53412
G1 X148.028 Y38.6 E26.55431
G1 X148.095 Y39.309 E26.59078
G1 X148.12 Y39.723 E26.61203
G1 X148.137 Y40.161 E26.63448
G1 X148.156 Y41.148 E26.68504
G1 X148.158 Y41.351 E26.69544
G1 X148.16 Y51.632 E27.22204
G1 X148.159 Y51.801 E27.2307
G1 X148.144 Y52.76 E27.27982
G1 X148.111 Y53.448 E27.3151
G1 X148.076 Y53.883 E27.33746
G1 X147.996 Y54.586 E27.3737
G1 X147.948 Y54.911 E27.39053
G1 X147.818 Y55.62 E27.42745
G1 X147.724 Y56.052 E27.45009
G1 X147.489 Y56.943 E27.49729
G1 X147.422 Y57.159 E27.50887
G1 X147.248 Y57.674 E27.53672
G1 X147.121 Y58.02 E27.5556
G1 X146.86 Y58.666 E27.59128
G1 X146.747 Y58.921 E27.60557
G1 X146.42 Y59.594 E27.64389
G1 X146.226 Y59.96 E27.66511
G1 X145.592 Y61.006 E27.72776
G1 X145.236 Y61.524 E27.75996
G1 X144.64 Y62.31 E27.81048
G1 X144.31 Y62.706 E27.83688
G1 X143.368 Y63.7 E27.90703
G1 X142.971 Y64.068 E27.93475
G1 X142.317 Y64.627 E27.97882
G1 X142.007 Y64.871 E27.99903
G1 X141.024 Y65.558 E28.06046
G1 X140.431 Y65.925 E28.09618
G1 X139.615 Y66.382 E28.14408
G1 X139.327 Y66.527 E28.1606
G1 X138.642 Y66.842 E28.19921
G1 X138.405 Y66.941 E28.21237
G1 X137.738 Y67.194 E28.24891
G1 X137.398 Y67.31 E28.26731
G1 X136.736 Y67.512 E28.30276
G1 X136.425 Y67.596 E28.31926
G1 X135.688 Y67.767 E28.35801
G1 X135.432 Y67.817 E28.37137
G1 X134.738 Y67.929 E28.40738
G1 X134.346 Y67.979 E28.42762
G1 X133.642 Y68.045 E28.46384
G1 X133.246 Y68.069 E28.48416
G1 X132.803 Y68.087 E28.50687
G1 X131.749 Y68.107 E28.56087
G1 X131.547 Y68.109 E28.57121
G1 X88.321 Y68.111 E30.78528
G1 X88.155 Y68.11 E30.79378
G1 X87.192 Y68.095 E30.84311
G1 X86.503 Y68.062 E30.87844
G1 X86.068 Y68.027 E30.90079
G1 X85.365 Y67.947 E30.93704
G1 X85.04 Y67.899 E30.95386
G1 X84.331 Y67.769 E30.99078
G1 X83.899 Y67.675 E31.01343
G1 X83.008 Y67.44 E31.06063
G1 X82.792 Y67.373 E31.07221
G1 X82.289 Y67.203 E31.09941
G1 X81.939 Y67.075 E31.11849
G1 X81.229 Y66.786 E31.15776
G1 X80.971 Y66.67 E31.17225
G1 X80.346 Y66.365 E31.20787
G1 X79.986 Y66.174 E31.22874
G1 X78.944 Y65.542 E31.29116
G1 X78.426 Y65.186 E31.32336
G1 X77.642 Y64.592 E31.37374
G1 X77.247 Y64.263 E31.40007
G1 X76.252 Y63.32 E31.47029
G1 X75.883 Y62.922 E31.49809
G1 X75.321 Y62.264 E31.54241
G1 X75.078 Y61.955 E31.56254
G1 X74.395 Y60.979 E31.62356
G1 X74.027 Y60.385 E31.65935
G1 X73.561 Y59.552 E31.70824
G1 X73.417 Y59.265 E31.72469
G1 X73.109 Y58.593 E31.76255
G1 X73.01 Y58.356 E31.77571
G1 X72.757 Y57.689 E31.81225
G1 X72.641 Y57.349 E31.83065
G1 X72.439 Y56.687 E31.8661
G1 X72.355 Y56.376 E31.8826
G1 X72.184 Y55.639 E31.92135
G1 X72.134 Y55.383 E31.93471
G1 X72.022 Y54.689 E31.97072
G1 X71.972 Y54.297 E31.99096
