;FLAVOR:Marlin
;TIME:464
;Filament used: 0.389221m
;Layer height: 0.28
;MINX:103.335
;MINY:98.835
;MINZ:0.28
;MAXX:116.665
;MAXY:121.165
;MAXZ:3.92
;Generated with Cura_SteamEngine 4.2.1
M140 S50
M105
M190 S50
M104 S200
M105
M109 S200
M82 ;absolute extrusion mode
M201 X500.00 Y500.00 Z100.00 E5000.00 ;Setup machine max acceleration
M203 X500.00 Y500.00 Z10.00 E50.00 ;Setup machine max feedrate
M204 P500.00 R1000.00 T500.00 ;Setup Print/Retract/Travel acceleration
M205 X8.00 Y8.00 Z0.40 E5.00 ;Setup Jerk
M220 S100 ;Reset Feedrate
M221 S100 ;Reset Flowrate

G28 ;Home

G92 E0 ;Reset Extruder
G1 Z2.0 F3000 ;Move Z Axis up
G1 X10.1 Y20 Z0.28 F5000.0 ;Move to start position
G1 X10.1 Y200.0 Z0.28 F1500.0 E15 ;Draw the first line
G1 X10.4 Y200.0 Z0.28 F5000.0 ;Move to side a little
G1 X10.4 Y20 Z0.28 F1500.0 E30 ;Draw the second line
G92 E0 ;Reset Extruder
G1 Z2.0 F3000 ;Move Z Axis up

M141 S28
G92 E0
G92 E0
G1 F2700 E-5
;LAYER_COUNT:14
;LAYER:0
M107
;MESH:EM1 tray insert v1.stl
G0 F6000 X104.66 Y119.84 Z0.28
;TYPE:WALL-INNER
G1 F2700 E0
G1 F1200 X104.66 Y100.16 E1.00802
G1 X115.34 Y100.16 E1.55506
G1 X115.34 Y119.84 E2.56308
G1 X104.66 Y119.84 E3.11012
G1 F2700 E-1.88988
G0 F6000 X104.66 Y121.165
G0 X104.714 Y121.091
G0 X109.781 Y114.244
G0 X109.832 Y114.177
G0 X109.903 Y115.509
G1 F2700 E3.11012
G1 F1200 X110.097 Y115.509 E3.12005
G1 X110.29 Y115.496 E3.12996
G1 X110.48 Y115.472 E3.13977
G1 X110.669 Y115.435 E3.14963
G1 X110.859 Y115.386 E3.15968
G1 X111.041 Y115.324 E3.16953
G1 X111.217 Y115.253 E3.17925
G1 X111.392 Y115.17 E3.18917
G1 X111.563 Y115.074 E3.19922
G1 X111.722 Y114.968 E3.20901
G1 X111.875 Y114.855 E3.21875
G1 X112.024 Y114.729 E3.22874
G1 X112.164 Y114.594 E3.23871
G1 X112.293 Y114.451 E3.24857
G1 X112.412 Y114.301 E3.25838
G1 X112.523 Y114.143 E3.26827
G1 X112.624 Y113.976 E3.27826
G1 X112.712 Y113.805 E3.28811
G1 X112.79 Y113.631 E3.29788
G1 X112.857 Y113.449 E3.30782
G1 X112.912 Y113.264 E3.3177
G1 X112.955 Y113.075 E3.32763
G1 X112.986 Y112.885 E3.33749
G1 X113.004 Y112.693 E3.34737
G1 X113.01 Y112.5 E3.35726
G1 X113.004 Y112.307 E3.36715
G1 X112.986 Y112.115 E3.37703
G1 X112.955 Y111.925 E3.38689
G1 X112.912 Y111.736 E3.39681
G1 X112.857 Y111.551 E3.4067
G1 X112.79 Y111.369 E3.41663
G1 X112.712 Y111.195 E3.4264
G1 X112.624 Y111.024 E3.43625
G1 X112.523 Y110.857 E3.44625
G1 X112.412 Y110.699 E3.45614
G1 X112.293 Y110.549 E3.46594
G1 X112.164 Y110.406 E3.47581
G1 X112.024 Y110.271 E3.48577
G1 X111.875 Y110.145 E3.49577
G1 X111.722 Y110.032 E3.50551
G1 X111.563 Y109.926 E3.5153
G1 X111.392 Y109.83 E3.52534
G1 X111.217 Y109.747 E3.53526
G1 X111.041 Y109.676 E3.54498
G1 X110.859 Y109.614 E3.55483
G1 X110.669 Y109.565 E3.56488
G1 X110.48 Y109.528 E3.57475
G1 X110.29 Y109.504 E3.58455
G1 X110.097 Y109.491 E3.59446
G1 X109.903 Y109.491 E3.6044
G1 X109.71 Y109.504 E3.61431
G1 X109.52 Y109.528 E3.62412
G1 X109.331 Y109.565 E3.63398
G1 X109.141 Y109.614 E3.64403
G1 X108.959 Y109.676 E3.65388
G1 X108.783 Y109.747 E3.6636
G1 X108.608 Y109.83 E3.67352
G1 X108.437 Y109.926 E3.68357
G1 X108.278 Y110.032 E3.69335
G1 X108.125 Y110.145 E3.7031
G1 X107.976 Y110.271 E3.71309
G1 X107.836 Y110.406 E3.72305
G1 X107.707 Y110.549 E3.73292
G1 X107.588 Y110.699 E3.74272
G1 X107.477 Y110.857 E3.75261
G1 X107.376 Y111.024 E3.76261
G1 X107.288 Y111.195 E3.77246
G1 X107.21 Y111.369 E3.78223
G1 X107.143 Y111.551 E3.79216
G1 X107.088 Y111.736 E3.80205
G1 X107.045 Y111.925 E3.81198
G1 X107.014 Y112.115 E3.82184
G1 X106.996 Y112.307 E3.83171
G1 X106.99 Y112.51 E3.84212
G1 X107.012 Y112.875 E3.86085
G1 X107.045 Y113.076 E3.87128
G1 X107.088 Y113.264 E3.88116
G1 X107.143 Y113.449 E3.89104
G1 X107.21 Y113.631 E3.90098
G1 X107.288 Y113.805 E3.91074
G1 X107.376 Y113.976 E3.92059
G1 X107.477 Y114.143 E3.93059
G1 X107.588 Y114.301 E3.94048
G1 X107.707 Y114.451 E3.95029
G1 X107.836 Y114.594 E3.96015
G1 X107.976 Y114.729 E3.97011
G1 X108.125 Y114.855 E3.98011
G1 X108.278 Y114.968 E3.98985
G1 X108.437 Y115.074 E3.99964
G1 X108.608 Y115.17 E4.00968
G1 X108.783 Y115.253 E4.0196
G1 X108.959 Y115.324 E4.02933
G1 X109.141 Y115.386 E4.03917
G1 X109.331 Y115.435 E4.04922
G1 X109.52 Y115.472 E4.05909
G1 X109.71 Y115.496 E4.0689
G1 X109.903 Y115.509 E4.07881
G1 F2700 E-0.92119
G0 F6000 X109.832 Y114.177
G0 X109.764 Y114.239
G0 X103.403 Y120.214
G0 X103.335 Y120.28
G0 X104.22 Y120.28
;TYPE:WALL-OUTER
G1 F2700 E4.07881
G1 F1200 X104.22 Y99.72 E5.1319
G1 X115.78 Y99.72 E5.72401
G1 X115.78 Y120.28 E6.77711
G1 X104.22 Y120.28 E7.36922
G1 F2700 E2.36922
G0 F6000 X104.22 Y121.165
G0 X104.277 Y121.092
G0 X109.777 Y114.243
G0 X109.832 Y114.177
G0 X109.918 Y115.069
G1 F2700 E7.36922
G1 F1200 X110.082 Y115.069 E7.37762
G1 X110.247 Y115.058 E7.38609
G1 X110.41 Y115.037 E7.39451
G1 X110.572 Y115.006 E7.40295
G1 X110.732 Y114.964 E7.41143
G1 X110.888 Y114.911 E7.41987
G1 X111.04 Y114.85 E7.42826
G1 X111.189 Y114.779 E7.43671
G1 X111.333 Y114.698 E7.44517
G1 X111.47 Y114.607 E7.4536
G1 X111.602 Y114.51 E7.46199
G1 X111.728 Y114.403 E7.47045
G1 X111.847 Y114.288 E7.47893
G1 X111.957 Y114.166 E7.48734
G1 X112.059 Y114.038 E7.49573
G1 X112.154 Y113.902 E7.50422
G1 X112.24 Y113.761 E7.51268
G1 X112.315 Y113.615 E7.52109
G1 X112.382 Y113.465 E7.52951
G1 X112.439 Y113.31 E7.53796
G1 X112.486 Y113.152 E7.54641
G1 X112.523 Y112.991 E7.55487
G1 X112.549 Y112.829 E7.56327
G1 X112.565 Y112.665 E7.57171
G1 X112.57 Y112.5 E7.58017
G1 X112.565 Y112.335 E7.58862
G1 X112.549 Y112.171 E7.59706
G1 X112.523 Y112.009 E7.60547
G1 X112.486 Y111.848 E7.61393
G1 X112.439 Y111.69 E7.62237
G1 X112.382 Y111.535 E7.63083
G1 X112.315 Y111.385 E7.63925
G1 X112.24 Y111.239 E7.64765
G1 X112.154 Y111.098 E7.65611
G1 X112.059 Y110.962 E7.66461
G1 X111.957 Y110.834 E7.67299
G1 X111.847 Y110.712 E7.68141
G1 X111.728 Y110.597 E7.68988
G1 X111.602 Y110.49 E7.69835
G1 X111.47 Y110.393 E7.70674
G1 X111.333 Y110.302 E7.71517
G1 X111.189 Y110.221 E7.72363
G1 X111.04 Y110.15 E7.73208
G1 X110.888 Y110.089 E7.74047
G1 X110.732 Y110.036 E7.74891
G1 X110.572 Y109.994 E7.75738
G1 X110.41 Y109.963 E7.76583
G1 X110.247 Y109.942 E7.77425
G1 X110.082 Y109.931 E7.78272
G1 X109.918 Y109.931 E7.79112
G1 X109.753 Y109.942 E7.79959
G1 X109.59 Y109.963 E7.80801
G1 X109.428 Y109.994 E7.81646
G1 X109.268 Y110.036 E7.82493
G1 X109.112 Y110.089 E7.83337
G1 X108.96 Y110.15 E7.84176
G1 X108.811 Y110.221 E7.85021
G1 X108.667 Y110.302 E7.85867
G1 X108.53 Y110.393 E7.8671
G1 X108.398 Y110.49 E7.87549
G1 X108.272 Y110.597 E7.88395
G1 X108.153 Y110.712 E7.89243
G1 X108.043 Y110.834 E7.90085
G1 X107.941 Y110.962 E7.90923
G1 X107.846 Y111.098 E7.91773
G1 X107.76 Y111.239 E7.92619
G1 X107.685 Y111.385 E7.93459
G1 X107.618 Y111.535 E7.94301
G1 X107.561 Y111.69 E7.95147
G1 X107.514 Y111.848 E7.95991
G1 X107.477 Y112.009 E7.96837
G1 X107.451 Y112.171 E7.97677
G1 X107.435 Y112.335 E7.98521
G1 X107.43 Y112.503 E7.99382
G1 X107.45 Y112.826 E8.0104
G1 X107.477 Y112.991 E8.01896
G1 X107.514 Y113.152 E8.02742
G1 X107.561 Y113.31 E8.03587
G1 X107.618 Y113.465 E8.04433
G1 X107.685 Y113.615 E8.05274
G1 X107.76 Y113.761 E8.06115
G1 X107.846 Y113.902 E8.06961
G1 X107.941 Y114.038 E8.07811
G1 X108.043 Y114.166 E8.08649
G1 X108.153 Y114.288 E8.0949
G1 X108.272 Y114.403 E8.10338
G1 X108.398 Y114.51 E8.11185
G1 X108.53 Y114.607 E8.12024
G1 X108.667 Y114.698 E8.12866
G1 X108.811 Y114.779 E8.13712
G1 X108.96 Y114.85 E8.14558
G1 X109.112 Y114.911 E8.15397
G1 X109.268 Y114.964 E8.16241
G1 X109.428 Y115.006 E8.17088
G1 X109.59 Y115.037 E8.17933
G1 X109.753 Y115.058 E8.18774
G1 X109.918 Y115.069 E8.19621
G0 F6000 X109.889 Y115.939
;TYPE:SKIN
G1 F1200 X110.111 Y115.939 E8.20759
G1 X110.331 Y115.924 E8.21888
G1 X110.548 Y115.896 E8.23009
G1 X110.764 Y115.855 E8.24135
G1 X110.982 Y115.798 E8.25289
G1 X111.191 Y115.727 E8.2642
G1 X111.389 Y115.648 E8.27512
G1 X111.589 Y115.553 E8.28646
G1 X111.788 Y115.441 E8.29815
G1 X111.969 Y115.32 E8.3093
G1 X112.142 Y115.193 E8.3203
G1 X112.313 Y115.048 E8.33178
G1 X112.473 Y114.893 E8.34319
G1 X112.621 Y114.729 E8.35451
G1 X112.756 Y114.559 E8.36563
G1 X112.883 Y114.378 E8.37695
G1 X112.999 Y114.185 E8.38848
G1 X113.099 Y113.991 E8.39966
G1 X113.189 Y113.794 E8.41076
G1 X113.265 Y113.584 E8.4222
G1 X113.328 Y113.373 E8.43348
G1 X113.377 Y113.157 E8.44482
G1 X113.412 Y112.94 E8.45608
G1 X113.434 Y112.72 E8.4674
G1 X113.44 Y112.5 E8.47868
G1 X113.434 Y112.28 E8.48995
G1 X113.412 Y112.06 E8.50127
G1 X113.377 Y111.843 E8.51253
G1 X113.328 Y111.627 E8.52388
G1 X113.265 Y111.416 E8.53516
G1 X113.189 Y111.206 E8.54659
G1 X113.099 Y111.009 E8.55769
G1 X112.999 Y110.815 E8.56887
G1 X112.883 Y110.622 E8.5804
G1 X112.756 Y110.441 E8.59173
G1 X112.621 Y110.271 E8.60285
G1 X112.473 Y110.107 E8.61416
G1 X112.313 Y109.952 E8.62557
G1 X112.142 Y109.807 E8.63705
G1 X111.969 Y109.68 E8.64805
G1 X111.788 Y109.559 E8.6592
G1 X111.589 Y109.447 E8.6709
G1 X111.389 Y109.352 E8.68224
G1 X111.191 Y109.273 E8.69316
G1 X110.982 Y109.202 E8.70446
G1 X110.764 Y109.145 E8.716
G1 X110.548 Y109.104 E8.72726
G1 X110.331 Y109.076 E8.73847
G1 X110.111 Y109.061 E8.74977
G1 X109.889 Y109.061 E8.76114
G1 X109.669 Y109.076 E8.77243
G1 X109.452 Y109.104 E8.78364
G1 X109.236 Y109.145 E8.7949
G1 X109.018 Y109.202 E8.80644
G1 X108.809 Y109.273 E8.81775
G1 X108.611 Y109.352 E8.82867
G1 X108.411 Y109.447 E8.84001
G1 X108.212 Y109.559 E8.8517
G1 X108.031 Y109.68 E8.86286
G1 X107.858 Y109.807 E8.87385
G1 X107.687 Y109.952 E8.88533
G1 X107.527 Y110.107 E8.89674
G1 X107.379 Y110.271 E8.90806
G1 X107.244 Y110.441 E8.91918
G1 X107.117 Y110.622 E8.9305
G1 X107.001 Y110.815 E8.94204
G1 X106.901 Y111.009 E8.95321
G1 X106.811 Y111.206 E8.96431
G1 X106.735 Y111.416 E8.97575
G1 X106.672 Y111.627 E8.98703
G1 X106.623 Y111.843 E8.99837
G1 X106.588 Y112.06 E9.00963
G1 X106.566 Y112.28 E9.02095
G1 X106.56 Y112.516 E9.03305
G1 X106.584 Y112.923 E9.05393
G1 X106.623 Y113.158 E9.06613
G1 X106.672 Y113.373 E9.07743
G1 X106.735 Y113.584 E9.0887
G1 X106.811 Y113.794 E9.10014
G1 X106.901 Y113.991 E9.11124
G1 X107.001 Y114.185 E9.12242
G1 X107.117 Y114.378 E9.13395
G1 X107.244 Y114.559 E9.14528
G1 X107.379 Y114.729 E9.15639
G1 X107.527 Y114.893 E9.16771
G1 X107.687 Y115.048 E9.17912
G1 X107.858 Y115.193 E9.1906
G1 X108.031 Y115.32 E9.2016
G1 X108.212 Y115.441 E9.21275
G1 X108.411 Y115.553 E9.22444
G1 X108.611 Y115.648 E9.23579
G1 X108.809 Y115.727 E9.2467
G1 X109.018 Y115.798 E9.25801
G1 X109.236 Y115.855 E9.26955
G1 X109.452 Y115.896 E9.28081
G1 X109.669 Y115.924 E9.29202
G1 X109.889 Y115.939 E9.30331
G1 F2700 E4.30331
G0 F6000 X109.832 Y114.177
G0 X109.791 Y114.208
G0 X103.405 Y119.352
G0 X103.335 Y119.41
G0 X105.09 Y119.41
G1 F2700 E9.30331
G1 F1200 X105.09 Y100.59 E10.26729
G1 X114.91 Y100.59 E10.77027
G1 X114.91 Y119.41 E11.73424
G1 X105.09 Y119.41 E12.23723
G0 F6000 X105.543 Y119.233
G1 F1200 X105.265 Y118.955 E12.25737
G0 F6000 X105.265 Y118.332
G1 F1200 X106.165 Y119.233 E12.3226
G0 F6000 X106.787 Y119.233
G1 F1200 X105.265 Y117.71 E12.43288
G0 F6000 X105.265 Y117.088
G1 F1200 X107.41 Y119.233 E12.58826
G0 F6000 X108.032 Y119.233
G1 F1200 X105.265 Y116.466 E12.78869
G0 F6000 X105.265 Y115.843
G1 F1200 X108.654 Y119.233 E13.03422
G0 F6000 X109.276 Y119.233
G1 F1200 X105.265 Y115.221 E13.3248
G0 F6000 X105.265 Y114.599
G1 F1200 X109.899 Y119.233 E13.66047
G0 F6000 X110.521 Y119.233
G1 F1200 X105.265 Y113.977 E14.0412
G0 F6000 X105.265 Y113.354
G1 F1200 X111.143 Y119.233 E14.46702
G0 F6000 X111.766 Y119.233
G1 F1200 X108.13 Y115.597 E14.7304
G0 F6000 X109.175 Y116.02
G1 F1200 X112.388 Y119.233 E14.96314
G0 F6000 X113.01 Y119.233
G1 F1200 X109.892 Y116.114 E15.18903
G0 F6000 X110.48 Y116.08
G1 F1200 X113.632 Y119.233 E15.41739
G0 F6000 X114.255 Y119.233
G1 F1200 X110.997 Y115.975 E15.65339
G0 F6000 X111.454 Y115.81
G1 F1200 X114.734 Y119.09 E15.89098
G0 F6000 X114.734 Y118.467
G1 F1200 X111.866 Y115.599 E16.09873
G0 F6000 X112.232 Y115.343
G1 F1200 X114.734 Y117.845 E16.27997
G0 F6000 X114.734 Y117.223
G1 F1200 X112.562 Y115.051 E16.4373
G0 F6000 X112.852 Y114.719
G1 F1200 X114.734 Y116.601 E16.57363
G0 F6000 X114.734 Y115.978
G1 F1200 X113.104 Y114.349 E16.69166
G0 F6000 X113.315 Y113.938
G1 F1200 X114.734 Y115.356 E16.79442
G0 F6000 X114.734 Y114.734
G1 F1200 X113.479 Y113.479 E16.88532
G0 F6000 X113.586 Y112.963
G1 F1200 X114.734 Y114.112 E16.96852
G0 F6000 X114.734 Y113.489
G1 F1200 X113.611 Y112.367 E17.04983
G0 F6000 X113.511 Y111.644
G1 F1200 X114.734 Y112.867 E17.13842
G0 F6000 X114.734 Y112.245
G1 F1200 X113.052 Y110.563 E17.26026
G0 F6000 X111.936 Y109.447
G1 F1200 X105.264 Y102.775 E17.74356
G0 F6000 X105.264 Y102.153
G1 F1200 X114.734 Y111.623 E18.42953
G0 F6000 X114.734 Y111
G1 F1200 X105.264 Y101.531 E19.11548
G0 F6000 X105.264 Y100.909
G1 F1200 X114.734 Y110.378 E19.80142
G0 F6000 X114.733 Y109.755
G1 F1200 X105.744 Y100.766 E20.45255
G0 F6000 X106.366 Y100.766
G1 F1200 X114.733 Y109.133 E21.05863
G0 F6000 X114.733 Y108.511
G1 F1200 X106.988 Y100.766 E21.61965
G0 F6000 X107.611 Y100.766
G1 F1200 X114.733 Y107.888 E22.13555
G0 F6000 X114.733 Y107.266
G1 F1200 X108.233 Y100.766 E22.60639
G0 F6000 X108.855 Y100.766
G1 F1200 X114.733 Y106.644 E23.03217
G0 F6000 X114.733 Y106.022
G1 F1200 X109.477 Y100.766 E23.4129
G0 F6000 X110.1 Y100.766
G1 F1200 X114.733 Y105.399 E23.7485
G0 F6000 X114.733 Y104.777
G1 F1200 X110.722 Y100.766 E24.03905
G0 F6000 X111.344 Y100.766
G1 F1200 X114.733 Y104.155 E24.28453
G0 F6000 X114.733 Y103.533
G1 F1200 X111.966 Y100.766 E24.48497
G0 F6000 X112.589 Y100.766
G1 F1200 X114.733 Y102.91 E24.64027
G0 F6000 X114.733 Y102.288
G1 F1200 X113.211 Y100.766 E24.75052
G0 F6000 X113.833 Y100.766
G1 F1200 X114.733 Y101.666 E24.81571
G0 F6000 X114.733 Y101.044
G1 F1200 X114.455 Y100.766 E24.83585
G1 F2700 E19.83585
G0 F6000 X114.455 Y98.835
G0 X114.428 Y98.912
G0 X110.395 Y110.779
G0 X110.37 Y110.855
G0 X110.853 Y108.986
G1 F2700 E24.83585
G1 F1200 X105.264 Y103.398 E25.24067
G0 F6000 X105.264 Y104.02
G1 F1200 X110.13 Y108.885 E25.59311
G0 F6000 X109.537 Y108.915
G1 F1200 X105.264 Y104.642 E25.90263
G0 F6000 X105.264 Y105.264
G1 F1200 X109.019 Y109.019 E26.17463
G0 F6000 X108.559 Y109.181
G1 F1200 X105.264 Y105.887 E26.41327
G0 F6000 X105.264 Y106.509
G1 F1200 X108.147 Y109.391 E26.62207
G0 F6000 X107.779 Y109.646
G1 F1200 X105.264 Y107.131 E26.80425
G0 F6000 X105.264 Y107.753
G1 F1200 X107.448 Y109.937 E26.96245
G0 F6000 X107.156 Y110.267
G1 F1200 X105.264 Y108.376 E27.09947
G0 F6000 X105.264 Y108.998
G1 F1200 X106.903 Y110.636 E27.21816
G0 F6000 X106.69 Y111.046
G1 F1200 X105.264 Y109.62 E27.32145
G0 F6000 X105.265 Y110.243
G1 F1200 X106.525 Y111.503 E27.41272
G0 F6000 X106.416 Y112.016
G1 F1200 X105.265 Y110.865 E27.4961
G0 F6000 X105.265 Y111.488
G1 F1200 X106.389 Y112.612 E27.57751
G0 F6000 X106.481 Y113.325
G1 F1200 X105.265 Y112.11 E27.66556
G0 F6000 X105.265 Y112.732
G1 F1200 X106.915 Y114.382 E27.78508
G1 F2700 E22.78508
;MESH:NONMESH
G0 F600 X106.915 Y114.382 Z0.56
G0 F6000 X108.584 Y113.415
G0 X108.533 Y113.476
G0 X103.4 Y119.759
G0 X103.335 Y119.84
G0 X104.66 Y119.84
;TIME_ELAPSED:41.015914
;LAYER:1
M140 S50
M106 S85
;TYPE:WALL-INNER
;MESH:EM1 tray insert v1.stl
G1 F2700 E27.78508
G1 F1350 X104.66 Y100.16 E28.7931
G1 X115.34 Y100.16 E29.34014
G1 X115.34 Y119.84 E30.34816
G1 X104.66 Y119.84 E30.8952
G1 F2700 E25.8952
G0 F7500 X104.66 Y121.165
G0 X104.714 Y121.091
G0 X109.781 Y114.244
G0 X109.832 Y114.177
G0 X109.903 Y115.509
G1 F2700 E30.8952
G1 F1350 X110.097 Y115.509 E30.90513
G1 X110.29 Y115.496 E30.91504
G1 X110.48 Y115.472 E30.92485
G1 X110.669 Y115.435 E30.93472
G1 X110.859 Y115.386 E30.94477
G1 X111.041 Y115.324 E30.95462
G1 X111.217 Y115.253 E30.96434
G1 X111.392 Y115.17 E30.97426
G1 X111.563 Y115.074 E30.9843
G1 X111.722 Y114.968 E30.99409
G1 X111.875 Y114.855 E31.00383
G1 X112.024 Y114.729 E31.01383
G1 X112.164 Y114.594 E31.02379
G1 X112.293 Y114.451 E31.03365
G1 X112.412 Y114.301 E31.04346
G1 X112.523 Y114.143 E31.05335
G1 X112.624 Y113.976 E31.06335
G1 X112.712 Y113.805 E31.0732
G1 X112.79 Y113.631 E31.08296
G1 X112.857 Y113.449 E31.0929
G1 X112.912 Y113.264 E31.10278
G1 X112.955 Y113.075 E31.11271
