;FLAVOR:Marlin
;TIME:10334
;Filament used: 7.39172m
;Layer height: 0.2
;MINX:50.683
;MINY:87.693
;MINZ:0.2
;MAXX:142.301
;MAXY:147.328
;MAXZ:25
;Generated with Cura_SteamEngine 4.1.0
M140 S60
M105
M190 S60
M104 S200
M105
M109 S200
M82 ;absolute extrusion mode
; Ender 3 Custom Start G-code
G28 ; Home all axes
G92 E0 ; Reset Extruder
G1 Z2.0 F3000 ; Move Z Axis up little to prevent scratching of Heat Bed
G1 X0.1 Y20 Z0.3 F5000.0 ; Move to start position
G1 X0.1 Y200.0 Z0.3 F1500.0 E15 ; Draw the first line
G1 X0.4 Y200.0 Z0.3 F5000.0 ; Move to side a little
G1 X0.4 Y20 Z0.3 F1500.0 E30 ; Draw the second line
G92 E0 ; Reset Extruder
G1 Z2.0 F3000 ; Move Z Axis up little to prevent scratching of Heat Bed
; End of custom start GCode
G92 E0
G92 E0
G1 F2400 E-5
;LAYER_COUNT:125
;LAYER:0
M107
M204 S500
M205 X10 Y10
G0 F3600 X54.458 Y88.718 Z0.2
;TYPE:SKIRT
G1 F2400 E0
G1 F1800 X55.093 Y88.39 E0.02377
G1 X55.532 Y88.212 E0.03953
G1 X55.877 Y88.087 E0.05173
G1 X56.562 Y87.881 E0.07552
G1 X57.266 Y87.753 E0.09932
G1 X57.705 Y87.714 E0.11398
G1 X58.086 Y87.693 E0.12667
G1 X58.801 Y87.693 E0.15045
G1 X59.745 Y87.818 E0.18212
G1 X60.057 Y87.883 E0.19272
G1 X62.664 Y88.39 E0.28106
G1 X65.326 Y88.83 E0.3708
G1 X67.936 Y89.187 E0.45842
G1 X70.553 Y89.469 E0.54596
G1 X73.187 Y89.677 E0.63384
G1 X75.869 Y89.814 E0.72316
G1 X78.473 Y89.873 E0.80979
G1 X81.151 Y89.856 E0.89886
G1 X83.758 Y89.768 E0.98562
G1 X86.429 Y89.601 E1.07463
G1 X89.055 Y89.363 E1.16233
G1 X91.693 Y89.047 E1.2507
G1 X94.295 Y88.661 E1.33819
G1 X98.073 Y87.968 E1.46594
G1 X98.726 Y87.835 E1.48811
G1 X99.649 Y87.717 E1.51906
G1 X100.083 Y87.693 E1.53352
G1 X100.798 Y87.693 E1.5573
G1 X101.509 Y87.774 E1.5811
G1 X102.313 Y87.964 E1.60857
G1 X103.004 Y88.176 E1.63262
G1 X103.675 Y88.424 E1.65641
G1 X104.245 Y88.706 E1.67756
G1 X105.152 Y89.212 E1.7121
G1 X105.246 Y89.266 E1.71571
G1 X105.608 Y89.476 E1.72963
G1 X107.941 Y90.743 E1.81793
G1 X110.296 Y91.936 E1.90573
G1 X112.682 Y93.062 E1.99349
G1 X115.135 Y94.135 E2.08254
G1 X117.587 Y95.127 E2.17051
G1 X120.051 Y96.042 E2.25793
G1 X122.588 Y96.905 E2.34706
G1 X124.079 Y97.374 E2.39905
G1 X125.399 Y97.778 E2.44496
G1 X126.07 Y98.025 E2.46874
G1 X126.71 Y98.346 E2.49256
G1 X127.309 Y98.736 E2.51633
G1 X127.873 Y99.201 E2.54064
G1 X128.454 Y99.739 E2.56698
G1 X130.443 Y101.535 E2.65611
G1 X132.475 Y103.27 E2.74498
G1 X134.198 Y104.664 E2.8187
G1 X134.955 Y105.263 E2.8508
G1 X135.49 Y105.737 E2.87458
G1 X135.98 Y106.282 E2.89895
G1 X136.574 Y107.024 E2.93057
G1 X136.657 Y107.13 E2.93504
G1 X138.322 Y109.302 E3.02607
G1 X138.375 Y109.373 E3.02901
G1 X138.778 Y109.914 E3.05145
G1 X139.173 Y110.51 E3.07523
G1 X139.516 Y111.186 E3.10045
G1 X139.868 Y111.996 E3.12982
G1 X139.908 Y112.091 E3.13325
G1 X140.97 Y114.646 E3.22528
G1 X141.004 Y114.73 E3.22829
G1 X141.263 Y115.379 E3.25153
G1 X141.491 Y116.057 E3.27532
G1 X141.647 Y116.793 E3.30035
G1 X141.788 Y117.724 E3.33167
G1 X141.804 Y117.838 E3.33549
G1 X142.168 Y120.575 E3.42733
G1 X142.18 Y120.667 E3.43041
G1 X142.257 Y121.318 E3.45222
G1 X142.301 Y122.032 E3.47601
G1 X142.261 Y122.786 E3.50112
G1 X142.156 Y123.718 E3.53232
G1 X142.142 Y123.828 E3.53601
G1 X141.79 Y126.533 E3.62673
G1 X141.779 Y126.613 E3.62942
G1 X141.681 Y127.298 E3.65244
G1 X141.541 Y128 E3.67624
G1 X141.303 Y128.732 E3.70184
G1 X140.964 Y129.595 E3.73268
G1 X140.923 Y129.697 E3.73634
G1 X139.874 Y132.238 E3.82777
G1 X139.838 Y132.323 E3.83084
G1 X139.566 Y132.956 E3.85376
G1 X139.247 Y133.596 E3.87754
G1 X138.834 Y134.232 E3.90276
G1 X138.308 Y134.944 E3.93221
G1 X138.242 Y135.031 E3.93584
G1 X136.543 Y137.251 E4.02882
G1 X136.489 Y137.321 E4.03176
G1 X136.074 Y137.848 E4.05407
G1 X135.601 Y138.384 E4.07785
G1 X135.033 Y138.894 E4.10324
G1 X134.296 Y139.481 E4.13457
G1 X134.211 Y139.548 E4.13817
G1 X132.028 Y141.227 E4.22977
G1 X131.951 Y141.285 E4.23298
G1 X131.389 Y141.704 E4.25629
G1 X130.661 Y142.174 E4.28511
G1 X130.057 Y142.508 E4.30807
G1 X129.954 Y142.564 E4.31197
G1 X129.083 Y143.025 E4.34475
G1 X129.001 Y143.067 E4.34781
G1 X128.357 Y143.396 E4.37186
G1 X128.133 Y143.505 E4.38015
G1 X127.703 Y143.704 E4.39591
G1 X127.587 Y143.756 E4.40014
G1 X126.532 Y144.219 E4.43846
G1 X126.447 Y144.256 E4.44154
G1 X125.769 Y144.542 E4.46601
G1 X125.615 Y144.605 E4.47155
G1 X125.334 Y144.715 E4.48158
G1 X125.143 Y144.786 E4.48836
G1 X123.865 Y145.24 E4.53347
G1 X123.771 Y145.272 E4.53677
G1 X123.093 Y145.501 E4.56058
G1 X122.931 Y145.554 E4.56624
G1 X122.623 Y145.649 E4.57696
G1 X122.431 Y145.705 E4.58362
G1 X121.112 Y146.067 E4.62911
G1 X121.029 Y146.089 E4.63197
G1 X120.36 Y146.263 E4.65496
G1 X120.164 Y146.311 E4.66167
G1 X119.895 Y146.372 E4.67084
G1 X119.723 Y146.408 E4.67669
G1 X118.384 Y146.673 E4.72209
G1 X118.291 Y146.691 E4.72524
G1 X117.579 Y146.821 E4.74931
G1 X117.396 Y146.852 E4.75548
G1 X117.095 Y146.898 E4.76561
G1 X116.906 Y146.924 E4.77196
G1 X115.559 Y147.089 E4.81709
G1 X115.462 Y147.1 E4.82034
G1 X114.752 Y147.176 E4.84409
G1 X114.581 Y147.192 E4.8498
G1 X114.256 Y147.218 E4.86064
G1 X114.056 Y147.231 E4.86731
G1 X112.673 Y147.298 E4.91336
G1 X112.574 Y147.302 E4.91666
G1 X111.937 Y147.323 E4.93786
G1 X111.762 Y147.326 E4.94368
G1 X111.409 Y147.328 E4.95542
G1 X111.219 Y147.326 E4.96174
G1 X109.851 Y147.293 E5.00725
G1 X109.761 Y147.29 E5.01025
G1 X109.079 Y147.264 E5.03295
G1 X108.877 Y147.253 E5.03968
G1 X108.591 Y147.233 E5.04921
G1 X108.414 Y147.219 E5.05512
G1 X107.065 Y147.087 E5.1002
G1 X106.971 Y147.077 E5.10334
G1 X106.208 Y146.991 E5.12888
G1 X106.031 Y146.968 E5.13482
G1 X105.783 Y146.933 E5.14315
G1 X105.724 Y146.925 E5.14513
G1 X102.93 Y146.505 E5.2391
G1 X100.292 Y146.185 E5.32749
G1 X97.658 Y145.941 E5.41547
G1 X95.02 Y145.772 E5.50339
G1 X92.378 Y145.677 E5.59132
G1 X89.735 Y145.657 E5.67923
G1 X87.054 Y145.713 E5.76842
G1 X84.459 Y145.839 E5.85483
G1 X81.775 Y146.048 E5.94437
G1 X79.18 Y146.323 E6.03116
G1 X76.143 Y146.738 E6.13311
G1 X74.913 Y146.921 E6.17447
G1 X74.745 Y146.944 E6.18011
G1 X73.556 Y147.089 E6.21995
G1 X73.462 Y147.1 E6.2231
G1 X72.752 Y147.176 E6.24685
G1 X72.581 Y147.192 E6.25256
G1 X72.256 Y147.218 E6.2634
G1 X72.056 Y147.231 E6.27007
G1 X70.673 Y147.298 E6.31612
G1 X70.574 Y147.302 E6.31942
G1 X69.937 Y147.323 E6.34062
G1 X69.762 Y147.326 E6.34644
G1 X69.409 Y147.328 E6.35818
G1 X69.219 Y147.326 E6.3645
G1 X67.851 Y147.293 E6.41001
G1 X67.761 Y147.29 E6.41301
G1 X67.079 Y147.264 E6.43571
G1 X66.877 Y147.253 E6.44244
G1 X66.591 Y147.233 E6.45197
G1 X66.414 Y147.219 E6.45788
G1 X65.065 Y147.087 E6.50296
G1 X64.971 Y147.077 E6.5061
G1 X64.208 Y146.991 E6.53164
G1 X64.027 Y146.968 E6.53771
G1 X63.787 Y146.934 E6.54577
G1 X63.602 Y146.905 E6.552
G1 X62.245 Y146.672 E6.59779
G1 X62.146 Y146.654 E6.60114
G1 X61.422 Y146.518 E6.62564
G1 X61.257 Y146.485 E6.63124
G1 X60.983 Y146.426 E6.64056
G1 X60.792 Y146.381 E6.64709
G1 X57.116 Y145.471 E6.77304
G1 X56.843 Y145.397 E6.78245
G1 X56.416 Y145.271 E6.79726
G1 X56.061 Y145.155 E6.80968
G1 X55.769 Y145.05 E6.82
G1 X55.111 Y144.771 E6.84377
G1 X54.217 Y144.237 E6.87841
G1 X53.955 Y144.05 E6.88911
G1 X53.78 Y143.921 E6.89634
G1 X53.472 Y143.685 E6.90925
G1 X52.93 Y143.219 E6.93302
G1 X52.286 Y142.499 E6.96515
G1 X52.194 Y142.379 E6.97018
G1 X51.791 Y141.788 E6.99397
G1 X51.457 Y141.156 E7.01775
G1 X51.2 Y140.504 E7.04106
G1 X51.083 Y140.152 E7.0534
G1 X51.013 Y139.929 E7.06117
G1 X50.951 Y139.717 E7.06852
G1 X50.789 Y139.021 E7.09228
G1 X50.695 Y138.014 E7.12592
G1 X50.686 Y137.395 E7.14651
G1 X50.685 Y137.302 E7.14961
G1 X50.683 Y96.065 E8.52115
G1 X50.684 Y95.973 E8.52421
G1 X50.694 Y95.279 E8.5473
G1 X50.725 Y94.731 E8.56556
G1 X50.76 Y94.383 E8.57719
G1 X50.871 Y93.676 E8.60099
G1 X51.043 Y93.04 E8.6229
G1 X51.115 Y92.819 E8.63064
G1 X51.374 Y92.153 E8.6544
G1 X51.842 Y91.302 E8.6867
G1 X52.083 Y90.933 E8.70136
G1 X52.507 Y90.357 E8.72515
G1 X52.992 Y89.832 E8.74892
G1 X53.592 Y89.32 E8.77516
G1 X53.863 Y89.116 E8.78644
G1 X54.458 Y88.718 E8.81025
G0 F3600 X54.68 Y89.052
G1 F1800 X55.297 Y88.737 E8.83329
G1 X55.668 Y88.588 E8.84659
G1 X56.013 Y88.463 E8.85879
G1 X56.677 Y88.265 E8.88184
G1 X57.359 Y88.145 E8.90487
G1 X57.727 Y88.113 E8.91716
G1 X58.108 Y88.092 E8.92985
G1 X58.8 Y88.094 E8.95286
G1 X59.664 Y88.21 E8.98186
G1 X59.929 Y88.265 E8.99086
G1 X62.634 Y88.791 E9.08251
G1 X65.237 Y89.221 E9.17026
G1 X67.907 Y89.586 E9.25989
G1 X70.519 Y89.867 E9.34727
G1 X73.17 Y90.077 E9.43572
G1 X75.838 Y90.213 E9.52457
G1 X78.466 Y90.273 E9.612
G1 X81.13 Y90.257 E9.70061
G1 X83.833 Y90.165 E9.79056
G1 X86.454 Y90.001 E9.87791
G1 X89.107 Y89.76 E9.96651
G1 X91.728 Y89.447 E10.05431
G1 X94.365 Y89.056 E10.14297
G1 X98.126 Y88.365 E10.27016
G1 X98.806 Y88.227 E10.29324
G1 X99.671 Y88.116 E10.32224
G1 X100.105 Y88.092 E10.3367
G1 X100.797 Y88.094 E10.35971
G1 X101.485 Y88.175 E10.38276
G1 X102.196 Y88.347 E10.40709
G1 X102.887 Y88.559 E10.43113
G1 X103.536 Y88.8 E10.45415
G1 X104.05 Y89.055 E10.47324
G1 X104.957 Y89.561 E10.50778
G1 X105.046 Y89.612 E10.51119
G1 X105.411 Y89.824 E10.52523
G1 X107.776 Y91.108 E10.61474
G1 X110.123 Y92.297 E10.70224
G1 X112.516 Y93.426 E10.79025
G1 X114.974 Y94.501 E10.87948
G1 X117.435 Y95.497 E10.96778
G1 X119.931 Y96.424 E11.05634
G1 X122.426 Y97.273 E11.144
G1 X124.006 Y97.77 E11.19908
G1 X125.282 Y98.161 E11.24347
G1 X125.931 Y98.401 E11.26649
G1 X126.549 Y98.715 E11.28954
G1 X127.126 Y99.098 E11.31258
G1 X127.601 Y99.494 E11.33315
G1 X128.179 Y100.029 E11.35934
G1 X130.179 Y101.836 E11.44899
G1 X132.209 Y103.568 E11.53774
G1 X133.922 Y104.955 E11.61105
G1 X134.707 Y105.576 E11.64434
G1 X135.224 Y106.037 E11.66738
G1 X135.668 Y106.532 E11.6895
G1 X136.262 Y107.274 E11.72111
G1 X136.34 Y107.374 E11.72533
G1 X138.005 Y109.546 E11.81636
G1 X138.055 Y109.612 E11.81911
G1 X138.458 Y110.153 E11.84155
G1 X138.839 Y110.731 E11.86457
G1 X139.149 Y111.346 E11.88748
G1 X139.501 Y112.156 E11.91685
G1 X139.538 Y112.244 E11.92003
G1 X140.6 Y114.799 E12.01206
G1 X140.633 Y114.878 E12.0149
G1 X140.892 Y115.527 E12.03815
G1 X141.111 Y116.184 E12.06118
G1 X141.251 Y116.853 E12.08391
G1 X141.392 Y117.784 E12.11523
G1 X141.408 Y117.891 E12.11883
G1 X141.772 Y120.628 E12.21066
G1 X141.782 Y120.714 E12.21354
G1 X141.859 Y121.365 E12.23535
G1 X141.901 Y122.057 E12.25841
G1 X141.863 Y122.742 E12.28122
G1 X141.758 Y123.674 E12.31242
G1 X141.746 Y123.776 E12.31583
G1 X141.394 Y126.481 E12.40656
G1 X141.384 Y126.557 E12.40911
G1 X141.286 Y127.242 E12.43213
G1 X141.148 Y127.92 E12.45514
G1 X140.931 Y128.586 E12.47844
G1 X140.592 Y129.449 E12.50927
G1 X140.553 Y129.545 E12.51272
G1 X139.504 Y132.086 E12.60415
G1 X139.471 Y132.165 E12.607
G1 X139.199 Y132.798 E12.62992
G1 X138.889 Y133.417 E12.65294
G1 X138.512 Y133.994 E12.67587
G1 X137.986 Y134.706 E12.70531
G1 X137.925 Y134.788 E12.70871
G1 X136.226 Y137.008 E12.80169
G1 X136.175 Y137.073 E12.80444
G1 X135.76 Y137.6 E12.82675
G1 X135.301 Y138.119 E12.84979
G1 X134.784 Y138.581 E12.87285
G1 X134.047 Y139.168 E12.90419
G1 X133.967 Y139.231 E12.90758
G1 X131.784 Y140.91 E12.99917
G1 X131.712 Y140.964 E13.00217
G1 X131.15 Y141.383 E13.02548
G1 X130.468 Y141.824 E13.0525
G1 X129.864 Y142.158 E13.07545
G1 X129.767 Y142.21 E13.07911
G1 X128.896 Y142.671 E13.11189
G1 X128.819 Y142.711 E13.11478
G1 X128.175 Y143.04 E13.13883
G1 X127.965 Y143.142 E13.14659
G1 X127.535 Y143.341 E13.16235
G1 X127.426 Y143.39 E13.16633
G1 X126.371 Y143.853 E13.20465
G1 X126.292 Y143.887 E13.20751
G1 X125.614 Y144.173 E13.23198
G1 X125.469 Y144.232 E13.23719
G1 X125.188 Y144.342 E13.24723
G1 X125.009 Y144.409 E13.25358
G1 X123.731 Y144.863 E13.29869
G1 X123.643 Y144.894 E13.30179
G1 X122.965 Y145.123 E13.3256
G1 X122.813 Y145.171 E13.3309
G1 X122.505 Y145.266 E13.34162
G1 X122.325 Y145.319 E13.34786
G1 X121.006 Y145.681 E13.39335
G1 X120.928 Y145.702 E13.39604
G1 X120.259 Y145.876 E13.41903
G1 X120.076 Y145.92 E13.42529
G1 X119.807 Y145.981 E13.43446
G1 X119.645 Y146.016 E13.43998
G1 X118.306 Y146.281 E13.48538
G1 X118.219 Y146.297 E13.48832
G1 X117.507 Y146.427 E13.51239
G1 X117.335 Y146.456 E13.51819
G1 X117.034 Y146.502 E13.52832
G1 X116.858 Y146.526 E13.53423
G1 X115.511 Y146.691 E13.57936
G1 X115.42 Y146.702 E13.58241
G1 X114.71 Y146.778 E13.60616
G1 X114.549 Y146.793 E13.61154
G1 X114.224 Y146.819 E13.62238
G1 X114.036 Y146.831 E13.62865
G1 X112.653 Y146.898 E13.6747
G1 X112.561 Y146.902 E13.67777
G1 X111.924 Y146.923 E13.69896
G1 X111.76 Y146.926 E13.70442
G1 X111.407 Y146.928 E13.71616
G1 X111.228 Y146.926 E13.72211
G1 X109.86 Y146.893 E13.76763
G1 X109.776 Y146.891 E13.77042
G1 X109.094 Y146.865 E13.79312
G1 X108.904 Y146.854 E13.79945
G1 X108.618 Y146.834 E13.80899
G1 X108.453 Y146.82 E13.81449
G1 X107.104 Y146.688 E13.85958
G1 X107.016 Y146.679 E13.86252
G1 X106.253 Y146.593 E13.88806
G1 X106.087 Y146.572 E13.89362
G1 X105.839 Y146.537 E13.90195
G1 X105.784 Y146.529 E13.9038
G1 X102.968 Y146.105 E13.99852
G1 X100.345 Y145.787 E14.0864
G1 X97.72 Y145.544 E14.17408
G1 X95.025 Y145.371 E14.2639
G1 X92.397 Y145.277 E14.35136
G1 X89.729 Y145.257 E14.4401
G1 X87.063 Y145.312 E14.52879
G1 X84.408 Y145.442 E14.61721
G1 X81.773 Y145.647 E14.70511
G1 X79.118 Y145.928 E14.79391
G1 X76.11 Y146.339 E14.89489
G1 X74.854 Y146.526 E14.93712
G1 X74.696 Y146.547 E14.94242
G1 X73.507 Y146.692 E14.98226
G1 X73.42 Y146.702 E14.98517
G1 X72.71 Y146.778 E15.00892
G1 X72.549 Y146.793 E15.0143
G1 X72.224 Y146.819 E15.02515
G1 X72.036 Y146.831 E15.03141
G1 X70.653 Y146.898 E15.07746
G1 X70.561 Y146.902 E15.08053
G1 X69.924 Y146.923 E15.10173
G1 X69.76 Y146.926 E15.10718
G1 X69.407 Y146.928 E15.11892
G1 X69.228 Y146.926 E15.12488
G1 X67.86 Y146.893 E15.17039
G1 X67.776 Y146.891 E15.17318
G1 X67.094 Y146.865 E15.19588
G1 X66.904 Y146.854 E15.20221
G1 X66.618 Y146.834 E15.21175
G1 X66.453 Y146.82 E15.21726
G1 X65.104 Y146.688 E15.26234
G1 X65.016 Y146.679 E15.26528
G1 X64.253 Y146.593 E15.29082
G1 X64.083 Y146.572 E15.29652
G1 X63.843 Y146.538 E15.30458
G1 X63.67 Y146.51 E15.31041
G1 X62.313 Y146.277 E15.3562
G1 X62.22 Y146.261 E15.35934
G1 X61.496 Y146.125 E15.38384
G1 X61.341 Y146.094 E15.3891
G1 X61.067 Y146.035 E15.39842
G1 X60.888 Y145.993 E15.40454
G1 X57.212 Y145.083 E15.53049
G1 X56.956 Y145.014 E15.53931
G1 X56.529 Y144.888 E15.55412
G1 X56.197 Y144.779 E15.56574
G1 X55.905 Y144.674 E15.57606
G1 X55.268 Y144.403 E15.59909
G1 X54.449 Y143.912 E15.63085
G1 X54.187 Y143.725 E15.64155
G1 X54.024 Y143.604 E15.6483
G1 X53.716 Y143.368 E15.66121
G1 X53.191 Y142.915 E15.68427
G1 X52.603 Y142.256 E15.71365
G1 X52.511 Y142.136 E15.71868
G1 X52.122 Y141.563 E15.74171
G1 X51.802 Y140.949 E15.76474
G1 X51.579 Y140.378 E15.78513
G1 X51.462 Y140.026 E15.79747
G1 X51.397 Y139.817 E15.80475
G1 X51.335 Y139.605 E15.81209
G1 X51.18 Y138.93 E15.83513
G1 X51.095 Y138.008 E15.86592
G1 X51.086 Y137.389 E15.88651
G1 X51.085 Y137.302 E15.88941
G1 X51.083 Y96.065 E17.26096
G1 X51.084 Y95.979 E17.26382
G1 X51.094 Y95.285 E17.2869
G1 X51.123 Y94.771 E17.30402
G1 X51.158 Y94.423 E17.31566
G1 X51.267 Y93.739 E17.33869
G1 X51.423 Y93.164 E17.35851
G1 X51.495 Y92.943 E17.36624
G1 X51.747 Y92.298 E17.38927
G1 X52.177 Y91.521 E17.41881
G1 X52.418 Y91.152 E17.43347
G1 X52.829 Y90.595 E17.45649
G1 X53.302 Y90.089 E17.47953
G1 X53.833 Y89.639 E17.50268
G1 X54.104 Y89.435 E17.51396
G1 X54.68 Y89.052 E17.53697
G0 F3600 X54.902 Y89.385
G1 F1800 X55.804 Y88.964 E17.57007
G1 X56.149 Y88.839 E17.58228
G1 X56.791 Y88.649 E17.60455
G1 X57.749 Y88.512 E17.63674
G1 X58.13 Y88.491 E17.64943
G1 X58.799 Y88.495 E17.67168
G1 X59.582 Y88.601 E17.69796
G1 X59.898 Y88.667 E17.7087
G1 X62.557 Y89.184 E17.79879
G1 X65.19 Y89.619 E17.88755
G1 X67.812 Y89.977 E17.97557
G1 X70.478 Y90.265 E18.06476
G1 X73.155 Y90.476 E18.15407
G1 X75.809 Y90.612 E18.24246
G1 X78.494 Y90.672 E18.33178
G1 X81.147 Y90.656 E18.42002
G1 X83.834 Y90.565 E18.50945
G1 X86.481 Y90.4 E18.59766
G1 X89.154 Y90.157 E18.68693
G1 X91.803 Y89.84 E18.77566
G1 X94.406 Y89.454 E18.86318
G1 X98.219 Y88.754 E18.99212
G1 X98.885 Y88.619 E19.01473
G1 X99.693 Y88.516 E19.04182
G1 X100.127 Y88.492 E19.05627
G1 X100.796 Y88.495 E19.07853
G1 X101.46 Y88.577 E19.10078
