;FLAVOR:Marlin
;TIME:1789
;Filament used: 2.15791m
;Layer height: 0.28
;MINX:84.977
;MINY:84.975
;MINZ:0.28
;MAXX:135.025
;MAXY:135.025
;MAXZ:25.12
;Generated with Cura_SteamEngine 4.2.1
M140 S50
M105
M190 S50
M104 S200
M105
M109 S200
M82 ;absolute extrusion mode
M201 X500.00 Y500.00 Z100.00 E5000.00 ;Setup machine max acceleration
M203 X500.00 Y500.00 Z10.00 E50.00 ;Setup machine max feedrate
M204 P500.00 R1000.00 T500.00 ;Setup Print/Retract/Travel acceleration
M205 X8.00 Y8.00 Z0.40 E5.00 ;Setup Jerk
M220 S100 ;Reset Feedrate
M221 S100 ;Reset Flowrate

G28 ;Home

G92 E0 ;Reset Extruder
G1 Z2.0 F3000 ;Move Z Axis up
G1 X10.1 Y20 Z0.28 F5000.0 ;Move to start position
G1 X10.1 Y200.0 Z0.28 F1500.0 E15 ;Draw the first line
G1 X10.4 Y200.0 Z0.28 F5000.0 ;Move to side a little
G1 X10.4 Y20 Z0.28 F1500.0 E30 ;Draw the second line
G92 E0 ;Reset Extruder
G1 Z2.0 F3000 ;Move Z Axis up

M141 S28
G92 E0
G92 E0
G1 F2700 E-5
;LAYER_COUNT:89
;LAYER:0
M107
G0 F6000 X92.23 Y92.382 Z0.28
;TYPE:SKIRT
G1 F2700 E0
G1 F1200 X92.52 Y92.094 E0.02093
G1 X92.886 Y91.744 E0.04687
G1 X93.209 Y91.447 E0.06935
G1 X93.613 Y91.089 E0.097
G1 X93.933 Y90.816 E0.11854
G1 X94.272 Y90.537 E0.14103
G1 X94.595 Y90.28 E0.16217
G1 X95.02 Y89.955 E0.18958
G1 X95.364 Y89.702 E0.21145
G1 X95.706 Y89.46 E0.23291
G1 X96.058 Y89.221 E0.2547
G1 X96.546 Y88.902 E0.28456
G1 X96.919 Y88.668 E0.30712
G1 X97.342 Y88.414 E0.33239
G1 X97.698 Y88.208 E0.35346
G1 X98.094 Y87.989 E0.37664
G1 X98.463 Y87.794 E0.39801
G1 X98.911 Y87.567 E0.42374
G1 X99.317 Y87.371 E0.44683
G1 X99.788 Y87.155 E0.47337
G1 X100.151 Y86.996 E0.49367
G1 X100.57 Y86.821 E0.51693
G1 X100.951 Y86.67 E0.53792
G1 X101.445 Y86.484 E0.56496
G1 X101.868 Y86.334 E0.58794
G1 X102.379 Y86.164 E0.61553
G1 X102.804 Y86.032 E0.63832
G1 X103.169 Y85.926 E0.65779
G1 X103.536 Y85.826 E0.67727
G1 X104.089 Y85.685 E0.7065
G1 X104.498 Y85.588 E0.72804
G1 X104.983 Y85.483 E0.75345
G1 X105.448 Y85.393 E0.77771
G1 X105.954 Y85.305 E0.80402
G1 X106.35 Y85.243 E0.82455
G1 X106.791 Y85.182 E0.84735
G1 X107.206 Y85.132 E0.86876
G1 X107.728 Y85.079 E0.89564
G1 X108.151 Y85.044 E0.91738
G1 X108.585 Y85.016 E0.93965
G1 X109.011 Y84.996 E0.9615
G1 X109.665 Y84.978 E0.99501
G1 X110.095 Y84.975 E1.01703
G1 X110.401 Y84.978 E1.03271
G1 X110.802 Y84.988 E1.05325
G1 X111.43 Y85.016 E1.08545
G1 X111.892 Y85.046 E1.10917
G1 X112.328 Y85.083 E1.13158
G1 X112.731 Y85.125 E1.15233
G1 X113.213 Y85.183 E1.1772
G1 X113.618 Y85.239 E1.19814
G1 X114.123 Y85.318 E1.22432
G1 X114.533 Y85.389 E1.24563
G1 X115.034 Y85.486 E1.27177
G1 X115.49 Y85.584 E1.29566
G1 X115.952 Y85.693 E1.31998
G1 X116.348 Y85.794 E1.34091
G1 X116.907 Y85.947 E1.37059
G1 X117.311 Y86.066 E1.39217
G1 X117.611 Y86.16 E1.40827
G1 X117.997 Y86.288 E1.4291
G1 X118.607 Y86.503 E1.46223
G1 X119.009 Y86.653 E1.48421
G1 X119.432 Y86.82 E1.5075
G1 X119.842 Y86.991 E1.53025
G1 X120.267 Y87.178 E1.55404
G1 X120.638 Y87.35 E1.57498
G1 X121.139 Y87.592 E1.60348
G1 X121.513 Y87.781 E1.62494
G1 X121.897 Y87.984 E1.64719
G1 X122.277 Y88.194 E1.66943
G1 X122.753 Y88.469 E1.69759
G1 X123.121 Y88.69 E1.71957
G1 X123.514 Y88.937 E1.74335
G1 X123.859 Y89.163 E1.76447
G1 X124.274 Y89.445 E1.79017
G1 X124.611 Y89.683 E1.81131
G1 X124.937 Y89.922 E1.83201
G1 X125.285 Y90.187 E1.85442
G1 X125.836 Y90.624 E1.89044
G1 X126.188 Y90.916 E1.91386
G1 X126.459 Y91.149 E1.93217
G1 X126.744 Y91.402 E1.95169
G1 X127.077 Y91.708 E1.97485
G1 X127.401 Y92.017 E1.99778
G1 X127.837 Y92.45 E2.02926
G1 X128.098 Y92.718 E2.04842
G1 X128.366 Y93.002 E2.06842
G1 X128.686 Y93.355 E2.09283
G1 X129.102 Y93.834 E2.12532
G1 X129.359 Y94.141 E2.14583
G1 X129.55 Y94.377 E2.16138
G1 X129.818 Y94.721 E2.18372
G1 X130.229 Y95.27 E2.21884
G1 X130.462 Y95.592 E2.2392
G1 X130.666 Y95.885 E2.25749
G1 X130.909 Y96.25 E2.27995
G1 X131.195 Y96.696 E2.30708
G1 X131.423 Y97.067 E2.32939
G1 X131.707 Y97.549 E2.35804
G1 X131.906 Y97.899 E2.37867
G1 X132.101 Y98.258 E2.39959
G1 X132.304 Y98.649 E2.42216
G1 X132.537 Y99.12 E2.44907
G1 X132.726 Y99.523 E2.47187
G1 X132.939 Y99.999 E2.49858
G1 X133.093 Y100.36 E2.51869
G1 X133.271 Y100.797 E2.54286
G1 X133.426 Y101.197 E2.56483
G1 X133.601 Y101.677 E2.591
G1 X133.738 Y102.077 E2.61265
G1 X133.882 Y102.522 E2.63661
G1 X134.011 Y102.947 E2.65936
G1 X134.147 Y103.43 E2.68506
G1 X134.248 Y103.813 E2.70535
G1 X134.38 Y104.352 E2.73377
G1 X134.475 Y104.776 E2.75603
G1 X134.56 Y105.19 E2.77768
G1 X134.639 Y105.614 E2.79977
G1 X134.717 Y106.082 E2.82407
G1 X134.779 Y106.505 E2.84597
G1 X134.859 Y107.126 E2.87804
G1 X134.906 Y107.546 E2.89969
G1 X134.936 Y107.873 E2.91651
G1 X134.966 Y108.28 E2.93741
G1 X135.002 Y108.921 E2.97029
G1 X135.018 Y109.381 E2.99387
G1 X135.025 Y109.813 E3.016
G1 X135.025 Y110.189 E3.03526
G1 X135.018 Y110.617 E3.05718
G1 X135.002 Y111.071 E3.08045
G1 X134.966 Y111.716 E3.11354
G1 X134.935 Y112.134 E3.13501
G1 X134.905 Y112.459 E3.15173
G1 X134.86 Y112.868 E3.1728
G1 X134.78 Y113.491 E3.20497
G1 X134.712 Y113.95 E3.22874
G1 X134.633 Y114.416 E3.25295
G1 X134.567 Y114.771 E3.27145
G1 X134.483 Y115.187 E3.29318
G1 X134.376 Y115.663 E3.31817
G1 X134.243 Y116.203 E3.34666
G1 X134.151 Y116.554 E3.36524
G1 X134.02 Y117.022 E3.39014
G1 X133.898 Y117.427 E3.4118
G1 X133.755 Y117.874 E3.43584
G1 X133.606 Y118.311 E3.45949
G1 X133.427 Y118.802 E3.48626
G1 X133.279 Y119.185 E3.50729
G1 X133.101 Y119.624 E3.53155
G1 X132.929 Y120.026 E3.55395
G1 X132.716 Y120.499 E3.58052
G1 X132.539 Y120.875 E3.60181
G1 X132.319 Y121.32 E3.62723
G1 X132.134 Y121.679 E3.64792
G1 X131.925 Y122.067 E3.67049
G1 X131.697 Y122.47 E3.69421
G1 X131.416 Y122.945 E3.72248
G1 X131.207 Y123.285 E3.74292
G1 X130.918 Y123.737 E3.7704
G1 X130.666 Y124.115 E3.79367
G1 X130.462 Y124.408 E3.81196
G1 X130.229 Y124.73 E3.83231
G1 X129.818 Y125.279 E3.86744
G1 X129.588 Y125.577 E3.88672
G1 X129.399 Y125.813 E3.90221
G1 X129.086 Y126.187 E3.92719
G1 X128.668 Y126.666 E3.95975
G1 X128.396 Y126.967 E3.98053
G1 X128.13 Y127.251 E4.00046
G1 X127.82 Y127.569 E4.02321
G1 X127.382 Y128.002 E4.05476
G1 X127.101 Y128.271 E4.07468
G1 X126.772 Y128.575 E4.09762
G1 X126.437 Y128.872 E4.12056
G1 X126.162 Y129.107 E4.13908
G1 X125.836 Y129.376 E4.16073
G1 X125.285 Y129.813 E4.19675
G1 X124.937 Y130.078 E4.21916
G1 X124.611 Y130.317 E4.23986
G1 X124.274 Y130.555 E4.261
G1 X123.859 Y130.837 E4.28669
G1 X123.514 Y131.063 E4.30782
G1 X123.121 Y131.31 E4.3316
G1 X122.739 Y131.539 E4.35441
G1 X122.265 Y131.812 E4.38243
G1 X121.919 Y132.004 E4.40269
G1 X121.533 Y132.209 E4.42508
G1 X121.147 Y132.404 E4.44723
G1 X120.647 Y132.646 E4.47568
G1 X120.258 Y132.826 E4.49764
G1 X119.832 Y133.013 E4.52147
G1 X119.454 Y133.171 E4.54245
G1 X119.031 Y133.339 E4.56576
G1 X118.591 Y133.503 E4.58982
G1 X117.981 Y133.717 E4.62293
G1 X117.611 Y133.84 E4.6429
G1 X117.311 Y133.934 E4.659
G1 X116.907 Y134.053 E4.68057
G1 X116.348 Y134.206 E4.71026
G1 X115.952 Y134.307 E4.73119
G1 X115.49 Y134.416 E4.75551
G1 X115.034 Y134.514 E4.7794
G1 X114.533 Y134.611 E4.80553
G1 X114.123 Y134.682 E4.82685
G1 X113.618 Y134.761 E4.85303
G1 X113.213 Y134.817 E4.87397
G1 X112.731 Y134.875 E4.89884
G1 X112.33 Y134.916 E4.91948
G1 X111.895 Y134.953 E4.94184
G1 X111.43 Y134.984 E4.96571
G1 X110.801 Y135.012 E4.99796
G1 X110.401 Y135.022 E5.01846
G1 X110.095 Y135.025 E5.03413
G1 X109.665 Y135.022 E5.05616
G1 X109.01 Y135.004 E5.08972
G1 X108.581 Y134.984 E5.11172
G1 X108.149 Y134.956 E5.13389
G1 X107.732 Y134.921 E5.15533
G1 X107.209 Y134.868 E5.18225
G1 X106.791 Y134.818 E5.20381
G1 X106.35 Y134.757 E5.22662
G1 X105.928 Y134.691 E5.2485
G1 X105.423 Y134.602 E5.27476
G1 X105.016 Y134.523 E5.296
G1 X104.529 Y134.419 E5.3215
G1 X104.083 Y134.314 E5.34497
G1 X103.531 Y134.173 E5.37415
G1 X103.169 Y134.074 E5.39338
G1 X102.804 Y133.968 E5.41284
G1 X102.373 Y133.834 E5.43596
G1 X101.863 Y133.664 E5.4635
G1 X101.46 Y133.521 E5.4854
G1 X100.964 Y133.335 E5.51253
G1 X100.569 Y133.179 E5.53429
G1 X100.15 Y133.004 E5.55755
G1 X99.77 Y132.837 E5.57881
G1 X99.301 Y132.621 E5.60525
G1 X98.912 Y132.433 E5.62738
G1 X98.464 Y132.206 E5.65311
G1 X98.117 Y132.022 E5.67323
G1 X97.719 Y131.803 E5.69649
G1 X97.321 Y131.574 E5.72001
G1 X96.9 Y131.32 E5.7452
G1 X96.561 Y131.107 E5.7657
G1 X96.073 Y130.789 E5.79554
G1 X95.704 Y130.539 E5.81837
G1 X95.358 Y130.294 E5.84008
G1 X95.013 Y130.04 E5.86203
G1 X94.591 Y129.717 E5.88925
G1 X94.272 Y129.463 E5.91013
G1 X93.933 Y129.184 E5.93262
G1 X93.613 Y128.911 E5.95417
G1 X93.209 Y128.553 E5.98182
G1 X92.886 Y128.256 E6.00429
G1 X92.52 Y127.906 E6.03023
G1 X92.23 Y127.618 E6.05116
G1 X91.929 Y127.309 E6.07326
G1 X91.63 Y126.991 E6.09562
G1 X91.23 Y126.548 E6.12619
G1 X90.952 Y126.228 E6.1479
G1 X90.677 Y125.9 E6.16982
G1 X90.414 Y125.574 E6.19128
G1 X90.133 Y125.213 E6.21471
G1 X89.872 Y124.866 E6.23695
G1 X89.487 Y124.331 E6.27071
G1 X89.246 Y123.982 E6.29244
G1 X89.093 Y123.752 E6.30659
G1 X88.87 Y123.403 E6.3278
G1 X88.535 Y122.858 E6.36057
G1 X88.325 Y122.503 E6.38169
G1 X88.112 Y122.127 E6.40383
G1 X87.903 Y121.74 E6.42636
G1 X87.662 Y121.274 E6.45323
G1 X87.478 Y120.902 E6.47448
G1 X87.247 Y120.413 E6.50219
G1 X87.061 Y119.999 E6.52543
G1 X86.919 Y119.665 E6.54402
G1 X86.773 Y119.306 E6.56387
G1 X86.519 Y118.648 E6.6
G1 X86.367 Y118.23 E6.62278
G1 X86.279 Y117.973 E6.6367
G1 X86.153 Y117.581 E6.65779
G1 X85.977 Y117 E6.68888
G1 X85.859 Y116.584 E6.71103
G1 X85.723 Y116.066 E6.73846
G1 X85.638 Y115.718 E6.75681
G1 X85.562 Y115.387 E6.7742
G1 X85.462 Y114.908 E6.79927
G1 X85.336 Y114.228 E6.83469
G1 X85.264 Y113.793 E6.85728
G1 X85.218 Y113.478 E6.87358
G1 X85.165 Y113.062 E6.89506
G1 X85.092 Y112.393 E6.92953
G1 X85.057 Y112.008 E6.94933
G1 X85.035 Y111.716 E6.96433
G1 X85.01 Y111.281 E6.98665
G1 X84.985 Y110.614 E7.02084
G1 X84.977 Y110.182 E7.04297
G1 X84.977 Y109.819 E7.06156
G1 X84.985 Y109.387 E7.08369
G1 X85.01 Y108.719 E7.11793
G1 X85.034 Y108.287 E7.14009
G1 X85.056 Y107.994 E7.15514
G1 X85.094 Y107.593 E7.17577
G1 X85.168 Y106.922 E7.21035
G1 X85.222 Y106.498 E7.23224
G1 X85.268 Y106.187 E7.24835
G1 X85.337 Y105.776 E7.26969
G1 X85.463 Y105.095 E7.30517
G1 X85.554 Y104.652 E7.32833
G1 X85.629 Y104.32 E7.34577
G1 X85.726 Y103.922 E7.36675
G1 X85.867 Y103.387 E7.39509
G1 X85.984 Y102.974 E7.41707
G1 X86.155 Y102.411 E7.44721
G1 X86.279 Y102.027 E7.46788
G1 X86.367 Y101.77 E7.48179
G1 X86.517 Y101.358 E7.50425
G1 X86.771 Y100.699 E7.54043
G1 X86.929 Y100.311 E7.56188
G1 X87.071 Y99.979 E7.58038
G1 X87.239 Y99.604 E7.60143
G1 X87.47 Y99.113 E7.62922
G1 X87.662 Y98.724 E7.65144
G1 X87.902 Y98.26 E7.6782
G1 X88.11 Y97.877 E7.70052
G1 X88.324 Y97.499 E7.72277
G1 X88.545 Y97.125 E7.74502
G1 X88.88 Y96.582 E7.7777
G1 X89.08 Y96.269 E7.79673
G1 X89.233 Y96.038 E7.81092
G1 X89.488 Y95.668 E7.83394
G1 X89.876 Y95.129 E7.86795
G1 X90.142 Y94.774 E7.89067
G1 X90.429 Y94.406 E7.91458
G1 X90.689 Y94.085 E7.93574
G1 X90.955 Y93.768 E7.95693
G1 X91.23 Y93.452 E7.97839
G1 X91.63 Y93.009 E8.00896
G1 X91.929 Y92.691 E8.03132
G1 X92.23 Y92.382 E8.05341
G0 F6000 X92.545 Y92.689
G1 F1200 X92.824 Y92.412 E8.07355
G1 X93.19 Y92.062 E8.09949
G1 X93.5 Y91.776 E8.12109
G1 X93.904 Y91.418 E8.14874
G1 X94.212 Y91.155 E8.16949
G1 X94.551 Y90.876 E8.19198
G1 X94.862 Y90.63 E8.21229
G1 X95.287 Y90.305 E8.23969
G1 X95.618 Y90.061 E8.26075
G1 X95.96 Y89.819 E8.28221
G1 X96.299 Y89.589 E8.3032
G1 X96.787 Y89.27 E8.33306
G1 X97.146 Y89.045 E8.35476
G1 X97.569 Y88.791 E8.38003
G1 X97.911 Y88.593 E8.40027
G1 X98.307 Y88.374 E8.42345
G1 X98.662 Y88.187 E8.444
G1 X99.11 Y87.96 E8.46973
G1 X99.5 Y87.771 E8.49193
G1 X99.971 Y87.555 E8.51847
G1 X100.32 Y87.402 E8.53798
G1 X100.739 Y87.227 E8.56124
G1 X101.106 Y87.082 E8.58145
G1 X101.6 Y86.896 E8.60849
G1 X102.007 Y86.752 E8.6306
G1 X102.518 Y86.582 E8.65819
G1 X102.926 Y86.454 E8.68009
G1 X103.291 Y86.348 E8.69956
G1 X103.645 Y86.252 E8.71835
G1 X104.198 Y86.111 E8.74758
G1 X104.591 Y86.018 E8.76826
G1 X105.076 Y85.913 E8.79368
G1 X105.523 Y85.826 E8.81701
G1 X106.029 Y85.738 E8.84331
G1 X106.41 Y85.679 E8.86306
G1 X106.851 Y85.618 E8.88586
G1 X107.251 Y85.57 E8.9065
G1 X107.773 Y85.517 E8.93337
G1 X108.179 Y85.483 E8.95424
G1 X108.613 Y85.455 E8.97652
G1 X109.023 Y85.436 E8.99754
G1 X109.677 Y85.418 E9.03105
G1 X110.091 Y85.415 E9.05226
G1 X110.397 Y85.418 E9.06793
G1 X110.782 Y85.428 E9.08766
G1 X111.41 Y85.456 E9.11986
G1 X111.855 Y85.485 E9.1427
G1 X112.291 Y85.522 E9.16511
G1 X112.678 Y85.562 E9.18504
G1 X113.16 Y85.62 E9.20991
G1 X113.55 Y85.673 E9.23006
G1 X114.055 Y85.752 E9.25625
G1 X114.449 Y85.821 E9.27673
G1 X114.95 Y85.918 E9.30287
G1 X115.389 Y86.013 E9.32588
G1 X115.851 Y86.122 E9.35019
G1 X116.232 Y86.219 E9.37033
G1 X116.791 Y86.372 E9.40001
G1 X117.18 Y86.486 E9.42078
G1 X117.48 Y86.58 E9.43688
G1 X117.851 Y86.703 E9.4569
G1 X118.461 Y86.918 E9.49003
G1 X118.847 Y87.062 E9.51113
G1 X119.27 Y87.229 E9.53442
G1 X119.664 Y87.394 E9.5563
G1 X120.089 Y87.581 E9.58009
G1 X120.447 Y87.746 E9.60028
G1 X120.948 Y87.988 E9.62878
G1 X121.308 Y88.17 E9.64944
G1 X121.692 Y88.373 E9.67169
G1 X122.057 Y88.575 E9.69305
G1 X122.533 Y88.85 E9.72121
G1 X122.887 Y89.063 E9.74237
G1 X123.28 Y89.31 E9.76615
G1 X123.612 Y89.527 E9.78646
G1 X124.027 Y89.809 E9.81216
G1 X124.351 Y90.038 E9.83248
G1 X124.677 Y90.277 E9.85319
G1 X125.011 Y90.532 E9.87471
G1 X125.562 Y90.969 E9.91073
G1 X125.902 Y91.249 E9.93329
G1 X126.173 Y91.482 E9.9516
G1 X126.447 Y91.726 E9.97039
G1 X126.78 Y92.032 E9.99356
G1 X127.091 Y92.329 E10.01558
G1 X127.527 Y92.762 E10.04706
G1 X127.778 Y93.02 E10.06549
G1 X128.046 Y93.304 E10.0855
G1 X128.354 Y93.644 E10.10899
G1 X128.77 Y94.123 E10.14149
G1 X129.017 Y94.418 E10.1612
G1 X129.208 Y94.654 E10.17675
G1 X129.466 Y94.985 E10.19824
G1 X129.877 Y95.534 E10.23337
G1 X130.101 Y95.844 E10.25296
G1 X130.305 Y96.137 E10.27125
G1 X130.539 Y96.487 E10.29281
G1 X130.825 Y96.933 E10.31995
G1 X131.044 Y97.29 E10.3414
G1 X131.328 Y97.772 E10.37006
G1 X131.519 Y98.109 E10.3899
G1 X131.714 Y98.468 E10.41082
G1 X131.909 Y98.844 E10.43252
G1 X132.142 Y99.315 E10.45943
G1 X132.325 Y99.703 E10.48141
G1 X132.538 Y100.179 E10.50812
G1 X132.686 Y100.526 E10.52744
G1 X132.864 Y100.963 E10.55161
G1 X133.013 Y101.348 E10.57276
G1 X133.188 Y101.828 E10.59892
G1 X133.32 Y102.213 E10.61977
G1 X133.464 Y102.658 E10.64373
G1 X133.588 Y103.067 E10.66562
G1 X133.724 Y103.55 E10.69132
G1 X133.82 Y103.918 E10.7108
G1 X133.952 Y104.457 E10.73922
G1 X134.044 Y104.865 E10.76065
G1 X134.129 Y105.279 E10.78229
G1 X134.205 Y105.686 E10.8035
G1 X134.283 Y106.154 E10.8278
G1 X134.343 Y106.561 E10.84888
G1 X134.423 Y107.182 E10.88095
G1 X134.468 Y107.586 E10.90177
G1 X134.498 Y107.913 E10.91859
G1 X134.527 Y108.305 E10.93872
G1 X134.563 Y108.946 E10.9716
G1 X134.579 Y109.388 E10.99426
G1 X134.586 Y109.82 E11.01639
G1 X134.586 Y110.182 E11.03493
G1 X134.579 Y110.61 E11.05686
G1 X134.563 Y111.047 E11.07925
G1 X134.527 Y111.692 E11.11234
G1 X134.497 Y112.093 E11.13294
G1 X134.467 Y112.418 E11.14966
G1 X134.424 Y112.812 E11.16996
G1 X134.344 Y113.435 E11.20213
G1 X134.278 Y113.876 E11.22497
G1 X134.199 Y114.342 E11.24918
G1 X134.135 Y114.684 E11.267
G1 X134.051 Y115.1 E11.28874
G1 X133.949 Y115.558 E11.31277
G1 X133.816 Y116.098 E11.34126
G1 X133.727 Y116.435 E11.35911
G1 X133.596 Y116.903 E11.384
G1 X133.479 Y117.293 E11.40486
G1 X133.336 Y117.74 E11.4289
G1 X133.193 Y118.16 E11.45162
G1 X133.014 Y118.651 E11.47839
G1 X132.872 Y119.02 E11.49864
G1 X132.694 Y119.459 E11.52291
G1 X132.528 Y119.846 E11.54448
G1 X132.315 Y120.319 E11.57105
G1 X132.144 Y120.68 E11.59151
G1 X131.924 Y121.125 E11.61693
G1 X131.746 Y121.47 E11.63682
G1 X131.537 Y121.858 E11.65939
G1 X131.318 Y122.246 E11.68221
G1 X131.037 Y122.721 E11.71048
G1 X130.836 Y123.048 E11.73014
G1 X130.547 Y123.5 E11.75762
G1 X130.305 Y123.863 E11.77997
G1 X130.101 Y124.156 E11.79825
G1 X129.877 Y124.466 E11.81784
G1 X129.466 Y125.015 E11.85297
G1 X129.244 Y125.302 E11.87156
G1 X129.055 Y125.538 E11.88704
G1 X128.754 Y125.897 E11.91104
G1 X128.336 Y126.376 E11.9436
G1 X128.074 Y126.666 E11.96362
G1 X127.808 Y126.95 E11.98355
G1 X127.511 Y127.256 E12.00539
G1 X127.073 Y127.689 E12.03694
