; generated by Slic3r Prusa Edition 1.41.3+ on 2019-04-04 at 13:49:13

; 

; external perimeters extrusion width = 0.45mm
; perimeters extrusion width = 0.45mm
; infill extrusion width = 0.45mm
; solid infill extrusion width = 0.45mm
; top infill extrusion width = 0.40mm
; support material extrusion width = 0.35mm
; first layer extrusion width = 0.42mm

M73 P0 R135
M73 Q0 S136
M201 X1000 Y1000 Z1000 E5000 ; sets maximum accelerations, mm/sec^2
M203 X200 Y200 Z12 E120 ; sets maximum feedrates, mm/sec
M204 P1250 R1250 T1250 ; sets acceleration (P, T) and retract acceleration (R), mm/sec^2
M205 X8.00 Y8.00 Z0.40 E1.50 ; sets the jerk limits, mm/sec
M205 S0 T0 ; sets the minimum extruding and travel feed rate, mm/sec
M107
M115 U3.6.0 ; tell printer latest fw version
M83  ; extruder relative mode
M104 S220 ; set extruder temp
M140 S65 ; set bed temp
M190 S65 ; wait for bed temp
M109 S220 ; wait for extruder temp
G28 W ; home all without mesh bed level
G80 ; mesh bed leveling
G1 Y-3.0 F1000.0 ; go outside print area
G92 E0.0
G1 X60.0 E9.0  F1000.0 ; intro line
M73 Q0 S136
M73 P0 R135
G1 X100.0 E12.5  F1000.0 ; intro line
G92 E0.0
M221 S95
M900 K30; Filament gcode
G21 ; set units to millimeters
G90 ; use absolute coordinates
M83 ; use relative distances for extrusion
;BEFORE_LAYER_CHANGE
G92 E0.0
;0.2


G1 E-0.80000 F2100.00000
G1 Z0.600 F10800.000
;AFTER_LAYER_CHANGE
;0.2
G1 X129.409 Y83.042
G1 Z0.200
G1 E0.80000 F2100.00000
M204 S1000
G1 F1200
G1 X129.831 Y82.564 E0.01998
G1 X130.373 Y82.229 E0.01998
G1 X130.988 Y82.063 E0.01998
G1 X142.558 Y82.049 E0.36277
G1 X154.663 Y82.219 E0.37957
G1 X155.211 Y82.299 E0.01737
G1 X176.826 Y91.226 E0.73325
G1 X177.301 Y91.504 E0.01726
G1 X177.691 Y91.892 E0.01726
G1 X182.349 Y99.068 E0.26823
G1 X182.646 Y99.845 E0.02608
G1 X182.679 Y120.338 E0.64255
G1 X182.537 Y121.092 E0.02405
G1 X182.144 Y121.751 E0.02405
G1 X177.312 Y126.529 E0.21306
G1 X176.700 Y126.865 E0.02191
G1 X176.013 Y126.991 E0.02191
G1 X156.824 Y126.973 E0.60165
G1 X136.549 Y123.862 E0.64313
G1 X135.038 Y123.339 E0.05014
G1 X133.643 Y122.580 E0.04979
G1 X132.353 Y121.575 E0.05127
G1 X131.316 Y120.436 E0.04829
G1 X130.514 Y119.206 E0.04605
G1 X129.908 Y117.842 E0.04679
G1 X129.529 Y116.466 E0.04474
G1 X129.385 Y115.210 E0.03964
G1 X129.054 Y91.182 E0.75346
G1 X129.054 Y84.211 E0.21856
G1 X129.142 Y83.621 E0.01873
G1 X129.384 Y83.096 E0.01810
; PURGING FINISHED
G1 F8640
G1 X129.831 Y82.564 E-0.16048
G1 X130.373 Y82.229 E-0.14716
G1 X130.988 Y82.063 E-0.14716
G1 X132.310 Y82.062 E-0.30521
G1 E-0.04000 F2100.00000
G1 Z0.800 F10800.000
G1 X157.866 Y112.330
G1 Z0.200
G1 E0.80000 F2100.00000
G1 F1200
G1 X157.866 Y108.209 E0.12921
G1 X158.620 Y108.209 E0.02365
G1 X158.620 Y112.330 E0.12921
G1 F8640
G1 X158.620 Y109.039 E-0.76000
G1 E-0.04000 F2100.00000
G1 Z0.800 F10800.000
G1 X159.078 Y117.319
G1 Z0.200
G1 E0.80000 F2100.00000
G1 F1200
G1 X159.078 Y112.514 E0.12269
G1 X158.549 Y112.514 E0.01350
G1 X158.549 Y117.171 E0.11891
G1 X158.021 Y117.171 E0.01350
G1 X158.021 Y112.514 E0.11891
G1 X157.492 Y112.514 E0.01350
G1 X157.492 Y117.171 E0.11891
G1 X156.964 Y117.171 E0.01350
G1 X156.964 Y103.199 E0.35674
G1 X157.492 Y103.199 E0.01350
G1 X157.492 Y107.857 E0.11891
G1 X158.021 Y107.857 E0.01350
G1 X158.021 Y103.199 E0.11891
G1 X158.549 Y103.199 E0.01350
G1 X158.549 Y107.857 E0.11891
G1 X159.078 Y107.857 E0.01350
G1 X159.078 Y103.199 E0.11891
G1 X159.506 Y103.199 E0.01095
G1 X159.506 Y96.214 E0.17837
G1 X159.606 Y96.214 E0.00255
G1 X159.606 Y121.828 E0.65402
G1 X160.135 Y121.828 E0.01350
G1 X160.135 Y96.214 E0.65402
G1 X160.663 Y96.214 E0.01350
G1 X160.663 Y121.828 E0.65402
G1 X161.192 Y121.828 E0.01350
G1 X161.192 Y96.214 E0.65402
G1 X161.720 Y96.214 E0.01350
G1 X161.720 Y121.828 E0.65402
G1 X162.249 Y121.828 E0.01350
G1 X162.249 Y96.214 E0.65402
G1 X162.777 Y96.214 E0.01350
G1 X162.777 Y121.828 E0.65402
G1 X163.306 Y121.828 E0.01350
G1 X163.306 Y96.214 E0.65402
G1 X163.835 Y96.214 E0.01350
G1 X163.835 Y121.976 E0.65780
G1 F8640
G1 X163.835 Y118.684 E-0.76000
G1 E-0.04000 F2100.00000
G1 Z0.800 F10800.000
G1 X164.653 Y119.316
G1 Z0.200
G1 E0.80000 F2100.00000
G1 F1200
G1 X164.653 Y115.195 E0.12921
G1 X165.408 Y115.195 E0.02365
G1 X165.408 Y119.146 E0.12389
G1 X166.162 Y119.146 E0.02365
G1 X166.162 Y115.195 E0.12389
G1 X166.916 Y115.195 E0.02365
G1 X166.916 Y119.146 E0.12389
G1 X167.670 Y119.146 E0.02365
G1 X167.670 Y115.195 E0.12389
G1 X168.424 Y115.195 E0.02365
G1 X168.424 Y119.316 E0.12921
G1 F8640
G1 X168.424 Y116.025 E-0.76000
G1 E-0.04000 F2100.00000
G1 Z0.800 F10800.000
G1 X170.706 Y121.976
G1 Z0.200
G1 E0.80000 F2100.00000
G1 F1200
G1 X170.706 Y96.214 E0.65780
G1 X170.177 Y96.214 E0.01350
G1 X170.177 Y121.828 E0.65402
G1 X169.648 Y121.828 E0.01350
G1 X169.648 Y96.214 E0.65402
G1 X169.120 Y96.214 E0.01350
G1 X169.120 Y121.828 E0.65402
G1 X168.591 Y121.828 E0.01350
G1 X168.591 Y119.499 E0.05946
G1 X168.063 Y119.499 E0.01350
G1 X168.063 Y121.828 E0.05946
G1 X167.534 Y121.828 E0.01350
G1 X167.534 Y119.499 E0.05946
G1 X167.006 Y119.499 E0.01350
G1 X167.006 Y121.828 E0.05946
G1 X166.477 Y121.828 E0.01350
G1 X166.477 Y119.499 E0.05946
G1 X165.949 Y119.499 E0.01350
G1 X165.949 Y121.828 E0.05946
G1 X165.420 Y121.828 E0.01350
G1 X165.420 Y119.499 E0.05946
G1 X164.892 Y119.499 E0.01350
G1 X164.892 Y121.828 E0.05946
G1 X164.363 Y121.828 E0.01350
G1 X164.363 Y119.499 E0.05946
G1 X164.164 Y119.499 E0.00509
G1 X164.164 Y114.842 E0.11891
G1 X164.363 Y114.842 E0.00509
G1 X164.363 Y110.990 E0.09835
G1 X164.443 Y111.131 E0.00413
G1 X164.686 Y111.428 E0.00982
G1 X164.892 Y111.601 E0.00685
G1 X164.892 Y114.842 E0.08275
G1 X165.420 Y114.842 E0.01350
G1 X165.420 Y111.917 E0.07468
G1 X165.785 Y112.028 E0.00974
G1 X165.949 Y112.048 E0.00421
G1 X165.949 Y112.514 E0.01189
G1 X166.477 Y112.514 E0.01350
G1 X166.477 Y112.050 E0.01184
G1 X166.664 Y112.028 E0.00479
G1 X167.006 Y111.924 E0.00913
G1 X167.006 Y114.842 E0.07451
G1 X167.534 Y114.842 E0.01350
G1 X167.534 Y111.620 E0.08227
G1 X167.762 Y111.428 E0.00761
G1 X168.006 Y111.131 E0.00982
G1 X168.063 Y111.033 E0.00289
G1 X168.063 Y114.842 E0.09727
G1 X168.591 Y114.842 E0.01350
G1 X168.591 Y103.199 E0.29728
G1 X168.063 Y103.199 E0.01350
G1 X168.063 Y108.802 E0.14305
G1 X168.006 Y108.704 E0.00289
G1 X167.762 Y108.407 E0.00982
G1 X167.534 Y108.215 E0.00761
G1 X167.534 Y103.199 E0.12806
G1 X167.006 Y103.199 E0.01350
G1 X167.006 Y107.911 E0.12029
G1 X166.664 Y107.807 E0.00913
G1 X166.477 Y107.785 E0.00479
G1 X166.477 Y105.528 E0.05762
G1 X165.949 Y105.528 E0.01350
G1 X165.949 Y107.787 E0.05768
G1 X165.785 Y107.807 E0.00421
G1 X165.420 Y107.918 E0.00974
G1 X165.420 Y105.528 E0.06101
G1 X164.892 Y105.528 E0.01350
G1 X164.892 Y108.233 E0.06908
G1 X164.686 Y108.407 E0.00685
G1 X164.443 Y108.704 E0.00982
G1 X164.363 Y108.845 E0.00413
G1 X164.363 Y105.528 E0.08468
G1 X164.164 Y105.528 E0.00509
G1 X164.164 Y100.871 E0.11891
G1 X164.363 Y100.871 E0.00509
G1 X164.363 Y96.214 E0.11891
G1 X164.892 Y96.214 E0.01350
G1 X164.892 Y100.871 E0.11891
G1 X165.420 Y100.871 E0.01350
G1 X165.420 Y96.214 E0.11891
G1 X165.949 Y96.214 E0.01350
G1 X165.949 Y100.871 E0.11891
G1 X166.477 Y100.871 E0.01350
G1 X166.477 Y96.214 E0.11891
G1 X167.006 Y96.214 E0.01350
G1 X167.006 Y100.871 E0.11891
G1 X167.534 Y100.871 E0.01350
G1 X167.534 Y96.214 E0.11891
G1 X168.063 Y96.214 E0.01350
G1 X168.063 Y100.871 E0.11891
G1 X168.591 Y100.871 E0.01350
G1 X168.591 Y96.066 E0.12269
G1 F8640
G1 X168.591 Y99.357 E-0.76000
G1 E-0.04000 F2100.00000
G1 Z0.800 F10800.000
G1 X168.424 Y103.016
G1 Z0.200
G1 E0.80000 F2100.00000
G1 F1200
G1 X168.424 Y101.224 E0.05620
G1 X167.670 Y101.224 E0.02365
G1 X167.670 Y102.847 E0.05088
G1 X166.916 Y102.847 E0.02365
G1 X166.916 Y101.224 E0.05088
G1 X166.162 Y101.224 E0.02365
G1 X166.162 Y102.847 E0.05088
G1 X166.139 Y102.847 E0.00071
G1 X166.139 Y105.175 E0.07301
G1 X165.408 Y105.175 E0.02294
G1 X165.408 Y101.224 E0.12389
G1 X164.653 Y101.224 E0.02365
G1 X164.653 Y105.345 E0.12921
G1 F8640
G1 X164.653 Y102.053 E-0.76000
G1 E-0.04000 F2100.00000
G1 Z0.800 F10800.000
G1 X166.162 Y107.950
G1 Z0.200
G1 E0.80000 F2100.00000
G1 F1200
G1 X166.174 Y108.346 E0.01241
G1 X166.551 Y108.377 E0.01189
G1 X166.808 Y108.455 E0.00841
G1 X166.916 Y108.508 E0.00376
G1 X166.916 Y108.252 E0.00801
G1 X167.227 Y108.419 E0.01108
G1 X167.498 Y108.641 E0.01097
G1 X167.670 Y108.851 E0.00850
G1 X167.670 Y111.252 E0.07529
G1 X166.916 Y111.760 F10800.000
G1 F1200
G1 X166.916 Y111.327 E0.01358
G1 X166.808 Y111.380 E0.00376
G1 X166.551 Y111.458 E0.00841
G1 X166.162 Y111.488 E0.01225
G1 X166.162 Y111.714 E0.00709
G1 X165.871 Y111.685 E0.00917
G1 X165.536 Y111.584 E0.01097
G1 X165.408 Y111.515 E0.00456
G1 X165.408 Y111.260 E0.00801
G1 X165.096 Y111.017 E0.01239
G1 X164.904 Y110.775 E0.00968
G1 X164.777 Y110.539 E0.00842
G1 X164.684 Y110.244 E0.00968
G1 X164.653 Y109.976 E0.00846
G1 X164.653 Y111.099 E0.03521
G1 F8640
G1 X164.653 Y109.976 E-0.25927
G1 X164.684 Y110.244 E-0.06231
G1 X164.777 Y110.539 E-0.07129
G1 X164.904 Y110.775 E-0.06197
G1 X165.096 Y111.017 E-0.07125
G1 X165.408 Y111.260 E-0.09124
G1 X165.408 Y111.515 E-0.05897
G1 X165.536 Y111.584 E-0.03360
G1 X165.744 Y111.647 E-0.05011
G1 E-0.04000 F2100.00000
G1 Z0.800 F10800.000
G1 X165.949 Y114.990
G1 Z0.200
G1 E0.80000 F2100.00000
G1 F1200
G1 X165.949 Y112.851 E0.05463
G1 X166.202 Y112.875 E0.00650
G1 X166.477 Y112.853 E0.00705
G1 X166.477 Y114.990 E0.05457
G1 F8640
G1 X166.477 Y112.853 E-0.49351
G1 X166.202 Y112.875 E-0.06379
G1 X165.949 Y112.851 E-0.05875
G1 X165.949 Y113.474 E-0.14395
G1 E-0.04000 F2100.00000
G1 Z0.800 F10800.000
G1 X172.195 Y108.040
G1 Z0.200
G1 E0.80000 F2100.00000
G1 F1200
G1 X172.195 Y109.832 E0.05620
G1 X172.949 Y109.832 E0.02365
G1 X172.949 Y108.209 E0.05088
G1 X173.703 Y108.209 E0.02365
G1 X173.703 Y109.832 E0.05088
G1 X173.831 Y109.832 E0.00399
G1 X173.831 Y112.161 E0.07301
G1 X174.457 Y112.161 E0.01966
G1 X174.457 Y108.209 E0.12389
G1 X175.212 Y108.209 E0.02365
G1 X175.212 Y112.330 E0.12921
G1 F8640
G1 X175.212 Y109.039 E-0.76000
G1 E-0.04000 F2100.00000
G1 Z0.800 F10800.000
G1 X175.462 Y117.319
G1 Z0.200
G1 E0.80000 F2100.00000
G1 F1200
G1 X175.462 Y112.514 E0.12269
G1 X174.934 Y112.514 E0.01350
G1 X174.934 Y117.171 E0.11891
G1 X174.405 Y117.171 E0.01350
G1 X174.405 Y112.514 E0.11891
G1 X173.877 Y112.514 E0.01350
G1 X173.877 Y117.171 E0.11891
G1 X173.478 Y117.171 E0.01019
G1 X173.478 Y121.828 E0.11891
G1 X173.348 Y121.828 E0.00331
G1 X173.348 Y110.185 E0.29728
G1 X172.820 Y110.185 E0.01350
G1 X172.820 Y121.828 E0.29728
G1 X172.291 Y121.828 E0.01350
G1 X172.291 Y110.185 E0.29728
G1 X171.763 Y110.185 E0.01350
G1 X171.763 Y121.828 E0.29728
G1 X171.234 Y121.828 E0.01350
G1 X171.234 Y96.214 E0.65402
G1 X171.763 Y96.214 E0.01350
G1 X171.763 Y107.857 E0.29728
G1 X172.291 Y107.857 E0.01350
G1 X172.291 Y96.214 E0.29728
G1 X172.820 Y96.214 E0.01350
G1 X172.820 Y107.857 E0.29728
G1 X173.348 Y107.857 E0.01350
G1 X173.348 Y96.214 E0.29728
G1 X173.478 Y96.214 E0.00331
G1 X173.478 Y103.199 E0.17837
G1 X173.877 Y103.199 E0.01019
G1 X173.877 Y107.857 E0.11891
G1 X174.405 Y107.857 E0.01350
G1 X174.405 Y103.199 E0.11891
G1 X174.934 Y103.199 E0.01350
G1 X174.934 Y107.857 E0.11891
G1 X175.462 Y107.857 E0.01350
G1 X175.462 Y103.199 E0.11891
G1 X175.991 Y103.199 E0.01350
G1 X175.991 Y117.171 E0.35674
M73 Q0 S135
G1 X176.519 Y117.171 E0.01350
G1 X176.519 Y103.199 E0.35674
M73 P0 R134
G1 X177.048 Y103.199 E0.01350
G1 X177.048 Y117.171 E0.35674
G1 X177.577 Y117.171 E0.01350
G1 X177.577 Y103.199 E0.35674
G1 X178.105 Y103.199 E0.01350
G1 X178.105 Y117.319 E0.36052
G1 F8640
G1 X178.105 Y114.027 E-0.76000
G1 E-0.04000 F2100.00000
G1 Z0.800 F10800.000
G1 X178.228 Y120.316
G1 Z0.200
G1 E0.80000 F2100.00000
G1 F1200
G1 X178.228 Y117.524 E0.08756
G1 X177.474 Y117.524 E0.02365
G1 X177.474 Y120.146 E0.08224
G1 X176.720 Y120.146 E0.02365
G1 X176.720 Y117.524 E0.08224
G1 X175.966 Y117.524 E0.02365
G1 X175.966 Y124.803 E0.22825
G1 X175.212 Y124.803 E0.02365
G1 X175.212 Y117.524 E0.22825
G1 X174.457 Y117.524 E0.02365
G1 X174.457 Y124.803 E0.22825
G1 X173.703 Y124.803 E0.02365
G1 X173.703 Y122.181 E0.08224
G1 X172.949 Y122.181 E0.02365
G1 X172.949 Y124.803 E0.08224
G1 X172.195 Y124.803 E0.02365
G1 X172.195 Y122.181 E0.08224
G1 X171.441 Y122.181 E0.02365
G1 X171.441 Y124.803 E0.08224
G1 X170.687 Y124.803 E0.02365
G1 X170.687 Y122.181 E0.08224
G1 X169.933 Y122.181 E0.02365
G1 X169.933 Y124.803 E0.08224
G1 X169.178 Y124.803 E0.02365
G1 X169.178 Y122.181 E0.08224
G1 X168.424 Y122.181 E0.02365
G1 X168.424 Y124.803 E0.08224
G1 X167.670 Y124.803 E0.02365
G1 X167.670 Y122.181 E0.08224
G1 X166.916 Y122.181 E0.02365
G1 X166.916 Y124.803 E0.08223
G1 X166.162 Y124.803 E0.02365
G1 X166.162 Y122.181 E0.08223
G1 X165.408 Y122.181 E0.02365
G1 X165.408 Y124.803 E0.08223
G1 X164.653 Y124.803 E0.02365
G1 X164.653 Y122.181 E0.08223
G1 X163.899 Y122.181 E0.02365
G1 X163.899 Y124.803 E0.08223
G1 X163.145 Y124.803 E0.02365
G1 X163.145 Y122.181 E0.08223
G1 X162.391 Y122.181 E0.02365
G1 X162.391 Y124.803 E0.08223
G1 X161.637 Y124.803 E0.02365
G1 X161.637 Y122.181 E0.08223
G1 X160.883 Y122.181 E0.02365
G1 X160.883 Y124.803 E0.08223
G1 X160.128 Y124.803 E0.02365
G1 X160.128 Y122.181 E0.08223
G1 X159.374 Y122.181 E0.02365
G1 X159.374 Y124.803 E0.08223
G1 X158.620 Y124.803 E0.02365
G1 X158.620 Y117.524 E0.22825
G1 X157.866 Y117.524 E0.02365
G1 X157.866 Y124.803 E0.22825
G1 X157.112 Y124.803 E0.02365
G1 X157.112 Y117.524 E0.22825
G1 X156.358 Y117.524 E0.02365
G1 X156.358 Y120.146 E0.08223
G1 X155.604 Y120.146 E0.02365
G1 X155.604 Y117.524 E0.08223
G1 X154.849 Y117.524 E0.02365
G1 X154.849 Y120.146 E0.08223
G1 X154.095 Y120.146 E0.02365
G1 X154.095 Y117.524 E0.08223
G1 X153.341 Y117.524 E0.02365
G1 X153.341 Y120.146 E0.08223
G1 X152.587 Y120.146 E0.02365
G1 X152.587 Y117.524 E0.08223
G1 X152.168 Y117.524 E0.01314
G1 X152.168 Y102.847 E0.46019
G1 X152.587 Y102.847 E0.01314
G1 X152.587 Y100.224 E0.08224
G1 X153.341 Y100.224 E0.02365
G1 X153.341 Y102.847 E0.08224
G1 X154.095 Y102.847 E0.02365
G1 X154.095 Y100.224 E0.08224
G1 X154.849 Y100.224 E0.02365
G1 X154.849 Y102.847 E0.08224
G1 X155.604 Y102.847 E0.02365
G1 X155.604 Y100.224 E0.08223
G1 X156.358 Y100.224 E0.02365
G1 X156.358 Y102.847 E0.08223
G1 X157.112 Y102.847 E0.02365
G1 X157.112 Y93.238 E0.30126
G1 X157.866 Y93.238 E0.02365
G1 X157.866 Y102.847 E0.30126
G1 X158.620 Y102.847 E0.02365
G1 X158.620 Y93.238 E0.30126
G1 X159.374 Y93.238 E0.02365
G1 X159.374 Y95.861 E0.08224
G1 X160.128 Y95.861 E0.02365
G1 X160.128 Y93.238 E0.08224
G1 X160.883 Y93.238 E0.02365
G1 X160.883 Y95.861 E0.08224
G1 X161.637 Y95.861 E0.02365
G1 X161.637 Y93.238 E0.08224
G1 X162.391 Y93.238 E0.02365
G1 X162.391 Y95.861 E0.08224
G1 X163.145 Y95.861 E0.02365
G1 X163.145 Y93.238 E0.08224
G1 X163.899 Y93.238 E0.02365
G1 X163.899 Y95.861 E0.08224
G1 X164.653 Y95.861 E0.02365
G1 X164.653 Y93.238 E0.08224
G1 X165.408 Y93.238 E0.02365
G1 X165.408 Y95.861 E0.08223
G1 X166.162 Y95.861 E0.02365
G1 X166.162 Y93.238 E0.08223
G1 X166.916 Y93.238 E0.02365
G1 X166.916 Y95.861 E0.08223
G1 X167.670 Y95.861 E0.02365
G1 X167.670 Y93.238 E0.08223
G1 X168.424 Y93.238 E0.02365
G1 X168.424 Y95.861 E0.08223
G1 X169.178 Y95.861 E0.02365
G1 X169.178 Y93.238 E0.08223
G1 X169.933 Y93.238 E0.02365
G1 X169.933 Y95.861 E0.08223
G1 X170.687 Y95.861 E0.02365
G1 X170.687 Y93.238 E0.08223
G1 X171.441 Y93.238 E0.02365
G1 X171.441 Y95.861 E0.08223
G1 X172.195 Y95.861 E0.02365
G1 X172.195 Y93.238 E0.08223
G1 X172.949 Y93.238 E0.02365
G1 X172.949 Y95.861 E0.08223
G1 X173.703 Y95.861 E0.02365
G1 X173.703 Y93.238 E0.08223
G1 X174.457 Y93.238 E0.02365
G1 X174.457 Y102.847 E0.30126
G1 X175.212 Y102.847 E0.02365
G1 X175.212 Y93.238 E0.30126
G1 X175.966 Y93.238 E0.02365
G1 X175.966 Y102.847 E0.30126
G1 X176.720 Y102.847 E0.02365
G1 X176.720 Y100.224 E0.08223
G1 X177.474 Y100.224 E0.02365
G1 X177.474 Y102.847 E0.08223
G1 X178.228 Y102.847 E0.02365
G1 X178.228 Y100.224 E0.08223
G1 X178.982 Y100.224 E0.02365
G1 X178.982 Y120.146 E0.62466
G1 X179.737 Y120.146 E0.02365
G1 X179.737 Y100.224 E0.62466
G1 X180.491 Y100.224 E0.02365
