;FLAVOR:Marlin
;TIME:6008
;Filament used: 15.1498m
;Layer height: 0.6
;Generated with Cura_SteamEngine 3.6.0
M82 ;absolute extrusion mode
G21 ; set units to millimeters
G90 ; use absolute positioning
M82 ; absolute extrusion mode
M104 S215.0 ; set extruder temp
M140 S60 ; set bed temp
M190 S60 ; wait for bed temp
M109 S215.0 ; wait for extruder temp
G28 W ; home all without mesh bed level
G80 ; mesh bed leveling
G92 E0.0 ; reset extruder distance position
G1 Y-3.0 F1000.0 ; go outside print area
G1 X60.0 E9.0 F1000.0 ; intro line
G1 X100.0 E21.5 F1000.0 ; intro line
G92 E0.0 ; reset extruder distance position
G92 E0
G1 F2100 E-0.8
;LAYER_COUNT:74
;LAYER:0
M107
;MESH:StreamCheap_Faceplate.stl
G0 F3600 X23.755 Y27.197 Z0.15
;TYPE:WALL-INNER
G1 F2100 E0
G1 F1800 X23.755 Y42.393 E0.37907
G1 X38.951 Y42.393 E0.75813
G1 X38.951 Y27.197 E1.1372
G1 X23.755 Y27.197 E1.51626
G0 F3600 X23.685 Y27.127
G0 X19.734 Y38.511
G0 X17.7 Y43.298
G0 X17.75 Y43.384
G1 F1800 X17.294 Y43.736 E1.53063
G1 X16.943 Y44.192 E1.54499
G1 X16.722 Y44.725 E1.55938
G1 X16.648 Y45.295 E1.57372
G1 X16.722 Y45.865 E1.58806
G1 X16.943 Y46.398 E1.60245
G1 X17.294 Y46.854 E1.6168
G1 X17.75 Y47.205 E1.63116
G1 X18.283 Y47.426 E1.64555
G1 X18.853 Y47.5 E1.65989
G1 X19.423 Y47.426 E1.67423
G1 X19.956 Y47.205 E1.68862
G1 X20.412 Y46.854 E1.70298
G1 X20.764 Y46.398 E1.71735
G1 X20.983 Y45.865 E1.73172
G1 X21.059 Y45.295 E1.74607
G1 X20.983 Y44.725 E1.76041
G1 X20.764 Y44.192 E1.77478
G1 X20.412 Y43.736 E1.78915
G1 X19.956 Y43.384 E1.80352
G1 X19.423 Y43.165 E1.8179
G1 X18.853 Y43.089 E1.83224
G1 X18.283 Y43.165 E1.84659
G1 X17.75 Y43.384 E1.86096
G0 F3600 X17.7 Y43.298
G0 X18.273 Y43.127
G0 X18.853 Y43.049
G0 X19.433 Y43.127
G0 X19.976 Y43.35
G0 X20.393 Y43.672
G0 X23.685 Y48.127
G0 X23.755 Y48.197
G1 F1800 X23.755 Y63.393 E2.24003
G1 X38.951 Y63.393 E2.61909
G1 X38.951 Y48.197 E2.99816
G1 X23.755 Y48.197 E3.37722
G0 F3600 X23.685 Y48.127
G0 X44.685 Y48.127
G0 X44.755 Y48.197
G1 F1800 X44.755 Y63.393 E3.75629
G1 X59.951 Y63.393 E4.13536
G1 X59.951 Y48.197 E4.51442
G1 X44.755 Y48.197 E4.89349
G0 F3600 X44.685 Y48.127
G0 X65.685 Y48.127
G0 X65.755 Y48.197
G1 F1800 X65.755 Y63.393 E5.27255
G1 X80.951 Y63.393 E5.65162
G1 X80.951 Y48.197 E6.03068
G1 X65.755 Y48.197 E6.40975
G0 F3600 X65.685 Y48.127
G0 X86.685 Y48.127
G0 X86.755 Y48.197
G1 F1800 X86.755 Y63.393 E6.78882
G1 X101.951 Y63.393 E7.16788
G1 X101.951 Y48.197 E7.54695
G1 X86.755 Y48.197 E7.92601
G0 F3600 X86.685 Y48.127
G0 X105.7 Y43.298
G0 X105.75 Y43.384
G1 F1800 X105.294 Y43.736 E7.94038
G1 X104.943 Y44.192 E7.95474
G1 X104.722 Y44.725 E7.96913
G1 X104.648 Y45.295 E7.98347
G1 X104.722 Y45.865 E7.99781
G1 X104.943 Y46.398 E8.0122
G1 X105.294 Y46.854 E8.02655
G1 X105.75 Y47.205 E8.04091
G1 X106.283 Y47.426 E8.0553
G1 X106.853 Y47.5 E8.06964
G1 X107.423 Y47.426 E8.08398
G1 X107.956 Y47.205 E8.09837
G1 X108.412 Y46.854 E8.11273
G1 X108.764 Y46.398 E8.1271
G1 X108.983 Y45.865 E8.14147
G1 X109.059 Y45.295 E8.15582
G1 X108.983 Y44.725 E8.17016
G1 X108.764 Y44.192 E8.18453
G1 X108.412 Y43.736 E8.1989
G1 X107.956 Y43.384 E8.21327
G1 X107.423 Y43.165 E8.22765
G1 X106.853 Y43.089 E8.24199
G1 X106.283 Y43.165 E8.25634
G1 X105.75 Y43.384 E8.27071
G0 F3600 X105.7 Y43.298
G0 X105.717 Y37.787
G0 X105.815 Y37.77
G1 F1800 X106.009 Y38.497 E8.28948
G1 X106.326 Y39.183 E8.30833
G1 X106.756 Y39.801 E8.32711
G1 X107.285 Y40.336 E8.34588
G1 X107.899 Y40.772 E8.36467
G1 X109.072 Y41.33 E8.39707
G1 X109.518 Y41.647 E8.41072
G1 X109.898 Y42.032 E8.42421
G1 X110.211 Y42.484 E8.43793
G1 X110.437 Y42.973 E8.45136
G1 X110.58 Y43.507 E8.46515
G1 X110.628 Y44.057 E8.47893
G1 X110.628 Y46.533 E8.54069
G1 X110.58 Y47.083 E8.55446
G1 X110.437 Y47.617 E8.56825
G1 X110.211 Y48.106 E8.58169
G1 X109.897 Y48.559 E8.59544
G1 X109.519 Y48.942 E8.60886
G1 X109.072 Y49.26 E8.62255
G1 X107.899 Y49.818 E8.65495
G1 X107.285 Y50.254 E8.67374
G1 X106.756 Y50.789 E8.6925
G1 X106.326 Y51.408 E8.7113
G1 X106.009 Y52.093 E8.73013
G1 X105.815 Y52.82 E8.7489
G1 X105.753 Y53.545 E8.76705
G1 X105.753 Y62.774 E8.99727
G1 X105.696 Y63.483 E9.01502
G1 X105.537 Y64.148 E9.03207
G1 X105.272 Y64.788 E9.04935
G1 X104.909 Y65.381 E9.06669
G1 X104.462 Y65.902 E9.08382
G1 X103.941 Y66.349 E9.10094
G1 X103.348 Y66.712 E9.11829
G1 X102.708 Y66.977 E9.13557
G1 X102.043 Y67.136 E9.15262
G1 X101.331 Y67.193 E9.17044
G1 X24.375 Y67.193 E11.09012
G1 X23.663 Y67.136 E11.10793
G1 X22.998 Y66.977 E11.12499
G1 X22.358 Y66.712 E11.14227
G1 X21.765 Y66.349 E11.15961
G1 X21.243 Y65.902 E11.17676
G1 X20.797 Y65.381 E11.19386
G1 X20.434 Y64.788 E11.21121
G1 X20.169 Y64.149 E11.22846
G1 X20.008 Y63.481 E11.2456
G1 X19.953 Y62.775 E11.26327
G1 X19.953 Y53.545 E11.49351
G1 X19.891 Y52.82 E11.51166
G1 X19.697 Y52.092 E11.53046
G1 X19.379 Y51.408 E11.54927
G1 X18.95 Y50.79 E11.56804
G1 X18.421 Y50.254 E11.58683
G1 X17.807 Y49.818 E11.60561
G1 X16.634 Y49.26 E11.63801
G1 X16.187 Y48.942 E11.6517
G1 X15.807 Y48.558 E11.66517
G1 X15.497 Y48.112 E11.67872
G1 X15.267 Y47.612 E11.69245
G1 X15.127 Y47.083 E11.7061
G1 X15.078 Y46.533 E11.71988
G1 X15.078 Y44.057 E11.78164
G1 X15.127 Y43.507 E11.79541
G1 X15.267 Y42.978 E11.80906
G1 X15.497 Y42.478 E11.82279
G1 X15.807 Y42.034 E11.8363
G1 X16.188 Y41.647 E11.84985
G1 X16.634 Y41.33 E11.8635
G1 X17.807 Y40.772 E11.8959
G1 X18.421 Y40.336 E11.91469
G1 X18.95 Y39.801 E11.93345
G1 X19.379 Y39.183 E11.95222
G1 X19.697 Y38.498 E11.97106
G1 X19.891 Y37.77 E11.98985
G1 X19.953 Y37.045 E12.008
G1 X19.953 Y27.815 E12.23825
G1 X20.008 Y27.109 E12.25591
G1 X20.169 Y26.441 E12.27305
G1 X20.434 Y25.802 E12.29031
G1 X20.797 Y25.209 E12.30765
G1 X21.243 Y24.688 E12.32476
G1 X21.765 Y24.241 E12.3419
G1 X22.358 Y23.878 E12.35925
G1 X22.998 Y23.613 E12.37653
G1 X23.663 Y23.454 E12.39358
G1 X24.375 Y23.397 E12.4114
G1 X101.331 Y23.397 E14.33108
G1 X102.043 Y23.454 E14.34889
G1 X102.708 Y23.613 E14.36595
G1 X103.348 Y23.878 E14.38323
G1 X103.941 Y24.241 E14.40057
G1 X104.462 Y24.688 E14.4177
G1 X104.909 Y25.209 E14.43482
G1 X105.272 Y25.802 E14.45216
G1 X105.537 Y26.442 E14.46944
G1 X105.696 Y27.107 E14.4865
G1 X105.753 Y27.816 E14.50424
G1 X105.753 Y37.045 E14.73446
G1 X105.815 Y37.77 E14.75261
G0 F3600 X105.717 Y37.787
G0 X101.979 Y27.169
G0 X86.685 Y27.127
G0 X86.755 Y27.197
G1 F1800 X86.755 Y42.393 E15.13168
G1 X101.951 Y42.393 E15.51074
G1 X101.951 Y27.197 E15.88981
G1 X86.755 Y27.197 E16.26888
G0 F3600 X86.685 Y27.127
G0 X65.685 Y27.127
G0 X65.755 Y27.197
G1 F1800 X65.755 Y42.393 E16.64794
G1 X80.951 Y42.393 E17.02701
G1 X80.951 Y27.197 E17.40607
G1 X65.755 Y27.197 E17.78514
G0 F3600 X65.685 Y27.127
G0 X44.685 Y27.127
G0 X44.755 Y27.197
G1 F1800 X44.755 Y42.393 E18.1642
G1 X59.951 Y42.393 E18.54327
G1 X59.951 Y27.197 E18.92234
G1 X44.755 Y27.197 E19.3014
G0 F3600 X45.155 Y27.597
;TYPE:WALL-OUTER
G1 F1800 X45.155 Y41.993 E19.66051
G1 X59.551 Y41.993 E20.01962
G1 X59.551 Y27.597 E20.37873
G1 X45.155 Y27.597 E20.73784
G0 F3600 X45.155 Y27.797
G0 X44.655 Y27.797
G0 X44.655 Y48.597
G0 X45.155 Y48.597
G1 F1800 X45.155 Y62.993 E21.09695
G1 X59.551 Y62.993 E21.45606
G1 X59.551 Y48.597 E21.81517
G1 X45.155 Y48.597 E22.17428
G0 F3600 X45.155 Y48.797
G0 X44.655 Y48.797
G0 X38.979 Y48.169
G0 X23.727 Y48.169
G0 X23.655 Y48.597
G0 X24.155 Y48.597
G1 F1800 X24.155 Y62.993 E22.53339
G1 X38.551 Y62.993 E22.8925
G1 X38.551 Y48.597 E23.25161
G1 X24.155 Y48.597 E23.61072
G0 F3600 X24.155 Y48.797
G0 X23.655 Y48.797
G0 X20.798 Y44.172
G0 X20.44 Y43.708
G0 X19.976 Y43.35
G0 X19.433 Y43.127
G0 X18.853 Y43.049
G0 X18.525 Y43.093
G0 X17.648 Y43.337
G0 X17.952 Y43.734
G1 F1800 X17.579 Y44.021 E23.62246
G1 X17.292 Y44.394 E23.6342
G1 X17.112 Y44.829 E23.64594
G1 X17.051 Y45.295 E23.65767
G1 X17.112 Y45.761 E23.66939
G1 X17.292 Y46.196 E23.68113
G1 X17.579 Y46.569 E23.69287
G1 X17.952 Y46.856 E23.70461
G1 X18.387 Y47.036 E23.71636
G1 X18.853 Y47.097 E23.72808
G1 X19.319 Y47.036 E23.7398
G1 X19.754 Y46.856 E23.75155
G1 X20.127 Y46.569 E23.76329
G1 X20.414 Y46.196 E23.77503
G1 X20.593 Y45.761 E23.78676
G1 X20.655 Y45.295 E23.79849
G1 X20.593 Y44.829 E23.81021
G1 X20.414 Y44.394 E23.82195
G1 X20.127 Y44.021 E23.83369
G1 X19.754 Y43.734 E23.84543
G1 X19.319 Y43.555 E23.85716
G1 X18.853 Y43.493 E23.86889
G1 X18.387 Y43.555 E23.88062
G1 X17.952 Y43.734 E23.89235
G0 F3600 X17.794 Y43.856
G0 X17.489 Y43.459
G0 X19.734 Y38.511
G0 X23.655 Y27.597
G0 X24.155 Y27.597
G1 F1800 X24.155 Y41.993 E24.25146
G1 X38.551 Y41.993 E24.61057
G1 X38.551 Y27.597 E24.96968
G1 X24.155 Y27.597 E25.32879
G0 F3600 X24.155 Y27.797
G0 X23.655 Y27.797
G0 X23.727 Y27.169
G0 X59.979 Y27.169
G0 X65.655 Y27.597
G0 X66.155 Y27.597
G1 F1800 X66.155 Y41.993 E25.6879
G1 X80.551 Y41.993 E26.04701
G1 X80.551 Y27.597 E26.40612
G1 X66.155 Y27.597 E26.76523
G0 F3600 X66.155 Y27.797
G0 X65.655 Y27.797
G0 X65.655 Y48.597
G0 X66.155 Y48.597
G1 F1800 X66.155 Y62.993 E27.12434
G1 X80.551 Y62.993 E27.48345
G1 X80.551 Y48.597 E27.84256
G1 X66.155 Y48.597 E28.20167
G0 F3600 X66.155 Y48.797
G0 X65.655 Y48.797
G0 X65.727 Y48.169
G0 X80.979 Y48.169
G0 X86.655 Y48.597
G0 X87.155 Y48.597
G1 F1800 X87.155 Y62.993 E28.56078
G1 X101.551 Y62.993 E28.91989
G1 X101.551 Y48.597 E29.27899
G1 X87.155 Y48.597 E29.6381
G0 F3600 X87.155 Y48.797
G0 X86.655 Y48.797
G0 X86.727 Y48.169
G0 X105.648 Y43.337
G0 X105.952 Y43.734
G1 F1800 X105.579 Y44.021 E29.64984
G1 X105.292 Y44.394 E29.66158
G1 X105.112 Y44.829 E29.67333
G1 X105.051 Y45.295 E29.68505
G1 X105.112 Y45.761 E29.69678
G1 X105.292 Y46.196 E29.70852
G1 X105.579 Y46.569 E29.72026
G1 X105.952 Y46.856 E29.732
G1 X106.387 Y47.036 E29.74374
G1 X106.853 Y47.097 E29.75547
G1 X107.319 Y47.036 E29.76719
G1 X107.754 Y46.856 E29.77893
G1 X108.127 Y46.569 E29.79067
G1 X108.414 Y46.196 E29.80241
G1 X108.593 Y45.761 E29.81415
G1 X108.655 Y45.295 E29.82587
G1 X108.593 Y44.829 E29.8376
G1 X108.414 Y44.394 E29.84933
G1 X108.127 Y44.021 E29.86107
G1 X107.754 Y43.734 E29.87281
G1 X107.319 Y43.555 E29.88455
G1 X106.853 Y43.493 E29.89628
G1 X106.387 Y43.555 E29.908
G1 X105.952 Y43.734 E29.91974
G0 F3600 X105.794 Y43.856
G0 X105.489 Y43.459
G0 X106.263 Y39.267
G0 X106.674 Y38.983
G1 F1800 X107.065 Y39.544 E29.93679
G1 X107.545 Y40.03 E29.95383
G1 X108.102 Y40.426 E29.97088
G1 X109.277 Y40.985 E30.00334
G1 X109.779 Y41.342 E30.01871
G1 X110.207 Y41.776 E30.03391
G1 X110.559 Y42.283 E30.04931
G1 X110.816 Y42.839 E30.06459
G1 X110.974 Y43.432 E30.0799
G1 X111.028 Y44.045 E30.09525
G1 X111.028 Y46.545 E30.15761
G1 X110.974 Y47.158 E30.17296
G1 X110.816 Y47.751 E30.18827
G1 X110.559 Y48.307 E30.20355
G1 X110.209 Y48.812 E30.21887
G1 X109.776 Y49.25 E30.23424
G1 X109.277 Y49.605 E30.24951
G1 X108.102 Y50.164 E30.28197
G1 X107.545 Y50.56 E30.29902
G1 X107.065 Y51.046 E30.31606
G1 X106.674 Y51.608 E30.33314
G1 X106.387 Y52.229 E30.3502
G1 X106.211 Y52.889 E30.36724
G1 X106.153 Y53.562 E30.38409
G1 X106.153 Y62.793 E30.61436
G1 X106.093 Y63.544 E30.63315
G1 X105.918 Y64.274 E30.65188
G1 X105.631 Y64.968 E30.67061
G1 X105.233 Y65.617 E30.68961
G1 X104.746 Y66.186 E30.70829
G1 X104.177 Y66.673 E30.72697
G1 X103.528 Y67.071 E30.74596
G1 X102.834 Y67.358 E30.7647
G1 X102.104 Y67.533 E30.78342
G1 X101.35 Y67.593 E30.80229
G1 X24.356 Y67.593 E32.72291
G1 X23.602 Y67.533 E32.74178
G1 X22.872 Y67.358 E32.76051
G1 X22.178 Y67.071 E32.77924
G1 X21.529 Y66.673 E32.79823
G1 X20.959 Y66.186 E32.81693
G1 X20.473 Y65.617 E32.8356
G1 X20.075 Y64.968 E32.85459
G1 X19.788 Y64.274 E32.87333
G1 X19.612 Y63.544 E32.89206
G1 X19.553 Y62.793 E32.91085
G1 X19.553 Y53.562 E33.14112
G1 X19.495 Y52.889 E33.15797
G1 X19.319 Y52.229 E33.17501
G1 X19.031 Y51.608 E33.19208
G1 X18.641 Y51.046 E33.20915
G1 X18.161 Y50.56 E33.22619
G1 X17.604 Y50.164 E33.24323
G1 X16.429 Y49.605 E33.27569
G1 X15.93 Y49.25 E33.29097
G1 X15.497 Y48.812 E33.30633
G1 X15.149 Y48.312 E33.32153
G1 X14.888 Y47.746 E33.33708
G1 X14.732 Y47.158 E33.35225
G1 X14.678 Y46.545 E33.3676
G1 X14.678 Y44.045 E33.42996
G1 X14.732 Y43.432 E33.44531
G1 X14.888 Y42.844 E33.46049
G1 X15.149 Y42.278 E33.47604
G1 X15.499 Y41.776 E33.4913
G1 X15.927 Y41.342 E33.50651
G1 X16.429 Y40.985 E33.52187
G1 X17.604 Y40.426 E33.55433
G1 X18.161 Y40.03 E33.57138
G1 X18.641 Y39.544 E33.58842
G1 X19.031 Y38.983 E33.60546
G1 X19.319 Y38.361 E33.62256
G1 X19.495 Y37.701 E33.6396
G1 X19.553 Y37.028 E33.65645
G1 X19.553 Y27.797 E33.88672
G1 X19.612 Y27.046 E33.90551
G1 X19.788 Y26.316 E33.92424
G1 X20.075 Y25.622 E33.94298
G1 X20.473 Y24.973 E33.96197
G1 X20.959 Y24.404 E33.98063
G1 X21.529 Y23.917 E33.99934
G1 X22.178 Y23.519 E34.01833
G1 X22.872 Y23.232 E34.03706
G1 X23.602 Y23.057 E34.05579
G1 X24.356 Y22.997 E34.07465
G1 X101.35 Y22.997 E35.99528
G1 X102.104 Y23.057 E36.01415
G1 X102.834 Y23.232 E36.03287
G1 X103.528 Y23.519 E36.05161
G1 X104.177 Y23.917 E36.0706
G1 X104.746 Y24.404 E36.08928
G1 X105.233 Y24.973 E36.10796
G1 X105.631 Y25.622 E36.12695
G1 X105.918 Y26.316 E36.14569
G1 X106.093 Y27.046 E36.16441
G1 X106.153 Y27.797 E36.18321
G1 X106.153 Y37.028 E36.41347
G1 X106.211 Y37.701 E36.43032
G1 X106.387 Y38.361 E36.44736
G1 X106.674 Y38.983 E36.46445
G0 F3600 X106.788 Y39.147
G0 X106.377 Y39.432
G0 X101.98 Y29.897
G0 X101.979 Y27.169
G0 X86.727 Y27.169
G0 X86.655 Y27.597
G0 X87.155 Y27.597
G1 F1800 X87.155 Y41.993 E36.82356
G1 X101.551 Y41.993 E37.18267
G1 X101.551 Y27.597 E37.54178
G1 X87.155 Y27.597 E37.90089
G0 F3600 X87.155 Y27.797
G0 X86.655 Y27.797
G0 X86.365 Y26.807
;TYPE:SKIN
G1 F1800 X86.365 Y42.783 E38.29941
G1 X102.341 Y42.783 E38.69794
G1 X102.341 Y26.807 E39.09646
G1 X86.365 Y26.807 E39.49498
G0 F3600 X81.341 Y26.807
G1 F1800 X65.365 Y26.807 E39.89351
G1 X65.365 Y42.783 E40.29203
G1 X81.341 Y42.783 E40.69055
G1 X81.341 Y26.807 E41.08907
G0 F3600 X101.325 Y23.787
G1 F1800 X101.973 Y23.839 E41.10529
G1 X102.586 Y23.986 E41.12102
G1 X103.175 Y24.23 E41.13692
G1 X103.711 Y24.557 E41.15258
G1 X104.185 Y24.965 E41.16818
G1 X104.593 Y25.439 E41.18378
G1 X104.92 Y25.975 E41.19945
G1 X105.164 Y26.564 E41.21535
G1 X105.311 Y27.178 E41.2311
G1 X105.363 Y27.816 E41.24707
G1 X105.363 Y37.062 E41.47771
G1 X105.429 Y37.838 E41.49714
G1 X105.641 Y38.63 E41.51759
G1 X105.987 Y39.378 E41.53815
G1 X106.455 Y40.051 E41.55859
G1 X107.031 Y40.634 E41.57904
G1 X107.7 Y41.109 E41.59951
G1 X108.878 Y41.67 E41.63205
G1 X109.267 Y41.947 E41.64396
G1 X109.598 Y42.282 E41.65571
G1 X109.867 Y42.67 E41.66749
G1 X110.072 Y43.115 E41.67971
G1 X110.195 Y43.574 E41.69157
G1 X110.238 Y44.057 E41.70366
G1 X110.238 Y46.533 E41.76543
G1 X110.195 Y47.016 E41.77752
G1 X110.072 Y47.475 E41.78938
G1 X109.867 Y47.92 E41.8016
G1 X109.597 Y48.309 E41.81341
G1 X109.268 Y48.642 E41.82509
G1 X108.878 Y48.92 E41.83703
G1 X107.7 Y49.481 E41.86958
G1 X107.031 Y49.956 E41.89005
G1 X106.455 Y50.539 E41.91049
G1 X105.987 Y51.213 E41.93096
G1 X105.641 Y51.96 E41.9515
G1 X105.429 Y52.752 E41.97195
G1 X105.363 Y53.528 E41.99138
G1 X105.363 Y62.774 E42.22202
G1 X105.311 Y63.412 E42.23799
G1 X105.164 Y64.026 E42.25374
G1 X104.92 Y64.615 E42.26964
G1 X104.593 Y65.151 E42.2853
G1 X104.185 Y65.625 E42.3009
G1 X103.711 Y66.033 E42.3165
G1 X103.175 Y66.36 E42.33217
G1 X102.586 Y66.604 E42.34807
G1 X101.973 Y66.751 E42.36379
G1 X101.325 Y66.803 E42.38001
G1 X24.381 Y66.803 E44.29939
G1 X23.733 Y66.751 E44.3156
G1 X23.12 Y66.604 E44.33133
G1 X22.531 Y66.36 E44.34723
G1 X21.995 Y66.033 E44.36289
G1 X21.52 Y65.625 E44.37851
G1 X21.113 Y65.151 E44.3941
G1 X20.783 Y64.61 E44.40991
G1 X20.54 Y64.026 E44.42568
G1 X20.394 Y63.417 E44.44131
G1 X20.343 Y62.775 E44.45737
G1 X20.343 Y53.528 E44.68804
G1 X20.277 Y52.752 E44.70747
G1 X20.065 Y51.959 E44.72794
G1 X19.718 Y51.213 E44.74847
G1 X19.251 Y50.54 E44.7689
G1 X18.675 Y49.956 E44.78936
G1 X18.006 Y49.481 E44.80983
G1 X16.828 Y48.92 E44.84238
G1 X16.441 Y48.644 E44.85423
G1 X16.107 Y48.306 E44.86609
G1 X15.838 Y47.921 E44.8778
G1 X15.634 Y47.475 E44.89004
G1 X15.512 Y47.014 E44.90193
G1 X15.468 Y46.516 E44.9144
G1 X15.468 Y44.07 E44.97542
G1 X15.512 Y43.576 E44.98779
G1 X15.634 Y43.115 E44.99969
G1 X15.838 Y42.67 E45.0119
G1 X16.109 Y42.282 E45.0237
G1 X16.44 Y41.947 E45.03545
G1 X16.829 Y41.67 E45.04736
