;FLAVOR:Marlin
;TIME:3283
;Filament used: 2.5284m
;Layer height: 0.2
;Generated with Cura_SteamEngine 3.6.0
M82 ;absolute extrusion mode
G21 ; set units to millimeters
G90 ; use absolute positioning
M82 ; absolute extrusion mode
M104 S215.0 ; set extruder temp
M140 S60 ; set bed temp
M190 S60 ; wait for bed temp
M109 S215.0 ; wait for extruder temp
G28 W ; home all without mesh bed level
G80 ; mesh bed leveling
G92 E0.0 ; reset extruder distance position
G1 Y-3.0 F1000.0 ; go outside print area
G1 X60.0 E9.0 F1000.0 ; intro line
G1 X100.0 E21.5 F1000.0 ; intro line
G92 E0.0 ; reset extruder distance position
G92 E0
G1 F2100 E-0.8
;LAYER_COUNT:26
;LAYER:0
M107
G0 F3600 X32.277 Y30.311 Z0.15
;TYPE:SKIRT
G1 F2100 E0
G1 F1800 X32.523 Y30.069 E0.00861
G1 X33.856 Y28.894 E0.05293
G1 X34.093 Y28.705 E0.0605
G1 X35.915 Y27.383 E0.11665
G1 X36.192 Y27.203 E0.12489
G1 X38.183 Y26.052 E0.18226
G1 X38.471 Y25.904 E0.19033
G1 X40.678 Y24.91 E0.25071
G1 X40.911 Y24.816 E0.25698
G1 X42.045 Y24.409 E0.28704
G1 X42.241 Y24.346 E0.29217
G1 X44.287 Y23.757 E0.34528
G1 X44.579 Y23.687 E0.35277
G1 X47.089 Y23.214 E0.41649
G1 X47.358 Y23.175 E0.42327
G1 X49.684 Y22.938 E0.48159
G1 X49.932 Y22.923 E0.48779
G1 X52.249 Y22.868 E0.5456
G1 X52.451 Y22.869 E0.55064
G1 X54.335 Y22.943 E0.59767
G1 X54.519 Y22.956 E0.60228
G1 X56.605 Y23.159 E0.65456
G1 X56.858 Y23.194 E0.66093
G1 X60.805 Y23.9 E0.76095
G1 X66.271 Y24.749 E0.89893
G1 X71.733 Y25.284 E1.03584
G1 X77.181 Y25.508 E1.17185
G1 X82.67 Y25.422 E1.30879
G1 X88.125 Y25.029 E1.44522
G1 X93.573 Y24.324 E1.58225
G1 X98.925 Y23.321 E1.71808
G1 X106.205 Y21.658 E1.90436
G1 X106.514 Y21.604 E1.91219
G1 X108.51 Y21.35 E1.96238
G1 X108.776 Y21.327 E1.96904
G1 X111.112 Y21.226 E2.02737
G1 X111.379 Y21.226 E2.03403
G1 X113.703 Y21.32 E2.09205
G1 X114.003 Y21.346 E2.09956
G1 X116.644 Y21.703 E2.16604
G1 X116.95 Y21.76 E2.1738
G1 X120.016 Y22.484 E2.25239
G1 X120.33 Y22.575 E2.26054
G1 X122.554 Y23.347 E2.31927
G1 X122.838 Y23.461 E2.3269
G1 X125.451 Y24.658 E2.3986
G1 X125.713 Y24.793 E2.40595
G1 X127.538 Y25.842 E2.45846
G1 X127.715 Y25.951 E2.46364
G1 X129.381 Y27.059 E2.51355
G1 X129.624 Y27.238 E2.52108
G1 X131.843 Y29.036 E2.59233
G1 X132.061 Y29.23 E2.5996
G1 X133.598 Y30.727 E2.65313
G1 X133.77 Y30.908 E2.65935
G1 X135.31 Y32.663 E2.7176
G1 X135.46 Y32.847 E2.72352
G1 X136.686 Y34.472 E2.7743
G1 X136.836 Y34.69 E2.7809
G1 X138.069 Y36.642 E2.83849
G1 X138.202 Y36.872 E2.84512
G1 X139.281 Y38.943 E2.90337
G1 X139.408 Y39.217 E2.91091
G1 X140.413 Y41.69 E2.97749
G1 X140.505 Y41.949 E2.98435
G1 X141.191 Y44.165 E3.04222
G1 X141.268 Y44.464 E3.04992
G1 X141.91 Y47.573 E3.12911
G1 X141.959 Y47.895 E3.13723
G1 X142.197 Y50.223 E3.19561
G1 X142.214 Y50.495 E3.20241
G1 X142.253 Y52.835 E3.26079
G1 X142.246 Y53.1 E3.2674
G1 X142.092 Y55.419 E3.32538
G1 X142.058 Y55.717 E3.33286
G1 X141.634 Y58.345 E3.39926
G1 X141.577 Y58.621 E3.40629
G1 X140.954 Y61.081 E3.46959
G1 X140.85 Y61.413 E3.47827
G1 X139.697 Y64.506 E3.56061
G1 X139.57 Y64.8 E3.5686
G1 X138.544 Y66.886 E3.62659
G1 X138.416 Y67.121 E3.63327
G1 X137.209 Y69.131 E3.69175
G1 X137.061 Y69.356 E3.69847
G1 X135.698 Y71.246 E3.7566
G1 X135.532 Y71.458 E3.76331
G1 X134.009 Y73.233 E3.82166
G1 X133.825 Y73.429 E3.82836
G1 X132.171 Y75.058 E3.88627
G1 X131.94 Y75.265 E3.89401
G1 X129.442 Y77.288 E3.97419
G1 X129.178 Y77.48 E3.98234
G1 X127.254 Y78.737 E4.03967
G1 X127.026 Y78.873 E4.04629
G1 X124.986 Y79.976 E4.10414
G1 X124.717 Y80.105 E4.11158
G1 X122.25 Y81.155 E4.17846
G1 X121.951 Y81.266 E4.18642
G1 X118.925 Y82.211 E4.2655
G1 X118.641 Y82.285 E4.27282
G1 X116.965 Y82.644 E4.31557
G1 X116.705 Y82.689 E4.32216
G1 X113.753 Y83.07 E4.39641
G1 X113.436 Y83.095 E4.40434
G1 X110.918 Y83.168 E4.46718
G1 X110.644 Y83.164 E4.47401
G1 X108.514 Y83.043 E4.52723
G1 X108.223 Y83.013 E4.53453
G1 X105.335 Y82.582 E4.60737
G1 X105.183 Y82.556 E4.61121
G1 X101.057 Y81.736 E4.71615
G1 X95.613 Y80.918 E4.85348
G1 X90.183 Y80.415 E4.98951
G1 X84.698 Y80.219 E5.12642
G1 X79.227 Y80.332 E5.26292
G1 X73.773 Y80.755 E5.39938
G1 X68.33 Y81.488 E5.53638
G1 X62.237 Y82.567 E5.69074
G1 X61.973 Y82.602 E5.69738
G1 X60.349 Y82.752 E5.73807
G1 X60.14 Y82.765 E5.74329
G1 X57.835 Y82.826 E5.80081
G1 X57.642 Y82.825 E5.80562
G1 X56.16 Y82.775 E5.84261
G1 X55.953 Y82.761 E5.84779
G1 X53.225 Y82.491 E5.91617
G1 X52.994 Y82.46 E5.92198
G1 X51.135 Y82.138 E5.96905
G1 X50.932 Y82.096 E5.97422
G1 X48.573 Y81.528 E6.03475
G1 X48.364 Y81.47 E6.04016
G1 X46.615 Y80.921 E6.08588
G1 X46.419 Y80.853 E6.09106
G1 X44.189 Y79.991 E6.1507
G1 X43.921 Y79.873 E6.158
G1 X40.994 Y78.421 E6.23951
G1 X40.74 Y78.28 E6.24675
G1 X38.733 Y77.046 E6.30553
G1 X38.48 Y76.873 E6.31317
G1 X35.814 Y74.859 E6.39652
G1 X35.578 Y74.662 E6.40419
G1 X33.913 Y73.132 E6.46059
G1 X33.749 Y72.97 E6.46634
G1 X32.512 Y71.657 E6.51134
G1 X32.383 Y71.512 E6.51618
G1 X31.356 Y70.28 E6.55619
G1 X31.221 Y70.106 E6.56169
G1 X29.911 Y68.294 E6.61746
G1 X29.774 Y68.088 E6.62363
G1 X28.732 Y66.384 E6.67346
G1 X28.592 Y66.131 E6.68067
G1 X27.254 Y63.42 E6.75609
G1 X27.124 Y63.119 E6.76426
G1 X26.18 Y60.579 E6.83186
G1 X26.093 Y60.309 E6.83894
G1 X25.48 Y58.069 E6.89687
G1 X25.415 Y57.775 E6.90438
G1 X24.846 Y54.518 E6.98685
G1 X24.806 Y54.189 E6.99512
G1 X24.586 Y51.019 E7.07439
G1 X24.579 Y50.721 E7.08182
G1 X24.647 Y47.859 E7.15324
G1 X24.664 Y47.592 E7.15991
G1 X24.911 Y45.304 E7.21732
G1 X24.959 Y45 E7.22499
G1 X25.566 Y42.058 E7.29993
G1 X25.647 Y41.746 E7.30797
G1 X26.277 Y39.741 E7.36039
G1 X26.382 Y39.455 E7.36799
G1 X27.317 Y37.241 E7.42795
G1 X27.47 Y36.927 E7.43666
G1 X28.642 Y34.826 E7.49667
G1 X28.831 Y34.528 E7.50547
G1 X30.164 Y32.658 E7.56276
G1 X30.408 Y32.356 E7.57245
G1 X32.277 Y30.311 E7.64155
G1 F2100 E6.84155
;MESH:AtPeace Logo v2.stl
G0 F3600 X37.3 Y29.494
G0 X38.033 Y30.548
G0 X51.374 Y29.043
G0 X54.282 Y28.912
G0 X56.237 Y29.006
G0 X57.743 Y29.209
G0 X66.97 Y30.701
G0 X67.063 Y30.668
;TYPE:WALL-INNER
G1 F2100 E7.64155
G1 F1800 X68.338 Y31.372 E7.67788
G1 X69.124 Y31.834 E7.70063
G1 X69.878 Y32.304 E7.72279
G1 X70.64 Y32.805 E7.74554
G1 X71.359 Y33.304 E7.76737
G1 X72.043 Y33.804 E7.78851
G1 X72.715 Y34.321 E7.80966
G1 X73.375 Y34.856 E7.83085
G1 X73.996 Y35.38 E7.85112
G1 X74.606 Y35.921 E7.87146
G1 X75.195 Y36.468 E7.89151
G1 X75.771 Y37.025 E7.9115
G1 X76.313 Y37.572 E7.93071
G1 X76.843 Y38.132 E7.94994
G1 X77.354 Y38.692 E7.96885
G1 X77.849 Y39.258 E7.98761
G1 X78.32 Y39.818 E8.00586
G1 X78.776 Y40.382 E8.02395
G1 X79.214 Y40.943 E8.04171
G1 X79.634 Y41.504 E8.05919
G1 X80.042 Y42.065 E8.07649
G1 X80.423 Y42.614 E8.09316
G1 X80.79 Y43.161 E8.10959
G1 X81.146 Y43.708 E8.12587
G1 X81.477 Y44.238 E8.14146
G1 X82.104 Y45.29 E8.17201
G1 X82.647 Y46.267 E8.19989
G1 X83.151 Y47.234 E8.22709
G1 X83.574 Y48.081 E8.25071
G1 X84.426 Y47.967 E8.27215
G1 X84.726 Y46.425 E8.31134
G1 X84.993 Y45.314 E8.33984
G1 X85.307 Y44.214 E8.36838
G1 X85.671 Y43.113 E8.39731
G1 X86.068 Y42.06 E8.42538
G1 X86.526 Y40.986 E8.4545
G1 X87.007 Y39.979 E8.48234
G1 X87.551 Y38.955 E8.51127
G1 X88.125 Y37.975 E8.5396
G1 X88.737 Y37.022 E8.56785
G1 X89.406 Y36.075 E8.59677
G1 X90.108 Y35.162 E8.6255
G1 X90.826 Y34.307 E8.65335
G1 X91.613 Y33.444 E8.68249
G1 X92.412 Y32.64 E8.71076
G1 X93.244 Y31.869 E8.73906
G1 X94.108 Y31.134 E8.76735
G1 X95.028 Y30.417 E8.79645
G1 X95.937 Y29.766 E8.82434
G1 X96.901 Y29.137 E8.85305
G1 X97.891 Y28.548 E8.88179
G1 X98.888 Y28.01 E8.91005
G1 X99.922 Y27.508 E8.93872
G1 X100.971 Y27.051 E8.96727
G1 X102.029 Y26.642 E8.99556
G1 X103.112 Y26.275 E9.02409
G1 X104.223 Y25.95 E9.05296
G1 X105.312 Y25.681 E9.08094
G1 X106.433 Y25.454 E9.10947
G1 X107.577 Y25.271 E9.13837
G1 X108.701 Y25.139 E9.1666
G1 X109.835 Y25.056 E9.19497
G1 X110.992 Y25.018 E9.22384
G1 X112.132 Y25.03 E9.25228
G1 X113.267 Y25.088 E9.28063
G1 X114.411 Y25.197 E9.3093
G1 X115.525 Y25.349 E9.33735
G1 X116.675 Y25.556 E9.36649
G1 X117.773 Y25.801 E9.39456
G1 X118.868 Y26.095 E9.42284
G1 X119.982 Y26.445 E9.45197
G1 X121.049 Y26.829 E9.48026
G1 X122.091 Y27.256 E9.50835
G1 X123.153 Y27.743 E9.53749
G1 X124.153 Y28.253 E9.56549
G1 X125.142 Y28.813 E9.59384
G1 X126.12 Y29.421 E9.62257
G1 X127.058 Y30.059 E9.65087
G1 X127.993 Y30.756 E9.67996
G1 X128.861 Y31.462 E9.70787
G1 X129.729 Y32.229 E9.73676
G1 X130.54 Y33.009 E9.76483
G1 X131.334 Y33.842 E9.79354
G1 X132.093 Y34.708 E9.82226
G1 X132.805 Y35.591 E9.85056
G1 X133.479 Y36.502 E9.87883
G1 X134.123 Y37.456 E9.90754
G1 X134.727 Y38.436 E9.93626
G1 X135.29 Y39.441 E9.96499
G1 X135.801 Y40.452 E9.99325
G1 X136.269 Y41.486 E10.02156
G1 X136.694 Y42.536 E10.04982
G1 X137.083 Y43.629 E10.07876
G1 X137.418 Y44.712 E10.10704
G1 X137.708 Y45.809 E10.13534
G1 X137.956 Y46.942 E10.16427
G1 X138.152 Y48.058 E10.19254
G1 X138.303 Y49.199 E10.22125
G1 X138.404 Y50.32 E10.24933
G1 X138.459 Y51.478 E10.27825
G1 X138.466 Y52.604 E10.30633
G1 X138.424 Y53.755 E10.33506
G1 X138.334 Y54.901 E10.36374
G1 X138.198 Y56.027 E10.39203
G1 X138.014 Y57.146 E10.42032
G1 X137.783 Y58.265 E10.44882
G1 X137.504 Y59.373 E10.47732
G1 X137.172 Y60.493 E10.50646
G1 X136.807 Y61.56 E10.5346
G1 X136.394 Y62.614 E10.56283
G1 X135.931 Y63.666 E10.59151
G1 X135.423 Y64.699 E10.62022
G1 X134.88 Y65.696 E10.64854
G1 X134.292 Y66.677 E10.67707
G1 X133.66 Y67.635 E10.7057
G1 X132.997 Y68.555 E10.73399
G1 X132.294 Y69.448 E10.76234
G1 X131.535 Y70.333 E10.79142
G1 X130.772 Y71.15 E10.81931
G1 X129.943 Y71.966 E10.84832
G1 X129.111 Y72.719 E10.87632
G1 X128.214 Y73.465 E10.90542
G1 X127.316 Y74.151 E10.93361
G1 X126.375 Y74.806 E10.96221
G1 X125.418 Y75.417 E10.99053
G1 X124.424 Y75.994 E11.0192
G1 X123.427 Y76.518 E11.0473
G1 X122.377 Y77.015 E11.07628
G1 X121.326 Y77.457 E11.10472
G1 X120.255 Y77.857 E11.13324
G1 X119.18 Y78.207 E11.16144
G1 X118.068 Y78.52 E11.19025
G1 X116.965 Y78.78 E11.21852
G1 X115.846 Y78.994 E11.24694
G1 X114.708 Y79.162 E11.27564
G1 X113.569 Y79.283 E11.30421
G1 X112.436 Y79.354 E11.33253
G1 X111.29 Y79.379 E11.36112
G1 X110.137 Y79.353 E11.38989
G1 X108.994 Y79.279 E11.41846
G1 X107.852 Y79.156 E11.44712
G1 X106.695 Y78.982 E11.4763
G1 X105.569 Y78.764 E11.50491
G1 X104.452 Y78.498 E11.53355
G1 X103.347 Y78.185 E11.5622
G1 X102.238 Y77.819 E11.59133
G1 X101.178 Y77.418 E11.6196
G1 X100.109 Y76.962 E11.6486
G1 X99.061 Y76.462 E11.67756
G1 X98.06 Y75.931 E11.70583
G1 X97.059 Y75.343 E11.73479
G1 X96.097 Y74.723 E11.76334
G1 X95.16 Y74.062 E11.79194
G1 X94.238 Y73.349 E11.82101
G1 X93.351 Y72.602 E11.84994
G1 X92.507 Y71.828 E11.87851
G1 X91.697 Y71.02 E11.90705
G1 X90.912 Y70.168 E11.93595
G1 X90.173 Y69.294 E11.9645
G1 X89.457 Y68.37 E11.99366
G1 X88.801 Y67.445 E12.02194
G1 X88.174 Y66.476 E12.05074
G1 X87.581 Y65.47 E12.07987
G1 X87.051 Y64.476 E12.10797
G1 X86.545 Y63.423 E12.13711
G1 X86.093 Y62.372 E12.16565
G1 X85.681 Y61.287 E12.1946
G1 X85.316 Y60.186 E12.22353
G1 X84.999 Y59.078 E12.25228
G1 X84.734 Y57.974 E12.2806
G1 X84.511 Y56.836 E12.30953
G1 X84.338 Y55.705 E12.33807
G1 X84.205 Y54.487 E12.36863
G1 X83.981 Y53.749 E12.38787
G1 X83.762 Y53.072 E12.40562
G1 X83.539 Y52.422 E12.42276
G1 X83.049 Y51.118 E12.45751
G1 X82.788 Y50.482 E12.47466
G1 X82.263 Y49.286 E12.50725
G1 X81.979 Y48.681 E12.52392
G1 X81.686 Y48.089 E12.54039
G1 X81.388 Y47.51 E12.55664
G1 X81.081 Y46.938 E12.57283
G1 X80.459 Y45.849 E12.60412
G1 X79.814 Y44.8 E12.63483
G1 X79.147 Y43.792 E12.66499
G1 X78.465 Y42.826 E12.69448
G1 X77.765 Y41.898 E12.72348
G1 X77.054 Y41.012 E12.75182
G1 X76.333 Y40.164 E12.77958
G1 X75.604 Y39.354 E12.80677
G1 X74.872 Y38.584 E12.83327
G1 X74.139 Y37.852 E12.85911
G1 X73.407 Y37.156 E12.88431
G1 X72.679 Y36.496 E12.90882
G1 X71.958 Y35.873 E12.93259
G1 X71.246 Y35.287 E12.95559
G1 X70.547 Y34.735 E12.97781
G1 X69.863 Y34.217 E12.99921
G1 X69.196 Y33.736 E13.01972
G1 X68.55 Y33.286 E13.03936
G1 X67.925 Y32.869 E13.05811
G1 X67.327 Y32.485 E13.07583
G1 X66.24 Y31.825 E13.10756
G1 X65.732 Y31.535 E13.12215
G1 X64.857 Y31.059 E13.147
G1 X64.446 Y30.849 E13.15851
G1 X63.305 Y30.477 E13.18845
G1 X62.117 Y30.133 E13.2193
G1 X61.484 Y29.968 E13.23562
G1 X60.86 Y29.815 E13.25164
G1 X60.205 Y29.667 E13.26839
G1 X59.561 Y29.532 E13.28481
G1 X58.89 Y29.406 E13.30184
G1 X58.236 Y29.294 E13.31839
G1 X57.568 Y29.196 E13.33523
G1 X56.901 Y29.112 E13.352
G1 X56.236 Y29.045 E13.36867
G1 X55.577 Y28.994 E13.38516
G1 X54.923 Y28.962 E13.40149
G1 X54.282 Y28.952 E13.41749
G1 X53.526 Y28.96 E13.43635
G1 X52.789 Y28.985 E13.45474
G1 X52.084 Y29.025 E13.47236
G1 X51.375 Y29.082 E13.4901
G1 X50.679 Y29.153 E13.50755
G1 X50.016 Y29.239 E13.52423
G1 X49.35 Y29.34 E13.54103
G1 X48.715 Y29.453 E13.55712
G1 X48.075 Y29.586 E13.57343
G1 X47.459 Y29.73 E13.58921
G1 X46.855 Y29.887 E13.60477
G1 X46.265 Y30.059 E13.6201
G1 X45.69 Y30.244 E13.63517
G1 X45.127 Y30.442 E13.65006
G1 X44.579 Y30.653 E13.66471
G1 X44.042 Y30.875 E13.6792
G1 X43.519 Y31.112 E13.69353
G1 X43.01 Y31.359 E13.70764
G1 X42.513 Y31.619 E13.72163
G1 X42.029 Y31.891 E13.73548
G1 X41.558 Y32.174 E13.74919
G1 X41.1 Y32.469 E13.76278
G1 X40.655 Y32.775 E13.77625
G1 X40.224 Y33.089 E13.78955
G1 X39.805 Y33.416 E13.80281
G1 X39.397 Y33.751 E13.81598
G1 X39.003 Y34.099 E13.82909
G1 X38.622 Y34.45 E13.84201
G1 X38.251 Y34.815 E13.855
G1 X37.895 Y35.187 E13.86784
G1 X37.55 Y35.569 E13.88068
G1 X37.217 Y35.958 E13.89345
G1 X36.897 Y36.355 E13.90617
G1 X36.588 Y36.759 E13.91886
G1 X36.291 Y37.171 E13.93153
G1 X36.007 Y37.59 E13.94416
G1 X35.734 Y38.015 E13.95676
G1 X35.47 Y38.449 E13.96943
G1 X34.987 Y39.319 E13.99425
G1 X34.539 Y40.232 E14.01962
G1 X34.142 Y41.146 E14.04448
G1 X33.789 Y42.077 E14.06932
G1 X33.468 Y43.044 E14.09473
G1 X33.192 Y44.015 E14.11991
G1 X32.957 Y44.995 E14.14505
G1 X32.76 Y45.987 E14.17028
G1 X32.602 Y46.984 E14.19546
G1 X32.481 Y47.986 E14.22064
G1 X32.394 Y48.993 E14.24585
G1 X32.345 Y49.998 E14.27095
G1 X32.328 Y50.98 E14.29545
G1 X32.335 Y51.699 E14.31339
G1 X32.356 Y52.398 E14.33083
G1 X32.394 Y53.09 E14.34812
G1 X32.445 Y53.775 E14.36525
G1 X32.51 Y54.454 E14.38227
G1 X32.59 Y55.126 E14.39915
G1 X32.682 Y55.792 E14.41592
G1 X32.791 Y56.451 E14.43258
G1 X32.913 Y57.103 E14.44913
G1 X33.049 Y57.747 E14.46555
G1 X33.198 Y58.383 E14.48184
G1 X33.36 Y59.013 E14.49807
G1 X33.536 Y59.636 E14.51422
G1 X33.726 Y60.248 E14.53021
G1 X33.928 Y60.854 E14.54614
G1 X34.145 Y61.451 E14.56199
G1 X34.374 Y62.041 E14.57777
G1 X34.617 Y62.622 E14.59348
G1 X34.873 Y63.194 E14.60911
G1 X35.14 Y63.756 E14.62464
G1 X35.422 Y64.31 E14.64014
G1 X35.715 Y64.854 E14.65556
G1 X36.02 Y65.388 E14.6709
G1 X36.337 Y65.914 E14.68622
G1 X36.669 Y66.429 E14.7015
G1 X37.011 Y66.935 E14.71674
G1 X37.366 Y67.43 E14.73193
G1 X37.731 Y67.915 E14.74707
G1 X38.109 Y68.39 E14.76222
G1 X38.499 Y68.854 E14.77734
G1 X38.9 Y69.306 E14.79241
G1 X39.311 Y69.749 E14.80748
G1 X39.734 Y70.18 E14.82255
G1 X40.162 Y70.593 E14.83738
G1 X40.607 Y71 E14.85243
G1 X41.062 Y71.397 E14.86749
G1 X41.53 Y71.782 E14.88261
G1 X42.007 Y72.155 E14.89771
G1 X42.495 Y72.516 E14.91285
G1 X42.993 Y72.864 E14.92801
G1 X43.501 Y73.2 E14.9432
G1 X44.019 Y73.524 E14.95844
G1 X44.549 Y73.835 E14.97377
G1 X45.085 Y74.132 E14.98906
G1 X45.633 Y74.418 E15.00448
G1 X46.192 Y74.689 E15.01997
G1 X46.757 Y74.947 E15.03547
G1 X47.333 Y75.191 E15.05107
G1 X47.918 Y75.421 E15.06675
G1 X48.511 Y75.638 E15.0825
G1 X49.113 Y75.841 E15.09835
G1 X49.725 Y76.031 E15.11434
G1 X50.345 Y76.204 E15.13039
G1 X50.973 Y76.365 E15.14657
G1 X51.61 Y76.51 E15.16286
G1 X52.253 Y76.64 E15.17923
G1 X52.906 Y76.757 E15.19578
G1 X53.565 Y76.857 E15.2124
G1 X54.235 Y76.943 E15.22925
G1 X54.91 Y77.013 E15.24618
G1 X55.593 Y77.069 E15.26328
G1 X56.283 Y77.108 E15.28052
G1 X56.98 Y77.132 E15.29791
G1 X57.687 Y77.139 E15.31555
G1 X58.715 Y77.122 E15.3412
G1 X59.73 Y77.064 E15.36656
G1 X60.725 Y76.971 E15.39149
G1 X61.702 Y76.84 E15.41608
G1 X62.658 Y76.671 E15.44029
G1 X63.593 Y76.466 E15.46417
G1 X64.506 Y76.226 E15.48772
G1 X65.397 Y75.948 E15.511
G1 X66.263 Y75.633 E15.53399
G1 X67.103 Y75.284 E15.55668
G1 X67.919 Y74.9 E15.57918
G1 X68.707 Y74.478 E15.60147
G1 X69.466 Y74.023 E15.62355
G1 X70.197 Y73.531 E15.64553
