; generated by Slic3r Prusa Edition 1.41.2+ on 2019-02-28 at 11:06:56

; 

; external perimeters extrusion width = 0.45mm
; perimeters extrusion width = 0.45mm
; infill extrusion width = 0.45mm
; solid infill extrusion width = 0.45mm
; top infill extrusion width = 0.40mm
; first layer extrusion width = 0.42mm

M73 P0 R206
M73 Q0 S211
M201 X1000 Y1000 Z1000 E5000 ; sets maximum accelerations, mm/sec^2
M203 X200 Y200 Z12 E120 ; sets maximum feedrates, mm/sec
M204 P1250 R1250 T1250 ; sets acceleration (P, T) and retract acceleration (R), mm/sec^2
M205 X8.00 Y8.00 Z0.40 E1.50 ; sets the jerk limits, mm/sec
M205 S0 T0 ; sets the minimum extruding and travel feed rate, mm/sec
M107
M115 U3.5.1 ; tell printer latest fw version
M83  ; extruder relative mode
M104 S220 ; set extruder temp
M140 S65 ; set bed temp
M190 S65 ; wait for bed temp
M109 S220 ; wait for extruder temp
G28 W ; home all without mesh bed level
G80 ; mesh bed leveling
G1 Y-3.0 F1000.0 ; go outside print area
G92 E0.0
G1 X60.0 E9.0  F1000.0 ; intro line
M73 Q0 S211
M73 P0 R206
G1 X100.0 E12.5  F1000.0 ; intro line
G92 E0.0
M221 S95
M900 K30; Filament gcode
G21 ; set units to millimeters
G90 ; use absolute coordinates
M83 ; use relative distances for extrusion
;BEFORE_LAYER_CHANGE
G92 E0.0
;0.2


G1 E-0.80000 F2100.00000
G1 Z0.600 F10800.000
;AFTER_LAYER_CHANGE
;0.2
G1 X16.426 Y25.413
G1 Z0.200
G1 E0.80000 F2100.00000
M204 S1000
G1 F1200
G1 X17.281 Y24.900 E0.03125
G1 X18.310 Y24.476 E0.03491
G1 X19.389 Y24.216 E0.03480
G1 X20.422 Y24.128 E0.03251
G1 X97.528 Y24.126 E2.41761
G1 X98.645 Y24.214 E0.03513
G1 X99.725 Y24.471 E0.03480
G1 X100.768 Y24.900 E0.03537
G1 X101.623 Y25.413 E0.03125
G1 X102.719 Y26.352 E0.04527
G1 X103.363 Y27.122 E0.03147
G1 X103.980 Y28.156 E0.03776
G1 X104.375 Y29.138 E0.03319
G1 X109.471 Y46.402 E0.56439
G1 X109.588 Y47.552 E0.03622
G1 X109.587 Y50.121 E0.08055
G1 X109.494 Y51.112 E0.03121
G1 X104.360 Y68.536 E0.56956
G1 X70.462 Y170.410 E3.36637
G1 X69.965 Y171.578 E0.03980
G1 X69.381 Y172.641 E0.03802
G1 X68.633 Y173.719 E0.04115
G1 X67.300 Y175.170 E0.06177
G1 X66.236 Y176.047 E0.04321
G1 X65.010 Y176.824 E0.04552
G1 X63.564 Y177.481 E0.04980
G1 X62.048 Y177.940 E0.04965
G1 X60.851 Y178.138 E0.03807
G1 X59.672 Y178.202 E0.03702
G1 X26.717 Y178.202 E1.03326
G1 X25.593 Y178.139 E0.03531
G1 X24.426 Y177.950 E0.03707
G1 X23.273 Y177.633 E0.03748
G1 X22.031 Y177.132 E0.04199
G1 X20.447 Y176.225 E0.05723
G1 X19.443 Y175.454 E0.03969
G1 X18.422 Y174.464 E0.04459
G1 X17.541 Y173.370 E0.04405
G1 X16.501 Y171.651 E0.06300
G1 X15.983 Y170.457 E0.04080
G1 X15.604 Y169.249 E0.03969
G1 X15.239 Y167.164 E0.06637
G1 X8.464 Y50.178 E3.67418
G1 X8.462 Y47.493 E0.08418
G1 X8.585 Y46.373 E0.03531
G1 X13.674 Y29.137 E0.56350
G1 X14.106 Y28.077 E0.03588
G1 X14.696 Y27.107 E0.03560
G1 X15.339 Y26.341 E0.03136
G1 X16.381 Y25.452 E0.04294
; PURGING FINISHED
G1 F8640
G1 X17.281 Y24.900 E-0.24379
G1 X18.310 Y24.476 E-0.25710
G1 X19.389 Y24.216 E-0.25625
G1 X19.401 Y24.215 E-0.00286
G1 E-0.04000 F2100.00000
G1 Z0.800 F10800.000
G1 X25.228 Y79.755
G1 Z0.200
G1 E0.80000 F2100.00000
G1 F1200
G1 X25.754 Y79.670 E0.01671
G1 X26.792 Y79.601 E0.03259
G1 X59.647 Y79.601 E1.03017
G1 X60.536 Y79.649 E0.02790
G1 X61.411 Y79.790 E0.02778
G1 X62.251 Y80.020 E0.02731
G1 X63.087 Y80.345 E0.02813
G1 X63.883 Y80.756 E0.02809
G1 X64.609 Y81.230 E0.02719
G1 X65.381 Y81.863 E0.03129
G1 X65.957 Y82.436 E0.02548
G1 X66.533 Y83.130 E0.02828
G1 X67.035 Y83.871 E0.02806
G1 X67.469 Y84.665 E0.02838
G1 X67.827 Y85.495 E0.02832
G1 X68.107 Y86.352 E0.02827
G1 X68.306 Y87.229 E0.02819
G1 X68.426 Y88.118 E0.02815
G1 X68.467 Y89.027 E0.02852
G1 X68.467 Y166.001 E2.41346
G1 X68.426 Y166.910 E0.02852
G1 X68.306 Y167.799 E0.02815
G1 X68.107 Y168.676 E0.02819
G1 X67.827 Y169.533 E0.02827
G1 X67.469 Y170.363 E0.02832
G1 X67.103 Y171.032 E0.02391
G1 X66.531 Y171.899 E0.03257
G1 X65.871 Y172.685 E0.03220
G1 X65.317 Y173.226 E0.02427
G1 X64.706 Y173.723 E0.02469
G1 X63.880 Y174.273 E0.03110
G1 X63.087 Y174.683 E0.02801
G1 X62.250 Y175.009 E0.02815
G1 X61.513 Y175.211 E0.02399
G1 X60.533 Y175.379 E0.03116
G1 X59.641 Y175.427 E0.02800
G1 X26.788 Y175.427 E1.03010
G1 X25.896 Y175.379 E0.02800
G1 X25.040 Y175.242 E0.02719
G1 X24.095 Y174.978 E0.03074
G1 X23.247 Y174.636 E0.02868
G1 X22.558 Y174.279 E0.02434
G1 X21.826 Y173.801 E0.02740
G1 X21.048 Y173.165 E0.03151
G1 X20.472 Y172.592 E0.02547
G1 X19.899 Y171.900 E0.02818
G1 X19.394 Y171.155 E0.02822
G1 X18.959 Y170.362 E0.02835
G1 X18.600 Y169.526 E0.02853
G1 X18.318 Y168.657 E0.02866
G1 X18.118 Y167.771 E0.02846
G1 X18.000 Y166.882 E0.02814
G1 X17.962 Y166.001 E0.02763
G1 X17.962 Y89.027 E2.41348
G1 X18.000 Y88.146 E0.02763
G1 X18.118 Y87.258 E0.02809
G1 X18.318 Y86.370 E0.02855
G1 X18.600 Y85.501 E0.02863
G1 X18.959 Y84.666 E0.02853
G1 X19.393 Y83.873 E0.02834
G1 X19.899 Y83.128 E0.02822
G1 X20.472 Y82.436 E0.02816
G1 X21.109 Y81.805 E0.02812
G1 X21.542 Y81.450 E0.01755
G1 X21.821 Y81.230 E0.01115
G1 X22.557 Y80.750 E0.02755
G1 X23.340 Y80.346 E0.02762
G1 X24.236 Y80.001 E0.03010
G1 X25.169 Y79.765 E0.03017
G1 X25.108 Y79.393 F10800.000
G1 F1200
G1 X25.711 Y79.294 E0.01916
G1 X26.779 Y79.224 E0.03355
G1 X59.657 Y79.224 E1.03088
G1 X60.576 Y79.273 E0.02885
G1 X61.491 Y79.421 E0.02904
G1 X62.369 Y79.661 E0.02855
G1 X63.242 Y80.001 E0.02937
G1 X64.073 Y80.430 E0.02932
G1 X64.832 Y80.926 E0.02843
G1 X65.634 Y81.583 E0.03249
G1 X66.236 Y82.181 E0.02662
G1 X66.835 Y82.904 E0.02942
G1 X67.357 Y83.674 E0.02919
G1 X67.809 Y84.500 E0.02950
G1 X68.180 Y85.361 E0.02942
G1 X68.470 Y86.251 E0.02935
G1 X68.678 Y87.161 E0.02926
G1 X68.802 Y88.084 E0.02921
G1 X68.844 Y89.019 E0.02932
G1 X68.844 Y166.009 E2.41399
G1 X68.802 Y166.943 E0.02932
G1 X68.678 Y167.866 E0.02921
G1 X68.470 Y168.776 E0.02926
G1 X68.180 Y169.667 E0.02935
G1 X67.809 Y170.528 E0.02942
G1 X67.427 Y171.226 E0.02495
G1 X66.834 Y172.125 E0.03374
G1 X66.148 Y172.942 E0.03347
G1 X65.568 Y173.508 E0.02539
G1 X64.930 Y174.027 E0.02579
G1 X64.072 Y174.598 E0.03232
G1 X63.242 Y175.027 E0.02929
G1 X62.369 Y175.367 E0.02938
G1 X61.595 Y175.580 E0.02518
G1 X60.575 Y175.754 E0.03243
G1 X59.651 Y175.804 E0.02901
G1 X26.778 Y175.804 E1.03073
G1 X25.856 Y175.755 E0.02894
G1 X24.959 Y175.611 E0.02849
G1 X23.974 Y175.336 E0.03207
G1 X23.089 Y174.979 E0.02991
G1 X22.368 Y174.605 E0.02549
G1 X21.603 Y174.106 E0.02862
G1 X20.795 Y173.445 E0.03272
G1 X20.193 Y172.847 E0.02661
G1 X19.597 Y172.127 E0.02932
G1 X19.071 Y171.352 E0.02935
G1 X18.620 Y170.528 E0.02947
G1 X18.246 Y169.660 E0.02963
G1 X17.954 Y168.757 E0.02973
G1 X17.746 Y167.837 E0.02960
G1 X17.624 Y166.914 E0.02917
G1 X17.585 Y166.009 E0.02841
G1 X17.585 Y89.018 E2.41400
G1 X17.624 Y88.113 E0.02841
G1 X17.746 Y87.192 E0.02915
G1 X17.954 Y86.270 E0.02962
G1 X18.246 Y85.368 E0.02972
G1 X18.620 Y84.500 E0.02963
G1 X19.071 Y83.676 E0.02946
G1 X19.597 Y82.901 E0.02935
G1 X20.193 Y82.181 E0.02931
G1 X20.856 Y81.525 E0.02925
G1 X21.305 Y81.156 E0.01823
G1 X21.601 Y80.923 E0.01181
G1 X22.367 Y80.423 E0.02868
G1 X23.186 Y80.001 E0.02886
G1 X24.119 Y79.642 E0.03137
G1 X25.049 Y79.402 E0.03011
G1 X25.376 Y79.690 F10800.000
G1 F8640
G1 X25.711 Y79.294 E-0.15494
G1 X26.779 Y79.224 E-0.24707
G1 X28.329 Y79.224 E-0.35799
G1 E-0.04000 F2100.00000
G1 Z0.800 F10800.000
G1 X64.254 Y81.134
G1 Z0.200
G1 E0.80000 F2100.00000
G1 F1200
G1 X66.702 Y83.581 E0.10889
G1 F8640
G1 X64.374 Y81.254 E-0.76000
G1 E-0.04000 F2100.00000
G1 Z0.800 F10800.000
G1 X67.419 Y84.834
G1 Z0.200
G1 E0.80000 F2100.00000
G1 F1200
G1 X63.421 Y80.836 E0.17786
G1 X62.970 Y80.603 E0.01596
G1 X62.451 Y80.401 E0.01752
G1 X67.500 Y85.449 E0.22461
G1 X67.781 Y86.266 E0.02717
G1 X61.669 Y80.154 E0.27193
G1 X61.351 Y80.067 E0.01039
G1 X60.989 Y80.009 E0.01154
G1 X67.959 Y86.979 E0.31015
G1 X68.028 Y87.279 E0.00967
G1 X68.075 Y87.630 E0.01115
G1 X60.368 Y79.923 E0.34290
G1 X59.803 Y79.893 E0.01781
G1 X68.149 Y88.239 E0.37132
G1 X68.174 Y88.799 E0.01764
G1 X59.259 Y79.884 E0.39663
G1 X58.724 Y79.884 E0.01683
G1 X68.184 Y89.344 E0.42090
M73 Q0 S210
G1 X68.184 Y89.879 E0.01683
G1 X58.189 Y79.884 E0.44471
M73 P0 R205
G1 X57.654 Y79.884 E0.01683
G1 X68.184 Y90.414 E0.46852
G1 X68.184 Y90.950 E0.01683
G1 X57.119 Y79.884 E0.49232
G1 X56.584 Y79.884 E0.01683
G1 X68.184 Y91.485 E0.51613
G1 X68.184 Y92.020 E0.01683
G1 X56.048 Y79.884 E0.53994
G1 X55.513 Y79.884 E0.01683
G1 X68.184 Y92.555 E0.56374
G1 X68.184 Y93.090 E0.01683
G1 X54.978 Y79.884 E0.58755
G1 X54.443 Y79.884 E0.01683
G1 X68.184 Y93.625 E0.61136
G1 X68.184 Y94.160 E0.01683
G1 X53.908 Y79.884 E0.63516
G1 X53.373 Y79.884 E0.01683
G1 X68.184 Y94.695 E0.65897
G1 X68.184 Y95.230 E0.01683
G1 X52.838 Y79.884 E0.68278
G1 X52.303 Y79.884 E0.01683
G1 X68.184 Y95.765 E0.70658
G1 X68.184 Y96.300 E0.01683
G1 X51.768 Y79.884 E0.73039
G1 X51.233 Y79.884 E0.01683
G1 X68.184 Y96.835 E0.75420
G1 X68.184 Y97.370 E0.01683
G1 X50.698 Y79.884 E0.77800
G1 X50.163 Y79.884 E0.01683
G1 X68.184 Y97.906 E0.80181
G1 X68.184 Y98.441 E0.01683
G1 X49.627 Y79.884 E0.82562
G1 X49.092 Y79.884 E0.01683
G1 X68.184 Y98.976 E0.84942
G1 X68.184 Y99.511 E0.01683
G1 X48.557 Y79.884 E0.87323
G1 X48.022 Y79.884 E0.01683
G1 X68.184 Y100.046 E0.89704
G1 X68.184 Y100.581 E0.01683
G1 X47.487 Y79.884 E0.92084
G1 X46.952 Y79.884 E0.01683
G1 X68.184 Y101.116 E0.94465
G1 X68.184 Y101.651 E0.01683
G1 X46.417 Y79.884 E0.96846
G1 X45.882 Y79.884 E0.01683
G1 X68.184 Y102.186 E0.99226
G1 X68.184 Y102.721 E0.01683
G1 X45.347 Y79.884 E1.01607
G1 X44.812 Y79.884 E0.01683
G1 X68.184 Y103.256 E1.03988
G1 X68.184 Y103.791 E0.01683
G1 X44.277 Y79.884 E1.06368
G1 X43.742 Y79.884 E0.01683
G1 X68.184 Y104.326 E1.08749
G1 X68.184 Y104.862 E0.01683
G1 X43.206 Y79.884 E1.11130
G1 X42.671 Y79.884 E0.01683
G1 X68.184 Y105.397 E1.13510
G1 X68.184 Y105.932 E0.01683
G1 X42.136 Y79.884 E1.15891
G1 X41.601 Y79.884 E0.01683
G1 X68.184 Y106.467 E1.18272
G1 X68.184 Y107.002 E0.01683
G1 X41.066 Y79.884 E1.20652
G1 X40.531 Y79.884 E0.01683
G1 X68.184 Y107.537 E1.23033
G1 X68.184 Y108.072 E0.01683
G1 X39.996 Y79.884 E1.25414
G1 X39.461 Y79.884 E0.01683
G1 X68.184 Y108.607 E1.27794
G1 X68.184 Y109.142 E0.01683
G1 X38.926 Y79.884 E1.30175
G1 X38.391 Y79.884 E0.01683
G1 X68.184 Y109.677 E1.32556
G1 X68.184 Y110.212 E0.01683
G1 X37.856 Y79.884 E1.34937
G1 X37.321 Y79.884 E0.01683
G1 X68.184 Y110.747 E1.37317
G1 X68.184 Y111.282 E0.01683
G1 X36.786 Y79.884 E1.39698
M73 Q0 S209
M73 P1 R204
G1 X36.250 Y79.884 E0.01683
G1 X68.184 Y111.818 E1.42079
G1 X68.184 Y112.353 E0.01683
G1 X35.715 Y79.884 E1.44459
G1 X35.180 Y79.884 E0.01683
G1 X68.184 Y112.888 E1.46840
G1 X68.184 Y113.423 E0.01683
G1 X34.645 Y79.884 E1.49221
G1 X34.110 Y79.884 E0.01683
G1 X68.184 Y113.958 E1.51601
G1 X68.184 Y114.493 E0.01683
G1 X33.575 Y79.884 E1.53982
G1 X33.040 Y79.884 E0.01683
G1 X68.184 Y115.028 E1.56363
G1 X68.184 Y115.563 E0.01683
G1 X32.505 Y79.884 E1.58743
G1 X31.970 Y79.884 E0.01683
G1 X68.184 Y116.098 E1.61124
G1 X68.184 Y116.633 E0.01683
G1 X31.435 Y79.884 E1.63505
G1 X30.900 Y79.884 E0.01683
G1 X68.184 Y117.168 E1.65885
G1 X68.184 Y117.703 E0.01683
G1 X30.365 Y79.884 E1.68266
G1 X29.829 Y79.884 E0.01683
G1 X68.184 Y118.238 E1.70647
G1 X68.184 Y118.773 E0.01683
G1 X29.294 Y79.884 E1.73027
G1 X28.759 Y79.884 E0.01683
G1 X68.184 Y119.309 E1.75408
G1 X68.184 Y119.844 E0.01683
G1 X28.224 Y79.884 E1.77789
G1 X27.689 Y79.884 E0.01683
G1 X68.184 Y120.379 E1.80169
G1 X68.184 Y120.914 E0.01683
G1 X27.154 Y79.884 E1.82550
G1 X26.630 Y79.895 E0.01648
G1 X68.184 Y121.449 E1.84880
G1 X68.184 Y121.984 E0.01683
G1 X26.128 Y79.928 E1.87113
G1 X25.640 Y79.975 E0.01544
G1 X68.184 Y122.519 E1.89287
G1 X68.184 Y123.054 E0.01683
G1 X25.180 Y80.050 E1.91334
G1 X24.751 Y80.156 E0.01390
G1 X68.184 Y123.589 E1.93242
M73 Q1 S208
M73 P1 R203
G1 X68.184 Y124.124 E0.01683
G1 X24.329 Y80.269 E1.95120
G1 X23.942 Y80.417 E0.01303
G1 X68.184 Y124.659 E1.96841
G1 X68.184 Y125.194 E0.01683
G1 X23.556 Y80.566 E1.98559
G1 X23.194 Y80.740 E0.01262
G1 X68.184 Y125.729 E2.00168
G1 X68.184 Y126.265 E0.01683
G1 X22.841 Y80.922 E2.01739
G1 X22.505 Y81.121 E0.01228
G1 X68.184 Y126.800 E2.03232
G1 X68.184 Y127.335 E0.01683
G1 X22.182 Y81.332 E2.04673
G1 X21.867 Y81.553 E0.01208
G1 X68.184 Y127.870 E2.06071
G1 X68.184 Y128.405 E0.01683
G1 X21.571 Y81.791 E2.07391
G1 X21.279 Y82.035 E0.01195
G1 X68.184 Y128.940 E2.08690
G1 X68.184 Y129.475 E0.01683
G1 X21.010 Y82.301 E2.09886
G1 X20.741 Y82.567 E0.01190
G1 X68.184 Y130.010 E2.11082
G1 X68.184 Y130.545 E0.01683
G1 X20.493 Y82.854 E2.12187
G1 X20.250 Y83.146 E0.01196
G1 X68.184 Y131.080 E2.13266
G1 X68.184 Y131.615 E0.01683
G1 X20.021 Y83.452 E2.14288
G1 X19.804 Y83.771 E0.01212
G1 X68.184 Y132.150 E2.15250
G1 X68.184 Y132.685 E0.01683
G1 X19.594 Y84.095 E2.16186
G1 X19.405 Y84.441 E0.01240
G1 X68.184 Y133.221 E2.17028
G1 X68.184 Y133.756 E0.01683
G1 X19.215 Y84.787 E2.17870
M73 Q1 S207
M73 P2 R202
G1 X19.054 Y85.161 E0.01281
G1 X68.184 Y134.291 E2.18588
G1 X68.184 Y134.826 E0.01683
G1 X18.893 Y85.535 E2.19305
G1 X18.757 Y85.933 E0.01326
G1 X68.184 Y135.361 E2.19912
G1 X68.184 Y135.896 E0.01683
G1 X18.626 Y86.337 E2.20495
G1 X18.519 Y86.765 E0.01388
G1 X68.184 Y136.431 E2.20971
G1 X68.184 Y136.966 E0.01683
G1 X18.420 Y87.202 E2.21409
G1 X18.349 Y87.666 E0.01477
G1 X68.184 Y137.501 E2.21725
G1 X68.184 Y138.036 E0.01683
G1 X18.287 Y88.139 E2.22003
G1 X18.262 Y88.649 E0.01607
G1 X68.184 Y138.571 E2.22114
G1 X68.184 Y139.106 E0.01683
G1 X18.245 Y89.167 E2.22188
G1 X18.245 Y89.702 E0.01683
G1 X68.184 Y139.641 E2.22188
G1 X68.184 Y140.177 E0.01683
G1 X18.245 Y90.238 E2.22188
G1 X18.245 Y90.773 E0.01683
G1 X68.184 Y140.712 E2.22188
G1 X68.184 Y141.247 E0.01683
G1 X18.245 Y91.308 E2.22188
G1 X18.245 Y91.843 E0.01683
G1 X68.184 Y141.782 E2.22188
G1 X68.184 Y142.317 E0.01683
G1 X18.245 Y92.378 E2.22188
G1 X18.245 Y92.913 E0.01683
G1 X68.184 Y142.852 E2.22188
M73 Q2 S206
M73 P2 R201
G1 X68.184 Y143.387 E0.01683
G1 X18.245 Y93.448 E2.22188
G1 X18.245 Y93.983 E0.01683
G1 X68.184 Y143.922 E2.22188
G1 X68.184 Y144.457 E0.01683
G1 X18.245 Y94.518 E2.22188
G1 X18.245 Y95.053 E0.01683
G1 X68.184 Y144.992 E2.22188
G1 X68.184 Y145.527 E0.01683
G1 X18.245 Y95.588 E2.22188
G1 X18.245 Y96.123 E0.01683
G1 X68.184 Y146.062 E2.22188
G1 X68.184 Y146.597 E0.01683
G1 X18.245 Y96.658 E2.22188
G1 X18.245 Y97.193 E0.01683
G1 X68.184 Y147.133 E2.22188
G1 X68.184 Y147.668 E0.01683
G1 X18.245 Y97.729 E2.22188
G1 X18.245 Y98.264 E0.01683
G1 X68.184 Y148.203 E2.22188
G1 X68.184 Y148.738 E0.01683
G1 X18.245 Y98.799 E2.22188
G1 X18.245 Y99.334 E0.01683
G1 X68.184 Y149.273 E2.22188
G1 X68.184 Y149.808 E0.01683
G1 X18.245 Y99.869 E2.22188
G1 X18.245 Y100.404 E0.01683
G1 X68.184 Y150.343 E2.22188
G1 X68.184 Y150.878 E0.01683
G1 X18.245 Y100.939 E2.22188
G1 X18.245 Y101.474 E0.01683
G1 X68.184 Y151.413 E2.22188
G1 X68.184 Y151.948 E0.01683
G1 X18.245 Y102.009 E2.22188
M73 Q2 S205
M73 P3 R200
G1 X18.245 Y102.544 E0.01683
G1 X68.184 Y152.483 E2.22188
G1 X68.184 Y153.018 E0.01683
G1 X18.245 Y103.079 E2.22188
G1 X18.245 Y103.614 E0.01683
G1 X68.184 Y153.553 E2.22188
G1 X68.184 Y154.089 E0.01683
G1 X18.245 Y104.149 E2.22188
G1 X18.245 Y104.685 E0.01683
G1 X68.184 Y154.624 E2.22188
G1 X68.184 Y155.159 E0.01683
G1 X18.245 Y105.220 E2.22188
G1 X18.245 Y105.755 E0.01683
G1 X68.184 Y155.694 E2.22188
G1 X68.184 Y156.229 E0.01683
G1 X18.245 Y106.290 E2.22188
G1 X18.245 Y106.825 E0.01683
G1 X68.184 Y156.764 E2.22188
G1 X68.184 Y157.299 E0.01683
G1 X18.245 Y107.360 E2.22188
G1 X18.245 Y107.895 E0.01683
G1 X68.184 Y157.834 E2.22188
G1 X68.184 Y158.369 E0.01683
G1 X18.245 Y108.430 E2.22188
G1 X18.245 Y108.965 E0.01683
G1 X68.184 Y158.904 E2.22188
G1 X68.184 Y159.439 E0.01683
G1 X18.245 Y109.500 E2.22188
G1 X18.245 Y110.035 E0.01683
G1 X68.184 Y159.974 E2.22188
G1 X68.184 Y160.509 E0.01683
G1 X18.245 Y110.570 E2.22188
G1 X18.245 Y111.105 E0.01683
G1 X68.184 Y161.045 E2.22188
M73 Q3 S204
M73 P3 R199
G1 X68.184 Y161.580 E0.01683
G1 X18.245 Y111.641 E2.22188
G1 X18.245 Y112.176 E0.01683
G1 X68.184 Y162.115 E2.22188
G1 X68.184 Y162.650 E0.01683
G1 X18.245 Y112.711 E2.22188
G1 X18.245 Y113.246 E0.01683
